/* XPM */
static char *result[] = {
/* columns rows colors chars-per-pixel */
"128 128 81 1 ",
"  c #362B09",
". c #020E29",
"X c #423424",
"o c #736702",
"O c #574630",
"+ c #091C42",
"@ c #0D2857",
"# c #112B5B",
"$ c #13336B",
"% c #193873",
"& c #3E4E61",
"* c #234074",
"= c #515151",
"- c #6D5940",
"; c #715B42",
": c #7A6346",
"> c #676767",
", c #99760F",
"< c #8D7456",
"1 c #9A8907",
"2 c #A9980A",
"3 c #C49A00",
"4 c #D49700",
"5 c #C8A300",
"6 c #D3AD07",
"7 c #D8B212",
"8 c #CAB82A",
"9 c #D8C311",
"0 c #E2CB00",
"q c #FFC406",
"w c #E2CD1A",
"e c #D7C63C",
"r c #E0CC28",
"t c #E2D030",
"y c #B6946C",
"u c #C6A377",
"i c #D2AD7E",
"p c #D9C955",
"a c #E1D14E",
"s c #E2D351",
"d c #E0D66D",
"f c #110696",
"g c #1A3C82",
"h c #1A4283",
"j c #677E9B",
"k c #1104C3",
"l c #1606E2",
"z c #2617E9",
"x c #2615FE",
"c c #392CF1",
"v c #4331FF",
"b c #3E6FFE",
"n c #5245FF",
"m c #6A5DFF",
"M c #507EE7",
"N c #7772FF",
"B c #5B8BFF",
"V c #6E94FF",
"C c #7F9EFF",
"Z c #73C4EF",
"A c #DAB383",
"S c #F2B586",
"D c #EBC18D",
"F c #FDD19B",
"G c #DFD1A5",
"H c #D7D4B2",
"J c #E8C2A0",
"K c #F4CDA0",
"L c #FFC5BF",
"P c #EAD4BA",
"I c #FFDAB0",
"U c #FCDBB9",
"Y c #94AFFD",
"T c #86CBEF",
"R c #96D1EF",
"E c #B1D7ED",
"W c #B0FFFF",
"Q c #FFE6D2",
"! c #C9D9E9",
"~ c #FFDFEF",
"^ c #D9F6FC",
/* pixels */
"IIIIIIIIJJJIIJJJIIIHHHHHIIIHH~~~LLLJJLLLIIIIIIIIIIIJJIIIJJJIIHHHHHHIIHHH~~~LLJJJLLLIIIIIIIIIIJJJIIIJJIIIHHHHHIIIHHH~~LLLJJJLLIII",
"IIIIIIIIJJJIIJJJIIIHHHHHIIIHH~~~LLLJJLLLIIIIIIIIIIIJJIIIJJJIIHHHHHHIIHHH~~~LLJJJLLLIIIIIIIIIIJJJIIIJJIIIHHHHHIIIHHH~~LLLJJJLLIII",
"IIIIIIIIJJJIIJJJIIIHHHHHIIIHH~~~LLLJJLLLIIIIIIIIIIIJJIIIJJJIIHHHHHHIIHHH~~~LLJJJLLLIIIIIIIIIIJJJIIIJJIIIHHHHHIIIHHH~~LLLJJJLLIII",
"IIIIISSSJJJSSIII~~~LLJJJJJJIIHHHLLLIIJJJIIIIIIIISSSJJSSSIII~~LLLJJJJJIIIHHHLLIIIJJJIIIIIIIISSJJJSSSII~~~LLLJJJJJIIIHHLLLIIIJJIII",
"IIIIISSSJJJSSIII~~~LLJJJJJJIIHHHLLLIIJJJIIIIIIIISSSJJSSSIII~~LLLJJJJJIIIHHHLLIIIJJJIIIIIIIISSJJJSSSII~~~LLLJJJJJIIIHHLLLIIIJJIII",
"LLLSSJJJJJJIIIIIIIIJJIIILLLJJIIIJJJIIIIILLLLLSSSJJJJJIIIIIIIIJJJIIILLJJJIIIJJIIIIIILLLLLSSSJJJJJIIIIIIIIJJJIILLLJJJIIJJJIIIIILLL",
"LLLSSJJJJJJIIIIIIIIJJIIILLLJJIIIJJJIIIIILLLLLSSSJJJJJIIIIIIIIJJJIIILLJJJIIIJJIIIIIILLLLLSSSJJJJJIIIIIIIIJJJIILLLJJJIIJJJIIIIILLL",
"LLLSSJJJJJJIIIIIIIIJJIIILLLJJIIIJJJIIIIILLLLLSSSJJJJJIIIIIIIIJJJIIILLJJJIIIJJIIIIIILLLLLSSSJJJJJIIIIIIIIJJJIILLLJJJIIJJJIIIIILLL",
"JJJJJIIIIIIJJJJJSSSIIIIILLLHHSSSSSSLLSSSJJJJJJJJIIIIIJJJJJJSSIIIIIILLHHHSSSSSLLLSSSJJJJJJJJIIIIIJJJJJSSSIIIIILLLHHHSSSSSLLLSSJJJ",
"JJJJJIIIIIIJJJJJSSSIIIIILLLHHSSSSSSLLSSSJJJJJJJJIIIIIJJJJJJSSIIIIIILLHHHSSSSSLLLSSSJJJJJJJJIIIIIJJJJJSSSIIIIILLLHHHSSSSSLLLSSJJJ",
"JJJJJIIIIIIJJJJJSSSIIIIILLLHHSSSSSSLLSSSJJJJJJJJIIIIIJJJJJJSSIIIIIILLHHHSSSSSLLLSSSJJJJJJJJIIIIIJJJJJSSSIIIIILLLHHHSSSSSLLLSSJJJ",
"LLLIIJJJIIIIILLLHHHIIHHHIIIJJLLLIIIHHIIIHHHLLIIIJJJIIIIILLLHHIIIHHHIIJJJLLLIIHHHIIIHHLLLIIIJJIIIIIILLHHHIIIHHIIIJJJLLIIIHHHIIHHH",
"LLLIIJJJIIIIILLLHHHIIHHHIIIJJLLLIIIHHIIIHHHLLIIIJJJIIIIILLLHHIIIHHHIIJJJLLLIIHHHIIIHHLLLIIIJJIIIIIILLHHHIIIHHIIIJJJLLIIIHHHIIHHH",
"JJJIIIII~~~IILLLJJJLL~~~IIIIILLLHHHIIHHHIIIJJIIIIII~~IIILLLJJLLL~~~IIIIILLLHHIIIHHHIIJJJIIIII~~~IIILLJJJLLL~~IIIIIILLHHHIIIHHIII",
"JJJIIIII~~~IILLLJJJLL~~~IIIIILLLHHHIIHHHIIIJJIIIIII~~IIILLLJJLLL~~~IIIIILLLHHIIIHHHIIJJJIIIII~~~IIILLJJJLLL~~IIIIIILLHHHIIIHHIII",
"JJJIIIII~~~IILLLJJJLL~~~IIIIILLLHHHIIHHHIIIJJIIIIII~~IIILLLJJLLL~~~IIIIILLLHHIIIHHHIIJJJIIIII~~~IIILLJJJLLL~~IIIIIILLHHHIIIHHIII",
"IIISSLLLIIIJJJJJSSSIILLLLLLIIIIIJJJIIJJJLLLIISSSLLLIIJJJJJJSSIIILLLLLIIIIIIJJIIIJJJLLIIISSSLLIIIJJJJJSSSIIILLLLLIIIIIJJJIIIJJLLL",
"IIISSLLLIIIJJJJJSSSIILLLLLLIIIIIJJJIIJJJLLLIISSSLLLIIJJJJJJSSIIILLLLLIIIIIIJJIIIJJJLLIIISSSLLIIIJJJJJSSSIIILLLLLIIIIIJJJIIIJJLLL",
"IIISSLLLIIIJJJJJSSSIILLLLLLIIIIIJJJIIJJJLLLIISSSLLLIIJJJJJJSSIIILLLLLIIIIIIJJIIIJJJLLIIISSSLLIIIJJJJJSSSIIILLLLLIIIIIJJJIIIJJLLL",
"JJJHHSSSJJJIISSSLLLLLIIIIIISSHHHJJJJJSSSIIIJJHHHSSSJJIIISSSLLLLLIIIIISSSHHHJJJJJSSSIIJJJHHHSSJJJIIISSLLLLLLIIIIISSSHHJJJJJJSSIII",
"JJJHHSSSJJJIISSSLLLLLIIIIIISSHHHJJJJJSSSIIIJJHHHSSSJJIIISSSLLLLLIIIIISSSHHHJJJJJSSSIIJJJHHHSSJJJIIISSLLLLLLIIIIISSSHHJJJJJJSSIII",
"IIIIILLLLLLSSJJJIIIII~~~IIIIIJJJSSSIIIIIIIIIIIIILLLLLSSSJJJIIIII~~~IIIIIJJJSSIIIIIIIIIIIIIILLLLLSSSJJIIIIII~~IIIIIIJJSSSIIIIIIII",
"IIIIILLLLLLSSJJJIIIII~~~IIIIIJJJSSSIIIIIIIIIIIIILLLLLSSSJJJIIIII~~~IIIIIJJJSSIIIIIIIIIIIIIILLLLLSSSJJIIIIII~~IIIIIIJJSSSIIIIIIII",
"IIIIILLLLLLSSJJJIIIII~~~IIIIIJJJSSSIIIIIIIIIIIIILLLLLSSSJJJIIIII~~~IIIIIJJJSSIIIIIIIIIIIIIILLLLLSSSJJIIIIII~~IIIIIIJJSSSIIIIIIII",
"GGGIIJJJSSSSSIIIIIIIIIIIJJJLLSSSIII~~GGGIIIGGIIIJJJSSSSSIIIIIIIIIIIJJLLLSSSII~~~GGGIIGGGIIIJJSSSSSSIIIIIIIIIIJJJLLLSSIII~~~GGIII",
"GGGIIJJJSSSSSIIIIIIIIIIIJJJLLSSSIII~~GGGIIIGGIIIJJJSSSSSIIIIIIIIIIIJJLLLSSSII~~~GGGIIGGGIIIJJSSSSSSIIIIIIIIIIJJJLLLSSIII~~~GGIII",
"GGGIIJJJSSSSSIIIIIIIIIIIJJJLLSSSIII~~GGGIIIGGIIIJJJSSSSSIIIIIIIIIIIJJLLLSSSII~~~GGGIIGGGIIIJJSSSSSSIIIIIIIIIIJJJLLLSSIII~~~GGIII",
"IIIJJLLLLLLIILLLSSSIIIIISSSSSJJJIIIGGIIIGGGIIJJJLLLLLIIILLLSSIIIIIISSSSSJJJIIGGGIIIGGIIIJJJLLLLLIIILLSSSIIIIISSSSSSJJIIIGGGIIGGG",
"IIIJJLLLLLLIILLLSSSIIIIISSSSSJJJIIIGGIIIGGGIIJJJLLLLLIIILLLSSIIIIIISSSSSJJJIIGGGIIIGGIIIJJJLLLLLIIILLSSSIIIIISSSSSSJJIIIGGGIIGGG",
"JJJSSIIIIIIJJHHHJJJSSIIILLLLLLLLHHHIIGGGIIIJJSSSIIIIIJJJHHHJJSSSIIILLLLLLLLHHIIIGGGIIJJJSSSIIIIIJJJHHJJJSSSIILLLLLLLLHHHIIIGGIII",
"JJJSSIIIIIIJJHHHJJJSSIIILLLLLLLLHHHIIGGGIIIJJSSSIIIIIJJJHHHJJSSSIIILLLLLLLLHHIIIGGGIIJJJSSSIIIIIJJJHHJJJSSSIILLLLLLLLHHHIIIGGIII",
"JJJSSIIIIIIJJHHHJJJSSIIILLLLLLLLHHHIIGGGIIIJJSSSIIIIIJJJHHHJJSSSIIILLLLLLLLHHIIIGGGIIJJJSSSIIIIIJJJHHJJJSSSIILLLLLLLLHHHIIIGGIII",
"SSSLLIIIIIIIIGGGIIIIIJJJLLLIIIIISSSLLJJJJJJSSLLLIIIIIIIIGGGIIIIIJJJLLIIIIIISSLLLJJJJJSSSLLLIIIIIIIIGGIIIIIIJJLLLIIIIISSSLLLJJJJJ",
"SSSLLIIIIIIIIGGGIIIIIJJJLLLIIIIISSSLLJJJJJJSSLLLIIIIIIIIGGGIIIIIJJJLLIIIIIISSLLLJJJJJSSSLLLIIIIIIIIGGIIIIIIJJLLLIIIIISSSLLLJJJJJ",
"SSSLLIIIIIIIIGGGIIIIIJJJLLLIIIIISSSLLJJJJJJSSLLLIIIIIIIIGGGIIIIIJJJLLIIIIIISSLLLJJJJJSSSLLLIIIIIIIIGGIIIIIIJJLLLIIIIISSSLLLJJJJJ",
"LLLIIIII~~~GGIIIGGGHHLLLIIILLLLLIIIIIHHHJJJLLIIIIII~~GGGIIIGGHHHLLLIILLLLLLIIIIIHHHJJLLLIIIII~~~GGGIIGGGHHHLLIIILLLLLIIIIIIHHJJJ",
"LLLIIIII~~~GGIIIGGGHHLLLIIILLLLLIIIIIHHHJJJLLIIIIII~~GGGIIIGGHHHLLLIILLLLLLIIIIIHHHJJLLLIIIII~~~GGGIIGGGHHHLLIIILLLLLIIIIIIHHJJJ",
"JJJJJGGGIIIIIGGGHHHJJIIIJJJSSHHHIII~~IIISSSJJJJJGGGIIIIIGGGHHJJJIIIJJSSSHHHII~~~IIISSJJJJJJGGIIIIIIGGHHHJJJIIJJJSSSHHIII~~~IISSS",
"JJJJJGGGIIIIIGGGHHHJJIIIJJJSSHHHIII~~IIISSSJJJJJGGGIIIIIGGGHHJJJIIIJJSSSHHHII~~~IIISSJJJJJJGGIIIIIIGGHHHJJJIIJJJSSSHHIII~~~IISSS",
"JJJJJGGGIIIIIGGGHHHJJIIIJJJSSHHHIII~~IIISSSJJJJJGGGIIIIIGGGHHJJJIIIJJSSSHHHII~~~IIISSJJJJJJGGIIIIIIGGHHHJJJIIJJJSSSHHIII~~~IISSS",
"IIIIISSSJJJLLHHHJJJIILLLHHHIIIIIIIIIIIIILLLIIIIISSSJJLLLHHHJJIIILLLHHIIIIIIIIIIIIIILLIIIIIISSJJJLLLHHJJJIIILLHHHIIIIIIIIIIIIILLL",
"IIIIISSSJJJLLHHHJJJIILLLHHHIIIIIIIIIIIIILLLIIIIISSSJJLLLHHHJJIIILLLHHIIIIIIIIIIIIIILLIIIIIISSJJJLLLHHJJJIIILLHHHIIIIIIIIIIIIILLL",
"IIIIISSSJJJLLHHHJJJIILLLHHHIIIIIIIIIIIIILLLIIIIISSSJJLLLHHHJJIIILLLHHIIIIIIIIIIIIIILLIIIIIISSJJJLLLHHJJJIIILLHHHIIIIIIIIIIIIILLL",
"IIIIIIIIJJJIIJJJIIIHHHHHIIIHH~~~LLLJJLLLIIIIIIIIIIIJJIIIJJJIIHHHHHHIIHHH~~~LLJJJLLLIIIIIIIIIIJJJIIIJJIIIHHHHHIIIHHH~~LLLJJJLLIII",
"IIIIIIIIJJJIIJJJIIIHHHHHIIIHH~~~LLLJJLLLIIIIIIIIIIIJJIIIJJJIIHHHHHHIIHHH~~~LLJJJLLLIIIIIIIIIIJJJIIIJJIIIHHHHHIIIHHH~~LLLJJJLLIII",
"IIIIISSSJJJSSIII~~~LLJJJJJJIIHHHLLLIIJJJIIIIIIIISSSJJSSSIII~~LLLJJJJJIIIHHHLLIIIJJJIIIIIIIISSJJJSSSII~~~LLLJJJJJIIIHHLLLIIIJJIII",
"IIIIISSSJJJSSIII~~~LLJJJJJJIIHHHLLLIIJJJIIIIIIIISSSJJSSSIII~~LLLJJJJJIIIHHHLLIIIJJJIIIIIIIISSJJJSSSII~~~LLLJJJJJIIIHHLLLIIIJJIII",
"IIIIISSSJJJSSIII~~~LLJJJJJJIIHHHLLLIIJJJIIIIIIIISSSJJSSSIII~~LLLJJJJJIIIHHHLLIIIJJJIIIIIIIISSJJJSSSII~~~LLLJJJJJIIIHHLLLIIIJJIII",
"LLLSSJJJJJJIIIIIIIIJJIIILLLJJIIIJJJIIIIILLLLLSSSJJJJJIIIIIIIIJJJIIILLJJJIIIJJIIIIIILLLLLSSSJJJJJIIIIIIIIJJJIILLLJJJIIJJJIIIIILLL",
"LLLSSJJJJJJIIIIIIIIJJIIILLLJJIIIJJJIIIIILLLLLSSSJJJJJIIIII111111111111JJIIIJJIIIIIILLLLLSSSJJJJJIIIIIIIIJJJIILLLJJJIIJJJIIIIILLL",
"LLLSSJJJJJJIIIIIIIIJJIIILLLJJIIIJJJIIIIILLLLLSSSJJJJJIIIII111111111111JJIIIJJIIIIIILLLLLSSSJJJJJIIIIIIIIJJJIILLLJJJIIJJJIIIIILLL",
"JJJJJIIIIIIJJJJJSSSIIIIILLLHHSSSSSSLLSSSJJJJJJJJIIIIIJJJJJ111111111111HHSSSSSLLLSSSJJJJJJJJIIIIIJJJJJSSSIIIIILLLHHHSSSSSLLLSSJJJ",
"JJJJJIIIIIIJJJJJSSSIIIIILLLHHSSSSSSLLSSSJJJJJJJJIIII111333eeeeeeeeeeee555222SLLLSSSJJJJJJJJIIIIIJJJJJSSSIIIIILLLHHHSSSSSLLLSSJJJ",
"LLLIIJJJIIIIILLLHHHIIHHHIIIJJLLLIIIHHIIIHHHLLIIIJJJI111333eeeeeeeeeeee555222IHHHIIIHHLLLIIIJJIIIIIILLHHHIIIHHIIIJJJLLIIIHHHIIHHH",
"LLLIIJJJIIIIILLLHHHIIHHHIIIJJLLLIIIHHIIIHHHLLIIIJJJI111333eeeeeeeeeeee555222IHHHIIIHHLLLIIIJJIIIIIILLHHHIIIHHIIIJJJLLIIIHHHIIHHH",
"LLLIIJJJIIIIILLLHHHIIHHHIIIJJLLLIIIHHIIIHHHLLIIIJ111999wwwdddsssaaadddwww999111HIIIHHLLLIIIJJIIIIIILLHHHIIIHHIIIJJJLLIIIHHHIIHHH",
"JJJIIIII~~~IILLLJJJLL~~~IIIIILLLHHHIIHHHIIIJJIIII111999wwwdddsssaaadddwww999111IHHHIIJJJIIIII~~~IIILLJJJLLL~~IIIIIILLHHHIIIHHIII",
"JJJIIIII~~~IILLLJJJLL~~~IIIIILLLHHHIIHHHIIIJJIIII111999wwwdddsssaaadddwww999111IHHHIIJJJIIIII~~~IIILLJJJLLL~~IIIIIILLHHHIIIHHIII",
"JJJIIIII~~~IILLLJJJLL~~~IIIIILLLHHHIIHHHIIIJJIIII333eeedddsssdddssseeedddeee333IHHHIIJJJIIIII~~~IIILLJJJLLL~~IIIIIILLHHHIIIHHIII",
"IIISSLLLIIIJJJJJSSSIILLLLLLIIIIIJJJIIJJJLLLIISSSL333eeedddsssdddssseeedddeee333IJJJLLIIISSSLLIIIJJJJJSSSIIILLLLLIIIIIJJJIIIJJLLL",
"IIISSLLLIIIJJJJJSSSIILLLLLLIIIIIJJJIIJJJLLLIISSSL333eeedddsssdddssseeedddeee333IJJJLLIIISSSLLIIIJJJJJSSSIIILLLLLIIIIIJJJIIIJJLLL",
"JJJHHSSSJJJIISSSLLLLLIIIIIISSHHHJJJJJSSSIIIJJH222eeeddd888sssdddeee555999ddd000111SIIJJJHHHSSJJJIIISSLLLLLLIIIIISSSHHJJJJJJSSIII",
"JJJHHSSSJJJIISSSLLLLLIIIIIISSHHHJJJJJSSSIIIJJH222eeeddd888sssdddeee555999ddd000111SIIJJJHHHSSJJJIIISSLLLLLLIIIIISSSHHJJJJJJSSIII",
"JJJHHSSSJJJIISSSLLLLLIIIIIISSHHHJJJJJSSSIIIJJH222eeeddd888sssdddeee555999ddd000111SIIJJJHHHSSJJJIIISSLLLLLLIIIIISSSHHJJJJJJSSIII",
"IIIIILLLLLLSSJJJIIIII~~~IIIIIJJJSSSIIIIIIIIIII111tttppprrrdddeee555AAA555pppttt222IIIIIIIIILLLLLSSSJJIIIIII~~IIIIIIJJSSSIIIIIIII",
"IIIIILLLLLLSSJJJIIIII~~~IIIIIJJJSSSIIIIIIIIIII111tttppprrrdddeee555AAA555pppttt222IIIIIIIIILLLLLSSSJJIIIIII~~IIIIIIJJSSSIIIIIIII",
"IIIIILLLLLLSSJJJIIIII~~~IIIIIJJJSSSIIIIIIIIIII111tttppprrrdddeee555AAA555pppttt222IIIIIIIIILLLLLSSSJJIIIIII~~IIIIIIJJSSSIIIIIIII",
"GGGIIJJJSSSSSIIIIIIIIIIIJJJLLSSSIII~~GGGIII222999ttt666pppddd555DDD   XXX555ttt333GIIGGGIIIJJSSSSSSIIIIIIIIIIJJJLLLSSIII~~~GGIII",
"GGGIIJJJSSSSSIIIIIIIIIIIJJJLLSSSIII~~GGGIII222999ttt666pppddd555DDD   XXX555ttt333GIIGGGIIIJJSSSSSSIIIIIIIIIIJJJLLLSSIII~~~GGIII",
"IIIJJLLLLLLIILLLSSSIIIIISSSSSJJJIIIGGIIIGGG222999ttt666pppddd555DDD   XXX555ttt333IGGIIIJJJLLLLLIIILLSSSIIIIISSSSSSJJIIIGGGIIGGG",
"IIIJJLLLLLLIILLLSSSIIIIISSSSSJJJIIIGGIIIGGGIIJ111555aaa888555KKKPPP&&&WWWoooeee999111IIIJJJLLLLLIIILLSSSIIIIISSSSSSJJIIIGGGIIGGG",
"IIIJJLLLLLLIILLLSSSIIIIISSSSSJJJIIIGGIIIGGGIIJ111555aaa888555KKKPPP&&&WWWoooeee999111IIIJJJLLLLLIIILLSSSIIIIISSSSSSJJIIIGGGIIGGG",
"JJJSSIIIIIIJJHHHJJJSSIIILLLLLLLLHHHIIGGGIIIJJS111555aaa888555KKKPPP&&&WWWoooeee999111JJJSSSIIIIIJJJHHJJJSSSIILLLLLLLLHHHIIIGGIII",
"JJJSSIIIIIIJJHHHJJJSSIIILLLLLLLLHHHIIEEEIII###777eee777222jjjQQQQQQjjj^^^555www999GIIJJJEEEIIIIIJJJHHJJJSSSIILLLLLLLLHHHIIIGGIII",
"JJJSSIIIIIIJJHHHJJJSSIIILLLLLLLLHHHIIEEEIII###777eee777222jjjQQQQQQjjj^^^555www999GIIJJJEEEIIIIIJJJHHJJJSSSIILLLLLLLLHHHIIIGGIII",
"SSSLLIIIIIIIIGGGIIIIIJJJLLLIIIIISSSLLEEEJJJ###777eee777222jjjQQQQQQjjj^^^555www999JJJSSSEEEIIIIIIIIGGIIIIIIJJLLLIIIIISSSLLLJJJJJ",
"SSSLLIIIIIIIIGGGIIIIIJJJLLLIIIIISSSLLJJJ!!!ggg###555222iiiDDDUUUUUUDDDAAA555999111JJJ!!!LLLIIIIIIIIGGIIIIIIJJLLLIIIIISSSLLLJJJJJ",
"LLLIIIII~~~GGIIIGGGHHLLLIIILLLLLIIIIIHHH!!!ggg###555222iiiDDDUUUUUUDDDAAA555999111HJJ!!!IIIII~~~GGGIIGGGHHHLLIIILLLLLIIIIIIHHJJJ",
"LLLIIIII~~~GGIIIGGGHHLLLIIILLLLLIIIIIHHH!!!ggg###555222iiiDDDUUUUUUDDDAAA555999111HJJ!!!IIIII~~~GGGIIGGGHHHLLIIILLLLLIIIIIIHHJJJ",
"LLLIIIII~~~GGIIIGGGHHLLLIIILLLLLIIIIIHHHEEE!!!%%%222999:::iiiDDDDDDiii:::999333IHH!!!EEEIIIII~~~GGGIIGGGHHHLLIIILLLLLIIIIIIHHJJJ",
"JJJJJGGGIIIIIGGGHHHJJIIIJJJSSHHHIII~~IIIEEE!!!%%%222999:::iiiDDDDDDiii:::999333~II!!!EEEJJJGGIIIIIIGGHHHJJJIIJJJSSSHHIII~~~IISSS",
"JJJJJGGGIIIIIGGGHHHJJIIIJJJSSHHHIII~~IIIEEE!!!%%%222999:::iiiDDDDDDiii:::999333~II!!!EEEJJJGGIIIIIIGGHHHJJJIIJJJSSSHHIII~~~IISSS",
"JJJJJGGGIIIIIGGGHHHJJIIIJJJSSHHHIII~~ZZZRRR!!!!!!111999555XXXyyyuuuXXX999333I~~!!!EEERRRZZZGGIIIIIIGGHHHJJJIIJJJSSSHHIII~~~IISSS",
"IIIIISSSJJJLLHHHJJJIILLLHHHIIIIIIIIIIZZZRRR!!!!!!111999555XXXyyyuuuXXX999333III!!!EEERRRZZZSSJJJLLLHHJJJIIILLHHHIIIIIIIIIIIIILLL",
"IIIIISSSJJJLLHHHJJJIILLLHHHIIIIIIIIIIZZZRRR!!!!!!111999555XXXyyyuuuXXX999333III!!!EEERRRZZZSSJJJLLLHHJJJIIILLHHHIIIIIIIIIIIIILLL",
"IIIIIIIIJJJIIJJJIIIHHHHHIIIHH~~~LLLJJLLLIIIEEEEEE!!!333999iiiDDDDDDAAA555mmm!!!EEEEEEIIIIIIIIJJJIIIJJIIIHHHHHIIIHHH~~LLLJJJLLIII",
"IIIIIIIIJJJIIJJJIIIHHHHHIIIHH~~~LLLJJLLLIIIEEEEEE!!!333999iiiDDDDDDAAA555mmm!!!EEEEEEIIIIIIIIJJJIIIJJIIIHHHHHIIIHHH~~LLLJJJLLIII",
"IIIIIIIIJJJIIJJJIIIHHHHHIIIHH~~~LLLJJLLLIIIEEEEEE!!!333999iiiDDDDDDAAA555mmm!!!EEEEEEIIIIIIIIJJJIIIJJIIIHHHHHIIIHHH~~LLLJJJLLIII",
"IIIIISSSJJJSSIII~~~LLJJJJJJIIHHHLLLIIJJJZZZTTTEEEmmm111999***AAADDD***999vvvmmmEEETTTZZZIIISSJJJSSSII~~~LLLJJJJJIIIHHLLLIIIJJIII",
"IIIIISSSJJJSSIII~~~LLJJJJJJIIHHHLLLIIJJJZZZTTTEEEmmm111999***AAADDD***999vvvmmmEEETTTZZZIIISSJJJSSSII~~~LLLJJJJJIIIHHLLLIIIJJIII",
"IIIIISSSJJJSSIII~~~LLJJJJJJIIHHHLLLIIJJJZZZTTTEEEmmm111999***AAADDD***999vvvmmmEEETTTZZZIIISSJJJSSSII~~~LLLJJJJJIIIHHLLLIIIJJIII",
"LLLSSJJJJJJIIIIIIIIJJIIILLLJJIIIJJJIIIIILLLLLSmmmnnnxxx333NNN******NNNnnn999nnnmmmILLLLLSSSJJJJJIIIIIIIIJJJIILLLJJJIIJJJIIIIILLL",
"LLLSSJJJJJJIIIIIIIIJJIIILLLJJIIIJJJIIIIILLLLLSmmmnnnxxx333NNN******NNNnnn999nnnmmmILLLLLSSSJJJJJIIIIIIIIJJJIILLLJJJIIJJJIIIIILLL",
"JJJJJIIIIIIJJJJJSSSIIIIILLLHHSSSSSSLLSSSJJJJJJmmmnnnxxx333NNN******NNNnnn999nnnmmmSJJJJJJJJIIIIIJJJJJSSSIIIIILLLHHHSSSSSLLLSSJJJ",
"JJJJJIIIIIIJJJJJSSSIIIIILLLHHSSSSSSLLSSSJJJ<<<nnnvvv...xxxnnn###$$$nnn222...vvvnnn<<<JJJJJJIIIIIJJJJJSSSIIIIILLLHHHSSSSSLLLSSJJJ",
"JJJJJIIIIIIJJJJJSSSIIIIILLLHHSSSSSSLLSSSJJJ<<<nnnvvv...xxxnnn###$$$nnn222...vvvnnn<<<JJJJJJIIIIIJJJJJSSSIIIIILLLHHHSSSSSLLLSSJJJ",
"LLLIIJJJIIIIILLLHHHIIHHHIIIJJLLLIIIHHIIIHHH<<<nnnvvv...xxxnnn###$$$nnn222...vvvnnn<<<LLLIIIJJIIIIIILLHHHIIIHHIIIJJJLLIIIHHHIIHHH",
"LLLIIJJJIIIIILLLHHHIIHHHIIIJJLLLIIIHHIII<<<FFFuuuOOOIII+++@@@cccccc###+++LLIxxxuuuFFF<<<IIIJJIIIIIILLHHHIIIHHIIIJJJLLIIIHHHIIHHH",
"LLLIIJJJIIIIILLLHHHIIHHHIIIJJLLLIIIHHIII<<<FFFuuuOOOIII+++@@@cccccc###+++LLIxxxuuuFFF<<<IIIJJIIIIIILLHHHIIIHHIIIJJJLLIIIHHHIIHHH",
"JJJIIIII~~~IILLLJJJLL~~~IIIIILLLHHHIIHHH<<<FFFuuuOOO~II+++@@@cccccc###+++LLHxxxuuuFFF<<<IIIII~~~IIILLJJJLLL~~IIIIIILLHHHIIIHHIII",
"JJJIIIII~~~IILLLJJJLL~~~IIIIILLLHHHIIHHHIII---OOOII~~IIkkkccc444qqqccckkkLLHHIIOOO;;;JJJIIIII~~~IIILLJJJLLL~~IIIIIILLHHHIIIHHIII",
"IIISSLLLIIIJJJJJSSSIILLLLLLIIIIIJJJIIJJJLLL---OOOLLIIJJkkkccc444qqqccckkkIIJJIIOOO;;;IIISSSLLIIIJJJJJSSSIIILLLLLIIIIIJJJIIIJJLLL",
"IIISSLLLIIIJJJJJSSSIILLLLLLIIIIIJJJIIJJJLLL---OOOLLIIJJkkkccc444qqqccckkkIIJJIIOOO;;;IIISSSLLIIIJJJJJSSSIIILLLLLIIIIIJJJIIIJJLLL",
"IIISSLLLIIIJJJJJSSSIILLLLLLIIIIIJJJIIJJJLLLIISSSLLLIfffvvvvvv,,,444vvvcccfffJIIIJJJLLIIISSSLLIIIJJJJJSSSIIILLLLLIIIIIJJJIIIJJLLL",
"JJJHHSSSJJJIISSSLLLLLIIIIIISSHHHJJJJJSSSIIIJJHHHSSSJfffvvvvvv,,,444vvvcccfffJJJJSSSIIJJJHHHSSJJJIIISSLLLLLLIIIIISSSHHJJJJJJSSIII",
"JJJHHSSSJJJIISSSLLLLLIIIIIISSHHHJJJJJSSSIIIJJHHHSSSJfffvvvvvv,,,444vvvcccfffJJJJSSSIIJJJHHHSSJJJIIISSLLLLLLIIIIISSSHHJJJJJJSSIII",
"JJJHHSSSJJJIISSSLLLLLIIIIIISSHHHJJJJJSSSIIIJJHHHSSSJlllvvv$$$bbbbbb$$$vvvlll>>>JSSSIIJJJHHHSSJJJIIISSLLLLLLIIIIISSSHHJJJJJJSSIII",
"IIIIILLLLLLSSJJJIIIII~~~IIIIIJJJSSSIIIIIIIIIIIIILLLLlllvvv$$$bbbbbb$$$vvvlll>>>IIIIIIIIIIIILLLLLSSSJJIIIIII~~IIIIIIJJSSSIIIIIIII",
"IIIIILLLLLLSSJJJIIIII~~~IIIIIJJJSSSIIIIIIIIIIIIILLLLlllvvv$$$bbbbbb$$$vvvlll>>>IIIIIIIIIIIILLLLLSSSJJIIIIII~~IIIIIIJJSSSIIIIIIII",
"GGGIIJJJSSSSSIIIIIIIIIIIJJJLLSSSIII~~GGGIIIGGIIIJxxxvvvnnnhhhBBBBBBhhhnnnvvvzzz>>>GIIGGGIIIJJSSSSSSIIIIIIIIIIJJJLLLSSIII~~~GGIII",
"GGGIIJJJSSSSSIIIIIIIIIIIJJJLLSSSIII~~GGGIIIGGIIIJxxxvvvnnnhhhBBBBBBhhhnnnvvvzzz>>>GIIGGGIIIJJSSSSSSIIIIIIIIIIJJJLLLSSIII~~~GGIII",
"GGGIIJJJSSSSSIIIIIIIIIIIJJJLLSSSIII~~GGGIIIGGIIIJxxxvvvnnnhhhBBBBBBhhhnnnvvvzzz>>>GIIGGGIIIJJSSSSSSIIIIIIIIIIJJJLLLSSIII~~~GGIII",
"IIIJJLLLLLLIILLLSSSIIIIISSSSSJJJIIIGGIIIGGGIIJzzzvvvnnnhhhbbbCCCCCCbbbhhhnnnvvvzzz>>>IIIJJJLLLLLIIILLSSSIIIIISSSSSSJJIIIGGGIIGGG",
"IIIJJLLLLLLIILLLSSSIIIIISSSSSJJJIIIGGIIIGGGIIJzzzvvvnnnhhhbbbCCCCCCbbbhhhnnnvvvzzz>>>IIIJJJLLLLLIIILLSSSIIIIISSSSSSJJIIIGGGIIGGG",
"IIIJJLLLLLLIILLLSSSIIIIISSSSSJJJIIIGGIIIGGGIIJzzzvvvnnnhhhbbbCCCCCCbbbhhhnnnvvvzzz>>>IIIJJJLLLLLIIILLSSSIIIIISSSSSSJJIIIGGGIIGGG",
"JJJSSIIIIIIJJHHHJJJSSIIILLLLLLLLHHHIIGGGIIIJJS@@@nnnmmmhhhVVVCCCYYYBBBhhhmmmnnn@@@===>>>SSSIIIIIJJJHHJJJSSSIILLLLLLLLHHHIIIGGIII",
"JJJSSIIIIIIJJHHHJJJSSIIILLLLLLLLHHHIIGGGIIIJJS@@@nnnmmmhhhVVVCCCYYYBBBhhhmmmnnn@@@===>>>SSSIIIIIJJJHHJJJSSSIILLLLLLLLHHHIIIGGIII",
"SSSLLIIIIIIIIGGGIIIIIJJJLLLIIIIISSSLLJJJJJJSSL@@@nnnmmmhhhVVVCCCYYYBBBhhhmmmnnn@@@===>>>LLLIIIIIIIIGGIIIIIIJJLLLIIIIISSSLLLJJJJJ",
"SSSLLIIIIIIIIGGGIIIIIJJJLLLIIIIISSSLLJJJJJJSSLLLI###$$$BBBCCCYYYYYYCCCBBB$$$###LJJJJJSSSLLLIIIIIIIIGGIIIIIIJJLLLIIIIISSSLLLJJJJJ",
"SSSLLIIIIIIIIGGGIIIIIJJJLLLIIIIISSSLLJJJJJJSSLLLI###$$$BBBCCCYYYYYYCCCBBB$$$###LJJJJJSSSLLLIIIIIIIIGGIIIIIIJJLLLIIIIISSSLLLJJJJJ",
"LLLIIIII~~~GGIIIGGGHHLLLIIILLLLLIIIIIHHHJJJLLIIII###$$$BBBCCCYYYYYYCCCBBB$$$###IHHHJJLLLIIIII~~~GGGIIGGGHHHLLIIILLLLLIIIIIIHHJJJ",
"LLLIIIII~~~GGIIIGGGHHLLLIIILLLLLIIIIIHHHJJJLLIIIIII~~GGbbbMMMBBBBBBMMMbbbLLIIIIIHHHJJLLLIIIII~~~GGGIIGGGHHHLLIIILLLLLIIIIIIHHJJJ",
"LLLIIIII~~~GGIIIGGGHHLLLIIILLLLLIIIIIHHHJJJLLIIIIII~~GGbbbMMMBBBBBBMMMbbbLLIIIIIHHHJJLLLIIIII~~~GGGIIGGGHHHLLIIILLLLLIIIIIIHHJJJ",
"JJJJJGGGIIIIIGGGHHHJJIIIJJJSSHHHIII~~IIISSSJJJJJGGGIIIIbbbMMMBBBBBBMMMbbbHHII~~~IIISSJJJJJJGGIIIIIIGGHHHJJJIIJJJSSSHHIII~~~IISSS",
"JJJJJGGGIIIIIGGGHHHJJIIIJJJSSHHHIII~~IIISSSJJJJJGGGIIIIIGGGHHJJJIIIJJSSSHHHII~~~IIISSJJJJJJGGIIIIIIGGHHHJJJIIJJJSSSHHIII~~~IISSS",
"IIIIISSSJJJLLHHHJJJIILLLHHHIIIIIIIIIIIIILLLIIIIISSSJJLLLHHHJJIIILLLHHIIIIIIIIIIIIIILLIIIIIISSJJJLLLHHJJJIIILLHHHIIIIIIIIIIIIILLL",
"IIIIISSSJJJLLHHHJJJIILLLHHHIIIIIIIIIIIIILLLIIIIISSSJJLLLHHHJJIIILLLHHIIIIIIIIIIIIIILLIIIIIISSJJJLLLHHJJJIIILLHHHIIIIIIIIIIIIILLL",
"IIIIISSSJJJLLHHHJJJIILLLHHHIIIIIIIIIIIIILLLIIIIISSSJJLLLHHHJJIIILLLHHIIIIIIIIIIIIIILLIIIIIISSJJJLLLHHJJJIIILLHHHIIIIIIIIIIIIILLL"
};
