/* XPM */
static char *_0e6433f6afc490acdb955bad62437fdGDFwQorB9SWdKfS8[] = {
/* columns rows colors chars-per-pixel */
"128 128 164 2 ",
"   c #030304",
".  c #311800",
"X  c #3B240D",
"o  c #112C34",
"O  c #313131",
"+  c #480B0E",
"@  c #4A0E11",
"#  c #4E1316",
"$  c #521A1C",
"%  c #6F1115",
"&  c #452E19",
"*  c #561D20",
"=  c #761C20",
"-  c #5B2528",
";  c #4D3823",
":  c #523D29",
">  c #612D2F",
",  c #792226",
"<  c #632F32",
"1  c #683639",
"2  c #584330",
"3  c #614E3C",
"4  c #6E3E40",
"5  c #515151",
"6  c #724C49",
"7  c #736252",
"8  c #43617A",
"9  c #8D171E",
"0  c #901D24",
"q  c #802D31",
"w  c #972A31",
"e  c #833337",
"r  c #9C363C",
"t  c #C82028",
"y  c #CC333A",
"u  c #8B5011",
"i  c #A03D43",
"p  c #DF3942",
"a  c #8E5151",
"s  c #A3444A",
"d  c #AC7A47",
"f  c #865E60",
"g  c #D0454B",
"h  c #D24B51",
"j  c #D5575D",
"k  c #E04049",
"l  c #E14952",
"z  c #E3545C",
"x  c #C26749",
"c  c #C97357",
"v  c #D75D63",
"b  c #E45A62",
"n  c #D56E6B",
"m  c #E6656B",
"M  c #E76C73",
"N  c #E8767B",
"B  c #E2B60A",
"V  c #C0943E",
"C  c #B6986A",
"Z  c #AD967A",
"A  c #B4927E",
"S  c #CB8C55",
"D  c #D58A69",
"F  c #CC9F66",
"G  c #D5927D",
"H  c #CCA674",
"J  c #EEAF7F",
"K  c #DAC548",
"L  c #FAD650",
"P  c #FFE16D",
"I  c #30768D",
"U  c #3D76A5",
"Y  c #745196",
"T  c #50728E",
"R  c #637C91",
"E  c #7F68B7",
"W  c #7B31C5",
"Q  c #865C9A",
"!  c #A26D9F",
"~  c #995AA1",
"^  c #9173AD",
"/  c #A66EA6",
"(  c #BC66AE",
")  c #A47CA8",
"_  c #BB74B7",
"`  c #E97D82",
"'  c #823DC8",
"]  c #8A49CB",
"[  c #9053CE",
"{  c #955AD0",
"}  c #956DCC",
"|  c #6B8396",
" . c #6A92B2",
".. c #669ECC",
"X. c #54ABC6",
"o. c #7CC0D3",
"O. c #AE978E",
"+. c #9FAD98",
"@. c #8C8DAE",
"#. c #AE82A5",
"$. c #B784A8",
"%. c #B992A9",
"&. c #BD84B1",
"*. c #B7B0AF",
"=. c #C99582",
"-. c #D89784",
";. c #EA8489",
":. c #EC8D92",
">. c #CFB08B",
",. c #EFA284",
"<. c #F0A88C",
"1. c #F2B586",
"2. c #E4A99A",
"3. c #F0AD92",
"4. c #F2B49C",
"5. c #D38AB8",
"6. c #C698B5",
"7. c #DC9FB7",
"8. c #EC9DA2",
"9. c #C8AAB0",
"0. c #F0A7AC",
"q. c #F2BAA4",
"w. c #F1ADB1",
"e. c #F2B5B8",
"r. c #B2C392",
"t. c #B2C7A5",
"y. c #CBD096",
"u. c #F6D399",
"i. c #FFE996",
"p. c #DFD1A5",
"a. c #D7D4B2",
"s. c #E8C2A0",
"d. c #F7D8A5",
"f. c #FFC5BF",
"g. c #FFDAB0",
"h. c #F8DEB3",
"j. c #F9E5B8",
"k. c #9390CD",
"l. c #B0AACF",
"z. c #B8ABE5",
"x. c #C080C7",
"c. c #C695C4",
"v. c #D597C4",
"b. c #C49ADA",
"n. c #CDA7C8",
"m. c #D7B8C5",
"M. c #CAA3D7",
"N. c #D7BCDC",
"B. c #F3BEC1",
"V. c #CDB2E7",
"C. c #B2CAD2",
"Z. c #B0D9E4",
"A. c #F4C3C6",
"S. c #F7CFD2",
"D. c #EAD9D2",
"F. c #F6D5D3",
"G. c #FBEBD2",
"H. c #FFDFEF",
"J. c #CDE6FE",
"K. c #D9ECFC",
"L. c #FFEEE3",
"P. c #FCF2E1",
"I. c #E9F4F8",
"U. c #F4F9FD",
/* pixels */
"g.g.g.g.g.g.g.g.s.s.s.g.g.s.s.s.g.g.g.a.a.a.a.a.g.g.g.a.a.H.H.H.f.f.f.s.s.f.f.f.g.g.g.g.g.g.g.g.g.g.g.s.s.g.g.g.s.s.s.g.g.a.a.a.a.a.a.g.g.a.a.a.H.H.H.f.f.s.s.s.f.f.f.g.g.g.g.g.g.g.g.g.g.s.s.s.g.g.g.s.s.g.g.g.a.a.a.a.a.g.g.g.a.a.a.H.H.f.f.f.s.s.s.f.f.g.g.g.",
"g.g.g.g.g.g.g.g.s.s.s.g.g.s.s.s.g.g.g.a.a.a.a.a.g.g.g.a.a.H.H.H.f.f.f.s.s.f.f.f.g.g.g.g.g.g.g.g.g.g.g.s.s.g.g.g.s.s.s.g.g.a.a.a.a.a.a.g.g.a.a.a.H.H.H.f.f.s.s.s.f.f.f.g.g.g.g.g.g.g.g.g.g.s.s.s.g.g.g.s.s.g.g.g.a.a.a.a.a.g.g.g.a.a.a.H.H.f.f.f.s.s.s.f.f.g.g.g.",
"g.g.g.g.g.g.g.g.s.s.s.g.g.s.s.s.g.g.g.a.a.a.a.a.g.g.g.a.a.H.H.H.f.f.f.s.s.f.f.f.g.g.g.g.g.g.g.g.g.g.g.s.s.g.g.g.s.s.s.g.g.a.a.a.a.a.a.g.g.a.a.a.H.H.H.f.f.s.s.s.f.f.f.g.g.g.g.g.g.g.g.g.g.s.s.s.g.g.g.s.s.g.g.g.a.a.a.a.a.g.g.g.a.a.a.H.H.f.f.f.s.s.s.f.f.g.g.g.",
"g.g.g.g.g.1.1.1.s.s.s.1.1.g.g.g.H.H.H.f.f.s.s.s.s.s.s.g.g.a.a.a.f.f.f.g.g.s.s.s.g.g.g.g.g.g.g.g.1.1.1.s.s.1.1.1.g.g.g.H.H.f.f.f.s.s.s.s.s.g.g.g.a.a.a.f.f.g.g.g.s.s.s.g.g.g.g.g.g.g.g.1.1.s.s.s.1.1.1.g.g.H.H.H.f.f.f.s.s.s.s.s.g.g.g.a.a.f.f.f.g.g.g.s.s.g.g.g.",
"g.g.g.g.g.1.1.1.s.s.s.1.1.g.g.g.H.H.H.f.f.s.s.s.s.s.s.g.g.a.a.a.f.f.f.g.g.s.s.s.g.g.g.g.g.g.g.g.1.1.1.s.s.1.1.1.g.g.g.H.H.f.f.f.s.s.s.s.s.g.g.g.a.a.a.f.f.g.g.g.s.s.s.g.g.g.g.g.g.g.g.1.1.s.s.s.1.1.1.g.g.H.H.H.f.f.f.s.s.s.s.s.g.g.g.a.a.f.f.f.g.g.g.s.s.g.g.g.",
"f.f.f.1.1.s.s.s.s.s.s.g.g.g.g.g.g.g.g.s.s.g.g.g.f.f.f.s.s.g.g.g.s.s.s.g.g.g.g.g.f.f.f.f.f.1.1.1.s.s.s.s.s.g.g.g.g.g.g.g.g.s.s.s.g.g.g.f.f.s.s.s.g.g.g.s.s.g.g.g.g.g.g.f.f.f.f.f.1.1.1.s.s.s.s.s.g.g.g.g.g.g.g.g.s.s.s.g.g.f.f.f.s.s.s.g.g.s.s.s.g.g.g.g.g.f.f.f.",
"f.f.f.1.1.s.s.s.s.s.s.g.g.g.g.g.g.g.g.s.s.g.g.g.f.f.f.s.s.g.g.g.s.s.s.g.g.g.g.g.f.f.f.f.f.1.1.1.s.s.s.s.s.g.g.g.g.g.g.g.g.s.s.s.g.g.g.f.f.s.s.s.g.g.g.s.s.g.g.g.g.g.g.f.f.f.f.f.1.1.1.s.s.s.s.s.g.g.g.g.g.g.g.g.s.s.s.g.g.f.f.f.s.s.s.g.g.s.s.s.g.g.g.g.g.f.f.f.",
"f.f.f.1.1.s.s.s.s.s.s.g.g.g.g.g.g.g.g.s.s.g.g.g.f.f.f.s.s.g.g.g.s.s.s.g.g.g.g.g.f.f.f.f.f.1.1.1.s.s.s.s.s.g.g.g.g.g.g.g.g.s.s.s.g.g.g.f.f.s.s.s.g.g.g.s.s.g.g.g.g.g.g.f.f.f.f.f.1.1.1.s.s.s.s.s.g.g.g.g.g.g.g.g.s.s.s.g.g.f.f.f.s.s.s.g.g.s.s.s.g.g.g.g.g.f.f.f.",
"s.s.s.s.s.g.g.g.g.g.g.s.s.s.s.s.1.1.1.g.g.g.g.g.f.f.f.a.a.1.1.1.1.1.1.f.f.1.1.1.s.s.s.s.s.s.s.s.g.g.g.g.g.s.s.s.s.s.s.1.1.g.g.g.g.g.g.f.f.a.a.a.1.1.1.1.1.f.f.f.1.1.1.s.s.s.s.s.s.s.s.g.g.g.g.g.s.s.s.s.s.1.1.1.g.g.g.g.g.f.f.f.a.a.a.1.1.1.1.1.f.f.f.1.1.s.s.s.",
"s.s.s.s.s.g.g.g.g.g.g.s.s.s.s.s.1.1.1.g.g.g.g.g.f.f.f.a.a.1.1.1.1.1.1.f.f.1.1.1.s.s.s.s.s.s.s.s.g.g.g.g.g.s.s.s.s.s.s.1.1.g.g.g.g.g.g.f.f.a.a.a.1.1.1.1.1.f.f.f.1.1.1.s.s.s.s.s.s.s.s.g.g.g.g.g.s.s.s.s.s.1.1.1.g.g.g.g.g.f.f.f.a.a.a.1.1.1.1.1.f.f.f.1.1.s.s.s.",
"s.s.s.s.s.g.g.g.g.g.g.s.s.s.s.s.1.1.1.g.g.g.g.g.f.f.f.a.a.1.1.1.1.1.1.f.f.1.1.1.s.s.s.s.s.s.s.s.g.g.g.g.g.s.s.s.s.s.s.1.1.g.g.g.g.g.g.f.f.a.a.a.1.1.1.1.1.f.f.f.1.1.1.s.s.s.s.s.s.s.s.g.g.g.g.g.s.s.s.s.s.1.1.1.g.g.g.g.g.f.f.f.a.a.a.1.1.1.1.1.f.f.f.1.1.s.s.s.",
"f.f.f.g.g.s.s.s.g.g.g.g.g.f.f.f.a.a.a.g.g.a.a.a.g.g.g.s.s.f.f.f.g.g.g.a.a.g.g.g.a.a.a.f.f.g.g.g.s.s.s.g.g.g.g.g.f.f.f.a.a.g.g.g.a.a.a.g.g.s.s.s.f.f.f.g.g.a.a.a.g.g.g.a.a.f.f.f.g.g.g.s.s.g.g.g.g.g.g.f.f.a.a.a.g.g.g.a.a.g.g.g.s.s.s.f.f.g.g.g.a.a.a.g.g.a.a.a.",
"f.f.f.g.g.s.s.s.g.g.g.g.g.f.f.f.a.a.a.g.g.a.a.a.g.g.g.s.s.f.f.f.g.g.g.a.a.g.g.g.a.a.a.f.f.g.g.g.s.s.s.g.g.g.g.g.f.f.f.a.a.g.g.g.a.a.a.g.g.s.s.s.f.f.f.g.g.a.a.a.g.g.g.a.a.f.f.f.g.g.g.s.s.g.g.g.g.g.g.f.f.a.a.a.g.g.g.a.a.g.g.g.s.s.s.f.f.g.g.g.a.a.a.g.g.a.a.a.",
"s.s.s.g.g.g.g.g.H.H.H.g.g.f.f.f.s.s.s.f.f.H.H.H.g.g.g.g.g.f.f.f.a.a.a.g.g.a.a.a.g.g.g.s.s.g.g.g.g.g.g.H.H.g.g.g.f.f.f.s.s.f.f.f.H.H.H.g.g.g.g.g.f.f.f.a.a.g.g.g.a.a.a.g.g.s.s.s.g.g.g.g.g.H.H.H.g.g.g.f.f.s.s.s.f.f.f.H.H.g.g.g.g.g.g.f.f.a.a.a.g.g.g.a.a.g.g.g.",
"s.s.s.g.g.g.g.g.H.H.H.g.g.f.f.f.s.s.s.f.f.H.H.H.g.g.g.g.g.f.f.f.a.a.a.g.g.a.a.a.g.g.g.s.s.g.g.g.g.g.g.H.H.g.g.g.f.f.f.s.s.f.f.f.H.H.H.g.g.g.g.g.f.f.f.a.a.g.g.g.a.a.a.g.g.s.s.s.g.g.g.g.g.H.H.H.g.g.g.f.f.s.s.s.f.f.f.H.H.g.g.g.g.g.g.f.f.a.a.a.g.g.g.a.a.g.g.g.",
"s.s.s.g.g.g.g.g.H.H.H.g.g.f.f.f.s.s.s.f.f.H.H.H.g.g.g.g.g.f.f.f.a.a.a.g.g.a.a.a.g.g.W W W g.g.g.g.g.g.H.H.g.g.g.f.f.f.s.s.f.f.f.H.H.H.g.g.g.g.g.f.f.f.a.a.g.g.g.a.a.a.g.g.s.s.s.g.g.g.g.g.H.H.H.g.g.g.f.f.s.s.s.f.f.f.H.H.g.g.g.g.g.g.f.f.a.a.a.g.g.g.a.a.g.g.g.",
"g.g.g.1.1.f.f.f.g.g.g.s.s.s.s.s.1.1.1.g.g.f.f.f.f.f.f.g.g.g.g.g.s.s.s.g.g.s.s.s.f.f.W W W 1.1.1.f.f.f.g.g.s.s.s.s.s.s.1.1.g.g.g.f.f.f.f.f.g.g.g.g.g.g.s.s.g.g.g.s.s.s.f.f.g.g.g.1.1.1.f.f.g.g.g.s.s.s.s.s.1.1.1.g.g.g.f.f.f.f.f.g.g.g.g.g.s.s.s.g.g.g.s.s.f.f.f.",
"g.g.g.1.1.f.f.f.g.g.g.s.s.s.s.s.1.1.1.g.g.f.f.f.f.f.f.g.g.g.g.g.s.s.s.g.g.s.s.s.f.f.W W W 1.1.1.f.f.f.g.g.s.s.s.s.s.s.1.1.g.g.g.f.f.f.f.f.g.g.g.g.g.g.s.s.g.g.g.s.s.s.f.f.g.g.g.1.1.1.f.f.g.g.g.s.s.s.s.s.1.1.1.g.g.g.f.f.f.f.f.g.g.g.g.g.s.s.s.g.g.g.s.s.f.f.f.",
"g.g.g.1.1.f.f.f.g.g.g.s.s.s.s.s.1.1.1.g.g.f.f.f.f.f.f.g.g.g.g.g.s.s.s.g.g.s.s.s.f.f.f.g.g.1.1.1.f.f.f.g.g.s.s.s.s.s.s.1.1.g.g.g.f.f.f.f.f.g.g.g.g.g.g.s.s.g.g.g.s.s.s.f.f.g.g.g.1.1.1.f.f.g.g.g.s.s.s.s.s.1.1.1.g.g.g.f.f.f.f.f.g.g.g.g.g.s.s.s.g.g.g.s.s.f.f.f.",
"s.s.s.a.a.1.1.1.s.s.s.g.g.1.1.1.f.f.f.f.f.g.g.g.g.g.g.1.1.a.a.a.s.s.s.s.s.1.1.1.g.g.g.s.s.a.a.a.1.1.1.s.s.g.g.g.1.1.1.f.f.f.f.f.g.g.g.g.g.1.1.1.a.a.a.s.s.s.s.s.1.1.1.g.g.s.s.s.a.a.a.1.1.s.s.s.g.g.g.1.1.f.f.f.f.f.f.g.g.g.g.g.1.1.1.a.a.s.s.s.s.s.s.1.1.g.g.g.",
"s.s.s.a.a.1.1.1.s.s.s.g.g.1.1.1.f.f.f.f.f.g.g.g.g.g.g.1.1.a.a.a.s.s.s.s.s.1.1.1.g.g.g.s.s.a.a.a.1.1.1.s.s.g.g.g.1.1.1.f.f.f.f.f.g.g.g.g.g.1.1.1.a.a.a.s.s.s.s.s.1.1.1.g.g.s.s.s.a.a.a.1.1.s.s.s.g.g.g.1.1.f.f.f.f.f.f.g.g.g.g.g.1.1.1.a.a.s.s.s.s.s.s.1.1.g.g.g.",
"g.g.g.g.g.f.f.f.f.f.f.1.1.s.s.s.g.g.g.g.g.H.H.H.g.g.g.g.g.s.s.s.1.1.1.g.g.g.g.g.g.g.g.g.g.g.g.g.f.f.f.f.f.1.1.1.s.s.s.g.g.g.g.g.H.H.H.g.g.g.g.g.W W W 1.1.g.g.g.g.g.g.g.g.g.g.g.g.g.g.f.f.f.f.f.1.1.1.s.s.g.g.g.g.g.g.H.H.g.g.g.g.g.g.s.s.1.1.1.g.g.g.g.g.g.g.g.",
"g.g.g.g.g.f.f.f.f.f.f.1.1.s.s.s.g.g.g.g.g.H.H.H.g.g.g.g.g.s.s.s.1.1.1.g.g.g.g.g.g.g.g.g.g.g.g.g.f.f.f.f.f.1.1.1.s.s.s.g.g.g.g.g.H.H.H.g.g.g.g.g.W W W 1.1.g.g.g.g.g.g.g.g.g.g.g.g.g.g.f.f.f.f.f.1.1.1.s.s.g.g.g.g.g.g.H.H.g.g.g.g.g.g.s.s.1.1.1.g.g.g.g.g.g.g.g.",
"g.g.g.g.g.f.f.f.f.f.f.1.1.s.s.s.g.g.g.g.g.H.H.H.g.g.g.g.g.s.s.s.1.1.1.g.g.g.g.g.g.g.g.g.g.g.g.g.f.f.f.f.f.1.1.1.s.s.s.g.g.g.g.g.H.H.H.g.g.g.g.g.W W W 1.1.g.g.g.g.g.g.g.g.g.g.g.g.g.g.f.f.f.f.f.1.1.1.s.s.g.g.g.g.g.g.H.H.g.g.g.g.g.g.s.s.1.1.1.g.g.g.g.g.g.g.g.",
"p.p.p.g.g.s.s.s.1.1.1.1.1.g.g.g.g.g.g.g.g.g.g.g.s.s.s.f.f.1.1.1.g.J.J.J.H.p.p.p.g.g.W W W g.g.g.W W W W W W 1.1.g.g.g.g.g.g.g.g.g.g.g.s.s.f.f.f.1.1.1.g.g.H.H.H.p.p.p.g.g.p.p.p.g.g.g.s.s.1.1.1.J.J.J.g.g.g.g.g.g.g.g.g.g.s.s.s.f.f.f.1.1.g.g.g.H.H.H.p.p.g.g.g.",
"p.p.p.g.g.s.s.s.1.1.1.1.1.g.g.g.g.g.g.g.g.g.g.g.s.s.s.f.f.1.1.1.g.J.J.J.H.p.p.p.g.g.W W W g.g.g.W W W W W W 1.1.g.g.g.g.g.g.g.g.g.g.g.s.s.f.f.f.1.1.1.g.g.H.H.H.p.p.p.g.g.p.p.p.g.g.g.s.s.1.1.1.J.J.J.g.g.g.g.g.g.g.g.g.g.s.s.s.f.f.f.1.1.g.g.g.H.H.H.p.p.g.g.g.",
"p.p.p.g.g.s.s.s.1.1.1.1.1.g.g.g.g.g.g.g.g.g.g.g.s.s.s.f.f.1.1.1.g.J.J.J.H.p.p.p.g.g.W W W g.g.g.W W W W W W 1.1.g.g.g.g.g.g.g.g.g.g.g.s.s.f.f.f.1.1.1.g.g.H.H.H.p.p.p.g.g.p.p.p.g.g.g.s.s.1.1.1.J.J.J.g.g.g.g.g.g.g.g.g.g.s.s.s.f.f.f.1.1.g.g.g.H.H.H.p.p.g.g.g.",
"g.g.g.s.s.f.f.f.f.f.f.g.g.f.f.f.1.1.1.g.g.g.g.g.1.1.1.1.1.s.J.J.J.J.J.J.J.J.J.g.p.p.W W W W W W @ @ @ @ @ @ W W W f.f.1.1.g.g.g.g.g.g.1.1.1.1.1.W W W g.g.p.p.p.g.g.g.p.p.g.g.g.s.s.s.f.f.J.J.J.J.J.J.J.J.J.1.1.g.g.g.g.g.1.1.1.1.1.1.s.s.g.g.g.p.p.p.g.g.p.p.p.",
"g.g.g.s.s.f.f.f.f.f.f.g.g.f.f.f.1.1.1.g.g.g.g.g.1.1.1.1.1.s.J.J.J.J.J.J.J.J.J.g.p.p.W W W W W W @ @ @ @ @ @ W W W f.f.1.1.g.g.g.g.g.g.1.1.1.1.1.W W W g.g.p.p.p.g.g.g.p.p.g.g.g.s.s.s.f.f.J.J.J.J.J.J.J.J.J.1.1.g.g.g.g.g.1.1.1.1.1.1.s.s.g.g.g.p.p.p.g.g.p.p.p.",
"s.s.s.1.1.g.g.g.g.g.g.s.s.a.a.a.s.s.s.1.1.g.g.g.f.f.f.f.f.f.J.J.J.J.J.J.J.J.J.p.g.g.W W W W W W @ @ @ @ @ @ W W W a.a.s.s.1.1.1.g.g.g.f.f.f.f.f.W W W a.a.g.g.g.p.p.p.g.g.s.s.s.1.1.1.g.g.J.J.J.J.J.J.J.J.J.s.s.1.1.1.g.g.f.f.f.f.f.f.f.f.a.a.a.g.g.g.p.p.g.g.g.",
"s.s.s.1.1.g.g.g.g.g.g.s.s.a.a.a.s.s.s.1.1.g.g.g.f.f.f.f.f.f.J.J.J.U.U.U.J.J.J.W W W @ @ @ @ @ @ p p p t t t + + + W W W W W W W W W ' ' ' W W W W W W a.a.g.g.g.p.p.p.g.g.s.s.s.1.1.J.J.J.J.J.J.U.U.U.J.J.J.s.s.1.1.1.g.g.f.f.f.f.f.f.f.f.a.a.a.g.g.g.p.p.g.g.g.",
"s.s.s.1.1.g.g.g.g.g.g.s.s.a.a.a.s.s.s.1.1.g.g.g.f.f.f.f.f.f.J.J.J.U.U.U.J.J.J.W W W @ @ @ @ @ @ p p p t t t + + + W W W W W W W W W ' ' ' W W W W W W a.a.g.g.g.p.p.p.g.g.s.s.s.1.1.J.J.J.J.J.J.U.U.U.J.J.J.s.s.1.1.1.g.g.f.f.f.f.f.f.f.f.a.a.a.g.g.g.p.p.g.g.g.",
"1.1.1.f.f.g.g.g.g.g.g.g.g.p.p.p.g.g.g.g.g.s.s.s.f.f.f.g.g.g.J.J.J.U.U.U.J.J.J.W W W @ @ @ @ @ @ p p p t t t + + + W W W W W W W W W ' ' ' W W W W W W 1.1.f.f.f.s.s.s.s.s.1.1.1.f.f.J.J.J.J.J.J.U.U.U.J.J.J.g.g.g.g.g.s.s.f.f.f.g.g.g.g.g.1.1.1.f.f.f.s.s.s.s.s.",
"1.1.1.f.f.g.g.g.g.g.g.g.g.p.p.p.g.g.g.g.g.s.s.s.f.f.f.g.g.g.J.J.J.K.K.K.W W W @ @ @ e.e.e.:.:.:.m m m 0 0 0 @ @ @ # # # * * * * * * * * * * * * * * * ' ' ' f.f.s.s.s.s.s.1.1.J.J.J.U.U.U.K.K.K.K.K.K.J.J.J.g.g.g.g.g.s.s.f.f.f.g.g.g.g.g.1.1.1.f.f.f.s.s.s.s.s.",
"1.1.1.f.f.g.g.g.g.g.g.g.g.p.p.p.g.g.g.g.g.s.s.s.f.f.f.g.g.g.J.J.J.K.K.K.W W W @ @ @ e.e.e.:.:.:.m m m 0 0 0 @ @ @ # # # * * * * * * * * * * * * * * * ' ' ' f.f.s.s.s.s.s.1.1.J.J.J.U.U.U.K.K.K.K.K.K.J.J.J.g.g.g.g.g.s.s.f.f.f.g.g.g.g.g.1.1.1.f.f.f.s.s.s.s.s.",
"f.f.f.g.g.g.g.g.H.H.H.p.p.g.g.g.p.p.p.a.a.f.f.f.g.g.g.f.f.f.J.J.J.K.K.K.W W W @ @ @ e.e.e.:.:.:.m m m 0 0 0 @ @ @ # # # * * * * * * * * * * * * * * * ' ' ' g.g.a.a.a.s.s.f.f.J.J.J.U.U.U.K.K.K.K.K.K.J.J.J.p.p.a.a.a.f.f.g.g.g.f.f.f.f.f.g.g.g.g.g.g.a.a.s.s.s.",
"f.f.f.g.g.g.g.g.H.H.H.p.p.g.g.g.p.p.p.a.a.f.f.f.g.g.g.W W W J.J.J.K.K.K.W W W @ @ @ e.e.e.e.e.e.:.:.:.# # # * * * y y y q q q r r r g g g s s s g g g > > > ] ] ] a.a.s.J.J.J.U.U.U.U.U.U.K.K.K.K.K.K.J.J.J.p.p.a.a.a.f.f.g.g.g.f.f.f.f.f.g.g.g.g.g.g.a.a.s.s.s.",
"s.s.s.s.s.p.p.p.g.g.g.g.g.p.p.p.a.a.a.s.s.g.g.g.s.s.s.W W W J.J.J.K.K.K.W W W @ @ @ e.e.e.e.e.e.:.:.:.# # # * * * y y y q q q r r r g g g s s s g g g > > > ] ] ] g.g.1.J.J.J.U.U.U.U.U.U.K.K.K.K.K.K.J.J.J.a.a.s.s.s.g.g.s.s.s.1.1.1.a.a.g.g.g.H.H.H.g.g.1.1.1.",
"s.s.s.s.s.p.p.p.g.g.g.g.g.p.p.p.a.a.a.s.s.g.g.g.s.s.s.W W W J.J.J.K.K.K.W W W @ @ @ e.e.e.e.e.e.:.:.:.# # # * * * y y y q q q r r r g g g s s s g g g > > > ] ] ] g.g.1.J.J.J.U.U.U.U.U.U.K.K.K.K.K.K.J.J.J.a.a.s.s.s.g.g.s.s.s.1.1.1.a.a.g.g.g.H.H.H.g.g.1.1.1.",
"s.s.s.s.s.p.p.p.g.g.g.g.g.p.p.p.a.a.a.s.s.g.g.g.s.s.s.1.1.a.a.a.g.W W W @ @ @ :.:.:.e.e.e.:.:.:.M M M * * * B.B.B.b b b g g g ;.;.;.m m m j j j m m m A.A.A.1 1 1 ] ] ] U.U.U.K.K.K.K.K.K.U.U.U.J.J.J.p.p.a.a.a.s.s.s.g.g.s.s.s.1.1.1.a.a.g.g.g.H.H.H.g.g.1.1.1.",
"g.g.g.g.g.1.1.1.s.s.s.f.f.a.a.a.s.s.s.g.g.f.f.f.a.a.a.g.g.g.g.g.g.W W W @ @ @ :.:.:.e.e.e.:.:.:.M M M * * * B.B.B.b b b g g g ;.;.;.m m m j j j m m m A.A.A.1 1 1 ] ] ] U.U.U.K.K.K.K.K.K.U.U.U.J.J.J.a.a.s.s.s.g.g.g.f.f.a.a.a.g.g.g.g.g.g.g.g.g.g.g.g.g.f.f.f.",
"g.g.g.g.g.1.1.1.s.s.s.f.f.a.a.a.s.s.s.g.g.f.f.f.a.a.a.g.g.g.g.g.g.W W W @ @ @ :.:.:.e.e.e.:.:.:.M M M * * * B.B.B.b b b g g g ;.;.;.m m m j j j m m m A.A.A.1 1 1 ] ] ] U.U.U.K.K.K.K.K.K.U.U.U.J.J.J.a.a.s.s.s.g.g.g.f.f.a.a.a.g.g.g.g.g.g.g.g.g.g.g.g.g.f.f.f.",
"g.g.g.g.g.1.1.1.s.s.s.f.f.a.a.a.s.s.s.g.g.f.f.f.a.a.a.W W W g.g.g.W W W @ @ @ p p p :.:.:.M M M - - - q q q r r r A.A.A.;.;.;.A.A.A.;.;.;.M M M S.S.S.0.0.0.h h h 1 1 1 [ [ [ K.K.K.U.U.U.J.J.J.f.f.f.a.a.s.s.s.g.g.g.f.f.a.a.a.g.g.g.g.g.g.g.g.g.g.g.g.g.f.f.f.",
"g.g.g.g.g.g.g.g.s.s.s.g.g.s.s.s.g.g.g.a.a.a.a.a.g.g.g.W W W H.H.f.W W W @ @ @ p p p :.:.:.M M M - - - q q q r r r A.A.A.;.;.;.A.A.A.;.;.;.M M M S.S.S.0.0.0.h h h 1 1 1 [ [ [ K.K.K.U.U.U.J.J.J.g.g.g.s.s.g.g.g.a.a.a.a.a.g.g.g.a.a.a.H.H.f.f.f.s.s.s.f.f.g.g.g.",
"g.g.g.g.g.g.g.g.s.s.s.g.g.s.s.s.g.g.g.a.a.a.a.a.g.g.g.W W W H.H.f.W W W @ @ @ p p p :.:.:.M M M - - - q q q r r r A.A.A.;.;.;.A.A.A.;.;.;.M M M S.S.S.0.0.0.h h h 1 1 1 [ [ [ K.K.K.U.U.U.J.J.J.g.g.g.s.s.g.g.g.a.a.a.a.a.g.g.g.a.a.a.H.H.f.f.f.s.s.s.f.f.g.g.g.",
"g.g.g.g.g.1.1.1.s.s.s.1.1.g.g.g.H.H.H.f.f.s.s.s.s.s.s.' ' ' W W W + + + t t t p p p k k k w w w > > > z z z e e e =.=.=.2.2.2._ _ _ M.M.M.&.&.&.7.7.7.` ` ` b b b < < < [ [ [ U.U.U.J.J.J.s.s.s.1.1.1.g.g.H.H.H.f.f.f.s.s.s.s.s.g.g.g.a.a.f.f.f.g.g.g.s.s.g.g.g.",
"g.g.g.g.g.1.1.1.s.s.s.1.1.g.g.g.H.H.H.f.f.s.s.s.s.s.s.' ' ' W W W + + + t t t p p p k k k w w w > > > z z z e e e =.=.=.2.2.2._ _ _ M.M.M.&.&.&.7.7.7.` ` ` b b b < < < [ [ [ U.U.U.J.J.J.s.s.s.1.1.1.g.g.H.H.H.f.f.f.s.s.s.s.s.g.g.g.a.a.f.f.f.g.g.g.s.s.g.g.g.",
"g.g.g.g.g.1.1.1.s.s.s.1.1.g.g.g.H.H.H.f.f.s.s.s.s.s.s.' ' ' W W W + + + t t t p p p k k k w w w > > > z z z e e e =.=.=.2.2.2._ _ _ M.M.M.&.&.&.7.7.7.` ` ` b b b < < < [ [ [ U.U.U.J.J.J.s.s.s.1.1.1.g.g.H.H.H.f.f.f.s.s.s.s.s.g.g.g.a.a.f.f.f.g.g.g.s.s.g.g.g.",
"f.f.f.1.1.s.s.s.s.s.s.g.g.g.g.g.g.g.g.s.s.g.g.g.f.f.f.s.s.g.W W W + + + 9 9 9 t t t $ $ $ q q q < < < -.-.-.8.8.8.x x x y y y z z z ` ` ` / / / i i i _ _ _ J J J - - - [ [ [ J.J.J.J.J.J.J.J.J.J.J.J.J.J.J.g.g.s.s.s.g.g.f.f.f.s.s.s.g.g.s.s.s.g.g.g.g.g.f.f.f.",
"f.f.f.1.1.s.s.s.s.s.s.g.g.g.g.g.g.g.g.s.s.g.g.g.f.f.f.s.s.g.W W W + + + 9 9 9 t t t $ $ $ q q q < < < -.-.-.8.8.8.x x x y y y z z z ` ` ` / / / i i i _ _ _ J J J - - - [ [ [ J.J.J.J.J.J.J.J.J.J.J.J.J.J.J.g.g.s.s.s.g.g.f.f.f.s.s.s.g.g.s.s.s.g.g.g.g.g.f.f.f.",
"f.f.f.1.1.s.s.s.s.s.s.g.g.g.g.g.g.g.g.s.s.g.g.g.f.f.f.s.s.g.W W W + + + 9 9 9 t t t $ $ $ q q q < < < -.-.-.8.8.8.x x x y y y z z z ` ` ` / / / i i i _ _ _ J J J - - - [ [ [ J.J.J.J.J.J.J.J.J.J.J.J.J.J.J.g.g.s.s.s.g.g.f.f.f.s.s.s.g.g.s.s.s.g.g.g.g.g.f.f.f.",
"s.s.s.s.s.g.g.g.g.g.g.s.s.s.s.s.1.1.1.g.g.g.g.g.f.f.f.' ' ' + + + 9 9 9 % % % # # # - - - ; ; ; Z Z Z q q q y y y c c c u.u.u.` ` ` v.v.v.d.d.d.D D D y y y = = = H H H ; ; ; [ [ [ J.J.J.J.J.J.U.U.U.s.s.1.1.1.g.g.g.g.g.f.f.f.a.a.a.1.1.1.1.1.f.f.f.1.1.s.s.s.",
"s.s.s.s.s.g.g.g.g.g.g.s.s.s.s.s.1.1.1.g.g.g.g.g.f.f.f.' ' ' + + + 9 9 9 % % % # # # - - - ; ; ; Z Z Z q q q y y y c c c u.u.u.` ` ` v.v.v.d.d.d.D D D y y y = = = H H H ; ; ; [ [ [ J.J.J.J.J.J.U.U.U.s.s.1.1.1.g.g.g.g.g.f.f.f.a.a.a.1.1.1.1.1.f.f.f.1.1.s.s.s.",
"f.f.f.g.g.s.s.s.g.g.g.g.g.f.f.f.a.a.a.g.g.a.a.a.g.g.g.' ' ' + + + 9 9 9 % % % # # # - - - ; ; ; Z Z Z q q q y y y c c c u.u.u.` ` ` v.v.v.d.d.d.D D D y y y = = = H H H ; ; ; [ [ [ J.J.J.J.J.J.U.U.U.f.f.a.a.a.g.g.g.a.a.g.g.g.s.s.s.f.f.g.g.g.a.a.a.g.g.a.a.a.",
"f.f.f.g.g.s.s.s.g.g.g.g.g.f.f.f.a.a.a.g.g.a.a.a.g.g.g.W W W + + + % % % @ @ @ ' ' ' ] ] ] Z Z Z 3.3.3.; ; ; q q q       o o o d.d.d.5.5.5.O O O O O O , , , X X X ,.,.,.H H H [ [ [ U.U.U.U.U.U.g.g.g.f.f.a.a.a.g.g.g.a.a.g.g.g.s.s.s.f.f.g.g.g.a.a.a.g.g.a.a.a.",
"f.f.f.g.g.s.s.s.g.g.g.g.g.f.f.f.a.a.a.g.g.a.a.a.g.g.g.W W W + + + % % % @ @ @ ' ' ' ] ] ] Z Z Z 3.3.3.; ; ; q q q       o o o d.d.d.5.5.5.O O O O O O , , , X X X ,.,.,.H H H [ [ [ U.U.U.U.U.U.g.g.g.f.f.a.a.a.g.g.g.a.a.g.g.g.s.s.s.f.f.g.g.g.a.a.a.g.g.a.a.a.",
"s.s.s.g.g.g.g.g.H.H.H.g.g.f.f.f.s.s.s.f.f.H.H.H.g.g.g.W W W + + + % % % @ @ @ ' ' ' ] ] ] Z Z Z 3.3.3.; ; ; q q q       o o o d.d.d.5.5.5.O O O O O O , , , X X X ,.,.,.H H H [ [ [ U.U.U.U.U.U.g.g.g.f.f.s.s.s.f.f.f.H.H.g.g.g.g.g.g.f.f.a.a.a.g.g.g.a.a.g.g.g.",
"s.s.s.g.g.g.g.g.H.H.H.g.g.f.f.f.s.s.s.f.f.H.H.H.g.g.g.W W W @ @ @ + + + W W W K.K.K.[ [ [ A A A 2 2 2 <.<.<.l l l u.u.u.j.j.j.N.N.N.L.L.L.j.j.j.d.d.d.z z z ,.,.,.X X X m.m.m.J.J.J.K.K.K.[ [ [ g.g.g.f.f.s.s.s.f.f.f.H.H.g.g.g.g.g.g.f.f.a.a.a.g.g.g.a.a.g.g.g.",
"s.s.s.g.g.g.g.g.H.H.H.g.g.f.f.f.s.s.s.f.f.H.H.H.g.g.g.W W W @ @ @ + + + W W W K.K.K.[ [ [ A A A 2 2 2 <.<.<.l l l u.u.u.j.j.j.N.N.N.L.L.L.j.j.j.d.d.d.z z z ,.,.,.X X X m.m.m.J.J.J.K.K.K.[ [ [ g.g.g.f.f.s.s.s.f.f.f.H.H.g.g.g.g.g.g.f.f.a.a.a.g.g.g.a.a.g.g.g.",
"g.g.g.1.1.f.f.f.g.g.g.s.s.s.s.s.1.1.1.g.g.f.f.f.f.f.f.W W W @ @ @ + + + W W W K.K.K.[ [ [ A A A 2 2 2 <.<.<.l l l u.u.u.j.j.j.N.N.N.L.L.L.j.j.j.d.d.d.z z z ,.,.,.X X X m.m.m.J.J.J.K.K.K.[ [ [ s.s.s.s.s.1.1.1.g.g.g.f.f.f.f.f.g.g.g.g.g.s.s.s.g.g.g.s.s.f.f.f.",
"g.g.g.1.1.f.f.f.g.g.g.s.s.s.s.s.1.1.1.g.g.f.f.f.f.f.f.g.g.g.W W W W W W ' ' ' ' ' ' +.+.+.{ { { 6 6 6 2 2 2 ` ` ` 4.4.4.d.d.d.Y Y Y 5 5 5 h.h.h.4.4.4.;.;.;.; ; ; - - - ] ] ] r.r.r.J.J.J.J.J.J.J.J.J.s.s.1.1.1.g.g.g.f.f.f.f.f.g.g.g.g.g.s.s.s.g.g.g.s.s.f.f.f.",
"s.s.s.a.a.1.1.1.s.s.s.g.g.1.1.1.f.f.f.f.f.g.g.g.g.g.g.1.1.a.W W W W W W ' ' ' ' ' ' +.+.+.{ { { 6 6 6 2 2 2 ` ` ` 4.4.4.d.d.d.Y Y Y 5 5 5 h.h.h.4.4.4.;.;.;.; ; ; - - - ] ] ] r.r.r.J.J.J.J.J.J.J.J.J.1.1.f.f.f.f.f.f.g.g.g.g.g.1.1.1.a.a.s.s.s.s.s.s.1.1.g.g.g.",
"s.s.s.a.a.1.1.1.s.s.s.g.g.1.1.1.f.f.f.f.f.g.g.g.g.g.g.1.1.a.W W W W W W ' ' ' ' ' ' +.+.+.{ { { 6 6 6 2 2 2 ` ` ` 4.4.4.d.d.d.Y Y Y 5 5 5 h.h.h.4.4.4.;.;.;.; ; ; - - - ] ] ] r.r.r.J.J.J.J.J.J.J.J.J.1.1.f.f.f.f.f.f.g.g.g.g.g.1.1.1.a.a.s.s.s.s.s.s.1.1.g.g.g.",
"s.s.s.a.a.1.1.1.s.s.s.g.g.1.1.1.f.f.f.f.f.g.g.g.g.g.g.1.1.a.a.a.s.W W W # # # - - - 6.6.6.a a a f f f 6 6 6 0.0.0.6 6 6 q.q.q.Y Y Y Q Q Q e.e.e.7 7 7 w.w.w.4 4 4 1 1 1 [ [ [ t.t.t.{ { { J.J.J.g.g.g.1.1.f.f.f.f.f.f.g.g.g.g.g.1.1.1.a.a.s.s.s.s.s.s.1.1.g.g.g.",
"g.g.g.g.g.f.f.f.f.f.f.1.1.s.s.s.g.g.g.g.g.H.H.H.g.g.g.g.g.s.s.s.1.W W W # # # - - - 6.6.6.a a a f f f 6 6 6 0.0.0.6 6 6 q.q.q.Y Y Y Q Q Q e.e.e.7 7 7 w.w.w.4 4 4 1 1 1 [ [ [ t.t.t.{ { { J.J.J.1.1.1.s.s.g.g.g.g.g.g.H.H.g.g.g.g.g.g.s.s.1.1.1.g.g.g.g.g.g.g.g.",
"g.g.g.g.g.f.f.f.f.f.f.1.1.s.s.s.g.g.g.g.g.H.H.H.g.g.g.g.g.s.s.s.1.W W W # # # - - - 6.6.6.a a a f f f 6 6 6 0.0.0.6 6 6 q.q.q.Y Y Y Q Q Q e.e.e.7 7 7 w.w.w.4 4 4 1 1 1 [ [ [ t.t.t.{ { { J.J.J.1.1.1.s.s.g.g.g.g.g.g.H.H.g.g.g.g.g.g.s.s.1.1.1.g.g.g.g.g.g.g.g.",
"g.g.g.g.g.f.f.f.f.f.f.1.1.s.s.s.g.g.g.g.g.H.H.H.g.g.g.g.g.s.s.s.1.1.1.g.W W W * * * x.x.x.:.:.:.f f f n n n T T T ^ ^ ^ Q Q Q G G G -.-.-.Q Q Q R R R | | | n n n M M M 6 6 6 m.m.m.4 4 4 ] ] ] 1.1.1.s.s.g.g.g.g.g.g.H.H.g.g.g.g.g.g.s.s.1.1.1.g.g.g.g.g.g.g.g.",
"p.p.p.g.g.s.s.s.1.1.1.1.1.g.g.g.g.g.g.g.g.g.g.g.s.s.s.f.f.1.1.1.g.g.g.H.W W W * * * x.x.x.:.:.:.f f f n n n T T T ^ ^ ^ Q Q Q G G G -.-.-.Q Q Q R R R | | | n n n M M M 6 6 6 m.m.m.4 4 4 ] ] ] 1.1.1.g.g.g.g.g.g.g.g.g.g.s.s.s.f.f.f.1.1.g.g.g.H.H.H.p.p.g.g.g.",
"p.p.p.g.g.s.s.s.1.1.1.1.1.g.g.g.g.g.g.g.g.g.g.g.s.s.s.f.f.1.1.1.g.g.g.H.W W W * * * x.x.x.:.:.:.f f f n n n T T T ^ ^ ^ Q Q Q G G G -.-.-.Q Q Q R R R | | | n n n M M M 6 6 6 m.m.m.4 4 4 ] ] ] 1.1.1.g.g.g.g.g.g.g.g.g.g.s.s.s.f.f.f.1.1.g.g.g.H.H.H.p.p.g.g.g.",
"g.g.g.s.s.f.f.f.f.f.f.g.g.f.f.f.1.1.1.g.g.g.g.g.1.1.1.1.1.s.s.s.g.g.g.p.p.g.g.' ' ' / / / ( ( ( v v v T T T E E E ......c.c.c.} } } ......c.c.c.k.k.k.R R R | | | 8.8.8.w.w.w.9.9.9.4 4 4 ] ] ] g.g.g.f.f.1.1.1.g.g.g.g.g.1.1.1.1.1.1.s.s.g.g.g.p.p.p.g.g.p.p.p.",
"g.g.g.s.s.f.f.f.f.f.f.g.g.f.f.f.1.1.1.g.g.g.g.g.1.1.1.1.1.s.s.s.g.g.g.p.p.g.g.' ' ' / / / ( ( ( v v v T T T E E E ......c.c.c.} } } ......c.c.c.k.k.k.R R R | | | 8.8.8.w.w.w.9.9.9.4 4 4 ] ] ] g.g.g.f.f.1.1.1.g.g.g.g.g.1.1.1.1.1.1.s.s.g.g.g.p.p.p.g.g.p.p.p.",
"g.g.g.s.s.f.f.f.f.f.f.g.g.f.f.f.1.1.1.g.g.g.g.g.1.1.1.1.1.s.s.s.g.g.g.p.p.g.g.' ' ' / / / ( ( ( v v v T T T E E E ......c.c.c.} } } ......c.c.c.k.k.k.R R R | | | 8.8.8.w.w.w.9.9.9.4 4 4 ] ] ] g.g.g.f.f.1.1.1.g.g.g.g.g.1.1.1.1.1.1.s.s.g.g.g.p.p.p.g.g.p.p.p.",
"s.s.s.1.1.g.g.g.g.g.g.s.s.a.a.a.s.s.s.1.1.g.g.g.f.f.f.f.f.f.f.f.a.a.a.g.g.p.p.J.J.J.z.z.z.) ) ) @.@.@.} } } l.l.l.K K K P P P b.b.b.c.c.c.P P P 9.9.9.} } }  . . .| | | a a a >.>.>.{ { { g.g.g.s.s.s.a.a.s.s.s.1.1.1.g.g.f.f.f.f.f.f.f.f.a.a.a.g.g.g.p.p.g.g.g.",
"s.s.s.1.1.g.g.g.g.g.g.s.s.a.a.a.s.s.s.1.1.g.g.g.f.f.f.f.f.f.f.f.a.a.a.g.g.p.p.J.J.J.z.z.z.) ) ) @.@.@.} } } l.l.l.K K K P P P b.b.b.c.c.c.P P P 9.9.9.} } }  . . .| | | a a a >.>.>.{ { { g.g.g.s.s.s.a.a.s.s.s.1.1.1.g.g.f.f.f.f.f.f.f.f.a.a.a.g.g.g.p.p.g.g.g.",
"s.s.s.1.1.g.g.g.g.g.g.s.s.a.a.a.s.s.s.1.1.g.g.g.f.f.f.f.f.f.f.f.a.a.a.g.g.p.p.J.J.J.z.z.z.) ) ) @.@.@.} } } l.l.l.K K K P P P b.b.b.c.c.c.P P P 9.9.9.} } }  . . .| | | a a a >.>.>.{ { { g.g.g.s.s.s.a.a.s.s.s.1.1.1.g.g.f.f.f.f.f.f.f.f.a.a.a.g.g.g.p.p.g.g.g.",
"1.1.1.f.f.g.g.g.g.g.g.g.g.p.p.p.g.g.g.g.g.s.s.s.f.f.f.g.g.g.g.g.1.1.1.f.f.s.s.' ' ' 9.9.9.N N N b b b 8 8 8 d d d F F F K K K %.%.%.C C C K K K F F F #.#.#.E E E ~ ~ ~ } } } N.N.N.f.g.g.g.g.g.g.g.g.p.p.g.g.g.g.g.g.s.s.f.f.f.g.g.g.g.g.1.1.1.f.f.f.s.s.s.s.s.",
"1.1.1.f.f.g.g.g.g.g.g.g.g.p.p.p.g.g.g.g.g.s.s.s.f.f.f.g.g.g.g.g.1.1.1.f.f.s.s.' ' ' 9.9.9.N N N b b b 8 8 8 d d d F F F K K K %.%.%.C C C K K K F F F #.#.#.E E E ~ ~ ~ } } } N.N.N.f.g.g.g.g.g.g.g.g.p.p.g.g.g.g.g.g.s.s.f.f.f.g.g.g.g.g.1.1.1.f.f.f.s.s.s.s.s.",
"f.f.f.g.g.g.g.g.H.H.H.p.p.g.g.g.p.p.p.a.a.f.f.f.g.g.g.f.f.f.f.f.g.g.g.g.g.a.a.' ' ' 9.9.9.N N N b b b 8 8 8 d d d F F F K K K %.%.%.C C C K K K F F F #.#.#.E E E ~ ~ ~ } } } N.N.N.g.g.g.H.H.H.p.p.p.g.g.p.p.p.a.a.a.f.f.g.g.g.f.f.f.f.f.g.g.g.g.g.g.a.a.s.s.s.",
"f.f.f.g.g.g.g.g.H.H.H.p.p.g.g.g.p.p.p.a.a.f.f.f.g.g.g.f.f.f.f.f.g.g.g.g.g.a.a.W W W # # # O.O.O.; ; ; 3.3.3.c c c ! ! ! $.$.$.V.V.V.Z.Z.Z.S S S 9.9.9.6.6.6.v.v.v.3 3 3 >.>.>.] ] ] g.g.g.H.H.H.p.p.p.g.g.p.p.p.a.a.a.f.f.g.g.g.f.f.f.f.f.g.g.g.g.g.g.a.a.s.s.s.",
"f.f.f.g.g.g.g.g.H.H.H.p.p.g.g.g.p.p.p.a.a.f.f.f.g.g.g.f.f.f.f.f.g.g.g.g.g.a.a.W W W # # # O.O.O.; ; ; 3.3.3.c c c ! ! ! $.$.$.V.V.V.Z.Z.Z.S S S 9.9.9.6.6.6.v.v.v.3 3 3 >.>.>.] ] ] g.g.g.H.H.H.p.p.p.g.g.p.p.p.a.a.a.f.f.g.g.g.f.f.f.f.f.g.g.g.g.g.g.a.a.s.s.s.",
"s.s.s.s.s.p.p.p.g.g.g.g.g.p.p.p.a.a.a.s.s.g.g.g.s.s.s.1.1.a.a.a.g.g.g.H.H.g.g.W W W # # # O.O.O.; ; ; 3.3.3.c c c ! ! ! $.$.$.V.V.V.Z.Z.Z.S S S 9.9.9.6.6.6.v.v.v.3 3 3 >.>.>.] ] ] s.p.p.g.g.g.g.g.g.p.p.a.a.a.s.s.s.g.g.s.s.s.1.1.1.a.a.g.g.g.H.H.H.g.g.1.1.1.",
"s.s.s.s.s.p.p.p.g.g.g.g.g.p.p.p.a.a.a.s.s.g.g.g.s.s.s.1.1.a.a.a.g.g.g.H.H.g.g.g.1.1.W W W n.n.n.& & & u.u.u.3.3.3.^ ^ ^ %.%.%.m.m.m.>.>.>.d d d 3 3 3 F.F.F.d.d.d.2 2 2 N.N.N.' ' ' s.p.p.g.g.g.g.g.g.p.p.a.a.a.s.s.s.g.g.s.s.s.1.1.1.a.a.g.g.g.H.H.H.g.g.1.1.1.",
"s.s.s.s.s.p.p.p.g.g.g.g.g.p.p.p.a.a.a.s.s.g.g.g.s.s.s.1.1.a.a.a.g.g.g.H.H.g.g.g.1.1.W W W n.n.n.& & & u.u.u.3.3.3.^ ^ ^ %.%.%.m.m.m.>.>.>.d d d 3 3 3 F.F.F.d.d.d.2 2 2 N.N.N.' ' ' s.p.p.g.g.g.g.g.g.p.p.a.a.a.s.s.s.g.g.s.s.s.1.1.1.a.a.g.g.g.H.H.H.g.g.1.1.1.",
"g.g.g.g.g.1.1.1.s.s.s.f.f.a.a.a.s.s.s.g.g.f.f.f.a.a.a.g.g.g.g.g.g.g.g.g.g.g.g.g.f.f.W W W n.n.n.& & & u.u.u.3.3.3.^ ^ ^ %.%.%.m.m.m.>.>.>.d d d 3 3 3 F.F.F.d.d.d.2 2 2 N.N.N.' ' ' g.1.1.s.s.s.f.f.f.a.a.s.s.s.g.g.g.f.f.a.a.a.g.g.g.g.g.g.g.g.g.g.g.g.g.f.f.f.",
"g.g.g.g.g.1.1.1.s.s.s.f.f.a.a.a.s.s.s.g.g.f.f.f.a.a.a.g.g.g.g.g.g.g.g.g.g.g.g.W W W I I I W W W *.*.*.& & & u.u.u.P.P.P.! ! ! j.j.j.>.>.>.3 3 3 L.L.L.d.d.d.: : : C.C.C.] ] ] U U U ' ' ' s.s.s.f.f.f.a.a.s.s.s.g.g.g.f.f.a.a.a.g.g.g.g.g.g.g.g.g.g.g.g.g.f.f.f.",
"g.g.g.g.g.g.g.g.s.s.s.g.g.s.s.s.g.g.g.a.a.a.a.a.g.g.g.a.a.H.H.H.f.f.f.s.s.f.f.W W W I I I W W W *.*.*.& & & u.u.u.P.P.P.! ! ! j.j.j.>.>.>.3 3 3 L.L.L.d.d.d.: : : C.C.C.] ] ] U U U ' ' ' s.s.s.g.g.g.s.s.g.g.g.a.a.a.a.a.g.g.g.a.a.a.H.H.f.f.f.s.s.s.f.f.g.g.g.",
"g.g.g.g.g.g.g.g.s.s.s.g.g.s.s.s.g.g.g.a.a.a.a.a.g.g.g.a.a.H.H.H.f.f.f.s.s.f.f.W W W I I I W W W *.*.*.& & & u.u.u.P.P.P.! ! ! j.j.j.>.>.>.3 3 3 L.L.L.d.d.d.: : : C.C.C.] ] ] U U U ' ' ' s.s.s.g.g.g.s.s.g.g.g.a.a.a.a.a.g.g.g.a.a.a.H.H.f.f.f.s.s.s.f.f.g.g.g.",
"g.g.g.g.g.g.g.g.s.s.s.g.g.s.s.s.g.g.g.a.a.a.a.a.g.g.g.a.a.H.H.H.f.f.f.s.s.f.f.W W W I I I I I I Z.Z.Z.j.j.j.O.O.O.& & & I.I.I.G.G.G.L L L U.U.U.; ; ; >.>.>.G.G.G.Z.Z.Z.I I I I I I W W W s.s.s.g.g.g.s.s.g.g.g.a.a.a.a.a.g.g.g.a.a.a.H.H.f.f.f.s.s.s.f.f.g.g.g.",
"g.g.g.g.g.1.1.1.s.s.s.1.1.g.g.g.H.H.H.f.f.s.s.s.s.s.s.g.g.a.a.a.f.f.f.g.g.s.s.W W W I I I I I I Z.Z.Z.j.j.j.O.O.O.& & & I.I.I.G.G.G.L L L U.U.U.; ; ; >.>.>.G.G.G.Z.Z.Z.I I I I I I W W W s.s.s.1.1.1.g.g.H.H.H.f.f.f.s.s.s.s.s.g.g.g.a.a.f.f.f.g.g.g.s.s.g.g.g.",
"g.g.g.g.g.1.1.1.s.s.s.1.1.g.g.g.H.H.H.f.f.s.s.s.s.s.s.g.g.a.a.a.f.f.f.g.g.s.s.W W W I I I I I I Z.Z.Z.j.j.j.O.O.O.& & & I.I.I.G.G.G.L L L U.U.U.; ; ; >.>.>.G.G.G.Z.Z.Z.I I I I I I W W W s.s.s.1.1.1.g.g.H.H.H.f.f.f.s.s.s.s.s.g.g.g.a.a.f.f.f.g.g.g.s.s.g.g.g.",
"g.g.g.g.g.1.1.1.s.s.s.1.1.g.g.g.H.H.H.f.f.s.s.s.s.s.s.g.g.a.a.a.f.f.f.g.g.s.s.W W W I I I X.X.X.o.o.o.I I I Z.Z.Z.D.D.D.y.y.y.i.i.i.G.G.G.t.t.t.G.G.G.Z.Z.Z.I I I o.o.o.X.X.X.I I I W W W s.s.s.1.1.1.g.g.H.H.H.f.f.f.s.s.s.s.s.g.g.g.a.a.f.f.f.g.g.g.s.s.g.g.g.",
"f.f.f.1.1.s.s.s.s.s.s.g.g.g.g.g.g.g.g.s.s.g.g.g.f.f.f.s.s.g.g.g.s.s.s.g.g.g.g.W W W I I I X.X.X.o.o.o.I I I Z.Z.Z.D.D.D.y.y.y.i.i.i.G.G.G.t.t.t.G.G.G.Z.Z.Z.I I I o.o.o.X.X.X.I I I W W W s.s.s.g.g.g.g.g.g.g.g.s.s.s.g.g.f.f.f.s.s.s.g.g.s.s.s.g.g.g.g.g.f.f.f.",
"f.f.f.1.1.s.s.s.s.s.s.g.g.g.g.g.g.g.g.s.s.g.g.g.f.f.f.s.s.g.g.g.s.s.s.g.g.g.g.W W W I I I X.X.X.o.o.o.I I I Z.Z.Z.D.D.D.y.y.y.i.i.i.G.G.G.t.t.t.G.G.G.Z.Z.Z.I I I o.o.o.X.X.X.I I I W W W s.s.s.g.g.g.g.g.g.g.g.s.s.s.g.g.f.f.f.s.s.s.g.g.s.s.s.g.g.g.g.g.f.f.f.",
"s.s.s.s.s.g.g.g.g.g.g.s.s.s.s.s.1.1.1.g.g.g.g.g.f.f.f.a.a.1.1.1.1.1.1.f.f.1.1.J.J.J.W W W I I I I I I u u u V V V Z.Z.Z.I I I I I I I I I I I I Z.Z.Z.B B B u u u I I I I I I W W W J.J.J.g.g.g.s.s.s.s.s.1.1.1.g.g.g.g.g.f.f.f.a.a.a.1.1.1.1.1.f.f.f.1.1.s.s.s.",
"s.s.s.s.s.g.g.g.g.g.g.s.s.s.s.s.1.1.1.g.g.g.g.g.f.f.f.a.a.1.1.1.1.1.1.f.f.1.1.J.J.J.W W W I I I I I I u u u V V V Z.Z.Z.I I I I I I I I I I I I Z.Z.Z.B B B u u u I I I I I I W W W J.J.J.g.g.g.s.s.s.s.s.1.1.1.g.g.g.g.g.f.f.f.a.a.a.1.1.1.1.1.f.f.f.1.1.s.s.s.",
"s.s.s.s.s.g.g.g.g.g.g.s.s.s.s.s.1.1.1.g.g.g.g.g.f.f.f.a.a.1.1.1.1.1.1.f.f.1.1.J.J.J.W W W I I I I I I u u u V V V Z.Z.Z.I I I I I I I I I I I I Z.Z.Z.B B B u u u I I I I I I W W W J.J.J.g.g.g.s.s.s.s.s.1.1.1.g.g.g.g.g.f.f.f.a.a.a.1.1.1.1.1.f.f.f.1.1.s.s.s.",
"f.f.f.g.g.s.s.s.g.g.g.g.g.f.f.f.a.a.a.g.g.a.a.a.g.g.g.s.s.f.f.f.g.g.g.a.a.g.g.g.a.a.a.f.f.W W W I I I I I I B B B I I I I I I o o o o o o I I I I I I V V V I I I I I I W W W f.g.g.g.s.s.g.g.g.g.g.g.f.f.a.a.a.g.g.g.a.a.g.g.g.s.s.s.f.f.g.g.g.a.a.a.g.g.a.a.a.",
"f.f.f.g.g.s.s.s.g.g.g.g.g.f.f.f.a.a.a.g.g.a.a.a.g.g.g.s.s.f.f.f.g.g.g.a.a.g.g.g.a.a.a.f.f.W W W I I I I I I B B B I I I I I I o o o o o o I I I I I I V V V I I I I I I W W W f.g.g.g.s.s.g.g.g.g.g.g.f.f.a.a.a.g.g.g.a.a.g.g.g.s.s.s.f.f.g.g.g.a.a.a.g.g.a.a.a.",
"f.f.f.g.g.s.s.s.g.g.g.g.g.f.f.f.a.a.a.g.g.a.a.a.g.g.g.s.s.f.f.f.g.g.g.a.a.g.g.g.a.a.a.f.f.W W W I I I I I I B B B I I I I I I o o o o o o I I I I I I V V V I I I I I I W W W f.g.g.g.s.s.g.g.g.g.g.g.f.f.a.a.a.g.g.g.a.a.g.g.g.s.s.s.f.f.g.g.g.a.a.a.g.g.a.a.a.",
"s.s.s.g.g.g.g.g.H.H.H.g.g.f.f.f.s.s.s.f.f.H.H.H.g.g.g.g.g.f.f.f.a.a.a.g.g.a.a.a.g.g.g.s.s.g.g.g.W W W W W W I I I o o o o o o o o o X X X o o o . . . I I I W W W W W W g.s.s.s.g.g.g.g.g.H.H.H.g.g.g.f.f.s.s.s.f.f.f.H.H.g.g.g.g.g.g.f.f.a.a.a.g.g.g.a.a.g.g.g.",
"s.s.s.g.g.g.g.g.H.H.H.g.g.f.f.f.s.s.s.f.f.H.H.H.g.g.g.g.g.f.f.f.a.a.a.g.g.a.a.a.g.g.g.s.s.g.g.g.W W W W W W I I I o o o o o o o o o X X X o o o . . . I I I W W W W W W g.s.s.s.g.g.g.g.g.H.H.H.g.g.g.f.f.s.s.s.f.f.f.H.H.g.g.g.g.g.g.f.f.a.a.a.g.g.g.a.a.g.g.g.",
"g.g.g.1.1.f.f.f.g.g.g.s.s.s.s.s.1.1.1.g.g.f.f.f.f.f.f.g.g.g.g.g.s.s.s.g.g.s.s.s.f.f.f.g.g.1.1.1.W W W W W W I I I o o o o o o o o o X X X o o o . . . I I I W W W W W W f.g.g.g.1.1.1.f.f.g.g.g.s.s.s.s.s.1.1.1.g.g.g.f.f.f.f.f.g.g.g.g.g.s.s.s.g.g.g.s.s.f.f.f.",
"g.g.g.1.1.f.f.f.g.g.g.s.s.s.s.s.1.1.1.g.g.f.f.f.f.f.f.g.g.g.g.g.s.s.s.g.g.s.s.s.f.f.f.g.g.1.1.1.f.f.f.g.g.s.W W W . . . o o o       . . . . . . W W W W W W g.g.s.s.s.f.f.g.g.g.1.1.1.f.f.g.g.g.s.s.s.s.s.1.1.1.g.g.g.f.f.f.f.f.g.g.g.g.g.s.s.s.g.g.g.s.s.f.f.f.",
"g.g.g.1.1.f.f.f.g.g.g.s.s.s.s.s.1.1.1.g.g.f.f.f.f.f.f.g.g.g.g.g.s.s.s.g.g.s.s.s.f.f.f.g.g.1.1.1.f.f.f.g.g.s.W W W . . . o o o       . . . . . . W W W W W W g.g.s.s.s.f.f.g.g.g.1.1.1.f.f.g.g.g.s.s.s.s.s.1.1.1.g.g.g.f.f.f.f.f.g.g.g.g.g.s.s.s.g.g.g.s.s.f.f.f.",
"s.s.s.a.a.1.1.1.s.s.s.g.g.1.1.1.f.f.f.f.f.g.g.g.g.g.g.1.1.a.a.a.s.s.s.s.s.1.1.1.g.g.g.s.s.a.a.a.1.1.1.s.s.g.W W W . . . o o o       . . . . . . W W W W W W s.s.1.1.1.g.g.s.s.s.a.a.a.1.1.s.s.s.g.g.g.1.1.f.f.f.f.f.f.g.g.g.g.g.1.1.1.a.a.s.s.s.s.s.s.1.1.g.g.g.",
"s.s.s.a.a.1.1.1.s.s.s.g.g.1.1.1.f.f.f.f.f.g.g.g.g.g.g.1.1.a.a.a.s.s.s.s.s.1.1.1.g.g.g.s.s.a.a.a.1.1.1.s.s.g.g.g.1.W W W . . . . . . W W W ' ' ' a.a.a.s.s.s.s.s.1.1.1.g.g.s.s.s.a.a.a.1.1.s.s.s.g.g.g.1.1.f.f.f.f.f.f.g.g.g.g.g.1.1.1.a.a.s.s.s.s.s.s.1.1.g.g.g.",
"s.s.s.a.a.1.1.1.s.s.s.g.g.1.1.1.f.f.f.f.f.g.g.g.g.g.g.1.1.a.a.a.s.s.s.s.s.1.1.1.g.g.g.s.s.a.a.a.1.1.1.s.s.g.g.g.1.W W W . . . . . . W W W ' ' ' a.a.a.s.s.s.s.s.1.1.1.g.g.s.s.s.a.a.a.1.1.s.s.s.g.g.g.1.1.f.f.f.f.f.f.g.g.g.g.g.1.1.1.a.a.s.s.s.s.s.s.1.1.g.g.g.",
"g.g.g.g.g.f.f.f.f.f.f.1.1.s.s.s.g.g.g.g.g.H.H.H.g.g.g.g.g.s.s.s.1.1.1.g.g.g.g.g.g.g.g.g.g.g.g.g.f.f.f.f.f.1.1.1.s.W W W . . . . . . W W W ' ' ' s.s.s.1.1.g.g.g.g.g.g.g.g.g.g.g.g.g.g.f.f.f.f.f.1.1.1.s.s.g.g.g.g.g.g.H.H.g.g.g.g.g.g.s.s.1.1.1.g.g.g.g.g.g.g.g.",
"g.g.g.g.g.f.f.f.f.f.f.1.1.s.s.s.g.g.g.g.g.H.H.H.g.g.g.g.g.s.s.s.1.1.1.g.g.g.g.g.g.g.g.g.g.g.g.g.f.f.f.f.f.1.1.1.s.s.s.g.W W W W W W H.g.g.g.g.g.s.s.s.1.1.g.g.g.g.g.g.g.g.g.g.g.g.g.g.f.f.f.f.f.1.1.1.s.s.g.g.g.g.g.g.H.H.g.g.g.g.g.g.s.s.1.1.1.g.g.g.g.g.g.g.g.",
"p.p.p.g.g.s.s.s.1.1.1.1.1.g.g.g.g.g.g.g.g.g.g.g.s.s.s.f.f.1.1.1.g.g.g.H.H.p.p.p.g.g.g.p.p.g.g.g.s.s.s.1.1.1.1.1.g.g.g.g.W W W W W W g.s.s.f.f.f.1.1.1.g.g.H.H.H.p.p.p.g.g.p.p.p.g.g.g.s.s.1.1.1.1.1.1.g.g.g.g.g.g.g.g.g.g.s.s.s.f.f.f.1.1.g.g.g.H.H.H.p.p.g.g.g.",
"p.p.p.g.g.s.s.s.1.1.1.1.1.g.g.g.g.g.g.g.g.g.g.g.s.s.s.f.f.1.1.1.g.g.g.H.H.p.p.p.g.g.g.p.p.g.g.g.s.s.s.1.1.1.1.1.g.g.g.g.W W W W W W g.s.s.f.f.f.1.1.1.g.g.H.H.H.p.p.p.g.g.p.p.p.g.g.g.s.s.1.1.1.1.1.1.g.g.g.g.g.g.g.g.g.g.s.s.s.f.f.f.1.1.g.g.g.H.H.H.p.p.g.g.g.",
"p.p.p.g.g.s.s.s.1.1.1.1.1.g.g.g.g.g.g.g.g.g.g.g.s.s.s.f.f.1.1.1.g.g.g.H.H.p.p.p.g.g.g.p.p.g.g.g.s.s.s.1.1.1.1.1.g.g.g.g.g.g.g.g.g.g.g.s.s.f.f.f.1.1.1.g.g.H.H.H.p.p.p.g.g.p.p.p.g.g.g.s.s.1.1.1.1.1.1.g.g.g.g.g.g.g.g.g.g.s.s.s.f.f.f.1.1.g.g.g.H.H.H.p.p.g.g.g.",
"g.g.g.s.s.f.f.f.f.f.f.g.g.f.f.f.1.1.1.g.g.g.g.g.1.1.1.1.1.s.s.s.g.g.g.p.p.g.g.g.p.p.p.g.g.s.s.s.f.f.f.f.f.g.g.g.f.f.f.1.1.g.g.g.g.g.g.1.1.1.1.1.s.s.s.g.g.p.p.p.g.g.g.p.p.g.g.g.s.s.s.f.f.f.f.f.g.g.g.f.f.1.1.1.g.g.g.g.g.1.1.1.1.1.1.s.s.g.g.g.p.p.p.g.g.p.p.p.",
"g.g.g.s.s.f.f.f.f.f.f.g.g.f.f.f.1.1.1.g.g.g.g.g.1.1.1.1.1.s.s.s.g.g.g.p.p.g.g.g.p.p.p.g.g.s.s.s.f.f.f.f.f.g.g.g.f.f.f.1.1.g.g.g.g.g.g.1.1.1.1.1.s.s.s.g.g.p.p.p.g.g.g.p.p.g.g.g.s.s.s.f.f.f.f.f.g.g.g.f.f.1.1.1.g.g.g.g.g.1.1.1.1.1.1.s.s.g.g.g.p.p.p.g.g.p.p.p.",
"g.g.g.s.s.f.f.f.f.f.f.g.g.f.f.f.1.1.1.g.g.g.g.g.1.1.1.1.1.s.s.s.g.g.g.p.p.g.g.g.p.p.p.g.g.s.s.s.f.f.f.f.f.g.g.g.f.f.f.1.1.g.g.g.g.g.g.1.1.1.1.1.s.s.s.g.g.p.p.p.g.g.g.p.p.g.g.g.s.s.s.f.f.f.f.f.g.g.g.f.f.1.1.1.g.g.g.g.g.1.1.1.1.1.1.s.s.g.g.g.p.p.p.g.g.p.p.p.",
"s.s.s.1.1.g.g.g.g.g.g.s.s.a.a.a.s.s.s.1.1.g.g.g.f.f.f.f.f.f.f.f.a.a.a.g.g.p.p.p.g.g.g.s.s.1.1.1.g.g.g.g.g.s.s.s.a.a.a.s.s.1.1.1.g.g.g.f.f.f.f.f.f.f.f.a.a.g.g.g.p.p.p.g.g.s.s.s.1.1.1.g.g.g.g.g.s.s.s.a.a.s.s.s.1.1.1.g.g.f.f.f.f.f.f.f.f.a.a.a.g.g.g.p.p.g.g.g.",
"s.s.s.1.1.g.g.g.g.g.g.s.s.a.a.a.s.s.s.1.1.g.g.g.f.f.f.f.f.f.f.f.a.a.a.g.g.p.p.p.g.g.g.s.s.1.1.1.g.g.g.g.g.s.s.s.a.a.a.s.s.1.1.1.g.g.g.f.f.f.f.f.f.f.f.a.a.g.g.g.p.p.p.g.g.s.s.s.1.1.1.g.g.g.g.g.s.s.s.a.a.s.s.s.1.1.1.g.g.f.f.f.f.f.f.f.f.a.a.a.g.g.g.p.p.g.g.g.",
"1.1.1.f.f.g.g.g.g.g.g.g.g.p.p.p.g.g.g.g.g.s.s.s.f.f.f.g.g.g.g.g.1.1.1.f.f.s.s.s.s.s.s.1.1.f.f.f.g.g.g.g.g.g.g.g.p.p.p.g.g.g.g.g.s.s.s.f.f.g.g.g.g.g.g.1.1.f.f.f.s.s.s.s.s.1.1.1.f.f.f.g.g.g.g.g.g.g.g.p.p.g.g.g.g.g.g.s.s.f.f.f.g.g.g.g.g.1.1.1.f.f.f.s.s.s.s.s.",
"1.1.1.f.f.g.g.g.g.g.g.g.g.p.p.p.g.g.g.g.g.s.s.s.f.f.f.g.g.g.g.g.1.1.1.f.f.s.s.s.s.s.s.1.1.f.f.f.g.g.g.g.g.g.g.g.p.p.p.g.g.g.g.g.s.s.s.f.f.g.g.g.g.g.g.1.1.f.f.f.s.s.s.s.s.1.1.1.f.f.f.g.g.g.g.g.g.g.g.p.p.g.g.g.g.g.g.s.s.f.f.f.g.g.g.g.g.1.1.1.f.f.f.s.s.s.s.s.",
"1.1.1.f.f.g.g.g.g.g.g.g.g.p.p.p.g.g.g.g.g.s.s.s.f.f.f.g.g.g.g.g.1.1.1.f.f.s.s.s.s.s.s.1.1.f.f.f.g.g.g.g.g.g.g.g.p.p.p.g.g.g.g.g.s.s.s.f.f.g.g.g.g.g.g.1.1.f.f.f.s.s.s.s.s.1.1.1.f.f.f.g.g.g.g.g.g.g.g.p.p.g.g.g.g.g.g.s.s.f.f.f.g.g.g.g.g.1.1.1.f.f.f.s.s.s.s.s.",
"f.f.f.g.g.g.g.g.H.H.H.p.p.g.g.g.p.p.p.a.a.f.f.f.g.g.g.f.f.f.f.f.g.g.g.g.g.a.a.a.s.s.s.f.f.g.g.g.g.g.g.H.H.p.p.p.g.g.g.p.                        f.f.f.g.g.g.g.g.a.a.a.s.s.f.f.f.g.g.g.g.g.H.H.H.p.p.p.g.g.p.p.p.a.a.a.f.f.g.g.g.f.f.f.f.f.g.g.g.g.g.g.a.a.s.s.s.",
"f.f.f.g.g.g.g.g.H.H.H.p.p.g.g.g.p.p.p.a.a.f.f.f.g.g.g.f.f.f.f.f.g.g.g.g.g.a.a.a.s.s.s.f.f.g.g.g.g.g.g.H.H.p.p.p.g.g.g.p.                        f.f.f.g.g.g.g.g.a.a.a.s.s.f.f.f.g.g.g.g.g.H.H.H.p.p.p.g.g.p.p.p.a.a.a.f.f.g.g.g.f.f.f.f.f.g.g.g.g.g.g.a.a.s.s.s.",
"f.f.f.g.g.g.g.g.H.H.H.p.p.g.g.g.p.p.p.a.a.f.f.f.g.g.g.f.f.f.f.f.g.g.g.g.g.a.a.a.s.s.s.f.f.g.g.g.g.g.g.H.H.p.p.p.g.g.g.p.                        f.f.f.g.g.g.g.g.a.a.a.s.s.f.f.f.g.g.g.g.g.H.H.H.p.p.p.g.g.p.p.p.a.a.a.f.f.g.g.g.f.f.f.f.f.g.g.g.g.g.g.a.a.s.s.s.",
"s.s.s.s.s.p.p.p.g.g.g.g.g.p.p.p.a.a.a.s.s.g.g.g.s.s.s.1.1.a.a.a.g.g.g.H.H.g.g.g.1.1.1.s.s.s.s.s.p.p.p.g.g.g.                                                H.H.g.g.g.1.1.s.s.s.s.s.s.p.p.g.g.g.g.g.g.p.p.a.a.a.s.s.s.g.g.s.s.s.1.1.1.a.a.g.g.g.H.H.H.g.g.1.1.1.",
"s.s.s.s.s.p.p.p.g.g.g.g.g.p.p.p.a.a.a.s.s.g.g.g.s.s.s.1.1.a.a.a.g.g.g.H.H.g.g.g.1.1.1.s.s.s.s.s.p.p.p.g.g.g.                                                H.H.g.g.g.1.1.s.s.s.s.s.s.p.p.g.g.g.g.g.g.p.p.a.a.a.s.s.s.g.g.s.s.s.1.1.1.a.a.g.g.g.H.H.H.g.g.1.1.1.",
"g.g.g.g.g.1.1.1.s.s.s.f.f.a.a.a.s.s.s.g.g.f.f.f.a.a.a.g.g.g.g.g.g.g.g.g.g.g.g.g.f.f.f.g.g.g.g.g.1.1.1.s.s.f.                                                g.g.g.g.g.f.f.g.g.g.g.g.g.1.1.s.s.s.f.f.f.a.a.s.s.s.g.g.g.f.f.a.a.a.g.g.g.g.g.g.g.g.g.g.g.g.g.f.f.f.",
"g.g.g.g.g.1.1.1.s.s.s.f.f.a.a.a.s.s.s.g.g.f.f.f.a.a.a.g.g.g.g.g.g.g.g.g.g.g.g.g.f.f.f.g.g.g.g.g.1.1.1.s.s.f.f.f.a.a.a.s.s.g.g.g.f.f.f.a.a.g.g.g.g.g.g.g.g.g.g.g.g.g.g.f.f.g.g.g.g.g.g.1.1.s.s.s.f.f.f.a.a.s.s.s.g.g.g.f.f.a.a.a.g.g.g.g.g.g.g.g.g.g.g.g.g.f.f.f.",
"g.g.g.g.g.1.1.1.s.s.s.f.f.a.a.a.s.s.s.g.g.f.f.f.a.a.a.g.g.g.g.g.g.g.g.g.g.g.g.g.f.f.f.g.g.g.g.g.1.1.1.s.s.f.f.f.a.a.a.s.s.g.g.g.f.f.f.a.a.g.g.g.g.g.g.g.g.g.g.g.g.g.g.f.f.g.g.g.g.g.g.1.1.s.s.s.f.f.f.a.a.s.s.s.g.g.g.f.f.a.a.a.g.g.g.g.g.g.g.g.g.g.g.g.g.f.f.f."
};
