/* XPM */
static char *e10fd127416d4091d5303779a9087cfanTsZHBQX59bGAgjK[] = {
/* columns rows colors chars-per-pixel */
"128 128 148 2 ",
"   c #030304",
".  c #311800",
"X  c #112C34",
"o  c #313131",
"O  c #480B0E",
"+  c #4A0E11",
"@  c #4E1316",
"#  c #561D20",
"$  c #5B2528",
"%  c #4D3823",
"&  c #612D2F",
"*  c #632F32",
"=  c #683639",
"-  c #614E3C",
";  c #320162",
":  c #3F116C",
">  c #6E3E40",
",  c #451A71",
"<  c #4F2578",
"1  c #724C49",
"2  c #901D24",
"3  c #9C363C",
"4  c #C82028",
"5  c #CC333A",
"6  c #8B5011",
"7  c #A9661C",
"8  c #995E2C",
"9  c #B07235",
"0  c #C37139",
"q  c #A03D43",
"w  c #DF3942",
"e  c #8E5151",
"r  c #A3444A",
"t  c #AA5358",
"y  c #AC7A47",
"u  c #865E60",
"i  c #8F716E",
"p  c #AD7376",
"a  c #D0454B",
"s  c #D5575D",
"d  c #E04049",
"f  c #E14952",
"g  c #CA7948",
"h  c #C97357",
"j  c #D75D63",
"k  c #E45A62",
"l  c #D56E6B",
"z  c #E6656B",
"x  c #E76C73",
"c  c #E8767B",
"v  c #BD8339",
"b  c #D6AD09",
"n  c #E2B60A",
"m  c #C0943E",
"M  c #ECB72F",
"N  c #F0CA32",
"B  c #B38650",
"V  c #CB8C55",
"C  c #CE876F",
"Z  c #CCA674",
"A  c #EEAF7F",
"S  c #FAD650",
"D  c #FFE16D",
"F  c #52119C",
"G  c #5B3482",
"H  c #623D87",
"J  c #5B1DA0",
"K  c #165D8B",
"L  c #30768D",
"P  c #3D76A5",
"I  c #745196",
"U  c #50728E",
"Y  c #637C91",
"T  c #865C9A",
"R  c #9173AD",
"E  c #E97D82",
"W  c #C87AB4",
"Q  c #956DCC",
"!  c #A371CA",
"~  c #5588A7",
"^  c #6A92B2",
"/  c #72A3B1",
"(  c #2D9DE5",
")  c #4E8EC4",
"_  c #54ABC6",
"`  c #51AEE9",
"'  c #16D7FF",
"]  c #7CC0D3",
"[  c #9F8081",
"{  c #AE978E",
"}  c #8C8DAE",
"|  c #AF9CAB",
" . c #A58FBA",
".. c #A793BC",
"X. c #92A4B2",
"o. c #D89784",
"O. c #EC8D92",
"+. c #ED9297",
"@. c #CFB08B",
"#. c #F2B586",
"$. c #E4A99A",
"%. c #DC9FB7",
"&. c #C8AAB0",
"*. c #EFA0A4",
"=. c #F0A7AC",
"-. c #F2BAA4",
";. c #F1ADB1",
":. c #F2B5B8",
">. c #F6CF8F",
",. c #F6D399",
"<. c #FFE996",
"1. c #DFD1A5",
"2. c #D7D4B2",
"3. c #E8C2A0",
"4. c #F7D8A5",
"5. c #F5C7B6",
"6. c #FFC5BF",
"7. c #FFDAB0",
"8. c #F9E5B8",
"9. c #B48BD5",
"0. c #8EB0CC",
"q. c #B8ABE5",
"w. c #C28ED6",
"e. c #C49ADA",
"r. c #D7BCDC",
"t. c #F3BEC1",
"y. c #CDB2E7",
"u. c #88C6D7",
"i. c #B0D9E4",
"p. c #B4EEFE",
"a. c #D1C6D2",
"s. c #F6D0C1",
"d. c #E9C4D0",
"f. c #F7CFD2",
"g. c #FBEBD2",
"h. c #CDCBEC",
"j. c #E6DDEE",
"k. c #FFDFEF",
"l. c #CAE5ED",
"z. c #D0E9EF",
"x. c #CDE6FE",
"c. c #D9ECFC",
"v. c #C3F2FF",
"b. c #FFEEE3",
"n. c #FCF2E1",
"m. c #E6E8F2",
"M. c #E9F4F8",
"N. c #F4F9FD",
/* pixels */
"7.7.7.7.7.7.7.7.3.3.3.7.7.3.3.3.7.7.7.2.2.2.2.2.7.7.7.2.2.k.k.k.6.6.6.3.3.6.6.6.7.7.7.7.7.7.7.7.7.7.7.3.3.7.7.7.3.3.3.7.7.2.2.2.2.2.2.7.7.2.2.2.k.k.k.6.6.3.3.3.6.6.6.7.7.7.7.7.7.7.7.7.7.3.3.3.7.7.7.3.3.7.7.7.2.2.2.2.2.7.7.7.2.2.2.k.k.6.6.6.3.3.3.6.6.7.7.7.",
"7.7.7.7.7.7.7.7.3.3.3.7.7.3.3.3.7.7.7.2.2.2.2.2.7.7.7.2.2.k.k.k.6.6.6.3.3.6.6.6.7.7.7.7.7.7.7.7.7.7.7.3.3.7.7.7.3.3.3.7.7.2.2.2.2.2.2.7.7.2.2.2.k.k.k.6.6.3.3.3.6.6.6.7.7.7.7.7.7.7.7.7.7.3.3.3.7.7.7.3.3.7.7.7.2.2.2.2.2.7.7.7.2.2.2.k.k.6.6.6.3.3.3.6.6.7.7.7.",
"7.7.7.7.7.7.7.7.3.3.3.7.7.3.3.3.7.7.7.2.2.2.2.2.7.7.7.2.2.k.k.k.6.6.6.3.3.6.6.6.7.7.7.7.7.7.7.7.7.7.7.3.3.7.7.7.3.3.3.7.7.2.2.2.2.2.2.7.7.2.2.2.k.k.k.6.6.3.3.3.6.6.6.7.7.7.7.7.7.7.7.7.7.3.3.3.7.7.7.3.3.7.7.7.2.2.2.2.2.7.7.7.2.2.2.k.k.6.6.6.3.3.3.6.6.7.7.7.",
"7.7.7.7.7.#.#.#.3.3.3.#.#.7.7.7.k.k.k.6.6.3.3.3.3.3.3.7.7.2.2.2.6.6.6.7.7.3.3.3.7.7.7.7.7.7.7.7.#.#.#.3.3.#.#.#.7.7.7.k.k.6.6.6.3.3.3.3.3.7.7.7.2.2.2.6.6.7.7.7.3.3.3.7.7.7.7.7.7.7.7.#.#.3.3.3.#.#.#.7.7.k.k.k.6.6.6.3.3.3.3.3.7.7.7.2.2.6.6.6.7.7.7.3.3.7.7.7.",
"7.7.7.7.7.#.#.#.3.3.3.#.#.7.7.7.k.k.k.6.6.3.3.3.3.3.3.7.7.2.2.2.6.6.6.7.7.3.3.3.7.7.7.7.7.7.7.7.#.#.#.3.3.#.#.#.7.7.7.k.k.6.6.6.3.3.3.3.3.7.7.7.2.2.2.6.6.7.7.7.3.3.3.7.7.7.7.7.7.7.7.#.#.3.3.3.#.#.#.7.7.k.k.k.6.6.6.3.3.3.3.3.7.7.7.2.2.6.6.6.7.7.7.3.3.7.7.7.",
"6.6.6.#.#.3.3.3.3.3.3.7.7.7.7.7.7.7.7.3.3.7.7.7.6.6.6.3.3.7.7.7.3.3.3.7.7.7.7.7.6.6.6.6.6.#.#.#.3.3.3.3.3.7.7.7.7.7.7.7.7.3.3.3.7.7.7.6.6.3.3.3.7.7.7.3.3.7.7.7.7.7.7.6.6.6.6.6.#.#.#.3.3.3.3.3.7.7.7.7.7.7.7.7.3.3.3.7.7.6.6.6.3.3.3.7.7.3.3.3.7.7.7.7.7.6.6.6.",
"6.6.6.#.#.3.3.3.3.3.3.7.7.7.7.7.7.7.7.3.3.7.7.7.6.6.6.3.3.7.7.7.3.3.3.7.7.7.7.7.6.6.6.6.6.#.#.#.3.3.3.3.3.7.7.7.7.7.7.7.7.3.3.3.7.7.7.6.6.3.3.3.7.7.7.3.3.7.7.7.7.7.7.6.6.6.6.6.#.#.#.3.3.3.3.3.7.7.7.7.7.7.7.7.3.3.3.7.7.6.6.6.3.3.3.7.7.3.3.3.7.7.7.7.7.6.6.6.",
"6.6.6.#.#.3.3.3.3.3.3.7.7.7.7.7.7.7.7.3.3.7.7.7.6.6.6.3.3.7.7.7.3.3.3.7.7.7.7.7.6.6.6.6.6.#.#.#.3.3.3.3.3.7.7.7.7.7.7.7.7.3.3.3.7.7.7.6.6.3.3.3.7.7.7.3.3.7.7.7.7.7.7.6.6.6.6.6.#.#.#.3.3.3.3.3.7.7.7.7.7.7.7.7.3.3.3.7.7.6.6.6.3.3.3.7.7.3.3.3.7.7.7.7.7.6.6.6.",
"3.3.3.3.3.7.7.7.7.7.7.3.3.3.3.3.#.#.#.7.7.7.7.7.6.6.6.2.2.#.#.#.#.#.#.6.6.#.#.#.3.3.3.3.3.3.3.3.7.7.7.7.7.3.3.3.3.3.3.#.#.7.7.7.7.7.7.6.6.2.2.2.#.#.#.#.#.6.6.6.#.#.#.3.3.3.3.3.3.3.3.7.7.7.7.7.3.3.3.3.3.#.#.#.7.7.7.7.7.6.6.6.2.2.2.#.#.#.#.#.6.6.6.#.#.3.3.3.",
"3.3.3.3.3.7.7.7.7.7.7.3.3.3.3.3.#.#.#.7.7.7.7.7.6.6.6.2.2.#.#.#.#.#.#.6.6.#.#.#.3.3.3.3.3.3.3.3.7.7.7.7.7.3.3.3.3.3.3.#.#.7.7.7.7.7.7.6.6.2.2.2.#.#.#.#.#.6.6.6.#.#.#.3.3.3.3.3.3.3.3.7.7.7.7.7.3.3.3.3.3.#.#.#.7.7.7.7.7.6.6.6.2.2.2.#.#.#.#.#.6.6.6.#.#.3.3.3.",
"3.3.3.3.3.7.7.7.7.7.7.3.3.3.3.3.#.#.#.7.7.7.7.7.6.6.6.2.2.#.#.#.#.#.#.6.6.#.#.#.3.3.3.3.3.3.3.3.7.7.7.7.7.3.3.3.3.3.3.#.#.7.7.7.7.7.7.6.6.2.2.2.#.#.#.#.#.6.6.6.#.#.#.3.3.3.3.3.3.3.3.7.7.7.7.7.3.3.3.3.3.#.#.#.7.7.7.7.7.6.6.6.2.2.2.#.#.#.#.#.6.6.6.#.#.3.3.3.",
"6.6.6.7.7.3.3.3.7.7.7.7.7.6.6.6.2.2.2.7.7.2.2.2.7.7.7.3.3.6.6.6.7.7.7.2.2.7.7.7.2.2.2.6.6.7.7.7.3.3.3.7.7.7.7.7.6.6.6.2.2.7.7.7.2.2.2.7.7.3.3.3.6.6.6.7.7.2.2.2.7.7.7.2.2.6.6.6.7.7.7.3.3.7.7.7.7.7.7.6.6.2.2.2.7.7.7.2.2.7.7.7.3.3.3.6.6.7.7.7.2.2.2.7.7.2.2.2.",
"6.6.6.7.7.3.3.3.7.7.7.7.7.6.6.6.2.2.2.7.7.2.2.2.7.7.7.3.3.6.6.6.7.7.7.2.2.7.7.7.2.2.2.6.6.7.7.7.3.3.3.7.7.7.7.7.6.6.6.2.2.7.7.7.2.2.2.7.7.3.3.3.6.6.6.7.7.2.2.2.7.7.7.2.2.6.6.6.7.7.7.3.3.7.7.7.7.7.7.6.6.2.2.2.7.7.7.2.2.7.7.7.3.3.3.6.6.7.7.7.2.2.2.7.7.2.2.2.",
"3.3.3.7.7.7.7.7.k.k.k.7.7.6.6.6.3.3.3.6.6.k.k.k.7.7.7.7.7.6.6.6.2.2.2.7.7.2.2.2.7.7.7.3.3.7.7.7.7.7.7.k.k.7.7.7.6.6.6.3.3.6.6.6.k.k.k.7.7.7.7.7.6.6.6.2.2.7.7.7.2.2.2.7.7.3.3.3.7.7.7.7.7.k.k.k.7.7.7.6.6.3.3.3.6.6.6.k.k.7.7.7.7.7.7.6.6.2.2.2.7.7.7.2.2.7.7.7.",
"3.3.3.7.7.7.7.7.k.k.k.7.7.6.6.6.3.3.3.6.6.k.k.k.7.7.7.7.7.6.6.6.2.2.2.7.7.2.2.2.7.7.7.3.3.7.7.7.7.7.7.k.k.7.7.7.6.6.6.3.3.6.6.6.k.k.k.7.7.7.7.7.6.6.6.2.2.7.7.7.2.2.2.7.7.3.3.3.7.7.7.7.7.k.k.k.7.7.7.6.6.3.3.3.6.6.6.k.k.7.7.7.7.7.7.6.6.2.2.2.7.7.7.2.2.7.7.7.",
"3.3.3.7.7.7.7.7.k.k.k.7.7.6.6.6.3.3.3.6.6.k.k.k.7.7.7.7.7.6.6.6.2.2.2.7.7.2.2.2.7.7.7.3.3.7.7.7.7.7.7.k.k.7.7.7.6.6.6.3.3.6.6.6.k.k.k.7.7.7.7.7.6.6.6.2.2.7.7.7.2.2.2.7.7.3.3.3.7.7.7.7.7.k.k.k.7.7.7.6.6.3.3.3.6.6.6.k.k.7.7.7.7.7.7.6.6.2.2.2.7.7.7.2.2.7.7.7.",
"7.7.7.#.#.6.6.6.7.7.7.3.3.3.3.3.#.#.#.7.7.6.6.6.6.6.6.7.7.7.7.7.3.3.3.7.7.3.3.3.6.6.6.7.7.#.#.#.6.6.6.7.7.3.3.3.3.3.3.#.#.7.7.7.6.6.6.6.6.7.7.7.7.7.7.3.3.7.7.7.3.3.3.6.6.7.7.7.#.#.#.6.6.7.7.7.3.3.3.3.3.#.#.#.7.7.7.6.6.6.6.6.7.7.7.7.7.3.3.3.7.7.7.3.3.6.6.6.",
"7.7.7.#.#.6.6.6.7.7.7.3.3.3.3.3.#.#.#.7.7.6.6.6.6.6.6.7.7.7.7.7.3.3.3.7.7.3.3.3.6.6.6.7.7.#.#.#.6.6.6.7.7.3.3.3.3.3.3.#.#.7.7.7.6.6.6.6.6.7.7.7.7.7.7.3.3.7.7.7.3.3.3.6.6.7.7.7.#.#.#.6.6.7.7.7.3.3.3.3.3.#.#.#.7.7.7.6.6.6.6.6.7.7.7.7.7.3.3.3.7.7.7.3.3.6.6.6.",
"7.7.7.#.#.6.6.6.7.7.7.3.3.3.3.3.#.#.#.7.7.6.6.6.6.6.6.7.7.7.7.7.3.3.3.7.7.3.3.3.6.6.6.7.7.#.#.#.6.6.6.7.7.3.3.3.3.3.3.#.#.7.7.7.6.6.6.6.6.7.7.7.7.7.7.3.3.7.7.7.3.3.3.6.6.7.7.7.#.#.#.6.6.7.7.7.3.3.3.3.3.#.#.#.7.7.7.6.6.6.6.6.7.7.7.7.7.3.3.3.7.7.7.3.3.6.6.6.",
"3.3.3.2.2.#.#.#.3.3.3.7.7.#.#.#.6.6.6.6.6.7.7.7.7.7.7.#.#.2.2.2.3.3.3.3.3.#.#.#.7.7.7.3.3.2.2.2.#.#.#.3.3.7.7.7.#.#.#.6.6.6.6.6.7.7.7.7.7.#.#.#.2.2.2.3.3.3.3.3.#.#.#.7.7.3.3.3.2.2.2.#.#.3.3.3.7.7.7.#.#.6.6.6.6.6.6.7.7.7.7.7.#.#.#.2.2.3.3.3.3.3.3.#.#.7.7.7.",
"3.3.3.2.2.#.#.#.3.3.3.7.7.#.#.#.6.6.6.6.6.7.7.7.7.7.7.#.#.2.2.2.3.3.3.3.3.#.#.#.7.7.7.3.3.2.2.2.#.#.#.3.3.7.7.7.#.#.#.6.6.6.6.6.7.7.7.7.7.#.#.#.2.2.2.3.3.3.3.3.#.#.#.7.7.3.3.3.2.2.2.#.#.3.3.3.7.7.7.#.#.6.6.6.6.6.6.7.7.7.7.7.#.#.#.2.2.3.3.3.3.3.3.#.#.7.7.7.",
"7.7.7.7.7.6.6.6.6.6.6.#.#.3.3.3.7.7.7.7.7.k.k.k.7.7.7.7.7.3.3.3.#.#.#.7.7.7.7.7.7.7.7.7.7.7.7.7.6.6.6.6.6.#.#.#.3.3.3.7.7.7.7.7.k.k.k.7.7.7.7.7.3.3.3.#.#.7.7.7.7.7.7.7.7.7.7.7.7.7.7.6.6.6.6.6.#.#.#.3.3.7.7.7.7.7.7.k.k.7.7.7.7.7.7.3.3.#.#.#.7.7.7.7.7.7.7.7.",
"7.7.7.7.7.6.6.6.6.6.6.#.#.3.3.3.7.7.7.7.7.k.k.k.7.7.7.7.7.3.3.3.#.#.#.7.7.7.7.7.7.7.7.7.7.7.7.7.6.6.6.6.6.#.#.#.3.3.3.7.7.7.7.7.k.k.k.7.7.7.7.7.3.3.3.#.#.7.7.7.7.7.7.7.7.7.7.7.7.7.7.6.6.6.6.6.#.#.#.3.3.7.7.7.7.7.7.k.k.7.7.7.7.7.7.3.3.#.#.#.7.7.7.7.7.7.7.7.",
"7.7.7.7.7.6.6.6.6.6.6.#.#.3.3.3.7.7.7.7.7.k.k.k.7.7.7.7.7.3.3.3.#.#.#.7.7.7.7.7.7.7.7.7.7.7.7.7.6.6.6.6.6.#.#.#.3.3.3.7.7.7.7.7.k.k.k.7.7.7.7.7.3.3.3.#.#.7.7.7.7.7.7.7.7.7.7.7.7.7.7.6.6.6.6.6.#.#.#.3.3.7.7.7.7.7.7.k.k.7.7.7.7.7.7.3.3.#.#.#.7.7.7.7.7.7.7.7.",
"1.1.1.7.7.3.3.3.#.#.#.#.#.7.7.7.7.7.7.7.7.7.7.7.3.3.3.6.6.#.#.#.7.7.7.k.k.1.1.1.7.7.7.1.1.7.7.7.3.3.3.#.#.#.#.#.7.7.7.7.7.7.7.7.7.7.7.3.3.6.6.6.#.#.#.7.7.k.k.k.1.1.1.7.7.1.1.1.7.7.7.3.3.#.#.#.#.#.#.7.7.7.7.7.7.7.7.7.7.3.3.3.6.6.6.#.#.7.7.7.k.k.k.1.1.7.7.7.",
"1.1.1.7.7.3.3.3.#.#.#.#.#.7.7.7.7.7.7.7.7.7.7.7.3.3.3.6.6.#.#.#.7.7.7.k.k.1.1.1.7.7.7.1.1.7.7.7.3.3.3.#.#.#.#.#.7.7.7.7.7.7.7.7.7.7.7.3.3.6.6.6.#.#.#.7.7.k.k.k.1.1.1.7.7.1.1.1.7.7.7.3.3.#.#.#.#.#.#.7.7.7.7.7.7.7.7.7.7.3.3.3.6.6.6.#.#.7.7.7.k.k.k.1.1.7.7.7.",
"1.1.1.7.7.3.3.3.#.#.#.#.#.7.7.7.7.7.7.7.7.7.7.7.3.3.3.6.6.#.#.#.7.7.7.k.k.1.1.1.7.7.7.1.1.7.7.7.3.3.3.#.#.#.#.#.7.7.7.7.7.7.7.7.7.7.7.3.3.6.6.6.#.#.#.7.7.k.k.k.1.1.1.7.7.1.1.1.7.7.7.3.3.#.#.#.#.#.#.7.7.7.7.7.7.7.7.7.7.3.3.3.6.6.6.#.#.7.7.7.k.k.k.1.1.7.7.7.",
"7.7.7.3.3.6.6.6.6.6.6.7.7.6.6.6.#.#.#.7.7.7.7.7.#.#.#.#.#.3.3.3.7.7.7.1.1.7.7.7.1.1.1.7.7.3.3.3.6.6.6.6.6.7.7.7.6.6.6.#.#.7.7.7.7.7.7.#.#.#.#.#.3.3.3.7.7.1.1.1.7.7.7.1.1.7.7.7.3.3.3.6.6.6.6.6.7.7.7.6.6.#.#.#.7.7.7.7.7.#.#.#.#.#.#.3.3.7.7.7.1.1.1.7.7.1.1.1.",
"7.7.7.3.3.6.6.6.6.6.6.7.7.6.6.6.#.#.#.7.7.7.7.7.#.#.#.#.#.3.3.3.7.7.7.1.1.7.7.7.1.1.1.7.7.3.3.3.6.6.6.6.6.7.7.7.6.6.6.#.#.7.7.7.7.7.7.#.#.#.#.#.3.3.3.7.7.1.1.1.7.7.7.1.1.7.7.7.3.3.3.6.6.6.6.6.7.7.7.6.6.#.#.#.7.7.7.7.7.#.#.#.#.#.#.3.3.7.7.7.1.1.1.7.7.1.1.1.",
"3.3.3.#.#.7.7.7.7.7.7.3.3.2.2.2.3.3.3.#.#.7.7.7.6.6.6.6.6.6.6.6.2.2.2.7.7.1.1.1.7.7.7.3.3.#.#.#.7.7.7.7.7.3.3.3.2.; ; ; 3.#.#.#.7.7.7.6.6.6.6.6.6.6.6.2.2.7.7.7.1.1.1.7.7.3.3.3.#.#.#.7.7.7.7.7.3.3.3.2.2.3.3.3.#.#.#.7.7.6.6.6.6.6.6.6.6.2.2.2.7.7.7.1.1.7.7.7.",
"3.3.3.#.#.7.7.7.7.7.7.3.3.2.2.2.3.3.3.#.#.7.7.7.6.6.6.6.6.6.6.6.2.2.2.7.7.1.1.1.7.7.7.3.3.#.#.#.7.7.7.7.7.3.3.3.2.; ; ; 3.#.#.#.7.7.7.6.6.6.6.6.6.6.6.2.2.7.7.7.1.1.1.7.7.3.3.3.#.#.#.7.7.7.7.7.3.3.3.2.2.3.3.3.#.#.#.7.7.6.6.6.6.6.6.6.6.2.2.2.7.7.7.1.1.7.7.7.",
"3.3.3.#.#.7.7.7.7.7.7.3.3.2.2.2.3.3.3.#.#.7.7.7.6.6.6.6.6.6.6.6.2.2.2.7.7.1.1.1.7.7.7.3.3.#.#.#.7.7.7.7.7.3.3.3.2.; ; ; 3.#.#.#.7.7.7.6.6.6.6.6.6.6.6.2.2.7.7.7.1.1.1.7.7.3.3.3.#.#.#.7.7.7.7.7.3.3.3.2.2.3.3.3.#.#.#.7.7.6.6.6.6.6.6.6.6.2.2.2.7.7.7.1.1.7.7.7.",
"#.#.#.6.6.7.7.7.7.7.7.7.7.1.1.1.7.7.7.7.7.3.3.3.6.6.6.7.7.7.7.7.#.#.#.6.6.3.3.3.3.3.3.#.#.6.6.6.7.7.7.7.7.7.7.7.1.1.1.7.7.7.7.7.3.3.3.6.6.7.7.7.7.7.7.#.#.6.6.6.3.3.3.3.3.#.#.#.6.6.6.7.7.7.7.7.7.7.7.1.1.7.7.7.7.7.7.3.3.6.6.6.7.7.7.7.7.#.#.#.6.6.6.3.3.3.3.3.",
"#.#.#.6.6.7.7.7.7.7.7.7.7.1.1.1.7.7.7.7.7.3.3.3.6.6.6.7.7.7.7.7.#.#.#.6.6.3.3.3.3.3.3.#.#.6.6.6.7.7.7.7.7.7.7.7.1.1.1.7.7.7.7.7.3.3.3.6.6.7.7.7.7.7.7.#.#.6.6.6.3.3.3.3.3.#.#.#.6.6.6.7.7.7.7.7.7.7.7.1.1.7.7.7.7.7.7.3.3.6.6.6.7.7.7.7.7.#.#.#.6.6.6.3.3.3.3.3.",
"#.#.#.6.6.7.7.7.7.7.7.7.7.1.1.1.7.7.7.7.7.3.3.3.6.6.6.7.7.7.7.7.#.#.#.6.6.3.3.3.3.3.3.#.#.6.6.6.7.7.7.7.7.7.7.7.1.1.1.7.7.7.7.7.3.3.3.6.6.7.7.7.7.7.7.#.#.6.6.6.3.3.3.3.3.#.#.#.6.6.6.7.7.7.7.7.7.7.7.1.1.7.7.7.7.7.7.3.3.6.6.6.7.7.7.7.7.#.#.#.6.6.6.3.3.3.3.3.",
"6.6.6.7.7.7.7.7.k.k.k.1.1.7.7.7.1.1.1.2.2.6.6.6.7.7.7.6.6.6.6.6.7.7.7.7.7.2.2.2.3.3.3.6.6.7.7.7.7.7.7.k.k.1.1.1.7.7.7.1.1.2.2.2.6.6.6.7.7.6.6.6.6.6.6.7.7.7.7.7.2.2.2.3.3.6.6.6.7.7.7.7.7.k.k.k.1.1.1.7.7.1.1.1.2.2.2.6.6.7.7.7.6.6.6.6.6.7.7.7.7.7.7.2.2.3.3.3.",
"6.6.6.7.7.7.7.7.k.k.k.1.1.7.7.7.1.1.1.2.2.6.6.6.7.7.7.6.6.6.6.6.7.7.7.7.7.2.2.2.3.3.3.6.6.7.7.7.7.7.7.k.k.1.1.1.7.7.7.1.1.2.2.2.6.6.6.7.7.6.6.6.6.6.6.7.7.7.7.7.2.2.2.3.3.6.6.6.7.7.7.7.7.k.k.k.1.1.1.7.7.1.1.1.2.2.2.6.6.7.7.7.6.6.6.6.6.7.7.7.7.7.7.2.2.3.3.3.",
"3.3.3.3.3.1.1.1.7.7.7.7.7.1.1.1.2.2.2.3.3.7.7.7.3.3.3.#.#.2.2.2.7.7.7.k.k.7.7.7.#.#.#.3.3.3.3.3.1.1.1.7.7.7.7.7.1.1.1.2.2.3.3.3.7.7.7.3.3.#.#.#.2.2.2.7.7.k.k.k.7.7.7.#.#.3.3.3.3.3.3.1.1.7.7.7.7.7.7.1.1.2.2.2.3.3.3.7.7.3.3.3.#.#.#.2.2.7.7.7.k.k.k.7.7.#.#.#.",
"3.3.3.3.3.1.1.1.7.7.7.7.7.1.1.1.2.2.2.3.3.7.7.7.3.3.3.#.#.2.2.2.7.7.7.k.k.7.7.7.#.#.#.3.3.3.3.3.1.1.1.7.7.7.7.7.1.; ; ; 2.3.3.3.7.7.7.3.3.#.#.#.2.2.2.7.7.k.k.k.7.7.7.#.#.3.3.3.3.3.3.1.1.7.7.7.7.7.7.1.1.2.2.2.3.3.3.7.7.3.3.3.#.#.#.2.2.7.7.7.k.k.k.7.7.#.#.#.",
"3.3.3.3.3.1.1.1.7.7.7.7.7.1.1.1.2.2.2.3.3.7.7.7.3.3.3.#.#.2.2.2.7.7.7.k.k.7.7.7.#.#.#.3.3.3.3.3.1.1.1.7.7.7.7.7.1.; ; ; 2.3.3.3.7.7.7.3.3.#.#.#.2.2.2.7.7.k.k.k.7.7.7.#.#.3.3.3.3.3.3.1.1.7.7.7.7.7.7.1.1.2.2.2.3.3.3.7.7.3.3.3.#.#.#.2.2.7.7.7.k.k.k.7.7.#.#.#.",
"7.7.7.7.7.#.#.#.3.3.3.6.6.2.2.2.3.3.3.7.7.6.6.6.2.2.2.7.7.7.7.7.7.7.7.7.7.7.7.7.6.6.6.7.7.7.7.7.#.#.#.3.3.6.6.6.2.; ; ; 3.7.7.7.6.6.6.2.2.7.7.7.7.7.7.7.7.7.7.7.7.7.7.6.6.7.7.7.7.7.7.#.#.3.3.3.6.6.6.2.2.3.3.3.7.7.7.6.6.2.2.2.7.7.7.7.7.7.7.7.7.7.7.7.7.6.6.6.",
"7.7.7.7.7.#.#.#.3.3.3.6.6.2.2.2.3.3.3.7.7.6.6.6.2.2.2.7.7.7.7.7.7.x.x.x.7.7.7.7.6.6.6.7.7.7.7.7.; ; ; ; ; ; 6.6.2.; ; ; 3.7.7.7.6.6.6.2.2.7.7.7.; ; ; 7.7.7.7.7.7.7.7.6.6.7.7.7.7.7.7.#.#.3.3.3.x.x.x.2.2.3.3.3.7.7.7.6.6.2.2.2.7.7.7.7.7.7.7.7.7.7.7.7.7.6.6.6.",
"7.7.7.7.7.#.#.#.3.3.3.6.6.2.2.2.3.3.3.7.7.6.6.6.2.2.2.7.7.7.7.7.7.x.x.x.7.7.7.7.6.6.6.7.7.7.7.7.; ; ; ; ; ; 6.6.2.; ; ; 3.7.7.7.6.6.6.2.2.7.7.7.; ; ; 7.7.7.7.7.7.7.7.6.6.7.7.7.7.7.7.#.#.3.3.3.x.x.x.2.2.3.3.3.7.7.7.6.6.2.2.2.7.7.7.7.7.7.7.7.7.7.7.7.7.6.6.6.",
"7.7.7.7.7.7.7.7.3.3.3.7.7.3.3.3.7.7.7.2.2.2.2.2.7.7.7.2.2.k.k.k.6.x.x.x.3.6.6.6.7.7.7.7.7.7.7.7.; ; ; ; ; ; 7.7.3.; ; ; 7.2.2.2.2.2.2.7.7.2.2.2.; ; ; 6.6.3.3.3.6.6.6.7.7.7.7.7.7.7.7.7.7.3.3.3.x.x.x.3.3.7.7.7.2.2.2.2.2.7.7.7.2.2.2.k.k.6.6.6.3.3.3.6.6.7.7.7.",
"7.7.7.7.7.7.7.7.3.3.3.7.7.3.3.3.7.7.7.2.2.2.2.2.7.7.7.2.2.k.x.x.x.x.x.x.x.x.x.6.7.7.7.7.7.; ; ; O O O O O O ; ; ; F F F ; ; ; 2.2.2.2.7.7.; ; ; ; ; ; 6.6.3.3.3.6.6.6.7.7.7.7.7.7.7.7.7.7.x.x.x.x.x.x.x.x.x.7.7.2.2.2.2.2.7.7.7.2.2.2.k.k.6.6.6.3.3.3.6.6.7.7.7.",
"7.7.7.7.7.#.#.#.3.3.3.#.#.7.7.7.k.k.k.6.6.3.3.3.3.3.3.7.7.2.x.x.x.x.x.x.x.x.x.3.7.7.7.7.7.; ; ; O O O O O O ; ; ; F F F ; ; ; 6.3.3.3.3.3.; ; ; ; ; ; 6.6.7.7.7.3.3.3.7.7.7.7.7.7.7.7.#.#.x.x.x.x.x.x.x.x.x.k.k.6.6.6.3.3.3.3.3.7.7.7.2.2.6.6.6.7.7.7.3.3.7.7.7.",
"7.7.7.7.7.#.#.#.3.3.3.#.#.7.7.7.k.k.k.6.6.3.3.3.3.3.3.7.7.2.x.x.x.x.x.x.x.x.x.3.7.7.7.7.7.; ; ; O O O O O O ; ; ; F F F ; ; ; 6.3.3.3.3.3.; ; ; ; ; ; 6.6.7.7.7.3.3.3.7.7.7.7.7.7.7.7.#.#.x.x.x.x.x.x.x.x.x.k.k.6.6.6.3.3.3.3.3.7.7.7.2.2.6.6.6.7.7.7.3.3.7.7.7.",
"7.7.7.7.7.#.#.#.3.3.3.#.#.7.7.7.k.k.k.6.6.3.3.3.3.3.3.7.7.2.x.x.x.N.N.N.x.x.x.x.x.x.; ; ; O O O w w w 4 4 4 O O O F F F ; ; ; : : : ; ; ; : : : J J J ; ; ; 7.7.3.3.3.7.7.7.7.7.7.7.x.x.x.x.x.x.N.N.N.x.x.x.k.k.6.6.6.3.3.3.3.3.7.7.7.2.2.6.6.6.7.7.7.3.3.7.7.7.",
"6.6.6.#.#.3.3.3.3.3.3.7.7.7.7.7.7.7.7.3.3.7.7.7.6.6.6.3.3.7.x.x.x.N.N.N.x.x.x.x.x.x.; ; ; O O O w w w 4 4 4 O O O F F F ; ; ; : : : ; ; ; : : : J J J ; ; ; 7.7.7.7.7.6.6.6.6.6.#.#.x.x.x.x.x.x.N.N.N.x.x.x.7.7.3.3.3.7.7.6.6.6.3.3.3.7.7.3.3.3.7.7.7.7.7.6.6.6.",
"6.6.6.#.#.3.3.3.3.3.3.7.7.7.7.7.7.7.7.3.3.7.7.7.6.6.6.3.3.7.x.x.x.N.N.N.x.x.x.x.x.x.; ; ; O O O w w w 4 4 4 O O O F F F ; ; ; : : : ; ; ; : : : J J J ; ; ; 7.7.7.7.7.6.6.6.6.6.#.#.x.x.x.x.x.x.N.N.N.x.x.x.7.7.3.3.3.7.7.6.6.6.3.3.3.7.7.3.3.3.7.7.7.7.7.6.6.6.",
"6.6.6.#.#.3.3.3.3.3.3.7.7.7.7.7.7.7.7.3.3.7.7.7.6.6.6.3.3.7.x.x.x.c.c.c.c.c.c.; ; ; + + + O.O.O.z z z 2 2 2 @ @ @ # # # & & & & & & & & & & & & & & & , , , 7.7.7.7.7.6.6.6.6.x.x.x.N.N.N.c.c.c.c.c.c.x.x.x.7.7.3.3.3.7.7.6.6.6.3.3.3.7.7.3.3.3.7.7.7.7.7.6.6.6.",
"3.3.3.3.3.7.7.7.7.7.7.3.3.3.3.3.#.#.#.7.7.7.7.7.6.6.6.2.2.#.x.x.x.c.c.c.c.c.c.; ; ; + + + O.O.O.z z z 2 2 2 @ @ @ # # # & & & & & & & & & & & & & & & , , , 6.6.#.#.#.3.3.3.3.x.x.x.N.N.N.c.c.c.c.c.c.x.x.x.#.#.7.7.7.7.7.6.6.6.2.2.2.#.#.#.#.#.6.6.6.#.#.3.3.3.",
"3.3.3.3.3.7.7.7.7.7.7.3.3.3.3.3.#.#.#.7.7.7.7.7.6.6.6.2.2.#.x.x.x.c.c.c.c.c.c.; ; ; + + + O.O.O.z z z 2 2 2 @ @ @ # # # & & & & & & & & & & & & & & & , , , 6.6.#.#.#.3.3.3.3.x.x.x.N.N.N.c.c.c.c.c.c.x.x.x.#.#.7.7.7.7.7.6.6.6.2.2.2.#.#.#.#.#.6.6.6.#.#.3.3.3.",
"6.6.6.7.7.3.3.3.7.7.7.7.7.6.6.6.2.2.2.7.7.2.2.2.7.7.7.3.3.6.x.x.x.c.c.c.c.c.c.; ; ; O O O :.:.:.O.O.O.# # # & & & a a a e e e t t t s s s t t t s s s 1 1 1 G G G 7.7.2.x.x.x.N.N.N.N.N.N.c.c.c.c.c.c.x.x.x.2.2.7.7.7.2.2.7.7.7.3.3.3.6.6.7.7.7.2.2.2.7.7.2.2.2.",
"6.6.6.7.7.3.3.3.7.7.7.7.7.6.6.6.2.2.2.7.7.2.2.2.7.7.7.3.3.6.x.x.x.c.c.c.c.c.c.; ; ; O O O :.:.:.O.O.O.# # # & & & a a a e e e t t t s s s t t t s s s 1 1 1 G G G 7.7.2.x.x.x.N.N.N.N.N.N.c.c.c.c.c.c.x.x.x.2.2.7.7.7.2.2.7.7.7.3.3.3.6.6.7.7.7.2.2.2.7.7.2.2.2.",
"6.6.6.7.7.3.3.3.7.7.7.7.7.6.6.6.2.2.2.7.7.2.2.2.7.7.7.3.3.6.x.x.x.c.c.c.c.c.c.; ; ; O O O :.:.:.O.O.O.# # # & & & a a a e e e t t t s s s t t t s s s 1 1 1 G G G 7.7.2.x.x.x.N.N.N.N.N.N.c.c.c.c.c.c.x.x.x.2.2.7.7.7.2.2.7.7.7.3.3.3.6.6.7.7.7.2.2.2.7.7.2.2.2.",
"3.3.3.7.7.7.7.7.k.k.k.7.7.6.6.6.3.3.3.6.6.k.k.k.7.7.7.7.7.6.6.6.2.x.x.x.; ; ; + + + z z z +.+.+.x x x * * * d.d.d.x x x j j j +.+.+.E E E x x x E E E f.f.f.u u u I I I N.N.N.c.c.c.c.c.c.N.N.N.x.x.x.6.6.3.3.3.6.6.6.k.k.7.7.7.7.7.7.6.6.2.2.2.7.7.7.2.2.7.7.7.",
"3.3.3.7.7.7.7.7.k.k.k.7.7.6.6.6.3.3.3.6.6.k.k.k.7.7.7.7.7.6.6.6.2.x.x.x.; ; ; + + + z z z +.+.+.x x x * * * d.d.d.x x x j j j +.+.+.E E E x x x E E E f.f.f.u u u I I I N.N.N.c.c.c.c.c.c.N.N.N.x.x.x.6.6.3.3.3.6.6.6.k.k.7.7.7.7.7.7.6.6.2.2.2.7.7.7.2.2.7.7.7.",
"3.3.3.7.7.7.7.7.k.k.k.7.7.6.6.6.3.3.3.6.6.k.k.k.7.7.7.7.7.6.6.6.2.x.x.x.; ; ; + + + z z z +.+.+.x x x * * * d.d.d.x x x j j j +.+.+.E E E x x x E E E f.f.f.u u u I I I N.N.N.c.c.c.c.c.c.N.N.N.x.x.x.6.6.3.3.3.6.6.6.k.k.7.7.7.7.7.7.6.6.2.2.2.7.7.7.2.2.7.7.7.",
"7.7.7.#.#.6.6.6.7.7.7.3.3.3.3.3.#.#.#.7.7.6.6.6.6.6.6.7.7.7.7.7.3.3.3.7.; ; ; + + + d d d x x x = = = e e e t t t f.f.f.O.O.O.f.f.f.O.O.O.c c c f.f.f.t.t.t.O.O.O.i i i T T T c.c.c.N.N.N.c.c.c.3.3.3.3.3.#.#.#.7.7.7.6.6.6.6.6.7.7.7.7.7.3.3.3.7.7.7.3.3.6.6.6.",
"7.7.7.#.#.6.6.6.7.7.7.3.3.3.3.3.#.#.#.7.7.6.6.6.6.6.6.7.7.7.7.7.3.3.3.7.; ; ; + + + d d d x x x = = = e e e t t t f.f.f.O.O.O.f.f.f.O.O.O.c c c f.f.f.t.t.t.O.O.O.i i i T T T c.c.c.N.N.N.c.c.c.3.3.3.3.3.#.#.#.7.7.7.6.6.6.6.6.7.7.7.7.7.3.3.3.7.7.7.3.3.6.6.6.",
"3.3.3.2.2.#.#.#.3.3.3.7.7.#.#.#.6.6.6.6.6.7.7.7.7.7.7.#.#.2.2.2.3.3.3.3.; ; ; + + + d d d x x x = = = e e e t t t f.f.f.O.O.O.f.f.f.O.O.O.c c c f.f.f.t.t.t.O.O.O.i i i T T T c.c.c.N.N.N.c.c.c.7.7.7.#.#.6.6.6.6.6.6.7.7.7.7.7.#.#.#.2.2.3.3.3.3.3.3.#.#.7.7.7.",
"3.3.3.2.2.#.#.#.3.3.3.7.7.#.#.#.6.6.6.6.6.7.7.7.7.7.7.#.#.2.2.2.3.3.3.3.; ; ; @ @ @ f f f 3 3 3 1 1 1 x x x t t t 6 6 6 0 0 0 g g g n n n y y y b b b ;.;.;.;.;.;.| | | R R R N.N.N.x.x.x.3.3.3.7.7.7.#.#.6.6.6.6.6.6.7.7.7.7.7.#.#.#.2.2.3.3.3.3.3.3.#.#.7.7.7.",
"3.3.3.2.2.#.#.#.3.3.3.7.7.#.#.#.6.6.6.6.6.7.7.7.7.7.7.#.#.2.2.2.3.3.3.3.; ; ; @ @ @ f f f 3 3 3 1 1 1 x x x t t t 6 6 6 0 0 0 g g g n n n y y y b b b ;.;.;.;.;.;.| | | R R R N.N.N.x.x.x.3.3.3.7.7.7.#.#.6.6.6.6.6.6.7.7.7.7.7.#.#.#.2.2.3.3.3.3.3.3.#.#.7.7.7.",
"7.7.7.7.7.6.6.6.6.6.6.#.#.3.3.3.7.7.7.7.7.k.k.k.7.7.7.7.7.3.3.3.#.#.#.7.; ; ; @ @ @ f f f 3 3 3 1 1 1 x x x t t t 6 6 6 0 0 0 g g g n n n y y y b b b ;.;.;.;.;.;.| | | R R R N.N.N.x.x.x.6.6.6.#.#.#.3.3.7.7.7.7.7.7.k.k.7.7.7.7.7.7.3.3.#.#.#.7.7.7.7.7.7.7.7.",
"7.7.7.7.7.6.6.6.6.6.6.#.#.3.3.3.7.7.7.7.7.k.k.k.7.7.7.7.7.3.x.x.x.x.x.x.; ; ; @ @ @ 5 5 5 e e e 1 1 1 6 6 6 g g g h h h 5 5 5 f f f c c c r r r p p p n n n b b b &.&.&.......c.c.c.x.x.x.x.x.x.x.x.x.x.x.x.7.7.7.7.7.k.k.7.7.7.7.7.7.3.3.#.#.#.7.7.7.7.7.7.7.7.",
"7.7.7.7.7.6.6.6.6.6.6.#.#.3.3.3.7.7.7.7.7.k.k.k.7.7.7.7.7.3.x.x.x.x.x.x.; ; ; @ @ @ 5 5 5 e e e 1 1 1 6 6 6 g g g h h h 5 5 5 f f f c c c r r r p p p n n n b b b &.&.&.......c.c.c.x.x.x.x.x.x.x.x.x.x.x.x.7.7.7.7.7.k.k.7.7.7.7.7.7.3.3.#.#.#.7.7.7.7.7.7.7.7.",
"1.1.1.7.7.3.3.3.#.#.#.#.#.7.7.7.7.7.7.7.7.7.7.7.3.3.3.6.6.#.x.x.x.x.x.x.; ; ; @ @ @ 5 5 5 e e e 1 1 1 6 6 6 g g g h h h 5 5 5 f f f c c c r r r p p p n n n b b b &.&.&.......c.c.c.x.x.x.x.x.x.x.x.x.x.x.x.7.7.7.7.7.7.7.3.3.3.6.6.6.#.#.7.7.7.k.k.k.1.1.7.7.7.",
"1.1.1.7.7.3.3.3.#.#.#.#.#.7.7.7.7.7.7.7.7.7.7.7.3.3.3.6.6.#.#.#.7.N.N.N.; ; ; # # # q q q 1 1 1 6 6 6 e e e 5 5 5             c c c +.+.+.o o o o o o %.%.%.&.&.&.b b b  . . .c.c.c.x.x.x.x.x.x.N.N.N.7.7.7.7.7.7.7.7.7.7.3.3.3.6.6.6.#.#.7.7.7.k.k.k.1.1.7.7.7.",
"7.7.7.3.3.6.6.6.6.6.6.7.7.6.6.6.#.#.#.7.7.7.7.7.#.#.#.#.#.3.3.3.7.N.N.N.; ; ; # # # q q q 1 1 1 6 6 6 e e e 5 5 5             c c c +.+.+.o o o o o o %.%.%.&.&.&.b b b  . . .c.c.c.x.x.x.x.x.x.N.N.N.6.6.#.#.#.7.7.7.7.7.#.#.#.#.#.#.3.3.7.7.7.1.1.1.7.7.1.1.1.",
"7.7.7.3.3.6.6.6.6.6.6.7.7.6.6.6.#.#.#.7.7.7.7.7.#.#.#.#.#.3.3.3.7.N.N.N.; ; ; # # # q q q 1 1 1 6 6 6 e e e 5 5 5             c c c +.+.+.o o o o o o %.%.%.&.&.&.b b b  . . .c.c.c.x.x.x.x.x.x.N.N.N.6.6.#.#.#.7.7.7.7.7.#.#.#.#.#.#.3.3.7.7.7.1.1.1.7.7.1.1.1.",
"7.7.7.3.3.6.6.6.6.6.6.7.7.6.6.6.#.#.#.7.7.7.7.7.#.#.#.#.#.3.3.3.7.7.7.1.; ; ; $ $ $ e e e 6 6 6 -.-.-.1 1 1 X X X ' ' ' K K K ,.,.,.k k k P P P p.p.p.R R R 9.9.9.s.s.s.b b b N.N.N.N.N.N.N.N.N.7.7.7.6.6.#.#.#.7.7.7.7.7.#.#.#.#.#.#.3.3.7.7.7.1.1.1.7.7.1.1.1.",
"3.3.3.#.#.7.7.7.7.7.7.3.3.2.2.2.3.3.3.#.#.7.7.7.6.6.6.6.6.6.6.6.2.2.2.7.; ; ; $ $ $ e e e 6 6 6 -.-.-.1 1 1 X X X ' ' ' K K K ,.,.,.k k k P P P p.p.p.R R R 9.9.9.s.s.s.b b b N.N.N.N.N.N.N.N.N.3.3.3.2.2.3.3.3.#.#.#.7.7.6.6.6.6.6.6.6.6.2.2.2.7.7.7.1.1.7.7.7.",
"3.3.3.#.#.7.7.7.7.7.7.3.3.2.2.2.3.3.3.#.#.7.7.7.6.6.6.6.6.6.6.6.2.2.2.7.; ; ; $ $ $ e e e 6 6 6 -.-.-.1 1 1 X X X ' ' ' K K K ,.,.,.k k k P P P p.p.p.R R R 9.9.9.s.s.s.b b b N.N.N.N.N.N.N.N.N.3.3.3.2.2.3.3.3.#.#.#.7.7.6.6.6.6.6.6.6.6.2.2.2.7.7.7.1.1.7.7.7.",
"3.3.3.#.#.7.7.7.7.7.7.3.3.2.2.2.3.3.3.#.#.7.7.7.6.6.6.6.6.6.6.6.2.2.2.7.N.N.N.< < < 1 1 1 6 6 6 i i i -.-.-.k k k v.v.v.( ( ( b.b.b.n.n.n.` ` ` c.c.c.W W W w.w.w.! ! ! M M M x.x.x.M.M.M.N.N.N.3.3.3.2.2.3.3.3.#.#.#.7.7.6.6.6.6.6.6.6.6.2.2.2.7.7.7.1.1.7.7.7.",
"#.#.#.6.6.7.7.7.7.7.7.7.7.1.1.1.7.7.7.7.7.3.3.3.6.6.6.7.7.7.7.7.#.#.#.6.N.N.N.< < < 1 1 1 6 6 6 i i i -.-.-.k k k v.v.v.( ( ( b.b.b.n.n.n.` ` ` c.c.c.W W W w.w.w.! ! ! M M M x.x.x.M.M.M.N.N.N.7.7.7.1.1.7.7.7.7.7.7.3.3.6.6.6.7.7.7.7.7.#.#.#.6.6.6.3.3.3.3.3.",
"#.#.#.6.6.7.7.7.7.7.7.7.7.1.1.1.7.7.7.7.7.3.3.3.6.6.6.7.7.7.7.7.#.#.#.6.N.N.N.< < < 1 1 1 6 6 6 i i i -.-.-.k k k v.v.v.( ( ( b.b.b.n.n.n.` ` ` c.c.c.W W W w.w.w.! ! ! M M M x.x.x.M.M.M.N.N.N.7.7.7.1.1.7.7.7.7.7.7.3.3.6.6.6.7.7.7.7.7.#.#.#.6.6.6.3.3.3.3.3.",
"6.6.6.7.7.7.7.7.k.k.k.1.1.7.7.7.1.1.1.2.2.6.6.6.7.7.7.6.6.6.6.6.7.x.x.x.x.x.x.< < < 6 6 6 p p p [ [ [ i i i *.*.*.5.5.5.8.8.8.b.b.b.b.b.b.g.g.g.e.e.e.=.=.=.! ! ! 1 1 1 H H H b b b c.c.c.x.x.x.x.x.x.7.7.1.1.1.2.2.2.6.6.7.7.7.6.6.6.6.6.7.7.7.7.7.7.2.2.3.3.3.",
"6.6.6.7.7.7.7.7.k.k.k.1.1.7.7.7.1.1.1.2.2.6.6.6.7.7.7.6.6.6.6.6.7.x.x.x.x.x.x.< < < 6 6 6 p p p [ [ [ i i i *.*.*.5.5.5.8.8.8.b.b.b.b.b.b.g.g.g.e.e.e.=.=.=.! ! ! 1 1 1 H H H b b b c.c.c.x.x.x.x.x.x.7.7.1.1.1.2.2.2.6.6.7.7.7.6.6.6.6.6.7.7.7.7.7.7.2.2.3.3.3.",
"6.6.6.7.7.7.7.7.k.k.k.1.1.7.7.7.1.1.1.2.2.6.6.6.7.7.7.6.6.6.6.6.7.x.x.x.x.x.x.< < < 6 6 6 p p p [ [ [ i i i *.*.*.5.5.5.8.8.8.b.b.b.b.b.b.g.g.g.e.e.e.=.=.=.! ! ! 1 1 1 H H H b b b c.c.c.x.x.x.x.x.x.7.7.1.1.1.2.2.2.6.6.7.7.7.6.6.6.6.6.7.7.7.7.7.7.2.2.3.3.3.",
"3.3.3.3.3.1.1.1.7.7.7.7.7.1.1.1.2.2.2.3.3.7.7.7.3.3.3.#.#.2.2.2.7.7.7.k.x.x.x.x.x.x.j.j.j.i i i [ [ [ i i i t.t.t.i i i 5.5.5.Q Q Q Q Q Q r.r.r.9.9.9.t.t.t.u u u G G G x.x.x.N N N x.x.x.x.x.x.7.7.7.1.1.2.2.2.3.3.3.7.7.3.3.3.#.#.#.2.2.7.7.7.k.k.k.7.7.#.#.#.",
"3.3.3.3.3.1.1.1.7.7.7.7.7.1.1.1.2.2.2.3.3.7.7.7.3.3.3.#.#.2.2.2.7.7.7.k.x.x.x.x.x.x.j.j.j.i i i [ [ [ i i i t.t.t.i i i 5.5.5.Q Q Q Q Q Q r.r.r.9.9.9.t.t.t.u u u G G G x.x.x.N N N x.x.x.x.x.x.7.7.7.1.1.2.2.2.3.3.3.7.7.3.3.3.#.#.#.2.2.7.7.7.k.k.k.7.7.#.#.#.",
"3.3.3.3.3.1.1.1.7.7.7.7.7.1.1.1.2.2.2.3.3.7.7.7.3.3.3.#.#.2.2.2.7.7.7.k.x.x.x.x.x.x.j.j.j.i i i [ [ [ i i i t.t.t.i i i 5.5.5.Q Q Q Q Q Q r.r.r.9.9.9.t.t.t.u u u G G G x.x.x.N N N x.x.x.x.x.x.7.7.7.1.1.2.2.2.3.3.3.7.7.3.3.3.#.#.#.2.2.7.7.7.k.k.k.7.7.#.#.#.",
"7.7.7.7.7.#.#.#.3.3.3.6.6.2.2.2.3.3.3.7.7.6.6.6.2.2.2.7.7.7.7.7.7.7.7.7.7.7.7.x.x.x.h.h.h.9.9.9.i i i l l l q.q.q.! ! ! ! ! ! o.o.o.! ! ! 9.9.9.X.X.X.} } } x x x 1 1 1 H H H N N N c.c.c.3.3.3.6.6.6.2.2.3.3.3.7.7.7.6.6.2.2.2.7.7.7.7.7.7.7.7.7.7.7.7.7.6.6.6.",
"7.7.7.7.7.#.#.#.3.3.3.6.6.2.2.2.3.3.3.7.7.6.6.6.2.2.2.7.7.7.7.7.7.7.7.7.7.7.7.x.x.x.h.h.h.9.9.9.i i i l l l q.q.q.! ! ! ! ! ! o.o.o.! ! ! 9.9.9.X.X.X.} } } x x x 1 1 1 H H H N N N c.c.c.3.3.3.6.6.6.2.2.3.3.3.7.7.7.6.6.2.2.2.7.7.7.7.7.7.7.7.7.7.7.7.7.6.6.6.",
"7.7.7.7.7.7.7.7.3.3.3.7.7.3.3.3.7.7.7.2.2.2.2.2.7.7.7.2.2.k.k.k.6.6.6.3.3.6.6.x.x.x.h.h.h.9.9.9.i i i l l l q.q.q.! ! ! ! ! ! o.o.o.! ! ! 9.9.9.X.X.X.} } } x x x 1 1 1 H H H N N N c.c.c.3.3.3.7.7.7.3.3.7.7.7.2.2.2.2.2.7.7.7.2.2.2.k.k.6.6.6.3.3.3.6.6.7.7.7.",
"7.7.7.7.7.7.7.7.3.3.3.7.7.3.3.3.7.7.7.2.2.2.2.2.7.7.7.2.2.k.k.k.6.6.6.3.3.6.6.6.7.7.9.9.9.u u u w.w.w.h.h.h.9.9.9.) ) ) 9.9.9.~ ~ ~ ^ ^ ^ 9.9.9.0.0.0.} } } } } } o.o.o.u u u >.>.>.7.7.7.3.3.3.7.7.7.3.3.7.7.7.2.2.2.2.2.7.7.7.2.2.2.k.k.6.6.6.3.3.3.6.6.7.7.7.",
"7.7.7.7.7.7.7.7.3.3.3.7.7.3.3.3.7.7.7.2.2.2.2.2.7.7.7.2.2.k.k.k.6.6.6.3.3.6.6.6.7.7.9.9.9.u u u w.w.w.h.h.h.9.9.9.) ) ) 9.9.9.~ ~ ~ ^ ^ ^ 9.9.9.0.0.0.} } } } } } o.o.o.u u u >.>.>.7.7.7.3.3.3.7.7.7.3.3.7.7.7.2.2.2.2.2.7.7.7.2.2.2.k.k.6.6.6.3.3.3.6.6.7.7.7.",
"7.7.7.7.7.#.#.#.3.3.3.#.#.7.7.7.k.k.k.6.6.3.3.3.3.3.3.7.7.2.2.2.6.6.6.7.7.3.3.3.7.7.9.9.9.u u u w.w.w.h.h.h.9.9.9.) ) ) 9.9.9.~ ~ ~ ^ ^ ^ 9.9.9.0.0.0.} } } } } } o.o.o.u u u >.>.>.7.#.#.3.3.3.#.#.#.7.7.k.k.k.6.6.6.3.3.3.3.3.7.7.7.2.2.6.6.6.7.7.7.3.3.7.7.7.",
"7.7.7.7.7.#.#.#.3.3.3.#.#.7.7.7.k.k.k.6.6.3.3.3.3.3.3.7.7.2.2.2.6.6.6.7.7.3.3.x.x.x.6 6 6 1 1 1 Y Y Y ~ ~ ~ ~ ~ ~ n n n S S S 9.9.9.e.e.e.9.9.9.S S S 0.0.0.0.0.0.X.X.X.[ [ [ N N N x.x.x.3.3.3.#.#.#.7.7.k.k.k.6.6.6.3.3.3.3.3.7.7.7.2.2.6.6.6.7.7.7.3.3.7.7.7.",
"7.7.7.7.7.#.#.#.3.3.3.#.#.7.7.7.k.k.k.6.6.3.3.3.3.3.3.7.7.2.2.2.6.6.6.7.7.3.3.x.x.x.6 6 6 1 1 1 Y Y Y ~ ~ ~ ~ ~ ~ n n n S S S 9.9.9.e.e.e.9.9.9.S S S 0.0.0.0.0.0.X.X.X.[ [ [ N N N x.x.x.3.3.3.#.#.#.7.7.k.k.k.6.6.6.3.3.3.3.3.7.7.7.2.2.6.6.6.7.7.7.3.3.7.7.7.",
"6.6.6.#.#.3.3.3.3.3.3.7.7.7.7.7.7.7.7.3.3.7.7.7.6.6.6.3.3.7.7.7.3.3.3.7.7.7.7.x.x.x.6 6 6 1 1 1 Y Y Y ~ ~ ~ ~ ~ ~ n n n S S S 9.9.9.e.e.e.9.9.9.S S S 0.0.0.0.0.0.X.X.X.[ [ [ N N N x.x.x.3.3.3.7.7.7.7.7.7.7.7.3.3.3.7.7.6.6.6.3.3.3.7.7.3.3.3.7.7.7.7.7.6.6.6.",
"6.6.6.#.#.3.3.3.3.3.3.7.7.7.7.7.7.7.7.3.3.7.7.7.6.6.6.3.3.7.7.7.3.3.3.7.7.7.7.7.6.6.y y y > > > k k k U U U y y y V V V M M M 7 7 7 8 8 8 e.e.e.9.9.9.e.e.e.X.X.X.$.$.$.{ { { A A A #.3.3.3.3.3.7.7.7.7.7.7.7.7.3.3.3.7.7.6.6.6.3.3.3.7.7.3.3.3.7.7.7.7.7.6.6.6.",
"3.3.3.3.3.7.7.7.7.7.7.3.3.3.3.3.#.#.#.7.7.7.7.7.6.6.6.2.2.#.#.#.#.#.#.6.6.#.#.#.3.3.y y y > > > k k k U U U y y y V V V M M M 7 7 7 8 8 8 e.e.e.9.9.9.e.e.e.X.X.X.$.$.$.{ { { A A A 3.7.7.7.7.7.3.3.3.3.3.#.#.#.7.7.7.7.7.6.6.6.2.2.2.#.#.#.#.#.6.6.6.#.#.3.3.3.",
"3.3.3.3.3.7.7.7.7.7.7.3.3.3.3.3.#.#.#.7.7.7.7.7.6.6.6.2.2.#.#.#.#.#.#.6.6.#.#.#.3.3.y y y > > > k k k U U U y y y V V V M M M 7 7 7 8 8 8 e.e.e.9.9.9.e.e.e.X.X.X.$.$.$.{ { { A A A 3.7.7.7.7.7.3.3.3.3.3.#.#.#.7.7.7.7.7.6.6.6.2.2.2.#.#.#.#.#.6.6.6.#.#.3.3.3.",
"3.3.3.3.3.7.7.7.7.7.7.3.3.3.3.3.#.#.#.7.7.7.7.7.6.6.6.2.2.#.#.#.#.#.#.6.6.#.#.#.3.3.3.3.3.y y y - - - -.-.-.C C C y y y v v v i.i.i.u.u.u.v v v B B B 9.9.9.5.5.5.{ { { N N N 3.3.3.3.7.7.7.7.7.3.3.3.3.3.#.#.#.7.7.7.7.7.6.6.6.2.2.2.#.#.#.#.#.6.6.6.#.#.3.3.3.",
"6.6.6.7.7.3.3.3.7.7.7.7.7.6.6.6.2.2.2.7.7.2.2.2.7.7.7.3.3.6.6.6.7.7.7.2.2.7.7.7.2.2.2.6.6.y y y - - - -.-.-.C C C y y y v v v i.i.i.u.u.u.v v v B B B 9.9.9.5.5.5.{ { { N N N 6.7.7.7.3.3.7.7.7.7.7.7.6.6.2.2.2.7.7.7.2.2.7.7.7.3.3.3.6.6.7.7.7.2.2.2.7.7.2.2.2.",
"6.6.6.7.7.3.3.3.7.7.7.7.7.6.6.6.2.2.2.7.7.2.2.2.7.7.7.3.3.6.6.6.7.7.7.2.2.7.7.7.2.2.2.6.6.y y y - - - -.-.-.C C C y y y v v v i.i.i.u.u.u.v v v B B B 9.9.9.5.5.5.{ { { N N N 6.7.7.7.3.3.7.7.7.7.7.7.6.6.2.2.2.7.7.7.2.2.7.7.7.3.3.3.6.6.7.7.7.2.2.2.7.7.2.2.2.",
"6.6.6.7.7.3.3.3.7.7.7.7.7.6.6.6.2.2.2.7.7.2.2.2.7.7.7.3.3.6.6.6.7.7.7.2.2.7.7.7.2.2.; ; ; 9 9 9 b.b.b.4.4.4.1 1 1 l.l.l.B B B @.@.@.Z Z Z B B B i.i.i.a.a.a.e.e.e.y.y.y.! ! ! H H H 7.3.3.7.7.7.7.7.7.6.6.2.2.2.7.7.7.2.2.7.7.7.3.3.3.6.6.7.7.7.2.2.2.7.7.2.2.2.",
"3.3.3.7.7.7.7.7.k.k.k.7.7.6.6.6.3.3.3.6.6.k.k.k.7.7.7.7.7.6.6.6.2.2.2.7.7.2.2.2.7.7.; ; ; 9 9 9 b.b.b.4.4.4.1 1 1 l.l.l.B B B @.@.@.Z Z Z B B B i.i.i.a.a.a.e.e.e.y.y.y.! ! ! H H H 7.7.7.k.k.k.7.7.7.6.6.3.3.3.6.6.6.k.k.7.7.7.7.7.7.6.6.2.2.2.7.7.7.2.2.7.7.7.",
"3.3.3.7.7.7.7.7.k.k.k.7.7.6.6.6.3.3.3.6.6.k.k.k.7.7.7.7.7.6.6.6.2.2.2.7.7.2.2.2.7.7.; ; ; 9 9 9 b.b.b.4.4.4.1 1 1 l.l.l.B B B @.@.@.Z Z Z B B B i.i.i.a.a.a.e.e.e.y.y.y.! ! ! H H H 7.7.7.k.k.k.7.7.7.6.6.3.3.3.6.6.6.k.k.7.7.7.7.7.7.6.6.2.2.2.7.7.7.2.2.7.7.7.",
"7.7.7.#.#.6.6.6.7.7.7.3.3.3.3.3.#.#.#.7.7.6.6.6.6.6.6.7.7.7.7.7.3.3.3.7.7.3.3.3.6.6.6.7.7.: : : 9 9 9 % % % ~ ~ ~ c.c.c.M.M.M.D D D @.@.@.c.c.c.l.l.l./ / / h.h.h.9.9.9.G G G 7.#.#.#.6.6.7.7.7.3.3.3.3.3.#.#.#.7.7.7.6.6.6.6.6.7.7.7.7.7.3.3.3.7.7.7.3.3.6.6.6.",
"7.7.7.#.#.6.6.6.7.7.7.3.3.3.3.3.#.#.#.7.7.6.6.6.6.6.6.7.7.7.7.7.3.3.3.7.7.3.3.3.6.6.6.7.7.: : : 9 9 9 % % % ~ ~ ~ c.c.c.M.M.M.D D D @.@.@.c.c.c.l.l.l./ / / h.h.h.9.9.9.G G G 7.#.#.#.6.6.7.7.7.3.3.3.3.3.#.#.#.7.7.7.6.6.6.6.6.7.7.7.7.7.3.3.3.7.7.7.3.3.6.6.6.",
"7.7.7.#.#.6.6.6.7.7.7.3.3.3.3.3.#.#.#.7.7.6.6.6.6.6.6.7.7.7.7.7.3.3.3.7.7.3.3.3.6.6.6.7.7.: : : 9 9 9 % % % ~ ~ ~ c.c.c.M.M.M.D D D @.@.@.c.c.c.l.l.l./ / / h.h.h.9.9.9.G G G 7.#.#.#.6.6.7.7.7.3.3.3.3.3.#.#.#.7.7.7.6.6.6.6.6.7.7.7.7.7.3.3.3.7.7.7.3.3.6.6.6.",
"3.3.3.2.2.#.#.#.3.3.3.7.7.#.#.#.6.6.6.6.6.7.7.7.7.7.7.#.#.2.2.2.3.3.3.3.3.#.#.#.7.7.x.x.x.N.N.N.; ; ; b b b m m m c.c.c.M.M.M.<.<.<.D D D M.M.M.z.z.z.S S S m.m.m.< < < N.N.N.x.x.x.2.#.#.3.3.3.7.7.7.#.#.6.6.6.6.6.6.7.7.7.7.7.#.#.#.2.2.3.3.3.3.3.3.#.#.7.7.7.",
"3.3.3.2.2.#.#.#.3.3.3.7.7.#.#.#.6.6.6.6.6.7.7.7.7.7.7.#.#.2.2.2.3.3.3.3.3.#.#.#.7.7.x.x.x.N.N.N.; ; ; b b b m m m c.c.c.M.M.M.<.<.<.D D D M.M.M.z.z.z.S S S m.m.m.< < < N.N.N.x.x.x.2.#.#.3.3.3.7.7.7.#.#.6.6.6.6.6.6.7.7.7.7.7.#.#.#.2.2.3.3.3.3.3.3.#.#.7.7.7.",
"3.3.3.2.2.#.#.#.3.3.3.7.7.#.#.#.6.6.6.6.6.7.7.7.7.7.7.#.#.2.2.2.3.3.3.3.3.#.#.#.7.7.x.x.x.N.N.N.; ; ; b b b m m m c.c.c.M.M.M.<.<.<.D D D M.M.M.z.z.z.S S S m.m.m.< < < N.N.N.x.x.x.2.#.#.3.3.3.7.7.7.#.#.6.6.6.6.6.6.7.7.7.7.7.#.#.#.2.2.3.3.3.3.3.3.#.#.7.7.7.",
"7.7.7.7.7.6.6.6.6.6.6.#.#.3.3.3.7.7.7.7.7.k.k.k.7.7.7.7.7.3.3.3.#.#.#.7.7.7.7.7.7.7.x.x.x.; ; ; L L L _ _ _ ] ] ] m m m n n n n n n S S S n n n N N N u.u.u._ _ _ L L L ; ; ; x.x.x.7.6.6.6.6.6.#.#.#.3.3.7.7.7.7.7.7.k.k.7.7.7.7.7.7.3.3.#.#.#.7.7.7.7.7.7.7.7.",
"7.7.7.7.7.6.6.6.6.6.6.#.#.3.3.3.7.7.7.7.7.k.k.k.7.7.7.7.7.3.3.3.#.#.#.7.7.7.7.7.7.7.x.x.x.; ; ; L L L _ _ _ ] ] ] m m m n n n n n n S S S n n n N N N u.u.u._ _ _ L L L ; ; ; x.x.x.7.6.6.6.6.6.#.#.#.3.3.7.7.7.7.7.7.k.k.7.7.7.7.7.7.3.3.#.#.#.7.7.7.7.7.7.7.7.",
"1.1.1.7.7.3.3.3.#.#.#.#.#.7.7.7.7.7.7.7.7.7.7.7.3.3.3.6.6.#.#.#.7.7.7.k.k.1.1.1.7.7.x.x.x.; ; ; L L L _ _ _ ] ] ] m m m n n n n n n S S S n n n N N N u.u.u._ _ _ L L L ; ; ; x.x.x.7.3.3.#.#.#.#.#.#.7.7.7.7.7.7.7.7.7.7.3.3.3.6.6.6.#.#.7.7.7.k.k.k.1.1.7.7.7.",
"1.1.1.7.7.3.3.3.#.#.#.#.#.7.7.7.7.7.7.7.7.7.7.7.3.3.3.6.6.#.#.#.7.7.7.k.k.1.1.x.x.x.x.x.x.x.x.x.; ; ; L L L 6 6 6 ] ] ] ] ] ] i.i.i.z.z.z.i.i.i.u.u.u.6 6 6 L L L ; ; ; x.x.x.x.x.x.x.x.x.#.#.#.#.#.#.7.7.7.7.7.7.7.7.7.7.3.3.3.6.6.6.#.#.7.7.7.k.k.k.1.1.7.7.7.",
"1.1.1.7.7.3.3.3.#.#.#.#.#.7.7.7.7.7.7.7.7.7.7.7.3.3.3.6.6.#.#.#.7.7.7.k.k.1.1.x.x.x.x.x.x.x.x.x.; ; ; L L L 6 6 6 ] ] ] ] ] ] i.i.i.z.z.z.i.i.i.u.u.u.6 6 6 L L L ; ; ; x.x.x.x.x.x.x.x.x.#.#.#.#.#.#.7.7.7.7.7.7.7.7.7.7.3.3.3.6.6.6.#.#.7.7.7.k.k.k.1.1.7.7.7.",
"7.7.7.3.3.6.6.6.6.6.6.7.7.6.6.6.#.#.#.7.7.7.7.7.#.#.#.#.#.3.3.3.7.7.7.1.1.7.7.x.x.x.x.x.x.x.x.x.; ; ; L L L 6 6 6 ] ] ] ] ] ] i.i.i.z.z.z.i.i.i.u.u.u.6 6 6 L L L ; ; ; x.x.x.x.x.x.x.x.x.6.6.6.7.7.7.6.6.#.#.#.7.7.7.7.7.#.#.#.#.#.#.3.3.7.7.7.1.1.1.7.7.1.1.1.",
"7.7.7.3.3.6.6.6.6.6.6.7.7.6.6.6.#.#.#.7.7.7.7.7.#.#.#.#.#.3.3.3.7.7.7.1.1.7.7.7.1.1.1.7.7.3.3.3.6.6.6.; ; ; L L L 6 6 6 m m m n n n N N N m m m 6 6 6 L L L ; ; ; 7.7.1.1.7.7.7.3.3.3.6.6.6.6.6.7.7.7.6.6.#.#.#.7.7.7.7.7.#.#.#.#.#.#.3.3.7.7.7.1.1.1.7.7.1.1.1.",
"7.7.7.3.3.6.6.6.6.6.6.7.7.6.6.6.#.#.#.7.7.7.7.7.#.#.#.#.#.3.3.3.7.7.7.1.1.7.7.7.1.1.1.7.7.3.3.3.6.6.6.; ; ; L L L 6 6 6 m m m n n n N N N m m m 6 6 6 L L L ; ; ; 7.7.1.1.7.7.7.3.3.3.6.6.6.6.6.7.7.7.6.6.#.#.#.7.7.7.7.7.#.#.#.#.#.#.3.3.7.7.7.1.1.1.7.7.1.1.1.",
"3.3.3.#.#.7.7.7.7.7.7.3.3.2.2.2.3.3.3.#.#.7.7.7.6.6.6.6.6.6.6.6.2.2.2.7.7.1.1.1.7.7.7.3.3.#.#.#.7.7.7.; ; ; L L L 6 6 6 m m m n n n N N N m m m 6 6 6 L L L ; ; ; 1.1.7.7.3.3.3.#.#.#.7.7.7.7.7.3.3.3.2.2.3.3.3.#.#.#.7.7.6.6.6.6.6.6.6.6.2.2.2.7.7.7.1.1.7.7.7.",
"3.3.3.#.#.7.7.7.7.7.7.3.3.2.2.2.3.3.3.#.#.7.7.7.6.6.6.6.6.6.6.6.2.2.2.7.7.1.1.1.7.7.7.3.3.#.#.#.7.7.7.7.7.3.; ; ; . . . . . . ; ; ; ; ; ; . . . . . . ; ; ; 7.7.1.1.1.7.7.3.3.3.#.#.#.7.7.7.7.7.3.3.3.2.2.3.3.3.#.#.#.7.7.6.6.6.6.6.6.6.6.2.2.2.7.7.7.1.1.7.7.7.",
"#.#.#.6.6.7.7.7.7.7.7.7.7.1.1.1.7.7.7.7.7.3.3.3.6.6.6.7.7.7.7.7.#.#.#.6.6.3.3.3.3.3.3.#.#.6.6.6.7.7.7.7.7.7.; ; ; . . . . . . ; ; ; ; ; ; . . . . . . ; ; ; 6.6.3.3.3.3.3.#.#.#.6.6.6.7.7.7.7.7.7.7.7.1.1.7.7.7.7.7.7.3.3.6.6.6.7.7.7.7.7.#.#.#.6.6.6.3.3.3.3.3.",
"#.#.#.6.6.7.7.7.7.7.7.7.7.1.1.1.7.7.7.7.7.3.3.3.6.6.6.7.7.7.7.7.#.#.#.6.6.3.3.3.3.3.3.#.#.6.6.6.7.7.7.7.7.7.; ; ; . . . . . . ; ; ; ; ; ; . . . . . . ; ; ; 6.6.3.3.3.3.3.#.#.#.6.6.6.7.7.7.7.7.7.7.7.1.1.7.7.7.7.7.7.3.3.6.6.6.7.7.7.7.7.#.#.#.6.6.6.3.3.3.3.3.",
"#.#.#.6.6.7.7.7.7.7.7.7.7.1.1.1.7.7.7.7.7.3.3.3.6.6.6.7.7.7.7.7.#.#.#.6.6.3.3.3.3.3.3.#.#.6.6.6.7.7.7.7.7.7.7.7.1.; ; ; ; ; ; 7.3.3.3.6.6.; ; ; ; ; ; #.#.6.6.6.3.3.3.3.3.#.#.#.6.6.6.7.7.7.7.7.7.7.7.1.1.7.7.7.7.7.7.3.3.6.6.6.7.7.7.7.7.#.#.#.6.6.6.3.3.3.3.3.",
"6.6.6.7.7.7.7.7.k.k.k.1.1.7.7.7.1.1.1.2.2.6.6.6.7.7.7.6.6.6.6.6.7.7.7.7.7.2.2.2.3.3.3.6.6.7.7.7.7.7.7.k.k.1.1.1.7.; ; ; ; ; ; 2.6.6.6.7.7.; ; ; ; ; ; 7.7.7.7.7.2.2.2.3.3.6.6.6.7.7.7.7.7.k.k.k.1.1.1.7.7.1.1.1.2.2.2.6.6.7.7.7.6.6.6.6.6.7.7.7.7.7.7.2.2.3.3.3.",
"6.6.6.7.7.7.7.7.k.k.k.1.1.7.7.7.1.1.1.2.2.6.6.6.7.7.7.6.6.6.6.6.7.7.7.7.7.2.2.2.3.3.3.6.6.7.7.7.7.7.7.k.k.1.1.1.7.; ; ; ; ; ; 2.6.6.6.7.7.; ; ; ; ; ; 7.7.7.7.7.2.2.2.3.3.6.6.6.7.7.7.7.7.k.k.k.1.1.1.7.7.1.1.1.2.2.2.6.6.7.7.7.6.6.6.6.6.7.7.7.7.7.7.2.2.3.3.3.",
"6.6.6.7.7.7.7.7.k.k.k.1.1.7.7.7.1.1.1.2.2.6.6.6.7.7.7.6.6.6.6.6.7.7.7.7.7.2.2.2.3.3.3.6.6.7.7.7.7.7.7.k.k.1.1.1.7.7.7.1.1.2.2.2.6.6.6.7.7.6.6.6.6.6.6.7.7.7.7.7.2.2.2.3.3.6.6.6.7.7.7.7.7.k.k.k.1.1.1.7.7.1.1.1.2.2.2.6.6.7.7.7.6.6.6.6.6.7.7.7.7.7.7.2.2.3.3.3.",
"3.3.3.3.3.1.1.1.7.7.7.7.7.1.1.1.2.2.2.3.3.7.7.7.3.3.3.#.#.2.2.2.7.7.7.k.k.7.7.7.#.#.#.3.3.3.3.3.1.1.1.7.7.7.7.7.1.1.1.2.2.3.3.3.7.7.7.3.3.#.#.#.2.2.2.7.7.k.k.k.7.7.7.#.#.3.3.3.3.3.3.1.1.7.7.7.7.7.7.1.1.2.2.2.3.3.3.7.7.3.3.3.#.#.#.2.2.7.7.7.k.k.k.7.7.#.#.#.",
"3.3.3.3.3.1.1.1.7.7.7.7.7.1.1.1.2.2.2.3.3.7.7.7.3.3.3.#.#.2.2.2.7.7.7.k.k.7.7.7.#.#.#.3.3.3.3.3.1.1.1.7.7.7.7.7.1.1.1.2.2.3.3.3.7.7.7.3.3.#.#.#.2.2.2.7.7.k.k.k.7.7.7.#.#.3.3.3.3.3.3.1.1.7.7.7.7.7.7.1.1.2.2.2.3.3.3.7.7.3.3.3.#.#.#.2.2.7.7.7.k.k.k.7.7.#.#.#.",
"7.7.7.7.7.#.#.#.3.3.3.6.6.2.2.2.3.3.3.7.7.6.6.6.2.2.2.7.7.7.7.7.7.7.7.7.7.7.7.7.6.6.6.7.7.7.7.7.#.#.#.3.3.6.6.6.2.2.2.3.3.7.7.7.6.6.6.2.2.7.7.7.7.7.7.7.7.7.7.7.7.7.7.6.6.7.7.7.7.7.7.#.#.3.3.3.6.6.6.2.2.3.3.3.7.7.7.6.6.2.2.2.7.7.7.7.7.7.7.7.7.7.7.7.7.6.6.6.",
"7.7.7.7.7.#.#.#.3.3.3.6.6.2.2.2.3.3.3.7.7.6.6.6.2.2.2.7.7.7.7.7.7.7.7.7.7.7.7.7.6.6.6.7.7.7.7.7.#.#.#.3.3.6.6.6.2.2.2.3.3.7.7.7.6.6.6.2.2.7.7.7.7.7.7.7.7.7.7.7.7.7.7.6.6.7.7.7.7.7.7.#.#.3.3.3.6.6.6.2.2.3.3.3.7.7.7.6.6.2.2.2.7.7.7.7.7.7.7.7.7.7.7.7.7.6.6.6.",
"7.7.7.7.7.#.#.#.3.3.3.6.6.2.2.2.3.3.3.7.7.6.6.6.2.2.2.7.7.7.7.7.7.7.7.7.7.7.7.7.6.6.6.7.7.7.7.7.#.#.#.3.3.6.6.6.2.2.2.3.3.7.7.7.6.6.6.2.2.7.7.7.7.7.7.7.7.7.7.7.7.7.7.6.6.7.7.7.7.7.7.#.#.3.3.3.6.6.6.2.2.3.3.3.7.7.7.6.6.2.2.2.7.7.7.7.7.7.7.7.7.7.7.7.7.6.6.6."
};
