/* XPM */
static const char *Zmxvb3Iy[] = {
/* columns rows colors chars-per-pixel */
"128 128 7 1 ",
"  c #F2B586",
". c #DFD1A5",
"X c #D7D4B2",
"o c #E8C2A0",
"O c #FFC5BF",
"+ c #FFDAB0",
"@ c #FFDFEF",
/* pixels */
"++++++++ooo++ooo+++XXXXX+++XX@@@OOOooOOO+++++++++++oo+++ooo++XXXXXX++XXX@@@OOoooOOO++++++++++ooo+++oo+++XXXXX+++XXX@@OOOoooOO+++",
"++++++++ooo++ooo+++XXXXX+++XX@@@OOOooOOO+++++++++++oo+++ooo++XXXXXX++XXX@@@OOoooOOO++++++++++ooo+++oo+++XXXXX+++XXX@@OOOoooOO+++",
"++++++++ooo++ooo+++XXXXX+++XX@@@OOOooOOO+++++++++++oo+++ooo++XXXXXX++XXX@@@OOoooOOO++++++++++ooo+++oo+++XXXXX+++XXX@@OOOoooOO+++",
"+++++   ooo  +++@@@OOoooooo++XXXOOO++ooo++++++++   oo   +++@@OOOooooo+++XXXOO+++ooo++++++++  ooo   ++@@@OOOooooo+++XXOOO+++oo+++",
"+++++   ooo  +++@@@OOoooooo++XXXOOO++ooo++++++++   oo   +++@@OOOooooo+++XXXOO+++ooo++++++++  ooo   ++@@@OOOooooo+++XXOOO+++oo+++",
"OOO  oooooo++++++++oo+++OOOoo+++ooo+++++OOOOO   ooooo++++++++ooo+++OOooo+++oo++++++OOOOO   ooooo++++++++ooo++OOOooo++ooo+++++OOO",
"OOO  oooooo++++++++oo+++OOOoo+++ooo+++++OOOOO   ooooo++++++++ooo+++OOooo+++oo++++++OOOOO   ooooo++++++++ooo++OOOooo++ooo+++++OOO",
"OOO  oooooo++++++++oo+++OOOoo+++ooo+++++OOOOO   ooooo++++++++ooo+++OOooo+++oo++++++OOOOO   ooooo++++++++ooo++OOOooo++ooo+++++OOO",
"ooooo++++++ooooo   +++++OOOXX      OO   oooooooo+++++oooooo  ++++++OOXXX     OOO   oooooooo+++++ooooo   +++++OOOXXX     OOO  ooo",
"ooooo++++++ooooo   +++++OOOXX      OO   oooooooo+++++oooooo  ++++++OOXXX     OOO   oooooooo+++++ooooo   +++++OOOXXX     OOO  ooo",
"ooooo++++++ooooo   +++++OOOXX      OO   oooooooo+++++oooooo  ++++++OOXXX     OOO   oooooooo+++++ooooo   +++++OOOXXX     OOO  ooo",
"OOO++ooo+++++OOOXXX++XXX+++ooOOO+++XX+++XXXOO+++ooo+++++OOOXX+++XXX++oooOOO++XXX+++XXOOO+++oo++++++OOXXX+++XX+++oooOO+++XXX++XXX",
"OOO++ooo+++++OOOXXX++XXX+++ooOOO+++XX+++XXXOO+++ooo+++++OOOXX+++XXX++oooOOO++XXX+++XXOOO+++oo++++++OOXXX+++XX+++oooOO+++XXX++XXX",
"ooo+++++@@@++OOOoooOO@@@+++++OOOXXX++XXX+++oo++++++@@+++OOOooOOO@@@+++++OOOXX+++XXX++ooo+++++@@@+++OOoooOOO@@++++++OOXXX+++XX+++",
"ooo+++++@@@++OOOoooOO@@@+++++OOOXXX++XXX+++oo++++++@@+++OOOooOOO@@@+++++OOOXX+++XXX++ooo+++++@@@+++OOoooOOO@@++++++OOXXX+++XX+++",
"ooo+++++@@@++OOOoooOO@@@+++++OOOXXX++XXX+++oo++++++@@+++OOOooOOO@@@+++++OOOXX+++XXX++ooo+++++@@@+++OOoooOOO@@++++++OOXXX+++XX+++",
"+++  OOO+++ooooo   ++OOOOOO+++++ooo++oooOOO++   OOO++oooooo  +++OOOOO++++++oo+++oooOO+++   OO+++ooooo   +++OOOOO+++++ooo+++ooOOO",
"+++  OOO+++ooooo   ++OOOOOO+++++ooo++oooOOO++   OOO++oooooo  +++OOOOO++++++oo+++oooOO+++   OO+++ooooo   +++OOOOO+++++ooo+++ooOOO",
"+++  OOO+++ooooo   ++OOOOOO+++++ooo++oooOOO++   OOO++oooooo  +++OOOOO++++++oo+++oooOO+++   OO+++ooooo   +++OOOOO+++++ooo+++ooOOO",
"oooXX   ooo++   OOOOO++++++  XXXooooo   +++ooXXX   oo+++   OOOOO+++++   XXXooooo   ++oooXXX  ooo+++  OOOOOO+++++   XXoooooo  +++",
"oooXX   ooo++   OOOOO++++++  XXXooooo   +++ooXXX   oo+++   OOOOO+++++   XXXooooo   ++oooXXX  ooo+++  OOOOOO+++++   XXoooooo  +++",
"+++++OOOOOO  ooo+++++@@@+++++ooo   +++++++++++++OOOOO   ooo+++++@@@+++++ooo  ++++++++++++++OOOOO   oo++++++@@++++++oo   ++++++++",
"+++++OOOOOO  ooo+++++@@@+++++ooo   +++++++++++++OOOOO   ooo+++++@@@+++++ooo  ++++++++++++++OOOOO   oo++++++@@++++++oo   ++++++++",
"+++++OOOOOO  ooo+++++@@@+++++ooo   +++++++++++++OOOOO   ooo+++++@@@+++++ooo  ++++++++++++++OOOOO   oo++++++@@++++++oo   ++++++++",
"...++ooo     +++++++++++oooOO   +++@@...+++..+++ooo     +++++++++++ooOOO   ++@@@...++...+++oo      ++++++++++oooOOO  +++@@@..+++",
"...++ooo     +++++++++++oooOO   +++@@...+++..+++ooo     +++++++++++ooOOO   ++@@@...++...+++oo      ++++++++++oooOOO  +++@@@..+++",
"...++ooo     +++++++++++oooOO   +++@@...+++..+++ooo     +++++++++++ooOOO   ++@@@...++...+++oo      ++++++++++oooOOO  +++@@@..+++",
"+++ooOOOOOO++OOO   +++++     ooo+++..+++...++oooOOOOO+++OOO  ++++++     ooo++...+++..+++oooOOOOO+++OO   +++++      oo+++...++...",
"+++ooOOOOOO++OOO   +++++     ooo+++..+++...++oooOOOOO+++OOO  ++++++     ooo++...+++..+++oooOOOOO+++OO   +++++      oo+++...++...",
"ooo  ++++++ooXXXooo  +++OOOOOOOOXXX++...+++oo   +++++oooXXXoo   +++OOOOOOOOXX+++...++ooo   +++++oooXXooo   ++OOOOOOOOXXX+++..+++",
"ooo  ++++++ooXXXooo  +++OOOOOOOOXXX++...+++oo   +++++oooXXXoo   +++OOOOOOOOXX+++...++ooo   +++++oooXXooo   ++OOOOOOOOXXX+++..+++",
"ooo  ++++++ooXXXooo  +++OOOOOOOOXXX++...+++oo   +++++oooXXXoo   +++OOOOOOOOXX+++...++ooo   +++++oooXXooo   ++OOOOOOOOXXX+++..+++",
"   OO++++++++...+++++oooOOO+++++   OOoooooo  OOO++++++++...+++++oooOO++++++  OOOooooo   OOO++++++++..++++++ooOOO+++++   OOOooooo",
"   OO++++++++...+++++oooOOO+++++   OOoooooo  OOO++++++++...+++++oooOO++++++  OOOooooo   OOO++++++++..++++++ooOOO+++++   OOOooooo",
"   OO++++++++...+++++oooOOO+++++   OOoooooo  OOO++++++++...+++++oooOO++++++  OOOooooo   OOO++++++++..++++++ooOOO+++++   OOOooooo",
"OOO+++++@@@..+++...XXOOO+++OOOOO+++++XXXoooOO++++++@@...+++..XXXOOO++OOOOOO+++++XXXooOOO+++++@@@...++...XXXOO+++OOOOO++++++XXooo",
"OOO+++++@@@..+++...XXOOO+++OOOOO+++++XXXoooOO++++++@@...+++..XXXOOO++OOOOOO+++++XXXooOOO+++++@@@...++...XXXOO+++OOOOO++++++XXooo",
"ooooo...+++++...XXXoo+++ooo  XXX+++@@+++   ooooo...+++++...XXooo+++oo   XXX++@@@+++  oooooo..++++++..XXXooo++ooo   XX+++@@@++   ",
"ooooo...+++++...XXXoo+++ooo  XXX+++@@+++   ooooo...+++++...XXooo+++oo   XXX++@@@+++  oooooo..++++++..XXXooo++ooo   XX+++@@@++   ",
"ooooo...+++++...XXXoo+++ooo  XXX+++@@+++   ooooo...+++++...XXooo+++oo   XXX++@@@+++  oooooo..++++++..XXXooo++ooo   XX+++@@@++   ",
"+++++   oooOOXXXooo++OOOXXX+++++++++++++OOO+++++   ooOOOXXXoo+++OOOXX++++++++++++++OO++++++  oooOOOXXooo+++OOXXX+++++++++++++OOO",
"+++++   oooOOXXXooo++OOOXXX+++++++++++++OOO+++++   ooOOOXXXoo+++OOOXX++++++++++++++OO++++++  oooOOOXXooo+++OOXXX+++++++++++++OOO",
"+++++   oooOOXXXooo++OOOXXX+++++++++++++OOO+++++   ooOOOXXXoo+++OOOXX++++++++++++++OO++++++  oooOOOXXooo+++OOXXX+++++++++++++OOO",
"++++++++ooo++ooo+++XXXXX+++XX@@@OOOooOOO+++++++++++oo+++ooo++XXXXXX++XXX@@@OOoooOOO++++++++++ooo+++oo+++XXXXX+++XXX@@OOOoooOO+++",
"++++++++ooo++ooo+++XXXXX+++XX@@@OOOooOOO+++++++++++oo+++ooo++XXXXXX++XXX@@@OOoooOOO++++++++++ooo+++oo+++XXXXX+++XXX@@OOOoooOO+++",
"+++++   ooo  +++@@@OOoooooo++XXXOOO++ooo++++++++   oo   +++@@OOOooooo+++XXXOO+++ooo++++++++  ooo   ++@@@OOOooooo+++XXOOO+++oo+++",
"+++++   ooo  +++@@@OOoooooo++XXXOOO++ooo++++++++   oo   +++@@OOOooooo+++XXXOO+++ooo++++++++  ooo   ++@@@OOOooooo+++XXOOO+++oo+++",
"+++++   ooo  +++@@@OOoooooo++XXXOOO++ooo++++++++   oo   +++@@OOOooooo+++XXXOO+++ooo++++++++  ooo   ++@@@OOOooooo+++XXOOO+++oo+++",
"OOO  oooooo++++++++oo+++OOOoo+++ooo+++++OOOOO   ooooo++++++++ooo+++OOooo+++oo++++++OOOOO   ooooo++++++++ooo++OOOooo++ooo+++++OOO",
"OOO  oooooo++++++++oo+++OOOoo+++ooo+++++OOOOO   ooooo++++++++ooo+++OOooo+++oo++++++OOOOO   ooooo++++++++ooo++OOOooo++ooo+++++OOO",
"OOO  oooooo++++++++oo+++OOOoo+++ooo+++++OOOOO   ooooo++++++++ooo+++OOooo+++oo++++++OOOOO   ooooo++++++++ooo++OOOooo++ooo+++++OOO",
"ooooo++++++ooooo   +++++OOOXX      OO   oooooooo+++++oooooo  ++++++OOXXX     OOO   oooooooo+++++ooooo   +++++OOOXXX     OOO  ooo",
"ooooo++++++ooooo   +++++OOOXX      OO   oooooooo+++++oooooo  ++++++OOXXX     OOO   oooooooo+++++ooooo   +++++OOOXXX     OOO  ooo",
"OOO++ooo+++++OOOXXX++XXX+++ooOOO+++XX+++XXXOO+++ooo+++++OOOXX+++XXX++oooOOO++XXX+++XXOOO+++oo++++++OOXXX+++XX+++oooOO+++XXX++XXX",
"OOO++ooo+++++OOOXXX++XXX+++ooOOO+++XX+++XXXOO+++ooo+++++OOOXX+++XXX++oooOOO++XXX+++XXOOO+++oo++++++OOXXX+++XX+++oooOO+++XXX++XXX",
"OOO++ooo+++++OOOXXX++XXX+++ooOOO+++XX+++XXXOO+++ooo+++++OOOXX+++XXX++oooOOO++XXX+++XXOOO+++oo++++++OOXXX+++XX+++oooOO+++XXX++XXX",
"ooo+++++@@@++OOOoooOO@@@+++++OOOXXX++XXX+++oo++++++@@+++OOOooOOO@@@+++++OOOXX+++XXX++ooo+++++@@@+++OOoooOOO@@++++++OOXXX+++XX+++",
"ooo+++++@@@++OOOoooOO@@@+++++OOOXXX++XXX+++oo++++++@@+++OOOooOOO@@@+++++OOOXX+++XXX++ooo+++++@@@+++OOoooOOO@@++++++OOXXX+++XX+++",
"ooo+++++@@@++OOOoooOO@@@+++++OOOXXX++XXX+++oo++++++@@+++OOOooOOO@@@+++++OOOXX+++XXX++ooo+++++@@@+++OOoooOOO@@++++++OOXXX+++XX+++",
"+++  OOO+++ooooo   ++OOOOOO+++++ooo++oooOOO++   OOO++oooooo  +++OOOOO++++++oo+++oooOO+++   OO+++ooooo   +++OOOOO+++++ooo+++ooOOO",
"+++  OOO+++ooooo   ++OOOOOO+++++ooo++oooOOO++   OOO++oooooo  +++OOOOO++++++oo+++oooOO+++   OO+++ooooo   +++OOOOO+++++ooo+++ooOOO",
"oooXX   ooo++   OOOOO++++++  XXXooooo   +++ooXXX   oo+++   OOOOO+++++   XXXooooo   ++oooXXX  ooo+++  OOOOOO+++++   XXoooooo  +++",
"oooXX   ooo++   OOOOO++++++  XXXooooo   +++ooXXX   oo+++   OOOOO+++++   XXXooooo   ++oooXXX  ooo+++  OOOOOO+++++   XXoooooo  +++",
"oooXX   ooo++   OOOOO++++++  XXXooooo   +++ooXXX   oo+++   OOOOO+++++   XXXooooo   ++oooXXX  ooo+++  OOOOOO+++++   XXoooooo  +++",
"+++++OOOOOO  ooo+++++@@@+++++ooo   +++++++++++++OOOOO   ooo+++++@@@+++++ooo  ++++++++++++++OOOOO   oo++++++@@++++++oo   ++++++++",
"+++++OOOOOO  ooo+++++@@@+++++ooo   +++++++++++++OOOOO   ooo+++++@@@+++++ooo  ++++++++++++++OOOOO   oo++++++@@++++++oo   ++++++++",
"+++++OOOOOO  ooo+++++@@@+++++ooo   +++++++++++++OOOOO   ooo+++++@@@+++++ooo  ++++++++++++++OOOOO   oo++++++@@++++++oo   ++++++++",
"...++ooo     +++++++++++oooOO   +++@@...+++..+++ooo     +++++++++++ooOOO   ++@@@...++...+++oo      ++++++++++oooOOO  +++@@@..+++",
"...++ooo     +++++++++++oooOO   +++@@...+++..+++ooo     +++++++++++ooOOO   ++@@@...++...+++oo      ++++++++++oooOOO  +++@@@..+++",
"+++ooOOOOOO++OOO   +++++     ooo+++..+++...++oooOOOOO+++OOO  ++++++     ooo++...+++..+++oooOOOOO+++OO   +++++      oo+++...++...",
"+++ooOOOOOO++OOO   +++++     ooo+++..+++...++oooOOOOO+++OOO  ++++++     ooo++...+++..+++oooOOOOO+++OO   +++++      oo+++...++...",
"+++ooOOOOOO++OOO   +++++     ooo+++..+++...++oooOOOOO+++OOO  ++++++     ooo++...+++..+++oooOOOOO+++OO   +++++      oo+++...++...",
"ooo  ++++++ooXXXooo  +++OOOOOOOOXXX++...+++oo   +++++oooXXXoo   +++OOOOOOOOXX+++...++ooo   +++++oooXXooo   ++OOOOOOOOXXX+++..+++",
"ooo  ++++++ooXXXooo  +++OOOOOOOOXXX++...+++oo   +++++oooXXXoo   +++OOOOOOOOXX+++...++ooo   +++++oooXXooo   ++OOOOOOOOXXX+++..+++",
"ooo  ++++++ooXXXooo  +++OOOOOOOOXXX++...+++oo   +++++oooXXXoo   +++OOOOOOOOXX+++...++ooo   +++++oooXXooo   ++OOOOOOOOXXX+++..+++",
"   OO++++++++...+++++oooOOO+++++   OOoooooo  OOO++++++++...+++++oooOO++++++  OOOooooo   OOO++++++++..++++++ooOOO+++++   OOOooooo",
"   OO++++++++...+++++oooOOO+++++   OOoooooo  OOO++++++++...+++++oooOO++++++  OOOooooo   OOO++++++++..++++++ooOOO+++++   OOOooooo",
"OOO+++++@@@..+++...XXOOO+++OOOOO+++++XXXoooOO++++++@@...+++..XXXOOO++OOOOOO+++++XXXooOOO+++++@@@...++...XXXOO+++OOOOO++++++XXooo",
"OOO+++++@@@..+++...XXOOO+++OOOOO+++++XXXoooOO++++++@@...+++..XXXOOO++OOOOOO+++++XXXooOOO+++++@@@...++...XXXOO+++OOOOO++++++XXooo",
"OOO+++++@@@..+++...XXOOO+++OOOOO+++++XXXoooOO++++++@@...+++..XXXOOO++OOOOOO+++++XXXooOOO+++++@@@...++...XXXOO+++OOOOO++++++XXooo",
"ooooo...+++++...XXXoo+++ooo  XXX+++@@+++   ooooo...+++++...XXooo+++oo   XXX++@@@+++  oooooo..++++++..XXXooo++ooo   XX+++@@@++   ",
"ooooo...+++++...XXXoo+++ooo  XXX+++@@+++   ooooo...+++++...XXooo+++oo   XXX++@@@+++  oooooo..++++++..XXXooo++ooo   XX+++@@@++   ",
"ooooo...+++++...XXXoo+++ooo  XXX+++@@+++   ooooo...+++++...XXooo+++oo   XXX++@@@+++  oooooo..++++++..XXXooo++ooo   XX+++@@@++   ",
"+++++   oooOOXXXooo++OOOXXX+++++++++++++OOO+++++   ooOOOXXXoo+++OOOXX++++++++++++++OO++++++  oooOOOXXooo+++OOXXX+++++++++++++OOO",
"+++++   oooOOXXXooo++OOOXXX+++++++++++++OOO+++++   ooOOOXXXoo+++OOOXX++++++++++++++OO++++++  oooOOOXXooo+++OOXXX+++++++++++++OOO",
"++++++++ooo++ooo+++XXXXX+++XX@@@OOOooOOO+++++++++++oo+++ooo++XXXXXX++XXX@@@OOoooOOO++++++++++ooo+++oo+++XXXXX+++XXX@@OOOoooOO+++",
"++++++++ooo++ooo+++XXXXX+++XX@@@OOOooOOO+++++++++++oo+++ooo++XXXXXX++XXX@@@OOoooOOO++++++++++ooo+++oo+++XXXXX+++XXX@@OOOoooOO+++",
"++++++++ooo++ooo+++XXXXX+++XX@@@OOOooOOO+++++++++++oo+++ooo++XXXXXX++XXX@@@OOoooOOO++++++++++ooo+++oo+++XXXXX+++XXX@@OOOoooOO+++",
"+++++   ooo  +++@@@OOoooooo++XXXOOO++ooo++++++++   oo   +++@@OOOooooo+++XXXOO+++ooo++++++++  ooo   ++@@@OOOooooo+++XXOOO+++oo+++",
"+++++   ooo  +++@@@OOoooooo++XXXOOO++ooo++++++++   oo   +++@@OOOooooo+++XXXOO+++ooo++++++++  ooo   ++@@@OOOooooo+++XXOOO+++oo+++",
"+++++   ooo  +++@@@OOoooooo++XXXOOO++ooo++++++++   oo   +++@@OOOooooo+++XXXOO+++ooo++++++++  ooo   ++@@@OOOooooo+++XXOOO+++oo+++",
"OOO  oooooo++++++++oo+++OOOoo+++ooo+++++OOOOO   ooooo++++++++ooo+++OOooo+++oo++++++OOOOO   ooooo++++++++ooo++OOOooo++ooo+++++OOO",
"OOO  oooooo++++++++oo+++OOOoo+++ooo+++++OOOOO   ooooo++++++++ooo+++OOooo+++oo++++++OOOOO   ooooo++++++++ooo++OOOooo++ooo+++++OOO",
"ooooo++++++ooooo   +++++OOOXX      OO   oooooooo+++++oooooo  ++++++OOXXX     OOO   oooooooo+++++ooooo   +++++OOOXXX     OOO  ooo",
"ooooo++++++ooooo   +++++OOOXX      OO   oooooooo+++++oooooo  ++++++OOXXX     OOO   oooooooo+++++ooooo   +++++OOOXXX     OOO  ooo",
"ooooo++++++ooooo   +++++OOOXX      OO   oooooooo+++++oooooo  ++++++OOXXX     OOO   oooooooo+++++ooooo   +++++OOOXXX     OOO  ooo",
"OOO++ooo+++++OOOXXX++XXX+++ooOOO+++XX+++XXXOO+++ooo+++++OOOXX+++XXX++oooOOO++XXX+++XXOOO+++oo++++++OOXXX+++XX+++oooOO+++XXX++XXX",
"OOO++ooo+++++OOOXXX++XXX+++ooOOO+++XX+++XXXOO+++ooo+++++OOOXX+++XXX++oooOOO++XXX+++XXOOO+++oo++++++OOXXX+++XX+++oooOO+++XXX++XXX",
"OOO++ooo+++++OOOXXX++XXX+++ooOOO+++XX+++XXXOO+++ooo+++++OOOXX+++XXX++oooOOO++XXX+++XXOOO+++oo++++++OOXXX+++XX+++oooOO+++XXX++XXX",
"ooo+++++@@@++OOOoooOO@@@+++++OOOXXX++XXX+++oo++++++@@+++OOOooOOO@@@+++++OOOXX+++XXX++ooo+++++@@@+++OOoooOOO@@++++++OOXXX+++XX+++",
"ooo+++++@@@++OOOoooOO@@@+++++OOOXXX++XXX+++oo++++++@@+++OOOooOOO@@@+++++OOOXX+++XXX++ooo+++++@@@+++OOoooOOO@@++++++OOXXX+++XX+++",
"+++  OOO+++ooooo   ++OOOOOO+++++ooo++oooOOO++   OOO++oooooo  +++OOOOO++++++oo+++oooOO+++   OO+++ooooo   +++OOOOO+++++ooo+++ooOOO",
"+++  OOO+++ooooo   ++OOOOOO+++++ooo++oooOOO++   OOO++oooooo  +++OOOOO++++++oo+++oooOO+++   OO+++ooooo   +++OOOOO+++++ooo+++ooOOO",
"+++  OOO+++ooooo   ++OOOOOO+++++ooo++oooOOO++   OOO++oooooo  +++OOOOO++++++oo+++oooOO+++   OO+++ooooo   +++OOOOO+++++ooo+++ooOOO",
"oooXX   ooo++   OOOOO++++++  XXXooooo   +++ooXXX   oo+++   OOOOO+++++   XXXooooo   ++oooXXX  ooo+++  OOOOOO+++++   XXoooooo  +++",
"oooXX   ooo++   OOOOO++++++  XXXooooo   +++ooXXX   oo+++   OOOOO+++++   XXXooooo   ++oooXXX  ooo+++  OOOOOO+++++   XXoooooo  +++",
"oooXX   ooo++   OOOOO++++++  XXXooooo   +++ooXXX   oo+++   OOOOO+++++   XXXooooo   ++oooXXX  ooo+++  OOOOOO+++++   XXoooooo  +++",
"+++++OOOOOO  ooo+++++@@@+++++ooo   +++++++++++++OOOOO   ooo+++++@@@+++++ooo  ++++++++++++++OOOOO   oo++++++@@++++++oo   ++++++++",
"+++++OOOOOO  ooo+++++@@@+++++ooo   +++++++++++++OOOOO   ooo+++++@@@+++++ooo  ++++++++++++++OOOOO   oo++++++@@++++++oo   ++++++++",
"...++ooo     +++++++++++oooOO   +++@@...+++..+++ooo     +++++++++++ooOOO   ++@@@...++...+++oo      ++++++++++oooOOO  +++@@@..+++",
"...++ooo     +++++++++++oooOO   +++@@...+++..+++ooo     +++++++++++ooOOO   ++@@@...++...+++oo      ++++++++++oooOOO  +++@@@..+++",
"...++ooo     +++++++++++oooOO   +++@@...+++..+++ooo     +++++++++++ooOOO   ++@@@...++...+++oo      ++++++++++oooOOO  +++@@@..+++",
"+++ooOOOOOO++OOO   +++++     ooo+++..+++...++oooOOOOO+++OOO  ++++++     ooo++...+++..+++oooOOOOO+++OO   +++++      oo+++...++...",
"+++ooOOOOOO++OOO   +++++     ooo+++..+++...++oooOOOOO+++OOO  ++++++     ooo++...+++..+++oooOOOOO+++OO   +++++      oo+++...++...",
"+++ooOOOOOO++OOO   +++++     ooo+++..+++...++oooOOOOO+++OOO  ++++++     ooo++...+++..+++oooOOOOO+++OO   +++++      oo+++...++...",
"ooo  ++++++ooXXXooo  +++OOOOOOOOXXX++...+++oo   +++++oooXXXoo   +++OOOOOOOOXX+++...++ooo   +++++oooXXooo   ++OOOOOOOOXXX+++..+++",
"ooo  ++++++ooXXXooo  +++OOOOOOOOXXX++...+++oo   +++++oooXXXoo   +++OOOOOOOOXX+++...++ooo   +++++oooXXooo   ++OOOOOOOOXXX+++..+++",
"   OO++++++++...+++++oooOOO+++++   OOoooooo  OOO++++++++...+++++oooOO++++++  OOOooooo   OOO++++++++..++++++ooOOO+++++   OOOooooo",
"   OO++++++++...+++++oooOOO+++++   OOoooooo  OOO++++++++...+++++oooOO++++++  OOOooooo   OOO++++++++..++++++ooOOO+++++   OOOooooo",
"   OO++++++++...+++++oooOOO+++++   OOoooooo  OOO++++++++...+++++oooOO++++++  OOOooooo   OOO++++++++..++++++ooOOO+++++   OOOooooo",
"OOO+++++@@@..+++...XXOOO+++OOOOO+++++XXXoooOO++++++@@...+++..XXXOOO++OOOOOO+++++XXXooOOO+++++@@@...++...XXXOO+++OOOOO++++++XXooo",
"OOO+++++@@@..+++...XXOOO+++OOOOO+++++XXXoooOO++++++@@...+++..XXXOOO++OOOOOO+++++XXXooOOO+++++@@@...++...XXXOO+++OOOOO++++++XXooo",
"OOO+++++@@@..+++...XXOOO+++OOOOO+++++XXXoooOO++++++@@...+++..XXXOOO++OOOOOO+++++XXXooOOO+++++@@@...++...XXXOO+++OOOOO++++++XXooo",
"ooooo...+++++...XXXoo+++ooo  XXX+++@@+++   ooooo...+++++...XXooo+++oo   XXX++@@@+++  oooooo..++++++..XXXooo++ooo   XX+++@@@++   ",
"ooooo...+++++...XXXoo+++ooo  XXX+++@@+++   ooooo...+++++...XXooo+++oo   XXX++@@@+++  oooooo..++++++..XXXooo++ooo   XX+++@@@++   ",
"+++++   oooOOXXXooo++OOOXXX+++++++++++++OOO+++++   ooOOOXXXoo+++OOOXX++++++++++++++OO++++++  oooOOOXXooo+++OOXXX+++++++++++++OOO",
"+++++   oooOOXXXooo++OOOXXX+++++++++++++OOO+++++   ooOOOXXXoo+++OOOXX++++++++++++++OO++++++  oooOOOXXooo+++OOXXX+++++++++++++OOO",
"+++++   oooOOXXXooo++OOOXXX+++++++++++++OOO+++++   ooOOOXXXoo+++OOOXX++++++++++++++OO++++++  oooOOOXXooo+++OOXXX+++++++++++++OOO"
};
