/* XPM */
static char *_aaf6ac071664d749fb899320dcd2386uCLizTNo3JKWhKNa[] = {
/* columns rows colors chars-per-pixel */
"384 384 256 2 ",
"   c #14111A",
".  c #290F1C",
"X  c #28231A",
"o  c #0C132B",
"O  c #1C1523",
"+  c #191828",
"@  c #1D1B2B",
"#  c #151C33",
"$  c #1B1D33",
"%  c #181D3A",
"&  c #231626",
"*  c #231A25",
"=  c #2A1D26",
"-  c #241D2B",
";  c #291E2A",
":  c #34172E",
">  c #231E32",
",  c #281D35",
"<  c #16262F",
"1  c #1C2236",
"2  c #15223B",
"3  c #192539",
"4  c #1C243A",
"5  c #282427",
"6  c #26212D",
"7  c #2B212C",
"8  c #31232D",
"9  c #242334",
"0  c #2C2433",
"q  c #292936",
"w  c #22253A",
"e  c #2C253A",
"r  c #242A3C",
"t  c #2B2B3C",
"y  c #312534",
"u  c #32253A",
"i  c #372939",
"p  c #332B3C",
"a  c #2B323B",
"s  c #37323C",
"d  c #4B1332",
"f  c #691935",
"g  c #492B39",
"h  c #45483C",
"j  c #131B45",
"k  c #2C1F49",
"l  c #1A2643",
"z  c #16344D",
"x  c #252D42",
"c  c #2B2D42",
"v  c #292846",
"b  c #342C43",
"n  c #3A2C44",
"m  c #342948",
"M  c #3A2D4B",
"N  c #2B3144",
"B  c #273349",
"V  c #2C334B",
"C  c #333245",
"Z  c #3B3244",
"A  c #34334B",
"S  c #3B334C",
"D  c #36394C",
"F  c #282C54",
"G  c #3A2C55",
"H  c #2B3857",
"J  c #3C3353",
"K  c #383756",
"L  c #333C54",
"P  c #343C5B",
"I  c #3B3C5C",
"U  c #3C3D63",
"Y  c #383A66",
"T  c #363A6E",
"R  c #691746",
"E  c #452A48",
"W  c #43364B",
"Q  c #452D57",
"!  c #572D50",
"~  c #473758",
"^  c #44345B",
"/  c #56365A",
"(  c #67375A",
")  c #713156",
"_  c #4A2D68",
"`  c #483565",
"'  c #433C64",
"]  c #4C3B64",
"[  c #443D6B",
"{  c #4C3C6B",
"}  c #563965",
"|  c #543D6C",
" . c #5B3D6C",
".. c #493B74",
"X. c #573C74",
"o. c #722B63",
"O. c #693B67",
"+. c #633C6B",
"@. c #773B68",
"#. c #673D74",
"$. c #773D74",
"%. c #2F4655",
"&. c #37425A",
"*. c #3B4266",
"=. c #205666",
"-. c #354A74",
";. c #474359",
":. c #514B52",
">. c #454367",
",. c #4C426C",
"<. c #57436B",
"1. c #5E5E63",
"2. c #494376",
"3. c #544273",
"4. c #5B4273",
"5. c #58467A",
"6. c #4F5572",
"7. c #66426C",
"8. c #78436A",
"9. c #644373",
"0. c #694576",
"q. c #774576",
"w. c #6C5672",
"e. c #6E6D70",
"r. c #8F0C38",
"t. c #9A164E",
"y. c #903959",
"u. c #AA3658",
"i. c #873A67",
"p. c #973B68",
"a. c #8D3773",
"s. c #AE386D",
"d. c #D31F5D",
"f. c #D0326B",
"g. c #F5336D",
"h. c #FB3878",
"j. c #94445A",
"k. c #A9455B",
"l. c #B7495A",
"z. c #B75059",
"x. c #88436A",
"c. c #984569",
"v. c #874676",
"b. c #974776",
"n. c #935475",
"m. c #A74867",
"M. c #B74A65",
"N. c #B95467",
"B. c #A84976",
"V. c #B25175",
"C. c #9F6E71",
"Z. c #C64C58",
"A. c #D24E56",
"S. c #C9535A",
"D. c #D7575A",
"F. c #E45B57",
"G. c #DB6258",
"H. c #E76759",
"J. c #ED725B",
"K. c #C85666",
"L. c #D65965",
"P. c #CD5171",
"I. c #EC506F",
"U. c #FA4578",
"Y. c #FD5978",
"T. c #D46871",
"R. c #EB7766",
"E. c #EF726D",
"W. c #FE6978",
"Q. c #668A77",
"!. c #A48A78",
"~. c #F58D71",
"^. c #E79C78",
"/. c #EFC876",
"(. c #513B88",
"). c #693B8E",
"_. c #743BA7",
"`. c #38508B",
"'. c #346D92",
"]. c #336AA6",
"[. c #474886",
"{. c #584687",
"}. c #505291",
"|. c #664787",
" X c #6F4E92",
".X c #4E6C92",
"XX c #646499",
"oX c #5D5DB2",
"OX c #7450A9",
"+X c #4C6FA9",
"@X c #736BB0",
"#X c #A03A90",
"$X c #8E4F8C",
"%X c #AC528A",
"&X c #B36892",
"*X c #8A52B0",
"=X c #8857B7",
"-X c #8E6AB4",
";X c #A168A3",
":X c #CE538A",
">X c #F65089",
",X c #D36C90",
"<X c #EE6F8F",
"1X c #FC7685",
"2X c #E154A7",
"3X c #DF74A7",
"4X c #9458C6",
"5X c #966AC9",
"6X c #AB6FD1",
"7X c #AA67D8",
"8X c #359BAB",
"9X c #4F8EB0",
"0X c #6A9BA3",
"qX c #4EABB6",
"wX c #37C9BC",
"eX c #55CABB",
"rX c #3AADC6",
"tX c #4DB5C9",
"yX c #60A3C9",
"uX c #37CCCB",
"iX c #32E4D3",
"pX c #52D0CC",
"aX c #69D5CF",
"sX c #6CE7D6",
"dX c #63E8DE",
"fX c #A09D9E",
"gX c #D29B9E",
"hX c #F18E90",
"jX c #F5B08C",
"kX c #F390A9",
"lX c #F6AFAE",
"zX c #A3E8B9",
"xX c #F7CB96",
"cX c #D2D9B1",
"vX c #F4D2AE",
"bX c #F8EAB7",
"nX c #AB99D6",
"mX c #D39ED6",
"MX c #CEADEA",
"NX c #9FE2DE",
"BX c #8FF2D3",
"VX c #B1F7CC",
"CX c #D0DDDF",
"ZX c #F4D6CC",
"AX c #C9F5D0",
"SX c #F8EACF",
"DX c #FBF6C6",
"FX c #FDF5CC",
"GX c #FDFACD",
"HX c #FCF6D6",
"JX c #FDFBD4",
"KX c #FDFCDB",
"LX c #EEF1EF",
"PX c #FDFDE3",
"IX c #FCFDEB",
"UX c #FBFEF7",
/* pixels */
"O * * * O * O * - * O * * - O * 6 ; * - 0 * ; - - 6 * & i * * * * 7 * 7 * * * * * * * * * & * * * 7 * * * * & ; 8 * ; * * 7 * 8 g g i & * & ; & * - & o.o.( = 7 7 7 7 = = = = = = = = = = = = = = = = ; = = = = = - J J ; ; ; = = = * * * ; ; ; - - - * [.[.[.- 5 ; ; ; ; ; ; ; 7 7 7 ; ; ; - - - n S S b * ; - - ; = = * * * * * * * = = = ; ; ; ; ; ; ; ; ; ; ; 0 y y ; ; ; ; ; ; ; ; ; ; ; ; - + I U I O - - - ; ; ; * * * * * * = = = * ; ; ; ; ; ; ; & { _ { - ; ; ; ; ; ; ; ; ; ; ; ; ; ; - * e I K O ; ; ; 7 7 7 ; ; ; ; ; 7 7 7 7 - >.[ U ; ; ; ; ; 7 ; ; = = = = = = ; = ; ; ; = = ; ; ; = ; ; 7 7 & / q.@.o.&   O - - & O O * O * * O - S @ * * O * & O E ! / / O 8 y ; , 0 - * ( ) ) & * & O O * * * * O O y * - * * O O O * O O O * O O O &   O * - O O O 6 6 * 0 0 y ; * 0 O *   O ",
"O O O * O * O 7 * ; * * O 6 6 * - ; * p 6 0 - 0 O 6 ; & & ; 7 * 7 * ; i * * * * * * * 7 s i ; & * 7 & & - * * * * & - & ; i 0 y g E i - 6 7 y ; * 6 & o.o.( = = = ; 7 = ; ; ; = = = = = = = = = ; ; ; ; ; ; = = = 0 J J ; ; ; ; ; ; ; ; ; ; ; ; ; ; ; 6 [.[.[.9 5 ; ; ; 7 7 7 7 7 7 7 7 6 6 6 6 , n S S b - ; - - ; = = = = ; ; = ; = ; ; ; ; ; 7 7 7 7 7 7 ; ; 7 0 y y 0 ; ; ; 7 7 ; ; ; 7 7 7 - - >.' ' * ; ; ; ; ; ; ; ; ; ; = = = = ; ; ; ; ; ; ; ; ; * { ` { ; ; ; ; ; ; ; ; ; ; ; ; 7 7 7 ; ; c U I * 7 7 7 7 7 7 ; ; ; 7 7 7 7 7 7 0 [ ..U ; ; ; ; ; 7 7 7 ; = = = = = ; ; ; ; ; ; ; ; ; ; ; ; 7 7 7 * Q $.@.) . O O - ; * * - 0 O * * - y 0 & O & & 0 0 & W ! / / : i s O , n * * ! ) ) & * * * O 0 O * & * - 0 O ; * - * O 6 0 - * & 6 O 7 O - O O 0 p * y * - 0 * - * W ; y y y 7 O * ",
"* 0 - O * s O p * p * 0 - * * * 6 - - * y * 0 y ; 6 * y * & * * * * ; 7 * * * * * * * s W W - & - s ; & s * y O * & Z ; & O 0 8 g g i * O ; * O & 0 ; o.o.( ; 7 8 i ; = ; ; ; = = = = = = = = = ; ; ; ; ; ; = = = 0 J J ; ; ; ; ; ; = = ; ; ; ; ; 7 7 6 [.[.[.9 5 ; ; ; 7 7 7 7 7 7 6 6 6 7 7 7 , Z S S b - ; - - ; ; ; ; ; ; ; ; ; ; ; ; ; ; ; 7 7 7 7 7 7 ; 7 7 u u i 0 ; ; ; 7 7 ; ; ; 7 7 7 - - ;.>.' * ; ; ; ; ; ; ; ; ; ; = ; ; ; ; ; ; ; ; ; ; ; ; * ] ` ] ; ; ; ; ; ; ; ; ; ; ; ; 7 7 7 ; ; b U ;.* 7 7 7 7 7 7 ; ; ; 7 7 7 7 7 7 0 [ ..Y ; 7 7 7 7 7 7 7 ; = = = = = ; ; ; ; ; ; ; ; ; ; ; ; 7 7 7 * ! $.@.) . O 0 0 0 * * - 0 p p * O * p ; & 7 * * * * W / / ( y ; p i Z W * * ( ) ) = & ; * * * & * 0 O 6 Z * 6 - 6 0 & * ; O O * *   7 * 7 O O & & - ;.O 6 * s 6 - 6 * 6 * 6 O * 0 ",
"* * * O - * 6 6 6 * * * O - p * * - s 7 s O * - 6 & 7 * O * i * * ; 7 W * * * * * * * i W W * & O * * * & - 6 - - & y - * * * ; i g i * * y 0 O O 6 = o.o.( ; ; ; y i = ; ; ; = = = ; ; ; = = = ; ; ; ; = = 5 7 7 0 J ~ ; ; ; ; ; = ; ; ; ; ; ; 6 6 6 - [.[.2.9 6 ; ; ; ; 7 7 7 6 6 5 5 X X   - 6 n S S p - ; ; ; ; ; ; ; ; ; ; ; ; ; ; ; ; 7 7 7 7 7 7 7 7 7 7 7 u i i 0 ; 7 7 7 ; 7 7 7 6 6 6 ; - ;.>.*.@ ; ; ; ; ; ; ; ; ; ; ; ; ; ; ; ; ; ; ; 7 7 ; ; - ] ` ] 7 7 7 ; ; ; ; ; ; 7 7 7 ; ; ; 6 - t I >.* 7 7 7 7 7 7 7 7 7 7 7 7 7 7 7 0 [ [ J ; 7 7 7 7 7 7 7 ; ; ; ; ; ; = ; ; ; ; ; ; ; ; 7 7 7 7 7 7 * E @.o.( & O * 0 e * * * 6 6 u - e - * ; O O O 0 6 O / ( / 7.; ; y ; - ; ; * ( i.@.: * 6 6 6 0 * O ; * * - - * & & - & O * * * * 5 O O * ; * & Z Z 0 0 * - q O Z * s * 0 0 * O * & ",
"- 0 - p - O 6 O 6 * * * * 6 O * * * * * & * - * y O O * * * * O * * * * = * * * * * * O & * * * O * * 6 O O - * * * * * * & * * 8 i i ; * 6 * * & * = @.@.( ; ; 7 7 ; ; ; ; ; = = = ; ; ; = = = ; 7 ; = = = 7 7 7 0 J J ; ; ; ; ; ; ; ; ; ; ; ; 7 6 6 6 2.[.2., 6 ; ; ; 7 7 7 7 7 7 8 DXDXDX!.y 0 b Z Z n ; ; ; ; ; - - ; ; ; = ; ; ; ; ; ; 7 7 7 7 7 7 7 7 7 7 ; E E g y 8 7 7 7 7 7 7 7 6 6 6 ; - ;.>.*.@ ; ; - ; ; ; ; ; ; = ; ; ; ; ; ; ; ; ; 7 7 ; ; - ~ ` ~ 7 7 7 ; ; ; 7 7 7 7 7 7 ; ; ; ; ; t ;.>.- 6 6 7 7 7 7 7 7 7 7 7 7 7 8 8 t U T J ; ; 7 7 7 7 7 7 ; ; ; ; ; ; ; ; ; ; ; ; ; 7 7 7 7 7 7 7 7 5 E @.o.) & * * * * * * * * * * O & O O & & O * * - * / / / E : ; ; 0 - y ; & ) i.p.: O * - * * * O * * - ; - 0 & 0 s O * * & * O & O * = 6 * * O * O & & * 6 O * O * - * 6 * ; = 8 ",
"- - 6 0 * * * * 6 * O O O * - 6 & 7 - ; - - - - - O O & * O * O * * * * * * * * * & & O & & & * O * O 6 * y * ; * 0 * * * 6 O ; y 8 y ; 0 0 y i ; 7 = @.o.( ; ; ; = ; ; ; ; ; = = = ; ; ; = = = i s 8 = = = 7 7 7 0 J J ; ; ; ; ; ; ; ; ; ; ; ; 6 6 7 6 2.[.2., 6 ; ; 7 7 7 7 7 7 7 8 DXDXDXe.8 0 b Z Z b ; ; ; ; ; ; - ; ; = = = = ; ; ; ; 7 7 7 7 7 7 7 7 7 7 7 @.@.i.g 7 7 7 7 7 7 7 7 6 6 6 ; - ;.*.U @ ; ; - ; ; ; ; ; = = ; = ; ; ; ; ; ; ; 7 7 ; ; - ~ ` ~ 7 7 7 ; ; ; 7 7 7 7 7 7 ; ; ; ; 6 c ;.~ - 7 6 7 7 7 7 7 7 7 7 7 7 7 8 y t U T J ; ; 7 ; 7 7 7 7 ; ; ; ; ; ; ; ; ; ; ; ; ; 7 7 7 7 7 7 7 7 5 E @.o.) & * * * * * * * * * * - 0 * O O O O O * * * W / / ~ ; i i W i n i & ) i.p.: & * - * O * * * * * - * O * * * * * * * 6 * & * * * 6 * & 0 * * 0 7 O p * - * 6 ; * ; * O * = ",
"- - 0 * 6 y * - 6 0 - p * y - y * 6 - 0 * 0 0 u 0 * 6 - - O * O O * * * * * 0 b u & O O O * * * 0 > v > * 6 * 0 p i & ; * 0 * ; g E i ; y y p i s y i @.o.( ; 7 8 ; ; 7 7 7 i 7 ; ; 7 7 7 = ; ; :.:.y 7 ; ; 7 7 7 u J J ; ; ; ; ; ; ; ; ; ; ; ; 6 6 6 9 2.[.2., ; 7 7 7 7 7 7 7 7 7 8 DXbXbXe.i 7 p n n b ; ; ; ; ; - - = = = = = = = = = 7 7 7 7 7 7 ; 7 7 7 7 : i.i.i.d y y 0 7 7 ; ; ; 6 6 6 ; - ;.U ' @ ; ; ; ; ; ; = = = = ; = = = ; ; ; ; ; 7 7 ; 7 ; Q _ ~ 7 7 7 7 7 7 ; ; ; ; ; ; 7 7 7 6 ; c ' ~ - 7 7 7 7 7 7 ; 7 7 7 7 7 7 8 8 e U [ J 7 7 7 ; 7 7 7 7 ; ; ; ; 7 ; ; ; ; 7 7 7 7 7 7 7 7 7 7 7 7 7 E @.o.) & * * * * * * t ;.>.* y 0 & s ; * * 0 , 0 * W / ~ W y , , y y , & : ) y.p.: & * * ; - & * * p e 9 * s * p - Z * 7 - , y O p O y - 6 * & , - - 0 - 6 O 0 O p 0 6 s * - y 7 ",
"- y - p * y * p - 6 O O * 0 6 6 O - * 0 ; - 6 6 6 - * * 6 6 7 O * * * * & * y u p & O O O * * * p e m ;.& O * p , y 0 - y y O ; g g i 7 * 0 s p s s y i.i.) ; 8 ; 8 = 7 ; * ; ; ; ; 7 7 7 = ; ; :.! 8 7 ; 7 7 7 7 p ~ J 7 7 7 , = :.1.= ; ; ; ; 6 6 6 9 2.[.2.; 5 7 7 7 7 7 7 7 7 7 5 1.1.h 5 0 7 p n b p ; ; ; ; ; - ; ; = = = ; ; = 5 5 7 7 7 7 7 7 7 7 ; 7 7 : i.i.i.! : y 8 y 8 ; ; ; 6 6 6 ; - ;.U ' @ ; ; ; ; ; ; = = = = = = = = = ; ; ; ; 7 7 ; 7 ; Q _ ~ 7 7 7 7 7 7 ; ; ; ; ; ; 7 7 7 6 6 c U ~ - 7 7 7 7 7 7 ; 7 7 7 7 7 7 8 8 e [ [ J 7 7 7 7 7 7 7 7 7 ; ; ; ; ; ; ; ; 7 7 7 7 7 7 7 7 7 7 7 7 7 E @.o.) & * * * * * * D 6.}.* 6 O p O O O * * - 0 * W W W W y y W ~ W W ; : y.p.p.: O - * * - O * * - * * & 6 * - * * & * - 0 ; O O * * p * O q p Z - W * 0 O Z 0 0 y p y 0 * y = ",
"- 6 6 6 6 p - p y s * - ; s 0 i * y * p * Z p 0 W * y O ; O O O & & O & & * y u b & O O O * * * b v J c * 0 ; u p 0 6 * 6 y * y i y y 7 y W s p y W i i.a.( = ; 8 8 s 8 ; i s 7 ; ; 7 7 7 = ; ; i y 7 7 7 7 7 7 7 p ^ J 7 7 7 7 :.!.C.= = ; ; ; 6 6 6 9 2.[.2.; 5 7 7 7 7 7 7 7 7 7 ; 5 5 5 7 7 7 p n b p ; ; ; ; ; = = = ; ; ; ; ; = 5 5 7 ; ; ; ; 7 ; 0 0 y y : i.i.i.! i i : : : ; ; ; 6 6 6 6 - ;.U ' - ; ; ; ; ; ; ; ; ; ; = ; ; ; ; ; ; ; ; 7 7 ; ; ; Q Q ~ 7 7 7 7 7 7 ; ; ; ; ; ; 7 7 7 6 6 t U ~ - 7 7 7 7 7 7 ; 7 7 7 7 7 7 8 8 u [ [ J 7 7 7 7 7 7 7 7 7 ; ; = ; ; ; ; ; 7 7 7 7 7 7 7 7 7 7 7 7 7 E @.o.) & * * * * * * L .XXX* * 0 u 0 y * 0 * - , - W W E n 8 ; y W y ~ ; ; y.p.p.: O ; - 6 0 * - * 9 b e O p * Z * Z * p & 0 p * p 6 Z 0 * O Z 9 W - y 6 Z O s * 6 - 6 6 s O 7 8 ",
"6 6 - 6 6 * - - 0 7 ; 6 6 0 6 0 * 0 * , - - * * * * & & & O * O * & & & & & * ; O & & O & * * * - > t * * * - 6 - ; ; ; 6 0 - 7 y g y 7 y i s * y ; y i.a.o.= ; 7 7 ; ; 7 7 7 ; 7 7 ; 7 7 = = = = ; = 7 7 7 7 7 7 p ~ ~ 7 ; ; ; C.!.gX= ; - ; 7 6 6 6 9 2.`.2.; 5 7 7 7 7 7 7 7 7 7 7 7 7 7 ; ; 7 y p p y ; ; ; ; ; = = ; ; - ; ; ; ; 7 7 7 7 7 ; 7 ; ! ( ( ( ( ( i.o.o.o.o.o.o.o.! 7 ; 6 ; ; ; 6 , ;.I ~ * - - - - - - ; ; ; ; = = ; ; ; ; ; ; ; 7 7 7 ; ; Q Q Q 7 7 7 ; ; ; ; ; ; ; ; ; 7 7 7 6 6 t U ~ * 7 7 7 7 7 7 = = ; 7 7 7 7 8 8 e [ U J 7 7 7 7 7 7 7 7 7 7 7 ; ; ; ; ; ; 7 7 7 7 7 7 7 7 7 7 7 7 7 E @.o.o.& * * * * * * O O O * 6 * y 0 y * * O - - * n W W i y 8 u i i i & : y.p.p.: * O * O O - * O * O * O 7 & O * O O O O * & O O & * * * O 0 - O O O O O * O * 0 p 6 * 7 O O = ",
"* 6 - 0 6 * p O * * & O * O * - * ; 6 * * * & * * * * ; ; * ; 7 & & & & & & * - & & & O * & & * * - * * 0 ; 0 ; ; ; ; ; 7 ; * y i g i 7 W p y s 6 ; y i.a.@.= ; - ; ; ; ; ; ; ; ; ; ; 7 7 ; = = = ; = ; 7 7 7 7 7 p ~ ~ 7 ; ; ; C.gXgX: = 7 7 ; 7 6 6 9 [.`.2.6 ; ; 7 7 7 7 7 7 7 7 7 7 7 7 7 7 7 y p p 0 ; ; ; ; ; = = ; ; - - ; ; ; 7 7 7 7 7 7 7 ; ! ) ) ) ) ) y.i.i.i.i.o.o.o.! 7 ; 6 ; ; ; 6 , ;.I ~ - - - - * * * = = ; ; * = = = ; ; ; ; ; 7 ; 7 ; ; Q Q Q 7 7 7 ; ; ; ; ; ; ; ; ; 7 7 7 6 6 t I ~ * 7 7 7 ; ; ; ; ; ; 7 7 7 7 8 8 e >.[ J 7 7 7 7 7 7 7 7 7 7 7 ; ; ; ; ; ; 7 7 7 7 7 7 7 7 7 7 ; ; 7 E @.o.( : - * * * * * O & * * * * * * & * 6 6 p y ; u y y m i 8 i W W i ; : y.p.p.: * * * * * + 6 * O * * O * * 0 O & O O - - & O 6 p , 6 * * O - * 0 y * p s y 6 * - * - 7 * = 8 ",
"* 6 6 6 * * 6 - 0 - y ; - y 6 y ; y * Z , - - 0 6 7   * & * & 7 * 7 ; s O & * * & & O & * * O O O   * O 0 ; ; ; ; ; & ; 7 8 ; y 8 i y 7 s y i ;.0 ; y a.a.@.= ; ; ; ; ; ; ; ; ; ; ; ; 7 7 ; = = = ; = ; 7 7 7 7 7 p ~ ~ 7 ; ; = : : d 8 = ; 7 ; 6 6 6 9 [.`.2.- ; 7 7 7 7 7 7 7 7 7 7 7 7 7 7 7 7 y u u 0 7 ; ; ; ; = = ; ; - - ; ; ; 7 7 7 7 7 7 7 ; ( ) ) ) ) ) y.i.i.i.o.o.o.o.! 7 ; 6 ; ; ; 6 , ;.I ~ - - - - - * * = = = ; = * = ; ; ; ; ; ; 7 ; ; ; , E Q M 7 7 7 ; ; ; ; ; ; ; ; ; 7 7 7 6 6 t I ~ * 7 7 7 ; ; ; ; ; ; 7 7 7 7 8 8 e >.[ J 7 7 7 7 7 7 7 7 7 7 7 ; ; ; ; ; ; 7 7 7 7 7 7 7 7 7 7 ; ; 7 E $.o.) : - - - - - * & & & * * * 6 0 & * & & * - - u y y u y ; E E E i ; : y.p.p.: * * * - - O * O Z & p * W - Z O Z @ Z Z p * O * ; > * ; * - q - 7 * * - 0 Z p , Z 0 ; * & = 7 ",
"6 - - 6 p 6 y * 0 * - 6 * - 6 6 * * , ; ; 6 0 0 - y 0 & ~ - y i & Z 0 Z * * - O O * * p b e & * p - p * i 0 p - 0 ; 7 ; i ; y i g E y n p i i s 0 - 8 a.a.@.= ; ; ; ; ; ; ; ; ; ; ; ; ; ; = ; ; ; ; = ; 7 7 7 7 7 u ~ ~ ; ; ; ; ; ; ; ; 7 ; ; ; 6 6 6 9 [.`.2.- ; 7 7 7 7 7 7 7 7 7 7 7 7 7 7 7 7 y y y 0 ; ; ; ; ; = = * * * ; ; ; 7 7 7 7 ; ; 7 7 7 ( ) ) ) ) ) a.p.a.o.o.) R ! ! ; ; ; 6 6 6 6 - ;.&.' - - - ; * * * = = = ; ; ; ; ; ; ; ; ; ; ; ; 5 7 8 Q Q Q 7 7 7 7 7 7 ; ; ; ; ; ; 7 7 7 7 0 t ' I - 7 7 7 7 7 7 ; ; ; ; 7 7 7 8 8 e 2...J 7 ; ; 7 7 7 7 7 7 7 7 7 7 7 7 7 7 7 7 7 7 7 7 7 7 7 7 ; ; ; E @.o.o.: * ; ; ; * * * * * * * * 6 , * , - 0 u - 0 n E u i i y ! ! ! E ; & y.p.p.: * * * 0 S b - - b p q - p - 0 - - - O ; ; * ; * 0 - , 0 * 0 p 0 0 - 0 ;.9 S p 6 * * y p & p 7 ",
"0 * - 0 s 0 0 * 0 6 0 - y Z y Z * Z 0 p 0 p * 0 * * * * ; * 0 ; & y * 0 - O 6 & * * * - > u & O * O O O * * * 6 - ; ; * ; & ; i y y y i p i y y ; * = a.a.@.= 7 0 0 6 6 ; ; ; ; ; ; ; ; ; = ; ; ; ; ; ; 7 7 7 7 7 u ~ ~ ; ; ; ; ; ; ; ; 7 ; ; ; 6 6 6 9 [.`.2.- ; ; ; ; ; ; ; ; ; ; 7 7 7 7 7 7 ; y y 0 ; ; ; ; ; ; ; ; ; ; ; ; ; ; 7 7 7 7 7 ; 7 7 7 E ! ! ! ! R y.p.p.) : : : : 8 ; ; 6 6 6 6 6 , ;.&.' - - - ; * * * = = ; ; ; ; ; ; ; ; ; ; ; ; 7 7 ; d ! ! ! : 0 y 7 7 7 ; ; ; ; ; ; 7 7 7 0 0 t U I - 7 7 7 7 7 7 ; ; ; 7 7 7 7 8 8 e 2...~ 7 ; ; 7 7 7 7 7 7 7 7 7 7 7 7 7 7 7 7 7 7 7 7 7 7 7 7 7 7 = ! @.o.O.; * ; ; ; * * * * * * * * - - * , 0 - u e 0 n i n n s y ( ( ! E & . p.s.p.: * * * e S ~ * 0 - > + O ; O p * W * W p Z 0 i 6 p 0 - ; * - p 0 y - 0 0 0 0 - 0 i ; ; * 7 = 7 ",
"O - * - * 6 p - * - - - * 0 0 y & i 0 s 0 0 O s - y p 9 W * p 0 * s * W - O - & * * * e e n ; * p O p O 0 - p y 6 * y 7 y y i i E E i i p i y y 0 ; : a.a.@.= ; ; 6 6 6 ; ; ; ; ; ; ; ; ; = ; = = = = ; 7 7 7 7 7 u ~ ~ ; ; ; ; ; ; ; ; 7 ; ; ; 6 6 6 9 [.`.2.; ; ; ; ; ; ; ; ; ; ; 7 7 7 7 7 7 ; 7 7 7 ; ; ; ; ; ; ; ; ; ; ; ; ; ; 7 7 7 7 7 7 7 0 0 y i y i g g y.y.y.R ; ; ; ; ; ; ; 6 6 6 6 6 > ;.&.' - ; ; ; = - * - - ; ; ; ; ; ; ; ; ; ; ; ; 7 6 5 ) j.j.k.d 8 7 7 7 7 ; ; ; ; ; ; 7 7 7 0 0 t U I - 7 7 7 7 7 7 ; ; ; 7 7 7 7 8 8 e 2.2.~ 7 ; ; 7 7 7 7 7 7 7 7 7 ; ; 7 7 7 7 7 7 7 7 7 7 7 7 7 7 7 = E @.@.O.; - ; ; - * * * * * * * * - 0 * p u u p e 0 E E E W E 8 ( ( ) E : . p.s.p.: * * - e S ~ * 0 e - p * y * * * , O * 0 ; * 0 O 6 6 0 , 6 O Z y i O Z ;.> ;.9 0 p 6 0 y * y 0 ",
"* 6 * p 0 0 * * * O - * 0 6 0 - * y ; 0 - & y ; ; ; & * O O O O * & * * O O & & O O * O O O O O O O O * & & & - * & - ; ; ; 7 8 i E W y y y 0 0 6 7 : a.a.@.; ; = = = = ; 7 7 ; ; ; ; ; ; ; ; ; ; ; ; 7 7 7 7 7 7 u ~ ~ = = = ; ; ; ; ; ; ; ; ; 6 7 7 9 [.`.2.7 ; ; ; ; ; ; ; ; ; ; ; ; ; ; ; ; ; ; ; ; ; ; ; ; ; ; ; 7 ; ; ; 7 7 7 ; 7 7 7 7 7 6 6 7 0 y y y y g y.y.y.! , , , , , ; ; 6 6 6 6 6 > ;.*.' > ; ; ; = - - - - - ; ; ; ; ; ; ; ; ; ; ; 7 7 8 C.^.^.^.g 7 7 7 7 7 7 7 7 ; ; ; 7 7 7 0 0 e I J - 7 7 7 7 7 7 7 7 7 7 7 7 7 8 8 e 2.2.' 8 ; ; 7 7 7 7 7 = 8 8 7 ; ; 7 7 7 7 7 7 7 7 7 7 7 7 7 7 6 ; ! $.@.@.& * - - * * * * * * * * * > , & * - 0 - - - E i E y y ; ( ) ) E O . y.s.p.: * * * * * & O O 0 & - & & O ; * ; O * * y ; - 6 y ; 6 * & O - - * * 0 t - 0 - & * * O & & 7 ; ",
"6 0 6 0 - 0 0 p 0 * y p p - 0 6 * y * 0 * & e 0 - * 0 & 0 * 0 Z * s & n O y 6 p * O * * & 0 O O Z * W ; O 6 ; 6 ; * p 0 i ; ; W W W ~ , 0 y y y y = : a.a.@.= = = = = = 7 7 7 8 ; ; ; ; ; 7 7 7 ; ; ; ; 7 7 7 7 7 e ^ ~ 5 5 = ; ; ; ; ; ; ; ; ; 6 6 6 9 [.`.2.- * ; ; ; ; ; ; ; ; ; ; ; ; ; ; ; ; ; ; ; ; ; ; ; ; ; ; ; 7 7 7 7 7 7 ; 7 7 7 7 7 6 6 6 7 y y y i i i.p.i.) 8 ; ; 0 0 6 6 6 6 6 6 6 > ~ *.' > - - - - - - - = * ; ; - ; ; ; ; ; ; ; ; 7 5 7 !.^.jXjX! 7 7 7 7 7 7 ; ; ; ; ; 7 7 7 0 0 e K J > 7 7 7 7 7 7 7 7 7 7 7 8 8 8 8 e 2.2.~ ; 7 7 7 7 7 7 7 7 e.C.C.e.:.8 8 8 7 7 7 7 7 7 7 7 7 7 7 7 6 ! $.@.@.: - - - ; ; ; > - - * O * O * & - - 6 6 - * / ! E u 7 7 ( ) ) E . & y.s.p.d * * - - - * 0 * O * p * s * 0 O * & s 0 y ; * * 6 - 6 - * 0 W Z W 0 y O 6 - 0 ; W ; y y * O * ",
"* * - y 6 - * 0 * 0 0 p - 6 y * - y 0 Z 6 0 S q t y q 0 y 7 0 y 7 0 & , + y 0 W p - O &   * O O * & 6 * O 0 O O O ; s y i ; ; W W W ~ , 0 7 y y y = : a.a.i.= = = = = 5 7 7 y i ; ; ; ; ; ; 7 7 ; ; 7 7 7 7 7 7 7 u ^ ~ 5 5 = ; ; ; ; ; ; ; ; ; 6 6 6 9 [.`.2.; * ; ; ; ; ; ; ; ; ; ; ; ; ; ; ; ; ; ; 6 ; ; ; ; ; ; ; ; 7 7 7 7 7 7 ; 7 7 7 7 7 6 6 6 7 y y 0 7 y ( ) ( ! : ; ; 0 0 6 6 6 6 6 6 ; > ~ *.' > - - - - - - = = * = ; ; ; ; ; ; ; ; ; ; 0 7 7 !.jXjXjX! 7 7 7 7 ; ; 6 6 ; ; ; 7 7 7 0 0 e J J > 7 7 7 7 7 7 7 7 7 7 7 8 8 8 8 e 2.2.~ ; 7 7 7 7 7 7 7 5 PXPXHXKXfX8 8 8 7 7 7 7 7 7 7 7 7 7 7 6 6 ! $.@.@.: - - - - - - e , , * * y , - @ * * ; - * O / ! E y 0 7 ) ) ) E . . p.s.p.d * * - - - * ; * p & 0 & - 0 y ; - - 6 0 Z Z * y Z 6 0 * ; p W Z W * Z 0 6 0 0 - y 6 ; p ; y ; ",
"6 0 * 0 p y 6 Z 0 p > e t e Z 0 Z 0 ; 6 * 0 * p 6 - - * 0 0 0 - 0 - 6 y * Z 0 Z :.p * s * W * - W :.- W O Z - * 0 0 s p s ; 7 / ! / :.; 8 i i i i 5 : a.a.a.= = = = = 5 7 y s W 7 7 ; ; ; ; 5 7 7 ; ; 7 7 7 7 7 7 u ^ ~ ; 7 7 7 ; ; ; ; ; ; ; ; 6 6 7 q [.`.2.; * = ; ; ; ; ; ; ; ; ; ; ; ; ; ; ; ; ; 6 6 6 ; ; 6 6 6 6 6 6 6 7 - - ; ; ; ; 7 7 ; ; ; 6 6 6 6 6 6 6 - - - > - ; 6 6 ; ; ; ; ; ; - > ;.*.' > - - - - - ; ; ; ; ; ; ; ; ; 6 ; 7 7 7 7 y 7 8 !.jXjXjXg 7 8 0 0 8 8 6 6 6 6 6 ; ; ; 6 0 u A S ; 6 6 6 ; ; ; 7 7 7 7 7 7 0 y y e 2.2.U 7 7 7 7 7 7 7 7 8 JXDXbXbXfX8 8 8 7 7 7 7 7 7 7 7 y g y 5 6 ! $.@.$.& * ; - - ; ; b S S * + - > e & * * ; p 0 0 / ! ! i 7 ; ( ) ) ! & . p.s.p.d - - 6 ;.y * Z ; e - - * * * - i * - y 0 * ; 6 y 0 ; 6 6 ; u Z W ;.y ; - - 6 6 - y 7 ; O - 6 * ",
"* O * t * t 0 * * - p 0 > , p p S e 9 b 9 0 0 y 6 y 6 6 y 0 p * y Z * p O 6 6 - O O   * O 6 O O * y 6 - O 6 0 - W ; y p s 0 ; ! / ! W ; 8 i s s i * : a.a.a.= ; = = = 5 7 8 i W 7 7 ; ; ; ; 5 5 ; ; ; 7 7 7 7 7 7 u ^ ~ 7 7 7 7 ; ; ; ; ; ; ; ; 6 7 7 q [.[.2.; * = ; ; ; ; ; ; ; ; ; ; ; ; ; ; ; ; ; ; ; ; ; ; 6 6 6 6 7 6 6 7 7 7 ; ; ; ; - ; ; ; ; 7 6 6 6 6 6 6 9 9 > > - ; ; ; ; ; ; ; ; ; - > ;.*.' > - - - - - ; ; ; ; ; ; ; ; ; ; ; 7 7 8 y y y y !.xXxXxXg y : y , 8 = ; 6 6 6 6 ; ; ; 6 6 e A S 6 6 6 6 7 7 7 7 7 7 7 7 7 0 y y e 2.2.' 7 7 7 7 7 7 7 7 5 HXDXbXbXfX8 8 8 7 7 7 7 7 7 7 7 8 g i 8 5 ! $.@.@.& * - - - - - 0 n n - * - 6 y O & y 0 p - & O.( / W 7 7 ( ) ) ! = : s.s.s.d - 6 - p 0 6 - * p O Z O y * p y 0 * s 0 y * 6 ; * ; 6 * - Z p p 0 - p 6 Z y Z y 6 0 6 W O 7 0 ",
"6 0 * t * 6 0 0 y * b W p S c w $ $ w $ 9 9 y 0 6 y - y 0 6 0 y 0 0 - p * p y p 0 0 - 0 - 0 O O 0 ;.6 :.O W * O - ; y s W y ; / ( :.~ ; 8 i s s i * : a.a.a.; ; = = = 5 ; 7 8 y 7 7 ; ; ; ; ; 5 ; ; ; 7 7 7 7 7 7 p ~ ~ 7 7 7 ; ; ; ; ; ; ; ; ; 6 7 7 q [.`.2.6 * ; ; ; ; ; ; ; ; ; ; ; ; ; ; ; : : : 8 8 8 ; ; 6 6 6 7 7 7 7 7 7 7 ; ; ; 7 7 ; ; ; ; 6 6 6 6 6 6 6 - - > > - ; ; ; ; ; ; ; ; ; - > ;.*.' > - - - ; ; ; - - ; ; - - ; ; ; ; 7 8 8 y 8 y 8 gXxXxXxXg 7 = = = = : ; ; 6 6 6 ; ; ; 6 6 e A S 6 6 6 6 7 7 7 7 7 7 7 7 7 0 y 0 e 2.2.' 7 7 7 7 7 7 7 6 8 HXDXbXDXfX8 8 7 ; ; 7 7 7 7 7 7 7 i i 5 5 / $.@.$.& * - - - - - * & O O * 6 0 6 - * y ; s 0 0 / ! ! E 7 7 ( ) ! E = : s.s.p.d * 6 6 0 y 6 - & Z - ;.O * 6 6 0 0 - 0 6 p p 0 6 p y p i y p W Z W 0 p - - 0 & 6 ; * & 7 5 O & ",
"O 6 * 6 * * 6 6 6 * - p c A &.-.'.+X-.'.9X4 O q 6 - - * 0 6 * ; * * O & * * * - * * - * - * & O * * - * * * * O O - * O & & O * = ; ; * * ; ; ; - ; : a.a.a.; = = = = = ; 7 ; ; ; ; 8 g X g . 5 ; 7 7 7 7 7 7 7 7 u ^ ~ = 7 7 7 ; ; 7 7 7 ; 6 6 6 7 7 w [.`.2.6 - ; ; ; ; ; ; ; ; ; ; ; ; ; ; ; : %XV.V.V.: ; ; 6 6 6 6 6 6 6 7 7 7 - - 7 ; ; * ; ; ; ; 7 7 6 6 ; - - - 9 9 6 - - - ; ; ; ; ; ; - > &.*.' > - - - ; ; ; - ; ; ; ; ; ; ; ; 9 . lXhXjXjXjXjXbXbXbXvXxXjXjXjXjXjXjX8 ; ; ; ; 6 6 6 6 0 e S b 9 7 7 7 7 7 7 7 7 7 7 7 7 7 y 0 e 2.2.' ; 7 ; 0 0 7 7 7 7 0 y i i y 7 7 7 7 7 7 7 7 7 7 7 7 7 8 7 * ! $.$.$.& * * * - - - - - - & * - - & O O s O s O * 7 Z 7 s y 8 ! ! ! g = : s.s.p.d * - - 6 - ; ; & 0 6 - * 0 0 - ; O   * * 0 - * e p 0 p y 0 0 p p ; - * * 7 * * O 7 ; & * * ; * ",
"6 0 - 9 6 p + e > s 6 c A K I -.`.'.-.'.].v q 9 6 0 * 0 - - y 0 s Z , p 0 t p O s * Z O 0 p & O O O O 6 O 6 * 0 W 0 ; - 7 ; * 8 : i i ; 6 ; ; ; 7 7 : a.a.a.; 7 7 7 ; ; ; ; ; ; ; ; C.xXxXvXg : ; 7 7 7 7 7 7 7 7 p ~ ~ = ; = ; ; ; 7 7 7 ; 6 6 6 7 6 9 [.`.[.6 - ; ; ; ; ; ; ; ; ; ; ; ; ; ; ; : V.V.V.V.d , ; 7 7 6 6 6 6 6 7 7 7 7 ; ; ; * * ; ; - - ; ; ; ; ; - - - 9 9 9 - - - ; ; ; ; ; ; - 9 &.*.' > 6 6 - - - - - - ; ; ; ; ; ; ; 6 & jX~.^.^.jXjXbXbXbXbXxXxXxXjX/.^.hX8 ; ; ; ; 6 6 6 6 0 u b b 0 7 7 7 7 7 7 7 7 7 7 7 7 7 0 0 e 5.[.[ ; 7 7 7 0 7 7 6 ; 0 0 y y y y 7 7 7 7 7 7 7 7 7 7 7 8 i i * / q.$.$.& * * * * - - u ~ W e O e u y * y O - O O * y i ; W y 8 E ! ! g = : s.s.s.d 5 6 6 0 6 s 7 * i * 6 0 - i * u - * y - O - & p 0 p Z 0 0 , 0 0 W 0 y y 7 y 0 y 6 p p p * 7 i ",
"O * * - - 6 > e b > p S J A A -.'.].-.].+Xv 9 q 0 - - 0 y * 6 * 6 6 6 0 6 * - * * * O & & * O - - p 0 - ; 0 ; O ; * * * ; ; * y : y y ; ; ; ; ; 7 7 : a.a.$.; 0 y y 0 ; ; ; ; ; ; ; !.xXxXxX8 : ; 7 7 7 7 7 7 7 7 p ~ ~ ; ; = ; ; ; 7 7 7 ; 6 6 6 6 6 9 [.`.[.6 - ; ; ; ; ; ; ; ; ; ; ; ; = ; ; : V.V.V.V.: , ; 6 7 6 6 6 6 6 7 7 7 7 ; ; ; * * ; ; - - ; ; ; ; ; - - - 9 9 9 - - - ; ; ; ; ; ; - 9 &.*.' > - 6 - - - - - - ; ; ; ; ; ; ; 6 : jX~.^.^.jXjXbXbXbXbXxXxXxXjX/.^.gX8 - ; ; ; 6 6 6 6 0 u b p 7 7 7 7 7 7 7 7 7 7 7 7 7 7 y y e 5.[.{ ; 7 7 0 0 7 7 6 7 7 0 8 8 8 8 7 7 7 7 7 7 7 7 7 7 7 8 i 8 * / q.$.$.& * * * * - - W w.w.S > , 0 7 O O O 6 W O * i s i i ; 8 g ! ! g : : s.s.s.d 7 6 6 ; 6 7 * * 0 y 0 ; * s , p ; O O * - 0 * p p p s W 0 Z Z y 0 - 6 y y p * 6 0 * * 7 * 7 = ",
"9 9 e y 6 * 0 - 0 9 e e A ;.*.-.'.'.'.].+Xl 9 p @ C e Z t q C 6 s ;.q t * y 0 & p * y 0 6 Z   O O * O O * 0 W y :.Z * * - - * : g g g ; ; ; ; ; 6 7 : a.a.a.; 0 0 0 0 0 ; ; ; ; ; 7 !.vXvXvX8 8 = 7 7 7 7 7 7 7 7 p ~ ~ 7 7 7 ; ; ; 7 7 7 ; 6 6 6 6 6 9 [.`.[.- - * ; ; ; ; ; ; ; ; ; ; ; 6 ; ; : V.P.V.V.: 0 0 0 0 0 0 6 6 6 6 7 7 ; ; ; - - - ; ; - - - - ; ; ; - - 9 , q - ; 7 7 ; 6 6 6 6 6 - 9 ;.*.' 9 6 - - - - - - - - ; - - ; ; ; , : gXjXjXjXjXjXbXbXbXbXvXlXxXjXjXjXgX, 6 ; ; ; 6 6 6 6 6 y n p 0 7 7 7 7 7 7 7 7 7 7 7 7 7 7 7 e 5.[.[ 7 6 0 7 0 8 y 0 7 7 7 7 7 7 7 7 7 7 7 7 7 7 7 7 7 7 y i y * / q.$.$.& * * * * - - ,.XXw.W - ; i y     * 6 W & & 7 s y y 7 8 E ! ! g = : B.s.s.d 5 6 6 6 s s 6 * 0 - 0 Z * * 0 p y O s * 0 0 O p 9 W Z W Z p p p S * p :.* y 6 q y s O i O 7 ; ",
"6 + + + 6 * t 0 q t C t J I I *.'.'.'.'.8XB B x z 3 # q q 9 9 9 6 6 @ 6 O * O & p O O s 7 Z + q O Z y 6 O * * * - O * - * - - : g E g ; ; ; ; ; 6 7 : a.a.$.* ; ; 7 ; ; ; ; ; ; 7 7 = X X 8 8 8 = ; ; 7 7 7 7 7 7 b ~ ~ 7 7 7 ; ; ; 7 7 7 ; 6 6 6 6 6 9 [.`.[.- ; * ; ; ; ; ; ; ; ; ; 7 ; ; y ; 8 :XP.V.%Xd ; y 0 0 0 0 7 7 7 6 ; ; ; ; ; - - - ; ; - - - - 7 ; ; - 6 6 9 * cXvXZX1.6 6 6 7 6 6 - 9 &.*.' 9 6 - - - - - - - - ; - - ; ; ; ; & : : : : : . gXxXxXxXf : : : : : 8 , ; ; ; ; 6 6 6 6 6 0 u y 0 7 7 7 7 7 7 7 7 7 7 7 7 7 7 7 e 5.{.,.; 6 8 7 g f g g 7 7 7 7 7 7 7 7 7 7 7 7 7 7 7 7 7 7 7 ; = 5 ! q.$.#.& * * * * - * p Z u * * - 0 y O * * O - ; * - * ; & ; 7 g E E g = . B.s.s.d 7 7 6 0 - O 0 * 0 0 0 * *   0 * * O O O 0 - * p p Z p Z - W Z p Z - 6 * - * - 6 7 - - * * ; 7 ",
"* 6 * 6 0 - 9 0 + + 9 9 e A V -.'.8X8X'.9X=.'.8X9X'.'.N r V &.a e q + + O O O * O O O O - O O - O * * * 6 0 ;.Z * * * * * - - 7 y y y 6 - ; ; ; 6 7 : a.a.$.* = ; = = = ; ; ; ; ; 7 8 8 : 7 ; ; = = ; 7 7 7 7 7 7 b ~ ~ 7 7 7 ; ; ; 7 7 7 ; 6 6 6 6 6 9 [.`.[.> ; - ; ; ; ; ; ; ; ; ; 7 0 y 8 8 : V.V.N.V.d y 8 8 , 0 0 7 7 7 6 ; ; ; 7 ; - - - ; - - - - - ; ; ; - 6 6 9 5 cXxXvXg 6 6 6 6 6 6 - 9 &.*.U 9 - - 6 6 - - - - - - - - ; ; - ; 7 y , , , , : gXjXjXjXf = ; , ; ; ; 6 9 ; ; ; 6 6 6 6 6 6 0 0 6 7 7 7 7 7 7 7 7 7 7 7 7 7 7 7 e 5.{.,.6 0 0 8 x.T.T.m.7 7 7 7 7 7 7 7 7 7 7 7 7 7 7 7 7 7 7 5 * = ! q.$.#.; * * * * * * * * O * * , 0 Z & * O p - & * ; y ; y 7 8 s g g g 8 : V.s.s.d 7 6 6 ; - & - * * O + * - * 0 O - O p + y 9 + 0 b Z t p p p 0 p Z * 7 - - 0 - W q * - 7 = * * ",
"O - * y 9 - 9 9 - q b S t J m A H H H z z 9X8X8X8X8X8X-.=.=.6.N 9 0 9 -   p 0 O p O 0 * O - 0 - O y s - * s 6 * * O * 0 ; 0 0 * * - * - - ; ; ; 6 6 : a.a.$.= = = = = = ; * ; ; ; ; ; ; ; 7 7 ; 7 7 7 7 7 7 7 7 7 b ^ ~ 7 7 7 ; ; ; 7 7 7 ; ; ; 6 6 0 e [.`.[.- - - - - - ; ; ; ; ; : gXgXgXgXgXjXxXxXxXxXjXhXhXhXhXhXd 7 ; ; 7 6 6 6 6 6 - - - - - - 6 - - - - - - 6 6 - ; cXxXvXg 7 6 6 6 6 6 ; q ;.*.*.9 - - 6 - - - - - - - - - ; ; ; ; 6 6 ; 6 7 8 : lXjXjXjXf = ; ; ; 6 6 6 6 ; ; ; 6 6 6 6 6 6 6 6 6 7 7 7 7 0 0 0 7 7 7 7 7 7 7 7 9 [.[.2.; 0 0 : n.E.E.C.7 7 7 7 ; ; 7 7 7 7 7 7 7 7 7 7 7 7 7 ; ; * ! 0.q.#.- * y n u * * * * * * - , p s ; * 0 y & ; & ; y ; * ; 7 8 = = = = : V.s.s.: 7 6 0 0 * - * * ;.q p - + 9 q O 0 + q p Z e > q S t Z Z t p b Z p - * 7 - Z & * * * 6 p * * * ",
"* 0 9 p - t q S - Z > Z 9 ;.e S *.H H T -.9X8X8X8X8X8X=.=.=.%.N w y t 9 * 6 s 6 Z 6 Z q 0 W * O * * * * O y O W - 0 0 0 i y 6 - - - * - - ; 6 6 6 6 : a.a.v.= = = * 5 5 7 y p p ; ; 7 7 7 7 7 7 7 7 7 7 7 7 7 7 7 Z I ~ 7 7 7 ; ; ; 7 7 7 ; ; ; 6 0 0 , [.`.[.> - - - - - ; ; - ; ; = hX^.^.^.^.jXxXxXxXxX/.jXjX^.~.hX: 7 ; ; ; ; ; 6 6 6 - - - - - - - - - - - - - 6 6 6 - cXcXZXW 6 6 6 6 6 - ; q ;.*.>.$ - - 6 - - - - ; ; - - - ; ; ; ; ; ; ; ; 6 e : lX^.^.jXf ; ; 7 ; 6 6 - - ; ; ; 6 6 6 6 6 6 6 6 6 6 7 7 7 0 0 0 7 7 7 7 7 7 7 7 e [.{.2.; , ; 8 n.hXhX) 7 7 7 ; ; ; 7 7 7 7 7 7 7 7 7 7 7 7 7 ; ; * E 0.q.0.& * M 4.<.* * * * * * * 0 u 0 & O O - 0 & * i i 7 s ; 7 y 8 7 = = : V.s.s.: ; 7 7 0 ; y - 6 e 0 9 p q Z - Z + + - t :.e e S Z Z b Z p ;.t 9 Z - s p 6 6 0 p 0 W * 0 - y y ",
"* * - 9 6 + - 0 9 9 e Z p C t e *.H H Y Y =.8X8X8X8X8X-.-.-.6.;.t 6 q + 6 6 y * * * 6 * * O O p 0 :.p 1.* 6 0 ; & * 0 y y y * * - - * - - ; 6 6 6 6 : a.a.v.= = = * 5 5 ; u b M ; ; 7 7 7 7 7 7 7 7 7 7 7 7 7 7 7 C I ~ 7 7 ; ; ; ; 7 7 7 ; ; ; 6 0 0 9 }.`.[.> - - - - - ; ; - ; ; = hX^.^.^.^.jXxXxXxXxX/.jXjXjX~.hX. 7 ; - ; ; ; 6 6 6 - - - - - - - - - - - - - 6 - ; @ * ; 8 6 6 6 6 6 6 - ; q &.*.>.> - - 6 - - - - - ; ; - - ; ; - ; ; ; ; ; 6 0 : gXjXjXjXf ; ; ; ; 6 6 - - ; ; ; 6 6 6 6 6 6 6 6 6 6 7 7 7 0 0 0 7 7 7 7 7 7 7 7 e [.{.2.; 6 7 y : d g : 7 7 7 ; ; ; 7 7 7 7 7 7 7 7 7 7 7 7 7 ; ; * E 0.q.0.& * E :./ ; * * * * * - p p p 0 * * p * p & i ; ; ; * ; & 7 = = = = V.s.s.: ; ; ; y * ; - * S Z <.Z * p 9 - > > D C 9 S S q e C Z ;.Z S Z S q * 6 6 0 Z - - p s O p & ; * ",
"O 0 - 0 6 6 0 p q Z - - S Z Z y &.Y -.-.-.=.8X8X8X8X8X=.-.=.=.z r q q p 6 p O * Z - & i * p O > s W s s * 6 - O 6 0 6 p s i * * - * * - - ; 6 6 6 6 8 a.a.v.* - - ; 7 7 , 0 y p ; ; 7 7 7 7 7 7 ; 7 7 7 7 7 7 7 7 C ~ S 7 7 7 7 7 7 ; ; ; ; ; ; 6 0 0 9 `.].[.> - - - - - - - - - - : hXhXhXhXhXjXxXxXxXxXjXjXjXjXjXlX. - - - - 6 - - - - - 6 6 6 - - - - - - - - 6 - - - - * 6 6 6 - - - 6 6 6 ; 0 0 0 - 6 - - - - - - 6 6 6 - - - - - - - - - ; 6 6 , : f f y.y.: ; ; ; ; ; ; ; ; ; ; ; 6 6 6 6 7 6 7 6 6 6 7 7 7 0 0 0 0 7 7 7 7 7 7 7 e }.{.2., 6 6 ; 7 7 7 7 7 7 7 7 7 7 7 7 7 7 7 7 7 7 7 7 7 7 7 7 7 * E 0.q.q.& * ; 8 ; ; - - - - * * p Z W - O O & - O * ; :.* :.& y s = i y = : V.s.s.: ; ; 0 W ; ;.- - p 0 0 y 6 * - + p @ e Z J D t Z W Z S p Z 0 Z y Z 0 0 * Z * s 7 ;.* - 7 - W ; ",
"* - - - - * * * + - O - t > q + K K -.*.P -.qXyX'.'.8X8XqXqXqX8X=.%.&.D - O * 0 * O O O * O * * O O + - O * - , * - 0 6 0 6 * O * * * - - - ; ; - ; 8 a.#Xv.* - - ; 7 7 ; 7 7 ; ; ; ; ; ; ; 7 7 ; 7 7 7 7 7 7 7 7 7 0 0 7 7 7 7 7 7 7 ; ; ; ; ; 6 0 0 w .X].`.> - - - - - - - - - - ; g g d d d . vXjXjXjXj.: : = . ; ; - - - - - - - - - - 6 6 - - - - - - - - - - - - - - - - - - - - - - 6 6 6 6 6 - - - - - - - - - 6 6 - - - - - - - - - - ; ; ; ; , , - - ; ; ; ; ; ; ; ; ; ; ; ; ; 6 6 6 6 6 6 6 6 6 6 6 6 7 7 7 0 0 0 7 7 7 7 0 0 e }.{.2., 6 6 ; ; ; ; ; ; ; ; ; ; ; ; ; ; 7 7 7 7 7 7 7 7 7 7 7 7 = E 0.0.9.& * ; ; ; ; ; - - - - * - * O O O * O O * O & & ; ; ; ; * & = y ; : B.s.s.: ; 7 ; ; 7 * O & - + O O O 6 - 9 q O D L K K K C t S W e e - 9 0 0 * - 6 * - - - O * y & ; * y ",
"- 0 * p - 0 p p t t - 0 - - - q Z S >.Y H P %.%.-.=.qXqX8XqX8X8X9X&.%.D 6 O 6 * 9 + + Z e y t O * - O O O 9 t b , @ O - * - - * * 6 O * * - - - - - 8 a.#Xv.* * * ; 7 7 7 7 7 5 ; ; ; ; ; ; 7 7 6 7 7 7 7 7 7 7 7 7 7 7 7 7 7 7 7 7 7 7 ; ; ; ; ; 0 , 1 +X].`.> - - - - - - - - - - - , , , , , : jX^.^.jXj.7 6 6 7 , - - - - - - - 6 6 - - - - - - - - - - - - - - - - 6 6 6 - - - - - - 6 6 6 6 6 6 - 6 6 6 6 - - - - 6 6 - - 6 6 - - * - - - ; ; ; 6 6 6 - - ; ; ; ; ; ; ; ; ; ; ; ; ; 6 6 6 6 6 6 6 6 6 6 6 6 7 7 7 0 0 0 7 7 7 7 0 0 e {.{.2., 7 7 ; ; ; ; ; ; ; ; ; ; ; ; ; ; 7 7 7 7 7 7 7 7 7 7 7 7 = E 0.0.9.& * ; ; - ; ; ; - - - - * * * * * * y y & O & & * & ; ; ; * y = * : B.s.s.: ; ; ; ; y * O * - 0 * O 6 6 > 9 @ + K &.>.P I N c W S p - 0 y q Z * - * * - * 6 y * & * W & * ",
"* 0 - - 6 - * * 0 * O + - e S > S w J Y F P P Y *.%.9XqX8X8X8X8XqX&.%.D 6 - e q - + > - 9 > @ O * t q - - p W b e * - * * y - 0 9 9 9 - * - - - - ; = a.#Xv.* ; ; 7 7 7 ; 7 7 7 ; ; ; ; ; ; ; ; 7 7 7 7 7 7 7 7 7 7 7 7 6 6 6 7 7 7 8 ; ; ; ; ; ; ; ; , +X].`.- * - - - - - - - - - - - > 9 9 9 y jX^.~.hX) y 7 7 7 6 6 - - - - - - - - - - - - - - - - - - - - - - - - - - - - - - - - - - 6 6 6 - - - - - 6 * * - - - 6 - - - - - - - * - - - - - - - - - - - - - ; - ; ; ; ; ; ; ; ; ; ; ; ; 6 6 6 6 6 6 6 6 6 7 7 7 0 7 7 7 7 7 0 0 0 9 {.{.2., 7 ; ; 6 ; ; ; 6 6 6 7 7 7 7 7 7 7 7 7 7 7 7 8 7 7 8 8 8 7 M |.0.9.& * * * * ; ; ; - - - * ; 0 * & 6 0 y * O * 6 * * * = * ; * * & * = s.s.s.: * ; y ; ; 6 * * 9 p t e 9 0 - t t + >.*.U *.P c ;.S b Z 9 Z t t 6 - 6 6 0 0 0 7 p * y ; - * 7 ",
"* - - 0 - * 0 * 0 0 p - Z 0 Z e C I A Y F K F F *.-.0XqX8X8X8X8XqX6.&.;.p W 0 6 - O > > t Z Z O p S e - + p W Z 6 - * 0 * 0 - p - - ;.- - - - - ; ; = b.#Xv.= ; ; 7 7 7 ; 7 7 ; ; ; ; ; ; ; ; ; 7 7 7 7 7 7 7 7 7 7 6 6 6 6 6 5 e.e.e.6 ; ; ; ; ; ; ; w +X].`.- * - - - - - - - - - - 6 - 0 9 9 y hX~.~.~.f 0 6 6 6 6 6 - - - - - - - - - - - - - - - - - - * - - - - - - - - - - - - - - - - - - - 6 6 - - * * * - - - 6 6 - - - - - - * - - - - - - - - - - - - - - - ; ; ; ; ; ; 7 7 ; ; ; ; 6 6 6 6 6 6 6 6 6 6 7 7 0 7 6 7 7 7 7 7 0 e {.[.2.> 6 7 ; 6 ; ; ; 6 6 6 7 7 7 7 7 7 7 7 7 7 y y 8 7 7 8 8 8 7 M |.0.9.& * - * - ; ; - - - - ; 0 ; i ; 6 6 p 1.O & * * ; 7 = * W n u 0 * = s.s.s.: * p 0 p ; y 6 0 W > e e 0 9 p t 9 O I P *.*.*.S t C p p 0 0 0 0 Z W 0 p * p 0 7 Z * W * Z * - ",
"- 0 0 - 6 - Z 0 - * - * q - Z b >.t A U P V P P K H =.8XqXqX8X8XqX6.;.&.t C * 0 - O Z Z e 9 * * e Z & q O ;.1.S Z 0 O - & ; * * ;.Z e - - - - - ; - & $X#Xv.= ; ; 7 7 7 ; 7 7 ; ; ; ; 7 ; ; ; ; 7 7 7 7 7 7 7 7 7 7 6 6 6 6 6 5 cXcXcX; ; ; ; ; 6 ; ; > +X].`.> - - - - - - - - - - - 6 - 0 9 9 : hX~.R.E.f 0 6 6 6 6 6 - - - - - - - - - - - - - - - - - - * - - - - - - - - - - - - - - - - - - - 6 6 - - * * * - 6 6 6 6 - - - - - - - - - - - - - - - - - - - - - - ; ; ; ; ; 7 ; ; ; ; ; ; 6 6 6 6 6 6 6 6 6 6 7 7 0 7 7 7 7 7 7 7 0 e {.[.2.- - ; ; 6 ; ; ; 6 6 6 7 7 7 7 7 7 7 7 7 7 y y 8 7 7 8 7 7 7 M |.0.9.* * - * - - - - - ; - ; 6 0 s y 6 W p W - O 6 ; * ; * * W Z n i & = s.s.s.d 7 s ; 0 0 0 * - e - ;.* p e 9 > p + 6.>.*.P &.C ;.;.S 0 0 9 p - * * - W * y q p ;.O W * p * 6 ",
"* 0 6 6 q 6 * 0 s 0 y y p e p t S t D v P V K K K P H 9XqXqXqXqXqX'.8X8X'.9 a 0 0 * * Z b W p O 6 p & ; + S S Z p * @ 0 ; ; * 0 * 6 > - - ; ; ; ; ; ; a.#Xv.; ; ; 7 7 7 ; ; ; ; ; ; ; ; : : : ; ; 7 7 7 7 7 7 7 7 6 6 6 6 6 6 5 bXxXvX= ; ; 6 6 6 6 6 > +X].`.- - - - - - - - - - - - - - - - - 0 n.j.) f : 6 6 6 6 6 6 - - - - - - 6 6 6 - - - - - - - * * * * * - - - - - - - - - - - - - - - - - 6 - - - - - - - - - - - - - - - - - - - - - - - - - - - - - - - - - - - - - - ; 6 6 6 ; ; ; ; ; ; 6 6 6 6 6 6 6 6 6 6 6 6 7 7 7 7 0 7 e {.{.2.; ; ; ; 6 ; ; ; ; ; ; 7 7 7 7 7 7 7 7 7 7 8 8 7 7 7 7 7 5 7 M |.0.9.* - - - ; ; ; ; ; ; ; - 6 0 y 0 * O 6 ; O * * - - ; - * * - ; ; & = s.s.s.: * 7 0 0 0 p & - q - 0 * - e 0 p > q A I >.*.&.~ S J t 9 - - W - p Z 6 * 5 8 * * 6 * 6 6 * 6 6 ",
"* O 6 * * O 0 ; 6 * * - - u - 9 e q , c A J I I I P P H =.z '.rXrXqXwXwX9Xq e p - O * + - - * &   * 0 * O * - 0 e * * e e ; ; 0 0 t p 6 6 6 6 ; ; * = a.#Xv.; ; 7 7 7 7 ; ; ; ; ; ; ; : ) s.#X@.; 7 7 7 7 7 7 7 7 6 6 6 6 6 6 5 cXcXcX= ; ; ; ; ; 6 6 9 `.`.T @ - - - - - - - - - - - - - - - - 6 6 6 9 ; 5 6 6 6 6 - - - - - - - - 6 6 - - - - - - - - * * * * * * * * - - - - - - - - - - - - - - 6 - - - - - - - - - - - - - - - - - - * - - - - - - - - - - - - - - - - - - - - - - - - - - ; ; ; 6 6 6 6 6 6 6 6 6 6 6 6 ; 7 7 7 7 7 e {.{.2.; ; ; ; 6 ; ; ; ; ; 7 7 7 ; 7 7 7 7 7 7 7 8 8 7 7 7 7 7 7 7 M |.|.9.* - - - ; ; ; 6 ; - - O & - & - - * 0 6 - O * O & * ; 7 6 6 ; , & . s.s.%X: 7 0 y p 0 - - - 0 y 0 p - S e 0 Z - ~ v J e @ > $ 9 - t + - + - - + + Z O - * - - - * O 0 s * ",
"* - - 6 6 6 - * i y 0 p ; 0 u 0 t u Z n w J A G G I I Y `.-.+X8XrXwXwXwXqX>.c b 9 p * , b p p O ;.>.W ;.p & O 9 O * Z p W 6 0 p & 0 - - 6 6 0 0 - * ; #X#Xv.; 7 7 7 7 7 ; ; ; ; ; ; = : ) %X#X@.; 7 7 7 7 7 7 7 7 6 6 6 6 6 6 6 7 8 = ; , ; - - ; 6 6 9 `.`.T @ 5 - - - - - - - - - - - - > - - @ 6 6 6 ; ; 6 6 6 6 - - - - - - - - 6 6 - - - - - - - - * * * * * * * * - - - - - - - - - - - - 6 6 - - - - - - - - - - - - - - - - - - - * * * - - - - - - - - - - - - 6 6 6 - - - - - - - ; - ; ; ; 6 6 6 6 6 6 6 6 6 6 6 6 ; 7 7 7 7 7 e }.{.2.; ; ; ; 6 ; ; ; ; ; 7 0 0 7 7 7 7 7 7 7 7 8 8 7 7 7 7 7 7 7 M |.|.9.* - ; - ; ; ; m E n - - 0 ;.e - - * 0 * * * 0 0 1.:.- - ; 6 6 0 & . s.s.%X: = 6 i p Z W - 0 * , - 0 0 b e 0 e 9 A v D W w 9 C q - p 0 p t 9 Z 0 Z 9 9 p 6 S J p Z * * 6 & ",
"- - 0 * 0 - p 0 Z 6 0 0 0 W p e p e b e , K J G ~ ~ *.*.}.T '.9XqXrXwXwXqX$ t b p * 0 p * ; - 9 S C ;.b e * - * * - Z 0 :.- y ; * - * - - y W Z 6 * = $X#Xv.* 5 5 7 7 7 7 7 7 8 ; ; ; : ) #X#Xx.; 7 7 7 8 8 7 7 7 6 6 6 7 ; ; ; ; 7 ; 5 ; ; ; ; ; ; ; > [.`.T 6 * - - - - - - - - - - - - - - - - - - - - - 6 6 - - - - 6 6 6 6 - 6 - - - - - - - - - - * * * * * * * * - - - - - - - - - - - - 6 6 6 6 6 6 6 6 6 - - - - - - - - - - - - * * * - - - - - - - - - * * * - - - 6 - - - - - - ; ; - - - - - - 6 6 6 6 6 6 ; ; ; ; 6 6 6 6 6 e {.{.2.; - ; ; 6 ; ; ; ; ; 7 0 y 0 7 7 7 7 7 7 7 7 7 7 7 7 7 7 7 7 J |.{.5.- ; ; ; ; ; ; / $.q.& , e , S 0 p * > & ; * W 0 Z ;.* 0 0 Z i p - = s.s.s.: * y p y i Z * y 0 Z 0 p 0 Z t 9 Z - b e b e $ + p e 9 > - - - * - 9 0 6 0 * p 7 p * * - - 6 p ",
"O O * - 6 p 6 0 - 0 6 6 0 e p e S e S b b A K G I K I H -.=.'.8XqXwXwXwXqX&.t 0 p 6 p 0 0 - e > t S S ~ > + 0 Z - 0 - - W 0 * * * * - - - p :.:.- ; = $X#X$X* ; 5 ; 7 7 ; ; ; 8 8 8 7 8 ) %X#Xb.; ; , 7 7 7 7 7 7 6 6 6 ; ; ; ; ; ; ; ; ; ; ; ; - ; ; > }.`.-.- * - - - - - - - - - - - - - - - - - - 6 - - - - - - - - 6 - - - - - - - - - - - - - - - * * * * * - - - - - - - - - - - - - - - * * - - - - 6 6 - - - - - - - - - - - - - - - - * - - * * * - - - * * * - - - 6 6 6 6 6 ; ; ; ; - - - - 6 6 6 6 6 6 6 6 ; ; ; ; 6 6 6 6 6 , }.{.5.; - ; - - ; ; ; ; 7 7 0 y 7 7 7 7 7 7 7 7 7 7 7 7 7 7 7 7 7 J |.{.5.> - - ; ; ; ; ! o.( O - - ;.;.  0 - O O p * - * - 6 * - - 0 0 0 6 . s.s.s.: ; * y y s p 6 y p t p - p p ;.q Z - S C e Z 9 e C p t p e W p Z Z * 0 O s - 0 - 0 p p - W * p ",
"O - - - - 0 * s * p Z - p p Z 0 b p b e Z A I I I I *.*..X.X'.8XqXwXwXwXqX;.C Z W p e Z 0 - e - b C C p O 6 + O O - Z Z ;.W 0 - * * 0 * * 0 ;.:.- ; & $X%X$X* ; 5 ; 7 7 ; ; , y : : 8 i ) :Xf.b.8 8 8 7 , ; 7 7 7 6 6 6 ; ; ; ; 6 7 ; ; ; ; ; ; - ; ; - }.[.-.- * - - - - - - - - - - - - - - - - - - 6 - - - - - - - 6 6 - 6 - - - - - - - - - - - - - * * * * * - - - - - - - - - - - - - - - * * - - - - 6 6 - - - - - - - - - - - - 6 - * * * * - * * * - - - * * * - - - - 6 6 ; ; ; ; ; ; - - - - - 6 6 6 6 6 6 6 ; ; ; ; 6 6 6 6 7 , }.{.2.; - ; - - ; ; ; ; 7 7 0 7 7 7 7 7 7 7 7 7 7 7 7 7 7 7 7 7 7 J |.|.5.- 6 7 ; ; ; ; E ! E & & Z Z W t 6 * - 0 0 * Z s :.:.- - 0 Z p y 6 . s.s.s.: = - y p W y * y p p Z - Z 0 W e W * S S e Z - p e + t t 0 0 - Z 0 + * 6 6 - - S y y 0 * s * s ",
"O * O 6 - - - - - O * - , 0 - p p W b Z e A J K J K P Y -.T -.9XrXwXwXwXqX> * O * O @ u ! } m , e b q 6 - Z 9 - *   + - O O * * * - 0 * * * * * * ; = $X%X$X* - ; ; 7 7 8 ! ) i.p.p.s.s.s.f.f.f.B.B.B.B.) : 7 7 7 ; ; ; ; ; ; ; ; ; ; ; ; - - - - - - - }.`.-.6 6 - - - - - - - - - - - - - - - - - - - - - - - - - - - - - - - - - - - - - - - - - - * - - - - - - - - - - - - - - - - - - - - * * * - - * - - - - - - - - - - - - 6 - - - * * * * - - - - - - - - - - * - - - - - - - - - - - 6 6 - - - - - - - 6 6 6 ; ; ; 6 6 6 ; 6 7 e }.{.{.; - ; - - ; ; ; ; ; ; ; ; ; 7 7 7 7 7 7 7 7 7 7 7 7 7 7 7 7 J |.}.5.- - 6 6 ; ; ; * & & O * ; , * O & + - 9 * O * & O O * - 6 O 6 * * . s.s.B.: O O 6 7 ; * * 0 y ; y 0 p q y - q 0 - 9 9 9 - O q e * * - - 0 q - p 0 0 0 p * e 9 ; - * * * * ",
"O 6 6 * - * y p 6 p y Z , W Z S , u - b p A J K J I *.T T T H 8XpXuXuXuXqX9 q 0 - O - O.$X$X/ e p q O - 0 y 0 Z Z Z + 0 * y 6 - * > - * * * * * * = 7 %X%X$X* ; ; 7 7 7 8 p.s.s.s.s.s.s.f.f.f.s.s.s.s.s.y.: 7 7 7 ; ; ; ; ; ; ; ; ; ; ; ; ; ; ; - - - , [.}.2.> - - - - - - - - - - - - - - - 6 - - - - - - - - - - - - - - - - - - - - - - - - - - - - - - - - - - - - - - - - - - - - - - - - * * * * - * - - - - - - - - - 6 - - 6 - - - - * - - - - - - - - - - - - * - - - - - - - - - - - 6 6 - - - - - - - 6 6 6 ; 6 6 6 6 6 6 0 0 e XX}.{.; - ; - - ; ; ; ; ; ; ; ; ; 7 7 7 7 7 7 7 7 7 7 7 7 7 7 7 ; K |. X{.@ 6 6 6 ; ; ; ; ; ; * ; 0 b e - - - Z > 6 O & , - * - p y * W q * . s.s.B.d 7 6 y y 6 * ; y 0 Z 6 0 0 W 0 Z y p - S 0 y 9 b Z Z t Z - 0 - Z 0 0 0 ; Z y ; Z Z 7 s & s * 7 ",
"O 6 6 0 - 6 6 0 6 y ; i , , i 0 p b b Z e v m m J G P Y -.-.`.qXuXuXuXuX9X+ @ + - - 0 7.$X$X! 0 - + - * 6 O q 9 y - O * * * O * t m ~ - * * * * * * : %X%X$X* ; ; 7 7 7 7 p.s.s.s.s.s.f.f.f.f.s.s.s.s.s.y.: 7 7 7 ; ; ; ; ; ; ; ; ; ; ; ; ; ; ; 6 - - , [.}.2.- 6 - - - - - - - - - - - 6 - - - - - - - - - - - - - - - - - - - - - - - - - - - - - - - 6 6 - - - - - - - - - - - - - - * - - - - - - - - * - - - - - - - - - - 6 6 6 - - - - - - - - - - - - - - - * * * 6 6 - - - - - - - 6 6 6 - - - - - - - - 6 6 6 ; 6 6 6 6 6 6 0 0 e XX}.{.; ; ; - 6 ; ; ; ; ; ; ; ; ; 7 7 7 7 7 7 7 7 7 7 7 7 7 7 7 6 K }.}.{.& ; ; ; ; ; ; 7 7 7 * ; 0 p * * * e J 9 0 O 0 - + O 6 6 6 - 6 6 * & s.s.B.: i e 0 - * ; 0 y y p s 0 t - 0 - 0 y t - 0 p - C p Z - p - p > 0 0 0 s & Z p ; p Z - 7 * y ; * ",
"6 O - > > e 0 i y W 0 s Z y s Z 0 p e e e A J J U I U T .X-..XtXwXwXwXwXqXC D t D 6 6 ( $Xb./ e q Z 6 p Z * Z ~ w.p O Z * O * 6 c v A - - - - - * * & %X%X$X* = 5 7 7 7 ; p.s.s.s.s.s.s.s.f.f.f.s.s.s.s.) : 6 6 6 6 ; ; ; ; ; - - - - - - ; ; ; 6 6 - 9 6.[.2.> - 6 6 6 6 6 6 6 6 6 6 6 6 > - - - - - * - * * * * - - - - - - - - - - - - 6 6 6 6 6 6 6 6 6 9 9 6 - - - - - - - - - - - - - - - - - - - - * - - - - - - - - - - 6 6 6 - - - - - - - - - - - - - - - * * - 6 6 6 - - - - - > 9 9 9 > > - - - 6 6 6 6 6 6 6 6 6 6 0 0 0 0 0 , XX}.{., 9 ; ; - 6 6 6 6 6 6 6 6 6 ; ; ; 7 7 7 7 7 7 7 7 7 7 7 7 6 I }.}.|.O - ; ; ; ; ; y y y , , e Z * p * - 0 e 0 * * W > W e p p p ;.W O = p.s.B.: 0 p y s 6 Z - p Z p W 0 0 0 0 - S 0 6 * y - O 0 0 p - y - p p - Z O y Z 9 p * p Z * 7 7 0 0 0 ",
"* 6 6 - 0 y ; p y 0 0 y y - 0 q p Z e p Z S ~ G ' I U -.-.-.-.qXwXwXuXuX9X9 w Z - O O ( b.b.E 0 + q @ 9 9 - t 9 W y 6 6 O O - 0 9 b Z * * * * * * * & %X%X$X5 5 5 7 7 7 8 @.i.) y.) y.y.p.s.s.p.! g g d d ; 6 6 6 6 ; ; ; - - - ; ; - - - - ; ; 6 6 6 9 2.2.T e e 9 9 9 0 0 0 9 9 9 6 6 6 9 > > - - - - - - * * - - - - - - - - - - - - - 6 6 6 9 9 9 6 6 6 6 6 6 6 6 6 - - - - - - - - - - - - - - - - - - - - - - - 6 6 6 - - - - 6 - - * - - - - * * - - - - - 6 - - - 6 6 6 - 6 6 - - - > 9 - - - - - - 6 6 6 6 6 6 0 0 0 0 0 0 0 0 0 e XXXX{.9 9 6 , 6 6 6 6 6 6 6 6 6 6 ; ; ; 7 7 7 7 7 7 7 7 7 7 7 7 0 U }.}.}.+ - - ; ; ; 7 y p y * - * ; - O O * p Z t O + + O s 0 - p p ;.0 * = m.s.s.: 0 6 * 0 0 p - 0 0 0 p 0 p 0 0 0 6 0 0 y 0 0 - p Z 0 0 q 6 0 0 6 e O 6 - 6 y 7 p - p y ; - - 7 ",
"O * * * 6 6 0 0 6 p 0 p 6 y y q 0 0 e t t b A G G K U -.-.-.'.tXwXpXuXuX9Xw r c 9 +   ( b.b.E e t 9 > > 6 6 * 6 - * O * O O q * 9 6 + * * * * * * * & %X%X$X5 5 5 7 7 7 = : : : : : : d p.s.s.y.: 8 y = ; 6 6 6 6 6 ; ; ; - - - ; ; - - - - ; ; 6 6 6 9 >.2.Y e e q q q 0 0 0 9 9 9 6 6 6 0 9 > - - - - - - - - - - - - - - - - - - - - - 6 6 6 9 9 9 6 6 6 6 6 6 6 6 6 - - - - - - - - - * - - - - - - - - - - - - - 6 6 6 - - - - 6 - - * * - * * * * * - - - 6 6 - - - 6 6 6 - 6 6 - - - 9 9 - - - - - 6 6 6 6 6 6 6 0 0 0 0 0 0 0 0 0 e XXXX{.9 9 6 , 6 6 6 6 6 6 6 6 6 6 ; ; ; 7 7 7 7 7 7 7 7 7 7 7 7 0 U }.}.}.# - - - ; ; ; 0 0 0 * O * ; & * - O * + O O O * * O * O * * * & & = m.s.B.: * ; 6 , , 0 - p y 0 Z - y 0 * y 0 0 0 0 0 - 0 0 - 0 p - > * 6 6 e - 6 O O O * - - & * * & 7 & ",
"- 6 6 * 6 0 ; 0 0 0 0 6 0 0 0 0 b ~ Z e b S I U U U *.-.`.-.`.tXwXuXuXuXqX%.%.%.&.%.y ) b.b./ S C C ;.t > 9 s * - O - Z S q p O O O @ * * * - * * * * $X#X$X= ; ; 7 7 7 ; ; ; ; ; ; ; d p.s.s.i.7 7 7 7 6 6 6 6 6 6 ; ; ; ; ; - - - - - - - - - > 9 9 9 I U Y e q q q q e q q q e e 0 9 9 9 - - - - - * * * - - - * * * * - - - - - - - - 9 9 9 9 9 9 9 9 9 6 6 6 6 6 6 - - - - - - - - - - - - * * * - - - - - - - - - - - - - - - - - - @ @ @ - - - - - - - - - 6 6 6 6 6 6 6 6 6 9 9 6 - - - 6 9 9 9 6 6 9 9 0 6 6 6 0 0 0 0 0 0 0 y y u XXXX|.e 9 6 0 6 6 6 6 6 6 6 6 6 6 6 6 6 ; ; ; ; 7 7 7 7 7 7 7 7 0 U }.}.}.# - ; ; ; - - ; ; * * & - S e - * * * * * * O + > * O * * * * * - : B.s.B.: ; p p p y 0 6 0 p y 0 9 p q p y p 6 p p p s :.C.p p p p e 9 p 9 - O O - - p O 0 - p O 6 y s y ",
"6 * 9 O 6 6 * p 6 p ; s 0 y y W e b e Z S S I U ' U U -.`.-.`.tXuXpXuXuXwX=.-.%.&.%.q ( b.b./ u S S C b q C y t 6 C t C <.9 > O O * O * * e L K @ * = $X#X$X= 7 0 0 7 ; ; ; ; ; ; ; ; d p.s.s.) 7 7 7 7 6 6 6 6 6 6 ; ; ; - - - - - - - - - - - > 9 9 e A G G e t e e e e e q q 0 e 0 9 9 9 - - - - - * * * - - - * * * * * * - - - - - - 9 9 9 9 9 0 0 0 0 9 9 9 6 9 9 6 - - - - - - - - - - - * * * - - - 6 - 9 9 6 6 6 - 6 6 - - - - - @ @ @ * * * - - - - - - 6 9 9 9 6 6 6 9 9 9 9 6 - - - 6 9 9 9 6 6 9 9 0 0 0 0 0 0 0 0 0 0 y u u b XX}.{.e e 0 0 0 0 0 0 0 6 6 6 6 6 6 6 6 ; ; ; ; ; ; 7 7 7 7 7 7 0 U }.}.}.@ - ; ; ; - - 0 0 - * & 0 ;.e ; * * * * * * 6 ;.;.;.O * * * * * & i p.s.B.: 6 0 Z p p s - 6 - 0 0 q 0 p 9 p 0 p p p D g ( ( y ; - 0 0 6 6 0 b * * s * s - W p y q 0 * 6 6 ",
"6 O 6 * 6 p * s 0 6 ; - 0 Z 0 p p ;.M W b C I U ' ' U -.-.-.`.pXwXpXuXuXwX%.%.B %.%.t ( $Xb.! W D ;.>.;.9 - O O O t q Z t 9 0 O * * * * * >..XXXw = = $X#X$X= 7 0 0 7 ; ; ; ; ; ; ; ; d p.s.s.) 6 6 7 7 6 6 6 6 6 6 ; ; - - - - - - - - - - - - - 0 9 e F F A b c t t t t e e e 0 0 0 9 9 6 - - - - - * * * - - - * * * @ @ @ @ - - - - - 6 9 9 9 0 0 0 0 0 0 9 9 6 6 9 9 - - - - - - - - - - - - - * - - - - - 9 9 9 6 9 9 6 6 - - * * - @ @ @ + * * - - - - - - - 9 9 9 9 6 6 9 9 9 9 6 - - - 6 6 9 > 6 6 9 0 0 0 0 0 0 0 0 0 0 0 u u p b XX}.{.e q 0 q 0 0 0 0 0 6 6 6 6 6 6 6 6 ; ; ; ; ; ; 7 7 7 7 7 7 0 U }.}..X@ * = = ; - - t t e * - , C e 0 * * * * * * q 1.;.XX* * * * * * ; : p.s.s.: ; i i 0 0 s 0 Z 0 y - Z y ;.0 W + e b t W j.!.!.:.;.p > Z - S e - O * * - 0 * 0 0 6 6 p 0 y - ",
"6 O * * 6 6 0 0 s 0 i y p y p p p b J S ~ J I U ' [ 2.-.`.-.'.wXuXuXuXuXwXz %.%.;.%.a 8.%X%X/ b S > b 6.& q 6 + t Z S t S e e * * - * * * A .XXX* * & $X#X$X= ; 0 7 7 ; ; 6 6 ; ; ; ; : R g ! g 6 ; 7 7 6 6 6 ; ; ; ; ; - * * * * * - - - - O * * O & > v c b b b p p p p p p p 0 0 0 7 ; 0 6 ; O O + @ @ @ @ @ @ @ @ + @ @ @ @ > > > > > e 0 6 6 0 0 0 0 0 0 6 0 6 6 - O * + - - - @ @ @ $ $ $ > > > > - - 9 6 9 6 0 0 0 9 9 - 6 - @ @ @ @ @ @ @ @ @ @ @ @ - - - > 9 9 e q 9 q q q q 6 9 - > > 9 9 9 0 e e 9 p e u e e e u u b b b p b p p |.|.5.m y y y 0 0 0 y y 7 7 0 6 6 6 6 6 6 6 6 ; 6 6 7 6 6 6 0 0 0 *..X.X.X# - - - - - - e t e - - 0 S Z 0 * * * - 6 * b ;.S 1.* * - - - * ; g p.B.B.y - i 9 Z :.W ; p 0 Z t y Z 9 t Z e e Z W 1././.^.fXfX~ b ~ 6 b 0 p - - - 0 6 b W ;.- W y - 6 - ",
"* * * 6 7 * 9 * * * - - p - 9 9 0 0 t Z S I ' U ' [ 2.`.`.`.'.pXwXpXpXeX=.% V &.&.D a x.%X%X! e e S ~ t * 6 w 9 9 - O * 6 p p * - - * * * * * * * * & $X%X$X= - ; 7 ; ; ; ; ; ; ; ; ; ; ; ; ; ; ; ; ; 6 6 6 6 ; 7 ; ; ; - - - * * * - - - > cXSXHXJXJXHXKXPXPXPXPXKXKXKXKXKXKXKXKXKXKXZX!.fXfXfX* O * @ @ + + + @ @ @ + @ + + + @ w fXfXfXfXSXHXPXIXIXIXIXIXIXIXIXIXIXIXIXIXe.@ - - @ @ @ $ $ $ $ > - - - - @ UXIXPXPXPXPXPXPXPXPX:.+ + + @ + @ + @ @ @ - - - - - 9 fXCXSXSXSXSXSXSXSXHXSX@ > > > > 9 fXCXCXLXPXIXIXIXIXIXIXIXIXIXIXIXIXIXPXPXHXKXHXHXHXHXHXSXSXSXSXKXKXIX7 6 6 6 6 ; ; ; ; 6 6 7 6 6 6 7 0 0 *.}..X.X$ ; ; ; ; ; ; ; ; ; - * & O * * * * * - - - * + O O - - - * - * * & p.s.B.: - 9 t e e - e 9 * p 0 p 0 0 9 - t 9 C S 1.!.^.!.i i S b , - - q - 0 O 0 O - > O O O * * & - * ",
"O O O * * * - 0 * - y ; 0 - 0 - p > t t e c G G ' [ -.-.`.`.`.'.=.z z l 2 @ 6 @ @ 6 a n.&X&X! & + + O + O D L V L + O - 6 O 6 - 6 0 y * * * * * * * & $X#X$X= ; ; 7 ; ; ; ; ; ; ; ; ; ; 6 6 6 6 ; ; ; 6 6 6 6 ; 7 ; ; ; - - - * * * - - - 9 !.FXDXFXFXGXJXJXKXKXKXJXJXJXJXJXJXJXGXGXDXvX!.fXfXfX* O * @ + + + + @ @ @ + @ + + + + w fXfXfXfXJXHXJXJXJXKXKXKXJXJXHXHXJXHXHXPXe.@ - - @ @ @ $ $ $ @ > - - - - * PXHXJXFXFXJXFXFXFXHX:.+ + + @ @ @ + @ @ @ - - - - - 9 !.JXGXGXGXDXDXDXGXGXHX+ > > > > 9 fXKXHXFXJXJXJXJXKXJXJXJXJXJXJXJXJXJXJXJXJXJXJXJXJXJXGXGXGXGXGXGXGXGX7 0 6 6 ; ; ; ; ; 6 6 6 6 6 6 7 0 0 >..X.X.X$ ; ; ; ; ; ; ; ; ; * * * O & & * * * * * * * * * * O q b Z > * * = p.s.B.: - - e 0 p p - - p 9 0 0 0 * S e p p q S y g z.C.n u b e p e e t - y * p - 0 p 0 0 y O 6 * 0 6 ",
"O 6 6 y 6 6 y 6 * s 0 0 p 0 p e p Z t 9 b J >.' 3.[ -.2.-.`..X.X.X&.t e t t t Z Z Z Z %X&X&X/ u 9 C C 6 @ L B B B 9 6 - y * 6 6 S , e 0 * * * * * * & $X%X$X; = ; ; ; ; ; ; ; ; ; ; ; ; ; ; ; ; 6 6 6 ; ; ; 6 6 6 ; ; ; - - - - - - - - - > :.FXDXDXFXFXJXJXKXKXKXKXJXJXKXKXJXJXJXJXGXvX!.fXfXfX+ + + + @ @ @ @ + @ @ @ + + + + + $ fXfXfXfXJXGXJXKXKXKXKXKXJXJXJXJXHXHXGXHXe.@ @ @ @ @ @ @ @ $ $ $ $ $ > > @ PXHXFXFXFXFXFXFXFXHX:.+ + + + + + + + + @ - - - > > w 1.HXDXDXDXDXDXDXFXGXKX@ > > 9 9 9 !.FXFXGXGXGXJXJXJXJXJXJXJXJXJXJXJXJXJXJXJXJXJXJXJXJXJXJXJXJXJXJXGXGX7 0 6 ; ; ; ; - ; 6 6 6 6 0 0 0 0 0 2.XX+X.X$ 0 0 0 6 0 0 7 7 ; ; - ; <.5.~ * * * * * * * * * * + t t t W - - ; p.s.B.g p W e b b S * 9 t t Z > t t b t Z W p - p ! T.gX;.b W e 0 e p 0 t * t - - * > 0 9 0 O O * 0 0 ",
"* * - 6 6 * - * * - * - - - q e - t p p S J U >.,.,.2.[.`..X-.P K u y y t p p p p p s &X&X&X/ , @ q 0 + 9 4 l 6.B q 7 p q + * 0 + > 9 e * * * * * * & %X%X$X; ; ; ; ; ; ; ; ; ; ; ; ; - ; ; ; ; 6 6 6 ; ; ; 6 6 6 ; ; ; - - - - - - - > > , g FXDXFXFXFXJXJXKXKXKXKXJXJXKXKXJXJXJXJXGXvX!.fXfXfX+ + + + + @ @ @ @ @ @ @ @ @ + + $ $ ;X;X;X;XHXJXKXKXKXKXKXKXJXJXJXJXHXJXGXHX1.@ @ @ @ @ @ @ @ @ $ $ $ $ > > @ KXHXFXFXFXFXFXFXFXHX:.+ + + + + + + + + + - - 9 9 9 9 W JXFXGXGXGXGXGXGXGXKX> , 9 9 9 9 C.FXFXGXGXGXGXJXJXJXJXJXJXJXJXJXJXJXJXJXJXJXJXJXJXJXJXJXJXJXJXJXGXJX* 0 , ; ; - ; - ; 6 6 6 6 6 0 0 0 e 6.+X+X.X4 0 0 0 0 0 0 0 0 7 ; - ; 5.|.3.* * * * * * * * * * * 9 > e $ e , & p.s.B.i > e > e 9 t 6 q s t S - Z q e p e q 9 p p W g E W b e t W e > e 9 - 0 p Z - 0 0 Z * 0 - y ; ; ",
"* * * 9 y 6 0 6 O s 0 - b 0 Z t p - q t C J I ' ' [ -.`.[..X-.Y P b y u u p b p C C s ;X&X;X<.0 6 9 C q 9 &.%.*.l w 7 0 6 0 - 6 Z D S - - * * * * * & %X%X$X= ; ; ; ; ; ; ; ; ; ; ; ; ; ; ; ; ; 6 6 6 ; ; ; 6 6 6 ; ; ; - - - - - > > > > > g FXFXFXFXFXJXJXKXKXKXKXJXJXKXKXKXKXJXJXGXxX!.fXfXfXO + + @ + + + @ @ @ @ @ @ + + + + @ XXn.$X;XHXGXJXJXJXJXJXJXJXJXJXJXJXJXJXKX1.9 @ @ @ @ @ @ $ $ $ $ $ > $ $ + PXHXFXFXFXFXFXFXFXJX1.+ + + + + + + + + + > - > 9 > 9 W JXFXFXFXFXFXFXFXGXKX> 9 9 9 9 9 !.FXFXGXGXGXGXJXJXJXJXJXJXJXJXJXJXJXJXJXJXJXJXJXJXJXJXJXJXJXJXJXGXJXO 6 , - - - - - ; 6 6 6 6 6 0 0 0 e }.+X+XXXw 0 0 0 0 0 0 0 0 0 ; ; ; 5.|.,.* * * * * * * * * * - p e ;.> p 0 : p.s.B.E t Z e ;.e W > 9 t 9 q - 9 p 9 W S W S t b W v J ~ C p t Z e W 0 p 0 Z - - 0 - 0 O * 0 * * p W ",
"O * * * 6 * * y * - * * - + q 0 - > t C c I ' U >.>.2.[.[.-.-.T T P F v x z %.=.=.=.=.fXfXfXK o < o 3 2 3 *.H &.*.t > q t 0 - * - 0 y * * * * * * * & #X#X$X; ; ; ; ; ; ; ; ; ; ; ; - ; ; ; ; ; ; ; ; 6 6 6 6 6 6 - - 6 6 6 6 0 6 C.fXfXfXcXSXFXFXFXFXJXHXKXKXKXKXKXKXKXKXKXKXKXJXJXGXvXcXcXcXZXfXC.C.!.fXXX+ @ @ @ @ @ q q 9 +   SXKXPXKXKXKXGXJXKXKXKXKXJXJXJXJXKXHXJXJXKXQ.e.e.C.fXs @ $ > > $ $ $ > 9 > O KXHXJXFXFXGXFXGXFXHXe.> $ > > $ + + + + + 9 C C t t t h KXJXJXGXJXJXJXJXHXKX> 9 9 9 w w fXFXFXGXGXGXJXJXJXJXJXJXJXJXKXJXJXJXJXJXJXJXJXJXJXJXJXJXJXJXJXJXJXKXX 6 - - - - - - - 6 6 6 0 q q e 0 q .X+X+X+XF 0 0 0 0 6 6 0 0 0 ; ; ; b b e * * * * * * * * * * O c 9 q p - - : p.s.s.: 0 u e - - e 9 * e > t t 9 q p p * t p p e p 0 p p t 0 0 - - * - - * - 0 0 Z O * * - * * O & * ",
"O * O * O * O - 6 p O s q - ;.6 ~ ~ ~ >.>.I ' U ' U 2.[.[.-.-.-.T -.-.-.qXwXwXwXwXwXwXfXfXfXqXwXwXpXpXpX2 1 q t w > 9 t D C - 0 O * - * * * * - * * & %X#X$X; ; ; ; ; ; ; ; ; - - - - - - - - - ; ; ; 6 6 6 6 6 6 6 6 6 6 6 0 0 7 gXcXvXvXbXDXFXJXJXGXJXN.T.<X<X<XhXkXkXkXkXhX<XP.l.C.JXGXJXGXGXJXJXJXHXHXPX+ @ @ $ @ @ 9 a t r @ PXKXJXJXKXKXFXJXKXKXvXlXlXlXhXN.gXPXKXKXKXKXPXPXPXPXs 7 e e e > $ $ $ 9 > O KXHXHXFXFXGXGXGXGXKXfXI G G G A + + + + + 9 1.1.1.:.>.ZXHXGXJXJXJXJXJXJXJXPX9 9 w 9 w w fXFXFXGXGXGXJXJXJXJXSXgXkXkXkXkXlXlXlXlXlXlXlXlXlXlXlXlXlXlXlXlXlXhX& - - - - - - - - 6 6 6 0 9 N ;.>.*.0XqXtXyX*.0 0 0 0 6 6 ; ; ; ; ; ; ; ; - * * * - - - - - - @ O 9 + - p O > : p.s.B.: e , b 9 p 0 9 e t e p Z q p e e + * y q e p e e p e q 9 - p 0 0 p O * O - - O s Z 0 - 6 * 0 y ",
"O 6 6 6 0 O 6 0 * p O p - 0 9 - ~ ' ' ' >.I G U ' Y Y [.-.T T T T -.-.-.9XqXqXwXpX8XrXfXnXfXqXwXwXiXiXuXz x w 9 9 9 D c ;.;.q O - - * * * e S b * O & %X#X$X; 7 7 6 ; ; ; ; ; - - - - - - - - - ; ; ; 6 6 6 6 6 6 6 6 6 6 0 0 q 0 fXvXvXbXbXDXFXGXGXGXFXu.h.h.h.h.h.h.h.h.h.h.h.h.h.hXJXJXKXJXJXKXKXKXGXFXIX+ @ @ > 1 9 9 a a t 5 IXJXKXJXKXKXFXJXKXKXj.f.f.f.d.d.ZXPXPXPXPXPXPXPXPXPXy q e e e > $ $ > > > O KXHXHXJXFXGXGXGXJXKXfX>.' ' [ A + + + + + 9 1.1.1.1.1.cXHXGXJXJXJXJXJXJXJXPX9 9 w 9 w w fXFXFXGXGXGXJXJXJXGXlXf.h.h.h.h.h.h.U.U.U.U.U.U.U.U.U.U.U.U.U.U.U.>X: - - - - - - - - 6 6 6 0 0 N &.&.%.9XqXqXyX-.y 0 e 0 6 6 ; ; ; ; ; ; ; ; - * * * - - - * W ~ 9 O q 9 t + * p u p.s.s.i Z , e p e * > e t e t e q t b p * 6 p 0 > t e 0 9 p 0 p - 0 Z Z Z - 0 Z - p - 0 0 & ; O 6 ; y ",
"O + * * - + - 0 * C - q 6 O y 6 ~ ' [ ,.{ J I U K F -.[.[.[.T 2.-.-.-.-.[.}.`.+XtXtXrXnXfXfXqXwXiXiXuXpXz r e > $ 9 D 6.;.C 6 9 q - * * * J ,.,., O & %X#X$X5 0 0 0 6 ; - - - - - - - - - - - - 6 6 6 6 6 6 6 6 6 6 0 0 0 0 0 0 7 fXvXvXbXbXDXGXGXJXJXGXf.g.h.h.h.h.h.h.h.h.h.h.h.h.kXKXKXPXPXPXPXKXKXJXHXIX+ @ @ $ > 9 w c c N 5 IXHXJXJXKXKXFXJXKXKXy.d.d.g.d.d.PXPXPXPXPXPXPXPXPXPX5 t v e w > $ $ 9 9 9 O KXHXHXJXGXJXJXJXJXHXC.' ' ,.>.G @ @ @ * > 9 w.e.w.1.w.fXHXGXGXGXJXJXJXJXHXPXe 9 9 9 w w fXFXFXGXGXGXGXGXGXJXlXg.h.h.h.h.h.h.h.h.h.h.h.h.h.h.h.>X>X>X>X>X>X>X: @ * - - - - - 9 9 9 6 q w x L L P qXqXtXqX%.e e e 0 0 0 7 7 0 , ; ; 0 0 - * - - - - - e ,.,.S   C 9 - > 6 b n p.s.s.u t > e b , e > q b e Z b q 0 e Z p p W q e b 0 9 t p - 0 q p e t e p q - Z - p p e * Z * * 7 7 ",
"* 6 @ 6 t - * p 0 q + + 6 + O - >.' [ ,.,.K G G I F -...2...T -.-.-.-.`.`.}.`.`.9XtXrXnXnXfXyXwXiXiXiXpXl c e 9 9 6 D e C C 6 - - 0 + * * m <.,., O & %X#X$X5 0 0 0 6 ; - ; ; - ; ; ; ; ; ; ; ; 6 6 6 6 6 6 6 6 6 6 0 0 6 0 0 t y cXvXbXSXbXDXFXGXGXGXJXd.g.h.h.h.h.h.h.h.h.h.h.h.h.kXPXKXPXPXPXPXPXKXKXKXIX@ + + $ 9 9 t N C a 5 IXJXJXJXKXKXFXKXKXPX) g.g.g.d.d.PXPXPXPXPXPXPXPXPXPXs p e , e > > > > w 9 @ KXKXHXJXJXJXJXJXJXHXC.3.,.,.,.J @ * @ @ - 9 e.e.e.e.1.!.JXGXGXGXJXJXJXJXJXPXe 9 9 w w w fXFXFXGXGXGXGXGXGXJXkXg.h.h.h.h.h.h.h.h.h.h.h.h.h.h.h.h.>X>X>X>X>X<X. - * - - - - - 9 9 9 > e v B H H L 0XqXqXqXB c w w e e 0 7 7 7 0 0 y 6.Z - * - 6 6 - - e 3.5.M * 9 @ b t 9 S n m.s.B.m 9 W e W e Z e Z e c b t t * W q Z Z W e Z 0 e p 0 0 - 0 t W e e W p 0 0 0 Z - e t O * ; & O 7 ",
"O * - - 6 6 - y 0 9 + p y * s - >.' [ ,.,.J J J >.F 2.......2.-.-.-.`.-.`.`.`.`.].8X8XnXnXfX0XpXiXiXiXdXz C r w w 6 S c >.;.q - q Z 9 - * 7 S S > O & %X#X$X5 6 0 0 6 ; - ; ; - ; ; ; ; ; ; ; ; 6 6 6 6 6 6 6 6 6 6 0 0 0 y y y s SXbXbXbXbXDXDXGXGXGXFXf.h.h.h.h.h.h.h.h.h.h.h.h.g.>XZXZXZXSXSXDXGXJXHXPXLX@ + + $ 9 9 s Z s 5 g PXJXJXJXJXJXSXKXPXIXf f.f.f.f.u.IXPXPXPXPXPXPXPXPXKX5 6 6 * * $ > 9 $ 9 9 * KXJXHXJXJXJXJXJXJXJXe.1.:.1.1.W , - - - * 5 C.C.e.1.:.C.JXGXGXGXJXJXJXJXJXPXw 9 9 w w w fXFXGXGXGXGXGXGXGXJXkXg.h.h.h.h.h.h.h.h.h.h.h.h.h.h.h.U.U.>X>X>X>X>X. - * - - - - - - 9 9 e 2 2 z z z z qXqXqX9X=.=.=.=.%.w ; 7 ; ; 6 6 6 t q * * - 6 6 * * * ~ ;.S * 9 - b 9 - b n m.s.s.u 9 e e t 9 b > Z t e ;.e p 9 p p S Z W p S p e p 0 W - Z - p S e p - p 0 p p q 0 0 0 0 y * * y ",
"9 + - - * O + O + O O O - O * + O + @ ,.,.^ ~ ~ I U K P P K Y Y Y P H P -.-.-.-.-.`.-.*X;X;X0XpXdXpXpXpX=.9XqXeXeXqXx t - + q - * 6 p O * * O 6 * O & %X#X$X* - - ; - - - ; ; ; 6 6 6 6 6 6 6 6 6 6 6 6 6 6 6 6 6 0 0 0 p s E g cXDXDXDXbXbXbXbXvXjXlXgX. d d d d d d d d d d d d d d.d.d.d.d.d.t.t.u.t.t.! + @ @ $ $ 5 KXFXGXDXGXGXGXGXGXGXSXV.gXgXgX: & .     . ZXvXj.X g KXKXPXKXJXJXJXKXKXPX6 9 1 $ 9 9 * KXJXJXJXJXJXJXJXJXJXJXJXJXJXJXfX> - - - 6 fXJXGXGXGXGXGXGXJXJXJXJXJXJXJXHXPXw 9 w w w w fXHXFXGXJXJXGXGXGXKXgXf R R R r.r.r.R f f f R f R R r.r.r.t.t.t.u.B.. - - - - - - - - 6 6 < aXpXaXpXpXpXBXBXsXaXpXpXpXpXeX3 6 6 - - - - - - * * * - - - * * O O * * * * q + q @ + y s.s.s.& * - 9 b e t e - - 9 > > > 0 9 t e - e - p 0 7 - q 0 - - - * 0 - p ; 0 6 0 y * * * * * O * O * ",
"9 + - 6 0 9 p p 0 6 p + Z @ Z - O * 9 <.5.>.^ ^ U I I U I I I I I I K K U U >.>.>.>.>.$X#X#X).`.`.].].rXpXpXpXpXpXeX4 w t 6 9 e > 9 9 O * p * 6 0 * & %X#X$X* - - - - - ; ; ; 6 6 6 6 6 6 6 6 6 6 6 6 6 7 7 6 6 6 0 0 0 p n W W bXDXDXDXbXbXbXvXjX1X<XV.> $ $ @ $ @ @ @ @ @ > , k d d.d.d.d.d.d.d.d.d.d.d.s.- @ @ $ $ 5 JXFXGXDXGXGXGXGXGXGXZXR f.:X<X) O O O O d >XI.u.t.f KXKXKXKXJXJXJXJXJXKX0 9 1 $ > > * KXJXJXJXJXJXJXJXJXJXJXJXJXJXJXfX> 9 9 9 q fXHXJXJXJXJXGXGXJXJXJXJXJXJXJXJXPX9 w w w w w fXHXFXGXJXJXGXGXGXGXfX, - , , , > , , , , , , , , , , , , , * - * * * - - - - - - - - 9 9 # pXpXpXpXiXtXBXsXsXsXpXpXpXpXaX3 6 - - - - - - - - - - 0 0 0 * * * * * * - > t > S - e y s.s.s.y q 0 p p e p u 0 p 9 p > Z e S p Z Z Z p e * 7 t * 0 - - * 0 W 0 n ; p ; ; * 0 y Z y * s * ; ; ",
"O * - * 9 9 e 9 9 - > - q - q 9 0 * > <.5.' ^ ^ I I I U I I I I I K G K U [ [ >.2.2.,.$X#X#X).T `.`.`.rXwXwXpXpXpXqXl a + 9 9 t C J ;.q O O * + O * & %X%X$X* - - ; - - ; ; ; 6 6 6 6 6 6 6 6 6 6 6 6 6 6 7 6 6 6 0 0 0 p n W W SXDXDXDXbXbXbXvXjX1X<X,X> $ @ @ @ + + @ + @ @ > : f d.d.d.d.d.d.d.d.d.d.d.s.> @ @ $ 9 * KXFXFXDXGXGXGXGXGXFXlXs.2X2X2X) O O + @ y.>X>X>XI.,XHXKXKXJXJXJXJXKXKXPXq 9 1 $ w w @ KXKXJXJXJXJXJXJXJXJXJXJXJXJXJXfX> 9 9 9 q fXHXJXJXJXJXGXGXJXJXJXJXJXJXJXJXHX9 w w w w w fXHXFXGXJXJXGXGXGXGXC.6 - > > > > > 9 9 9 6 6 - - - - > > > - - - * - - - - - - - - - 9 9 # aXdXpXpXpXqXNXsXsXsXpXpXpXpXaX3 6 - - - - - - - - - - 0 0 0 * * * * * * * p 6.v I 0 p i B.s.s.: * q t 0 p Z e > e 9 t 0 0 e b 0 t b b e b p 7 0 > e e - * - e q p ; Z 0 p 6 ; - 6 6 * s O ; 0 ",
"> - 9 0 0 6 0 - p 0 y * 0 0 0 y + + , ,.3.I ~ ~ I I I I I I I P P L A K ' [ [ >.>.,.2.$X#X#X).T `.`.`.rXpXeXpXpXpXqX$ e 9 t e J <.;.> + O Z O O C * & %X%X%X* - - - - - ; ; ; 6 6 6 6 6 7 6 6 6 7 6 6 6 6 6 6 6 6 0 0 0 i Z W g FXDXDXDXDXDXbXvXjXhX1XgX> > $ $ $ $ $ $ $ @ + , d R t.t.d.d.d.d.d.d.d.d.d.t.> @ @ $ $ 6 JXFXFXFXGXGXGXGXGXGXlX>X2X3X3Xs.& @ - ; B.>X>X>XU.<XHXJXJXJXJXJXJXKXKXKXp 9 1 1 1 1 @ KXKXHXJXGXJXJXJXJXJXJXJXJXJXJXfX, 0 e e e fXHXJXJXJXJXJXJXJXJXJXJXJXJXJXJXHX9 9 w w w w fXHXFXGXGXGXJXJXGXJXe.6 , , , , 9 , , e e , , > > > > - * - - - - @ - - - 6 6 6 6 - > > > w z Y }.yX9X9XNXBXsXBX=.-.-.-.*.9 6 6 - - - - - 9 6 6 9 0 0 0 - * * - - * 9 e A A K b e ; s.s.V.& * * q t C t e > 0 p - p Z 0 p 0 Z 0 0 , 0 > - 0 0 0 - Z 0 p q p Z 0 p ; 0 ; n 0 Z 7 7 * 7 s ; ",
"- - 6 * * O 6 O * - - 0 p p 0 t - * - 6.,.J J J ~ ~ ~ I I I J J A A A J I ' ' [ >.>.,.$X#X#X).T [.`.`.8XpXpXeXpXpXqX$ 9 r 1 9 t + 9 D 0 O - p t 0 > - %X%X%X* - * - - - - ; ; 6 6 6 6 6 7 7 7 7 7 6 6 6 6 6 6 6 6 0 0 0 p s Z g FXFXDXDXDXbXbXbXjXhXhXgX> $ $ $ $ $ $ $ $ @ @ > d f r.r.r.r.t.r.t.t.t.t.t.R > $ @ $ $ 6 JXHXFXGXGXGXGXFXFXDXC.<X3X3X3X:X, , 9 : V.<X>X>X>XT.HXJXJXJXJXJXJXKXKXKXp 9 1 1 1 1 O KXKXHXJXGXJXJXJXJXJXKXKXKXKXJXfX0 e e e e fXJXJXJXJXJXJXJXJXJXJXJXJXJXJXHXKX9 9 w w w w fXHXFXGXGXGXJXJXJXJX1.q 9 e e e e 9 e e e e e , , > > - - - - - - @ - - - 6 6 6 - - > > - - 0 e v Y Y F NXBXBXBX%.u e e 0 6 6 6 6 - - - - e - * - 6 0 6 - * - - - * + e J ~ C b S y M.s.s.; - - b p b e - e 9 * 9 - 0 - 0 q t p Z p p t p p p 9 9 0 O 0 - Z p - 0 * Z 6 y * - & y O = ; * ",
"@ O @ 6 * O * * y - - * * 9 t s + q 9 ;.~ M J J ~ ~ ~ I J I J J I ~ I A J I U ' ' >.,.$X#X:X).T -.`.`.9XaXeXpXpXpX8Xz =.=.=.z @ t 9 + * O + O O @ * & %X%X%X* ; - - ; - - 7 ; 6 ; - * - 7 7 ; ; 6 7 6 6 6 6 6 6 6 0 0 0 u s Z W HXFXFXDXDXDXbXbXjXhXhX&X@ $ $ $ $ $ $ $ $ @ @ @ O . . . . . . . . . . . . : @ @ @ $ $ 6 JXHXFXGXGXGXGXGXGXFXg : d : . . + @ + + ! y.f . . . PXJXJXJXJXJXJXKXKXKXp 1 1 1 1 1 O KXKXJXJXGXJXJXJXJXJXKXKXKXKXJXfX9 e e e e fXJXJXJXJXJXJXJXJXJXJXJXJXJXJXHXKX9 w w w w w fXHXFXGXGXGXGXJXJXJX:.9 9 9 e 9 e e e e e e e e e > > - - - - - - @ - - - - - - - - - - - 9 0 6 t b m v NXBXBXBXz u e e 8 6 6 6 - - - - - e - * * - 6 6 - * - - - - q > > - - 9 + ; B.s.V.& e 9 b > e > 9 t 0 t - 0 q 0 0 p 0 - - 0 Z > - 0 t p q p - 0 > 0 - 6 p - - 0 ; 7 ; * * * * = 8 ",
"y + q O 6 O 0 * * * - - t - - - O y t b m b M ~ ~ J ~ ~ J J J ~ ~ ~ ~ ~ ~ K J J J J J a.#X:X(.[.T `.`.[.[.`.`.uXuXuXpXpXuXuX'.@ @ Z q * - C ;.D p - ; #X#X$X- - - 6 ; ; - 7 ; 6 7 - * - 7 = gXgXC.7 5 6 6 6 6 6 6 0 0 0 y p s g FXFXFXDXDXDXbXbXvXgX&X> $ $ $ $ $ $ $ $ @ + @ + O O     + +           o + + # @ + $ $ @ HXJXFXJXJXJXGXGXGXFX7 $ > $ > $ $ $ $ # # + + + # * KXJXJXJXJXJXJXJXKXKXt 4 1 1 1 1 O KXHXHXJXJXJXJXJXKXKXKXKXKXKXKXfX, e e e e fXJXJXKXKXKXKXKXJXJXJXJXJXJXJXHXKX9 9 1 w w w fXHXFXGXGXGXGXJXJXJXg e e e e e t e e e e e e e 0 9 > - - + + + + + @ @ - - - - 6 6 - 6 6 6 9 6 e t t c NXsXBXsXl y y 0 0 6 6 7 7 - * * 6 b - * * - ; 6 - * ; b M b @ y 0 - - + p 8 s.s.s.: - - t > e 9 C 9 t p t - t y 0 p 0 0 p 0 0 q - p 0 0 - - - p t Z Z - p 0 0 p ; 6 6 6 ; y *   * ",
"@ + - * 0 6 y * 0 6 6 0 0 - p * 6 s p b m b W S b G ~ ~ J J J ~ ~ ~ ~ ~ ~ K J J ~ ~ W b.%X:X(.-.-.-.2.[.[.`.-.pXuXuXuXpXuXpX'.t q - + e - + 9 @ - - * %X#X$X; 6 6 b 0 - - ; ; 6 6 6 - - ; = gX^.&X7 7 6 6 6 6 6 6 0 0 0 0 y p g FXFXFXDXDXDXbXbXbXlX&X> $ @ $ $ @ @ $ @ $ @ @ + +       + + O O       o o + @ + @ $ $ 6 SXJXJXJXJXJXJXJXJXJX* $ $ $ > > $ $ $ $ # % % % % > PXJXJXJXJXJXJXJXJXPXe 4 4 1 1 1 O KXHXHXJXJXJXJXJXKXKXKXKXKXKXKXmX, e e e 0 fXJXKXKXKXKXKXKXJXJXJXJXJXJXJXHXKX9 9 w w w w fXHXHXGXGXGXJXJXJXJXg s p b b p p p b b b t e e e 9 e > ; + * + + @ @ @ - - - - 6 6 - 6 6 6 6 6 e e e v yXqX8X9Xx 0 0 0 0 0 6 b J C * * 6 p ; * * - - 6 6 * q C C b - q 9 - 0 C t y s.f.s.: > 0 c c e e p e Z q e - 0 0 p Z 0 p p p p p q p * 0 9 Z - Z b 0 p * - Z - - * p y y ; * * 7 7 ",
"- 6 9 * 6 * 0 O O - 0 - - - t - 6 6 t e v e b b S M ~ J J J J ~ ~ ~ ~ ~ ~ K J J ~ ~ W b.%X:XX.-.-.-.2.-.[.`.'.rXuXuXuXpXuXrX'.D t W - t - D 1.D :.* & %X#X$X; 6 y ~ 0 - - 7 ; 6 6 6 - ; ; : gX^.C.7 6 6 6 6 6 6 6 0 0 0 0 y i g FXFXFXDXDXDXDXbXbXcXfX$ @ @ $ $ + @ @ @ $ @ @ + +       + + + O       o o + @ @ $ $ $ 9 SXJXHXJXJXJXJXJXJXHX& # $ $ > $ $ $ $ $ # % % % j e PXJXJXJXJXJXJXJXJXKX9 4 4 1 1 1 O KXHXHXJXJXJXJXJXKXKXKXKXKXKXKXCXe e e q 0 fXJXKXKXKXKXKXKXJXJXJXJXJXJXJXHXPX9 9 w w w w !.HXHXGXGXJXJXJXJXJXfXfXC.:.:.g g g W i y y y 8 8 8 y s :.O * + + @ @ @ - - - - 6 6 - 6 6 6 6 6 e e e e 0X9X+X+Xw 0 0 0 6 6 6 6.}.&.* * 6 0 ; * * * - 6 6 - q S J S + p 0 9 9 - - = s.f.s.; > e e t c b e Z t q p 0 t 0 0 0 0 0 p p 0 0 0 Z 0 Z + p - 0 p p W - Z 0 6 Z O - 6 * - 6 * = 7 ",
"+ + + q - 6 0 0 6 y 0 p - 6 0 0 9 p Z b S O S S ~ M J J S J ~ ~ ~ J ~ ~ ~ S W ~ ~ I W b.:X:XX.2.2.2.2.2.[.`.9XuXuXuXuXpXwXtX=.r r N 1 c t S C D a @ & %X#X$X; 6 p >.- * - 6 6 6 - - - 6 6 = C.C.n.; 6 6 6 6 6 6 6 0 0 0 0 p p g FXDXFXFXDXDXDXDXbXcXfX$ $ @ @ @ @ @ $ $ $ @ O O O + + + o o o o o o o o o o + $ $ $ 1 1 ZXJXHXJXJXJXJXJXJXJX7 x w 9 1 1 1 1 1 r 4 1 + + # y KXJXJXJXJXJXJXJXGXHX9 4 1 1 4 4 O KXHXHXKXJXJXJXJXPXPXPXPXPXPXKXcXg :.g s O fXKXJXJXJXKXKXKXJXJXJXJXJXJXJXHXHXe w w w w w !.HXHXJXJXJXJXGXGXGXFXFXFXDXDXFXFXFXGXGXGXGXGXGXGXFXFXDXSX5 + + + @ @ @ - 6 6 6 6 6 6 6 6 9 0 0 0 0 0 0 e p e e e 6 6 6 6 - - 6.6.N * - - * * * * * - - - * * t ;.W @ 9 * * 0 q 0 y s.f.M.: > e J @ A 9 9 Z e t b 9 p e Z W t b p Z e p 9 0 q q > q > C p q Z - 6 0 O p y Z 0 * * ; ; * 7 ",
"O 6 6 0 0 * 0 6 6 0 - O O 6 - 0 O * 9 9 O @ n v e b S ~ ~ ~ ] ~ S n S M M S Z S J J J a.:X:XX.T 2.2.2.2.-.[.+XtXtXpXpXpXwX8X=.=.'.=.=.=.3 9 + + + @ & %X#X$X; 6 6 q * * - - - 6 - - - 9 0 > ; 6 6 ; - 6 6 6 6 6 6 0 0 0 0 y p g FXFXFXFXDXDXDXDXbXcXfX$ $ @ @ @ @ $ $ $ - $XIXKXKXKXKXKXHXPXPXIXPXIXIXIXIXfX$ $ $ 1 1 w cXJXHXJXJXJXJXJXJXJXKXPXPXPXPXPXPXPXPXKXKXKXKXKXJXJXJXJXJXJXJXJXJXJXGXHX> 4 1 1 3 4 O KXHXHXJXJXJXJXJXFXZXHXGXGXGXGXJXJXKXKXKXKXJXJXJXJXJXgXlXlXJXHXHXJXJXJXJXHXKXe w w w w w C.JXHXJXJXJXJXJXJXJXJXJXGXGXGXGXGXJXJXJXJXJXGXGXGXGXDXbXFXh + + + @ @ @ - 6 6 6 6 6 - 6 6 9 0 0 0 6 6 0 0 q 0 0 0 6 6 6 6 6 6 - 6 - - - - * * * * * - - * * - > > > > > t > - q q i M.f.s.: 9 , e e c b > $ c e 9 > p e p p 0 0 - > - @ - O + - > - - + q b t + * 0 9 p O O * 6 y 0 & 7 * ",
"O O * - - 6 * - * * - 0 0 y 6 - 9 p - - 9 0 e e e n n <./ ~ ~ M M n W M S S Z Z Z S J a.:X:XX.T [.2.2.2.-.`.`.-.-.8XuXwXwXpXwXpXaXpXpXpX2 t @ @ @ - & %X#X$X- 6 6 6 * * - - - 6 - - - 9 9 6 6 ; ; ; - 6 6 6 6 6 6 0 0 0 q y p g FXFXFXFXDXDXDXDXbXvXfX$ $ @ @ @ @ $ $ $ > C.PXGXJXJXJXJXGXJXJXJXJXHXHXHXHXfX$ $ $ 1 1 w cXJXHXJXJXJXJXJXJXJXKXKXKXPXPXKXKXKXKXKXKXKXJXJXGXJXJXGXJXJXJXJXJXJXGXHX> 4 1 1 3 3 O HXKXHXJXJXJXJXJXSXR V.GXGXGXDXGXJXJXJXJXKXJXJXHXJXJXf f f JXHXHXJXJXJXJXHXKXe 9 w w w w C.JXJXJXJXJXJXJXJXJXJXJXJXJXJXKXKXKXKXKXKXKXKXKXJXJXJXGXFX1.+ + + @ @ @ - - - 6 6 6 6 6 6 > 0 0 0 0 0 0 0 q e 0 6 6 6 6 6 6 6 - * * * - - * * * * > e 0 * * - > > > > > A P V 6 - ; s.s.s.: 9 , C c b $ e c 9 e > e e - > e - e p b 0 Z > Z + * t * e > C > Z - y - + e 0 6 0 * * * O * ; ",
"- - - - 0 6 0 p 0 b - y 0 0 6 9 6 p * - - > e S , p p / / } ~ m M n n n n S S S Z W ~ b.:X:X} T `.T 2.2.2.2.2.-.-.'.wXwXpXpXwXpXpXpXpXaXz 9 @ * - - & %X#X%X- 0 7 - * * - - - - - - - 6 6 6 6 6 6 6 6 6 6 6 6 0 6 0 0 0 y y p g FXFXFXFXDXDXDXDXbXvXfX$ $ @ @ @ @ $ $ $ 9 $XIXKXKXKXKXKXJXJXJXJXJXJXJXHXHXfX$ $ $ 1 1 4 cXJXJXGXJXJXJXJXJXJXKXKXKXKXKXPXPXPXKXKXKXJXJXJXJXJXJXJXJXJXJXJXJXJXGXHX$ 4 1 1 1 1 O HXHXHXJXJXJXJXHXSXr.,XKXJXJXJXJXJXJXKXKXKXKXKXJXJXJXx.R f JXJXJXJXJXJXJXJXKX9 w w w w w e.HXHXJXJXJXJXJXJXKXKXKXKXPXPXPXPXPXPXPXPXPXKXKXKXKXJXGXGXe.@ @ @ @ @ @ - - - - - - - - - 6 6 6 6 6 6 6 0 e e 0 0 6 e e 6 6 - - - - - - - 6 6 - * I 2.,.- * @ - - > > > Y *.Y + 0 ; V.P.:X> e w e 9 e w $ e w t 9 b E y.a.: - e e b - + - + + @ 9 9 > @ e , p - 9 q 9 t O * * - y O s 0 6 ",
"0 0 9 6 p 9 0 0 - b 6 6 0 - 0 t 0 0 q t e e e p 0 0 p / Q Q ~ m W n n M n S S S S S W b.:X:X_ T T -.T 2.2.2.2.-.2.9XpXpXpXwXwXpXpXpXpXsX=.D b 9 e , - &X%X%X- 0 7 - * - - - - - - - - 6 6 6 6 6 6 6 6 6 6 6 6 6 6 0 0 0 y y i g FXGXFXGXDXGXDXDXDXvXfX$ $ $ $ $ 1 1 $ $ w $XPXKXKXKXKXKXJXJXJXJXJXJXJXJXHXfX$ $ $ $ 1 1 cXJXJXGXJXJXJXJXJXJXKXKXKXKXKXPXPXPXKXKXKXKXJXJXJXJXJXGXGXGXJXJXJXFXGXHX> 4 4 1 1 1 O HXHXHXHXJXJXJXJXHXR ,XKXGXJXJXJXJXJXKXKXKXKXKXJXJXKXC.R f JXJXJXJXJXJXHXHXKX9 w w w 4 4 e.JXHXJXJXJXJXJXJXJXKXPXPXPXPXIXIXIXPXPXPXPXPXPXPXPXPXJXJXfX@ @ @ @ @ @ - - - 6 - 6 6 - - - 6 6 6 6 6 6 7 6 6 6 6 6 e e 0 6 6 6 - 6 * - 9 9 6 6 > A }.6.* @ @ - * - > > P -.*.9 0 * P.f.V.e e e e c w c w c D $ A , E ) p.g e S 9 W > Z - Z ;.t W @ p Z 9 Z ;.+ Z + 9 + C Z t 0 0 Z ; O 7 ",
"* - + 6 t 0 p Z 0 S - y p y Z t 0 0 - p Z > C ;.p e b / / / ~ , S Z n W n S S S S S S b.:X:X_ Y -.-.-.2.-.-.2.2.2.qXpXpXpXpXwXpXpXaXsXsX=.&.b > > , - %X2X;X6 0 7 - * - - - - - - - - 6 6 6 6 6 6 6 6 6 6 6 6 6 6 0 0 0 y p i :.FXGXFXGXDXGXDXDXbXvXfX# $ @ $ $ 1 $ $ $ 9 e.IXKXKXKXPXKXJXJXJXJXJXJXJXJXKXfX$ $ $ $ 1 4 cXJXJXGXJXJXJXJXJXJXKXKXKXKXKXKXKXKXKXKXKXKXJXJXJXJXJXGXGXGXJXJXJXFXGXHX# 4 4 1 1 1 O HXHXHXHXJXJXJXJXHXR V.KXGXJXJXJXJXJXKXKXKXKXKXJXJXKXC.R f GXJXJXJXJXJXHXJXKX9 w w 4 4 w C.JXJXJXJXJXJXJXJXJXPXPXPXPXPXPXPXPXPXPXPXPXKXPXPXPXKXKXJXfX@ @ @ @ @ @ - - - 6 6 6 6 - - - 6 6 6 6 6 6 7 6 6 6 6 6 0 e 0 6 6 9 - 6 * - - 9 6 6 * 9 A C @ @ + - * - - > P *.H 6 e ; P.:X:X& c t w A w v c w c $ t > E ) b.E , b > e > e @ > > t :.+ t > - Z + > b - Z 6 6 0 9 O s 0 y y 6 ",
"* 0 6 0 6 * + - - O O O * * O * + - * @ 0 + - + & ; 0 n ;.n n S S Z S n p Z Z Z Z Z Z c.:X:X} [ -...........-.2.-.yXpXpXtXpXpXaXdXdXpXsXz =.=.=.z $ > %X#X%X& - * * * * * e e 6 - - 6 6 6 6 6 6 6 6 6 6 6 6 6 6 6 0 0 0 y p p :.FXGXFXGXDXGXDXDXDXcXfX$ $ @ $ $ $ $ w > , n.IXPXIXIXPXKXKXJXJXJXJXJXJXHXHX;X1 1 $ $ 1 1 cXJXJXJXJXJXJXJXJXJXKXKXKXPXPXPXPXPXPXKXKXKXJXJXJXJXJXGXGXGXJXJXJXJXFXHX% % 1 1 1 4 O HXHXHXHXJXJXJXJXHXR R ZXSXSXSXPXKXJXJXJXKXKXPXPXPXPXC.d f FXJXJXFXJXJXJXJXKX9 e w r r w C.JXJXJXJXJXJXJXJXJXj.Z.L.I.I.I.I.L.L.L.L.L.L.L.L.Z.Z.Z.u.y.+ @ @ @ @ @ 6 @ @ - 6 6 - - - - - - 6 6 6 6 6 6 6 6 6 6 6 6 6 6 6 , ; - * * * - - - @ @ @ @ @ @ + O - @ @ 9 > $ $ @ e ; V.f.P.- $ $ 9 e w c e t e c c > 9 q m , 9 $ > e + e + q W t - + - > e t + > + - O 9 6 * 0 0 0 0       ",
"* * q 6 p 0 q 6 S - p y Z 6 y s Z W ;.e 0 O 0 6 p - * ; ; ; , Z y Z W S Z S Z Z b b b b.:X2Xo.G G J J T T T T T T -.-.`.`.`.`.].].].'.8XdXiXiXiXpX% : #X#X$X> > > 0 * * * e e 6 - - 6 6 6 6 6 6 6 6 6 6 6 6 6 6 6 0 0 0 y y s :.FXGXFXGXDXGXDXDXSXcXfX$ $ $ $ $ $ > , , , r.f.f.f.f.A.HXKXJXJXJXJXJXJXHXHXXX$ 1 $ 1 1 w cXHXFXJXJXJXJXJXJXFXZXvXlXlXlXlXlXlXvXvXvXvXbXbXbXDXGXGXGXGXJXJXJXJXFXHX% 1 1 1 1 1 O HXHXHXHXJXJXJXJXFXg f h.g.g.f.ZXJXJXJXJXJXHXgXgX&XC.! d d GXGXJXFXJXJXJXJXKX9 e w r r r C.JXJXJXJXJXJXJXJXJXN.I.g.g.g.g.g.g.g.g.g.g.g.g.g.g.g.g.h.>X+ @ @ @ @ @ 6 @ @ 6 6 6 - - - - - - 6 6 6 6 6 6 6 6 6 ; ; ; 6 6 6 6 0 q * * * - - - - @ @ @ @ @ 9 ~ ;.K > 9 w > > 9 e & P.P.P.u c e w c e c $ c e e 9 $ 9 A > D t ;.e S q t - @ @ > q Z + q O q p @ S - s - y 0 - - * - 9 S e ",
"* y * s 0 y p * 0 - W p 0 - 0 6 0 0 - e p 0 s 0 - ; 0 * e - y n y i W S S S M b b b b b.:X:X( G S J S U [ Y T T T T -.`.`.`.`.].].].].8XiXiXiXiXpX% : %X%X$X9 c t - - - * e e 6 - - 6 6 6 6 6 6 6 6 6 6 6 6 6 6 6 0 0 0 y p Z :.DXGXFXGXDXDXDXDXSXcXfX> $ $ $ $ $ > , , , r.h.h.h.g.g.HXJXJXJXJXJXJXJXJXHX$X1 4 4 4 4 4 cXHXJXJXJXJXJXJXGXGXgXhXhXkXkXkXkXkXlXlXlXvXvXvXbXDXFXGXGXGXJXJXJXJXFXHX$ $ 1 4 4 4 O KXHXHXHXJXJXJXJXFXg f h.h.h.h.SXJXJXKXKXJXHXgXgXgXgXg : d GXJXJXJXJXJXHXHXPX9 e w r 4 4 e.HXJXJXJXJXJXJXJXJXN.I.g.g.g.g.g.g.g.g.g.g.g.g.g.g.g.h.h.>X+ @ @ @ @ @ @ @ @ 6 6 6 - - - - - 6 6 6 6 6 6 6 6 6 6 ; ; ; 6 6 6 0 Z A - * * - - - - 6 - - @ @ e ,.>.' 9 t S t 9 6 e ; P.P.P.e 9 e e c + b > c v A c $ w 9 9 + t $ + S + t 9 9 t S + - - ;.6 6 + + + - p 0 O y p p - 6   6 - ",
"- 6 9 6 6 7 0 6 * p 6 0 - 0 6 0 - s ; p 0 0 * - p - * - e e Z Z e S S J J Z Z Z A A b B.:X:XO.J G G S U [ T T T T T T [.`.`.`.+X].].].8XpXiXiXiXaX% : %X#X X$ v c A e + + q t 9 6 6 6 6 6 6 6 6 6 6 6 6 6 6 6 6 6 q 0 0 q p E ( DXDXGXGXGXDXDXDXbXcXfX, $ $ @ $ $ > , , , f U.h.h.h.g.SXJXJXJXJXJXJXJXJXHXe.1 1 4 4 4 4 cXHXHXJXJXJXJXJXGXFXhXkXkXkXkXlXlXlXlXlXlXvXvXbXDXGXGXJXGXGXJXJXJXHXJXKX$ 1 1 1 4 4 O HXHXHXHXJXJXJXJXHXg f >X>X>XI.HXKXJXJXKXJXHXlXgXgXgXg ; d DXGXJXJXJXJXJXHXKX9 e w 4 r 4 e.JXJXJXJXJXJXJXJXFXT.f.g.g.g.g.g.g.g.g.g.d.g.g.g.g.h.U.>X<X+ @ @ @ @ 1 - > > - - - 6 6 6 - - 6 6 6 6 ; 6 6 6 ; ; ; ; ; ; 6 9 D >.,., - - * * * 6 w w q @ @ $ 6.3.,.@ C C D c t c * P.P.V.9 e e c c > A $ N e v w 9 e e $ p 9 9 t @ e S + e + t > ;.q - + + Z - p + 0 - 0 t - 0 0 Z * y O ",
"- 9 9 e 9 6 O p 6 0 - 0 ; Z 0 s O - * * * - t 0 p 0 - - 0 * 6 0 p b S J J Z Z C Z Z Z B.:X:X$.~ ~ J m J Y Y T T T T T T `.`.`.].+X+X+X8XdXiXiXiXpX% d %X*X*X# w 1 4 # + + + 9 9 6 6 6 6 6 6 6 6 6 6 6 6 6 6 6 6 6 0 0 0 y s ! ( bXDXGXGXDXDXDXDXbXfXw.- $ $ @ $ $ > > , , f U.h.h.U.U.SXJXJXJXJXJXJXJXJXHX;X4 4 4 4 1 w cXHXHXJXJXJXJXJXJXDXhXkXlXlXlXjXlXxXvXvXvXbXbXbXDXGXJXJXJXJXJXJXJXHXJXKX$ 1 4 1 4 4 O HXHXHXHXJXJXJXJXFXg f >X>X>X<XPXKXJXJXJXJXHXgXgXgXgX: - 8 DXFXJXJXJXJXHXHXKX9 e w w w 4 !.FXJXGXJXJXJXJXJXGXC.k.u.t.t.R f f f f f f f f f f f d d d O + + @ @ @ - > > 6 6 6 - - - - - - 6 - - ; 6 6 6 ; ; ; - - ; 6 6 ;.6.6.> - * * * * * w t 9 @ @ @ S J C 9 9 $ $ $ + w * u.s.V.> > w > w $ e $ c c c c c 9 D $ 9 + t + @ 9 9 e > Z @ C O O - @ q + O - - q 0 * Z t 0 0 O O y p ",
"- - 6 - @ O O - - - 0 0 * 0 0 y * p - Z , p p 0 p p - - 0 O - 0 0 Z C A J Z Z C b b b B.:X:X$.Q S M e J Y T T T T T T T T `.`.`.`.`.+X8XdXiXiXiXpXj m fXnXnXo z B P v + + - - 9 6 6 6 6 6 6 6 6 6 6 6 6 6 6 6 6 6 0 0 0 y g ! ( C.GXGXGXGXDXDXDXbXfXe.s @ $ @ $ $ > > > > y.I.:XP.V.c.ZXJXJXJXJXJXJXJXJXHX;X4 4 4 4 1 w cXHXHXJXJXJXJXJXJXFXhXkXlXlXlXlXlXvXvXvXvXvXvXbXbXSXKXJXJXJXJXJXJXJXJXKX# 1 4 4 4 4 O HXHXHXJXJXJXJXJXJX:.: B.c.) g SXKXJXJXJXJXHXgXgXgXgX8 - X DXFXJXJXJXJXHXHXKX9 e w w w w !.FXJXGXJXJXJXJXJXJX1.: & & & & & & - - > & & > & & & * & * O + + @ @ @ - > > 6 6 6 - - - - - - 6 - - ; 6 6 6 ; ; ; 6 6 ; 6 6 q $ @ - * * * * * @ 9 9 $ @ @ @ @ @ 9 9 1 @ + + + A , M.s.V.- 9 e v w $ + $ w $ c c e 9 w e 9 9 Z q 9 C 9 D @ t 9 9 @ O - + > t - t 6 0 - - + 0 p q - ; 0 O ",
"* 0 * - 0 - y 0 6 0 - - ; 7 * ; - * * ; - 0 , > p p * 0 * 0 0 e b A A A A A A Z C C Z %X:X:X@.J M M Z J Y Y U Y Y T T T T T T [.T -.`.'.'.`.'.].rXaXyXNXNXNX'.'.'.'.l # @ @ t 9 > - e c t 6 6 6 6 6 6 9 6 6 9 9 9 q q q u E ( ( j.JXDXDXGXDXFXFXFXDXDXSX9 $ $ $ $ > > > > @ O + O O o ZXKXJXJXJXJXGXGXHXHX$Xw 4 4 4 1 w cXJXJXJXJXJXJXJXJXFXm.f.d.d.d.d.d.d.d.d.d.f.f.f.f.u.SXGXJXJXJXJXJXJXFXKX$ 1 1 1 1 1 * HXHXHXJXGXJXJXJXFX1.$ # # # # CXKXJXJXJXJXHXy.s.p.! O - 8 FXGXGXJXJXJXJXJXKX9 w w w r w !.JXHXGXGXGXJXJXJXJX:., $ $ $ @ @ $ @ @ @ + + @ @ @ @ @ @ @ + + @ @ @ 1 > > > 6 6 9 6 6 6 - - - - - - - 6 6 6 6 6 6 t b p 6 6 6 - - - - 9 I I > @ @ > $ 9 $ $ 9 9 9 9 9 -.-.-.+ b , M.f.V.9 9 w c I A c 9 A w $ + @ @ w c W Z > + @ 9 w @ - @ t 9 p > Z - - e + y - p 0 b Z p 0 0 - p p 0 ",
"0 * * y - 0 O 0 6 y - 0 y 0 0 6 ; Z , p p p 0 b S p 6 - p b C m M A A A A A D S S S Z B.:X:XO.G G G J J U Y Y Y U Y T T T T T T T -.`.`.'.].8X8XrXaXyXNXBXaX'.'.'.-.v $ $ 1 > e - 9 6..X}.6 6 6 6 6 6 9 6 6 9 9 9 q q q u E ( ) ) JXGXGXGXGXGXGXFXFXSXHX9 > > > > $ $ $ $ $ $ + + + # CXHXJXJXJXGXGXGXHXHXXXw 4 4 4 1 w vXJXJXJXJXJXJXJXJXFXj.f.d.d.d.d.d.d.d.d.d.d.d.d.d.t.HXJXGXJXJXJXJXJXFXKX% $ 1 1 1 1 X HXHXHXJXGXJXJXJXFX1.$ % % % # cXKXJXJXJXJXPXy.s.p.! & & g FXGXGXJXJXJXJXJXKX9 w w r r w fXFXHXGXGXGXJXJXJXJX1., $ $ $ $ $ $ @ @ @ + + @ @ @ @ @ @ @ @ @ @ @ @ 1 > 9 9 6 6 9 6 - - - - - - - - - 6 6 6 6 6 9 ;.<.W 9 6 9 6 9 @ + c .X.X$ O $ > $ 9 $ $ 9 9 9 > 1 -.-.`.$ e 8 M.f.V.- , $ c c c c $ w w D N c K I ;.$ > 9 b 9 e > 9 t S D S > + S e e J @ e - p - - 9 b e Z - 0 - Z ",
"O O O 9 * - 6 p y * * - ; ; * - ; 0 * O y - - 0 e - 6 * t b C m M A A A A A A J J A S B.:X:X@.J J J J J Y Y U Y U Y Y T T T T T -.-.`.`.].8X8X8X8XaX0XyXNXNX].'.`.-.l > 9 e b b > 9 6..X>.6 6 6 6 6 6 6 6 9 9 9 9 q q q u E ( ) ) JXGXGXGXGXFXFXFXFXSXSX9 > > > > $ $ $ $ $ $ # @ @ # CXFXJXJXJXGXGXGXFXSXXXw 4 4 4 1 w vXJXJXJXJXJXJXJXJXFXj.f.d.d.d.d.d.d.d.d.d.d.d.d.d.t.HXJXGXGXJXJXJXJXFXKX$ 1 1 1 1 1 X HXHXHXJXGXJXJXJXFX1.$ % % % $ cXKXJXJXJXJXPXy.s.p.! & & g FXGXGXJXJXJXJXJXHX9 w w r 4 4 fXFXHXGXGXGXJXJXJXFX1., $ $ $ $ $ $ @ @ @ + @ @ @ @ @ @ $ $ @ @ @ @ @ 1 > 9 9 6 6 9 6 - - - - - - 6 6 - 6 6 6 6 9 e ,.<.W 6 6 9 6 6 @ > v XXXX@ + $ > > 9 9 $ 9 9 9 > 1 -.-.`.# c : K.P.V.0 c A w ;.V K $ N $ r r w $ v c e b @ e + c @ @ 9 C ;.q q @ q + - t + C - C p * p p - q 0 0 q p ",
"6 y * p 0 6 Z - s 0 0 0 6 s 0 y p 6 - Z p n n b Z e p b q p A m M S S A A A A S S S J B.:X:Xo.M J J J G ' ' ' U U Y [ [ T T T T T -.`.`.'.8X8X8X8XaXaXaXNXaX8X`.`.H 3 w r r t r $ 9 - 1 9 6 6 6 6 9 6 6 6 6 9 9 9 q e q e E ( ) j.GXGXGXGXGXGXGXGXFXFXZX9 > > > > $ $ $ $ $ $ $ $ $ # CXHXJXJXJXGXGXGXFXSXe.w w 4 4 4 x vXHXHXJXJXJXJXGXGXFXj.s.s.s.u.y.y.R R R R y.p.p.p.) SXGXGXGXJXJXJXJXFXHX$ $ 1 1 1 1 * HXHXHXJXGXGXGXJXJX1.$ % % % % CXPXJXJXJXJXHXy.s.p.! @ + g FXGXFXGXJXJXJXHXKX9 w w r 4 4 !.GXJXGXGXGXJXJXJXJXe., $ $ $ > > $ $ $ $ $ $ $ $ $ $ > $ $ $ $ $ @ 1 9 6 6 6 6 6 9 9 6 - - - - 6 6 6 6 6 6 6 9 9 q >.1.s 6 6 9 9 - * * @ XXD @ + @ 1 > 9 1 > 9 9 9 9 @ H H %.# e d Z.A.K.( S A x v v K $ c r C $ C $ ;.w 9 b $ t 9 9 @ + ;.9 C 9 t 9 t p q b + e 9 * q * C C - p 0 6 Z * ",
"O O O - * - O - * - 6 - ; * 6 6 & s , n p b p u Z u Z ~ S W ~ W ~ / ~ ~ ~ ~ ~ ~ ~ ~ ~ %X:X:Xo.E Q Q Q Q ~ ~ ~ ~ ` [ [ [ T [ ..T ....T -.`.'.'.'.`.yXaXaXaXaX8X'.'.'.'.=.z &.L L 1 9 9 9 9 6 6 6 6 9 9 6 9 9 6 9 9 e q q e ! ( y.k.KXDXDXDXHXJXJXGXGXGXcX9 > > > > $ $ $ $ > $ $ $ % 4 CXHXGXGXGXGXFXFXFXSXXXw w 1 4 4 4 ZXHXHXGXJXJXJXGXGXFXs , , , > $ % % % % % % % % %   SXFXGXGXJXJXJXJXFXHX$ 1 1 1 1 1 * HXHXJXGXGXGXGXGXFX1.$ # # % # UXHXSXHXHXHXPX) p.p.( + @ g FXGXFXGXJXJXJXJXKX9 w w 4 4 w !.FXJXFXGXGXJXJXJXJXXXe > $ $ 9 > > > > > > > 9 9 9 9 9 9 9 9 > $ - 1 9 6 9 9 6 6 6 6 - - 6 6 6 6 6 6 6 6 6 6 6 6 6 * * 6 6 6 6 6 - * * * - * @ 6 $ 1 9 1 1 + 9 9 9 $ @ @ + + + e d R.J.J.T.9 > # e $ $ 9 @ 1 > $ + $ r 9 @ 9 9 e 9 Z + O 9 w t $ p > t + + > > 9 + 9 * - + * * q + 6 - 6 ",
"@ t 6 p 0 - y * 0 - p 6 s 0 y W - W n W ~ S n W ~ b ;.m M ~ Q Q / / / / / / / / } } ~ %X:X:Xa./ / / / / O.O.O.+.+. .{ { [ [ ........-.-.-.`.`.`.`.'.].].].].rXuXuXuXuXuX=.&.&.-.1 9 9 9 9 6 6 6 6 6 9 9 9 9 6 9 9 e q q e E ( x.u.L.E.H.L.D.HXJXJXGXGXgX9 > > > > $ $ > $ > $ % $ $ 4 CXHXGXGXGXGXGXFXFXSXXXw 1 1 4 4 4 ZXHXJXGXJXJXJXGXGXJXs w w , $ % 1 1 % % % $ $ 1 $   HXFXGXGXJXJXJXJXFXHX> 1 1 1 1 1 * HXHXJXGXGXGXGXJXFX1.$ # # % @ V.>X>X>X>X<XC.: g ( E + + h FXGXFXGXJXJXJXJXKX9 w w 4 4 4 fXFXHXFXGXGXJXJXJXJX;Xe 9 $ $ 9 > > > $ $ > > 9 9 9 9 9 9 9 9 > > - $ 9 6 9 9 6 6 6 6 - - 6 6 6 6 6 6 6 6 6 6 6 6 6 6 7 6 6 6 p p 6 * * - * @ @ 6 9 c V 1 9 @ v v 1 9 q w w w > w.f J.J.J.T., e @ N 1 K r c w D $ e $ C 9 c + w t > > @ - 9 $ 9 $ q 9 Z q q b e S > p e - p * 0 - 0 - p y ",
"6 - - * - ; q - t - p e 6 - i O 0 n S n n , b b u Z u E Q ~ ~ ~ / } } } / } } / <.] / :X:X>Xp.( O.O.O.O.$.$.$.$.$.#.| X.{ [ [ ....T T `.`.`.`.`.`.].+X+X+X].uXiXiXiXiXiX=.%.%.=.r 9 9 9 9 9 6 6 6 6 6 6 6 6 9 9 9 9 q q e i ! S d Y.g.U.g.g.SXJXJXGXGXfX, > + @ - + * * O O * 6 O O   SXHXGXGXGXGXFXFXFXSXXXw 1 1 4 4 w ZXHXFXFXFXFXJXGXGXJXs 1 % % % % % % % % % % % % %   PXGXGXGXJXJXJXFXGXHX> $ 1 $ 1 1 * HXJXFXGXGXGXGXGXFX1.$ # # # # f.h.h.h.>X>X&XO + + + + @ 1.FXGXGXGXJXJXJXJXKX9 w 1 1 1 4 fXFXHXFXGXGXJXJXJXJXfXp e 9 , 9 > > 9 9 9 9 , 9 9 9 9 6 - - 6 6 - 6 9 1 @ 9 9 - - - - - - - 6 6 6 6 6 6 6 6 6 6 6 6 6 6 6 0 0 D D w 6 - - 6 - - * V T -.9 9 1 *.-.r w r r r r r 9 d ~.J.J.~., e $ 1 w w $ $ 1 w $ e c w + e w t $ e t e @ r 9 C @ e e b > > 9 e e > - 9 > s y C y y * O y ",
"9 p 9 t t 9 p 6 y p e 0 y ;.* s ;.~ W u ~ W ;.u ;.W W M ~ ~ ~ / / } / } } } } } <.<.<.:X:X>Xb.( O.O.O.O.v.v.v.q.$.q. .X.| { { ......-.`.`.`.`.`.`.`.+X+X+X].uXiXiXiXiXiX=.%.%.=.x q 9 9 9 9 9 9 9 6 6 6 9 9 6 9 9 9 9 9 q p n b . I.U.g.g.U.SXFXJXJXGXJXKXKXKXKXKXJXJXJXJXJXJXJXGXFXFXDXFXGXGXGXFXFXFXDXSXe.1 1 1 4 4 x ZXHXFXFXGXFXGXGXGXJXq 1 $ $ $ $ $ $ % % % % % % % O KXGXGXGXJXJXJXJXGXHX> 1 1 1 1 1 5 HXJXFXGXGXGXGXGXFX1.$ # # # + f.g.h.h.h.>X:X& + @ + + + 1.FXGXGXGXJXJXJXJXHX9 w 1 1 1 4 fXFXHXFXGXGXJXJXJXGXHXHXHXKXKXKXKXKXKXKXKXHXKXKXHXJXHXJXFXFXHXHXHXHX1.q 9 9 9 - - - - - - 6 6 6 6 6 6 6 6 6 6 6 6 6 6 6 6 0 0 S D w 9 6 6 6 6 6 @ V H *.w 9 $ P L w w e r r r e e d ~.~.~.~.: t x c c r $ c # I c C c c c c 9 9 D t c 9 @ w 1 D t > $ Z t b b + t t S - Z 9 s - p - Z y y ",
"C t w a t 9 Z 9 - p 0 Z 0 y p p n m n n S W S S ~ W n ~ ;.~ ~ / / / O.O.}  . .} <.<.7.:X:X>Xb.( O.O.O.O.v.v.v.8.8.8. . . .| | ....2.2.[.[.[.[.`.`.`.].].+X].uXiXiXiXiXiX=.%.%.=.x e 9 9 9 9 9 9 9 6 6 6 9 9 9 9 9 9 9 9 w e n v f Y.Y.Y.Y.Y.SXJXJXJXJXJXGXGXJXJXJXGXGXGXGXGXGXGXDXDXFXDXDXGXGXGXGXFXFXDXSXe.1 1 1 4 4 x ZXJXFXGXGXGXGXGXGXJXq $ $ $ $ $ $ $ $ % % % % % % * KXGXGXGXJXJXJXGXGXHX> % $ 1 1 1 5 HXJXFXFXFXGXGXGXJX1.$ # # # + f.g.g.h.h.>X3X. + @ # # + 1.FXGXGXJXJXJXJXJXKXq w 1 1 1 1 fXFXFXFXGXGXJXJXJXGXGXGXFXGXGXGXGXGXGXGXGXGXGXGXGXGXDXDXDXDXDXDXDXDXe.q 9 9 9 - - - - - - 6 6 6 6 6 6 6 6 6 6 6 6 6 6 6 6 6 0 t a 9 6 6 6 6 6 6 @ K L *.w 9 9 1 w w 9 w e r r q 0 d ~.~.~.R.: 9 w c c D w A $ c c N w e w c t e b b t b t c 9 c e b b b t b S @ C - - e q p e q Z 0 0 p y ",
"9 0 6 0 6 * - q q * - O - Z 9 s u Z Z ~ W ~ <.~ ~ <.<.<.<./ / ( @.i.@.@.@.@.@.@.@.@.i.:X>X>Xb.( O.#.#.8.%X%X%X%XB.%X%X%X%Xb.b.%X%X%X;X%X$X$X$X$X-X-X-X-X@XyXaXpXpXpXpXpXyXyXyXyX0X0X9X.X.X.X3 9 9 6 6 6 9 9 9 9 9 9 9 9 w e e v d f d : . : gXvXSXSXFXGXGXGXGXGXGXGXGXGXGXGXGXGXGXGXGXGXGXGXGXGXFXFXDXDXSXe.1 $ 1 1 4 w bXDXGXGXGXGXGXGXGXFXq $ $ $ $ $ $ $ # # # # 1 # 2 6 HXGXGXGXGXGXGXJXGXHX> $ $ $ $ $ * JXDXGXGXGXGXGXGXGX1.$ # # # + P.f.s.p.p.B.%X. # @ # # + 1.DXGXGXGXGXGXJXGXHXt w 4 1 1 w fXFXFXFXGXGXGXJXJXGXJXJXJXJXJXJXJXJXJXJXJXGXGXGXGXGXGXGXGXGXGXDXDXGX1.q 6 6 6 > > > - - - 6 6 6 6 6 6 0 0 0 0 0 0 6 6 6 9 9 9 9 9 9 6 9 9 6 6 @ - - $ l 9 9 1 w v c 9 A D ;.C a y j.xX/.xXxX; w V w w 9 $ c $ w t $ $ w @ 9 w $ c 9 9 + + @ > > $ - > > w e - - e e t S - q 0 - 9 * y y 0 ",
"c 9 - 0 - - p - * - s y 0 O t 0 p Z 0 W , i - p n n m E ! E E E ( ) ) ) ( ( ( ( ( ( ( M.:X:Xv.e v v F u @.@.i.i.i.p.p.p.p.p.p.p.p.p.p.i.p.p.p.p.a.i.i.a.a.a. X X X X X XXX0X0X0X0X0X9XqXqXqX2 9 6 6 6 6 6 6 9 9 9 9 9 9 w 9 9 , > $ $ $ $ $ m.I.I.L.L.GXGXGXGXGXGXGXGXGXGXGXGXGXGXGXGXGXDXDXDXDXDXDXDXDXSX1.$ $ $ % 1 4 SXGXGXGXGXGXGXGXGXFXq 1 # # # # # # # # # # # # % O HXGXGXGXGXGXGXGXGXHX9 $ $ $ $ $ * JXDXGXGXGXGXGXGXGX:.$ # # # + & @ # # o # # # # # # # @ e.DXGXGXGXGXGXGXGXJXt w 1 1 1 w fXGXGXGXGXGXGXJXJXJXJXJXJXJXJXJXJXJXJXJXJXJXJXJXGXGXGXGXGXGXGXGXGXGX:.t > 9 > 9 9 > - - - 6 6 6 6 6 6 0 0 0 e e 0 9 6 6 9 9 9 9 9 9 6 6 q 1 1 @ @ @ I P 9 9 $ v K D c D >.L N D s C.xXxXxXvX8 , A $ w $ C A c w S + A e D + q b w C w ;.9 1 D t C 9 e b > Z e Z q q e e s C 0 Z Z p Z 0 Z ",
"t O O - 9 9 9 q q * O * y 0 p p i W y n W 0 Z e ~ i E W / E E E ! ( ! ! / ! / / / / ! B.:X:X@.b A I G v @.@.i.i.i.i.i.p.i.p.p.i.i.i.i.p.i.p.p.p.a.a.a.a.a.a.a.a.a.a.a.a.$X$X$X$XXXXX9XqXqXqX< 6 6 6 6 6 6 6 9 9 9 9 9 9 9 9 9 9 1 1 1 # # @ V.I.Y.Y.T.GXGXGXGXGXGXGXGXGXGXGXGXGXGXGXGXGXDXDXDXDXDXDXDXDXSX1.$ $ $ % 1 4 SXGXGXGXGXGXGXDXDXFXq 1 # # # # # # # # # # # # % + HXGXGXGXGXGXGXGXDXHXe # $ $ $ $ * JXDXGXGXGXDXDXDXDX;.@ # # # + + # # # o # # # # # # # @ !.DXGXGXGXGXGXGXGXHXt $ 1 1 1 w gXGXGXGXGXGXGXJXJXJXJXJXJXJXJXJXJXJXJXJXJXJXJXJXGXGXGXGXGXGXGXGXGXGXD 9 - 9 9 9 9 > - - 6 6 6 6 6 6 6 0 0 0 0 e 0 9 6 6 9 9 9 9 9 9 6 9 q 0XXX1 @ 1 V H 1 $ e $ v w c w c N c r i !.xXxXxXvXy e A c N $ w r w e r + b c D 9 @ t 9 D $ t 9 @ > q 9 9 > 9 9 e 9 > p 9 C C t s q q p 0 y p Z ",
"t p 9 C e e @ p 9 t Z t C p p 9 p - p 0 0 ; i u i n W S E E ! ! ( o.o.o.o.O.} +.+./ / B.:X:X) , v F F m @.i.i.i.i.p.p.p.p.p.p.p.a.a.a.a.a.a.a.a.a.a.a.a.a.a.a.a.a.a.a.a.$X$X$X$X XXX9XqXqXqXo , 9 9 9 9 6 6 9 9 9 9 9 9 9 9 9 1 1 1 1 $ $ $ ,XY.1X<XT.JXGXJXGXJXJXJXJXJXJXJXGXGXGXGXDXDXDXDXDXDXDXDXDXbXDXe.$ $ $ $ $ 1 HXGXGXGXGXGXGXGXDXHX@ % # # # # # # # # # # # # $ + HXGXGXGXGXGXGXGXDXJXt $ $ $ $ $ 7 GXDXDXGXGXDXDXDXDXa # # # # # # # # # # # # # # # # $ + fXDXDXDXGXGXGXGXGXHXc 1 1 1 1 1 cXGXJXJXJXJXJXJXJXKXKXJXJXJXJXJXKXKXJXJXJXJXJXJXGXGXGXGXGXGXGXGXGXJX8 9 > 9 - - - - - 6 6 g : : y 0 0 e q q 9 9 9 9 9 9 9 9 9 q 9 9 9 9 9 0X0Xe O 1 B F $ 9 &.&.w A x w F 6.L N i ^.xXxXxXbXg e F r L w A A e c e D c c c t t 9 9 c N N a * A 9 w w 9 q D C b e q 9 p 9 Z p Z 0 0 Z - y - ",
"9 @ 9 t e 9 Z > > p + 9 9 q 9 - p 0 & 0 s n S m 0 b 0 b W E ! ! ! ( ( ( / / E ~ E E / B.:X:X( m K K I m @.i.i.i.i.p.p.a.p.p.p.a.a.a.a.a.a.a.a.a.a.a.a.a.a.a.a.a.a.i.a.a.v.$X$X$X XXX0XyX0X0X# > 9 - - 9 6 6 9 9 9 9 9 9 9 9 9 1 1 1 1 $ $ $ ,XI.W.Y.I.ZXSXZXZXZXSXSXSXSXSXSXSXSXSXFXHXFXFXSXSXZXZXZXZXSXHXfX$ $ $ # % 1 IXSXSXFXFXHXHXHXSXSXO $ # # # # # # # # # # # # % o IXHXKXKXJXJXJXJXJXPXy $ $ $ $ $ E HXFXFXJXJXJXJXFXHX6 + # # # # # # # # # # # # # # $ $ # gXSXHXHXFXFXGXHXHXIXu $ % $ $ $ ZXKXHXKXJXJXHXKXHXHXHXHXHXFXSXHXSXSXSXSXSXHXHXHXHXHXHXHXJXJXKXKXJXHX6 > > > > - > > - 6 6 n.:X:X: 0 0 q q q q 9 9 9 9 9 9 9 9 q 9 9 9 9 9 r 4 > @ 9 B x @ + # r 1 v $ > ~ W Z W g gXbXbXbXbXg g ! E Q 9 w r r c c $ $ c v D @ D N + w 9 + + 1 > > + 9 t 9 $ c e q t D t Z t Z p y 6 y p Z ",
"t ;.D S e $ 9 9 @ t q t O q * - 0 0 - s 0 0 e t p S Z p S b E E ! } } O.+./ M W ;.0 y p.f.:X( e $ $ $ e ( ( ) ) ) i.i.i.i.i.i.i.i.v.v.v.v.v.v.v.v.i.@.o.o.o.o.o.o.) o.@.$.#.7.<.<.>.L B z r - 9 6 - - 9 6 6 9 9 9 9 9 9 9 9 9 1 1 1 1 $ $ $ N.A.f.Z.f.I.I.I.I.I.I.I.I.I.I.I.I.I.W.<X<X<X<X<X<X<XI.>X>XI.:Xx.# $ $ # # $ :XI.I.I.I.I.I.I.I.P.& $ $ # # # # # # # # # # # # @ ,XP.I.P.P.P.P.P.L.P.: $ $ $ $ $ g P.P.L.P.P.P.P.P.Z.: $ # # # # # # # # # # # # # # # # # x.I.P.P.L.T.T.T.T.P.: $ $ $ $ $ i.:XT.T.T.T.T.T.T.L.L.L.I.I.I.L.L.I.I.I.I.I.I.I.I.L.L.I.I.I.T.<X<X<X; 9 > > > > > > - - 6 n.P.:X: e 0 0 q q q 9 9 9 9 9 9 9 9 q q q 9 9 9 9 1 6 - 1 B F @ @ w V x L w > <.:./ / :.bXDXFXFXHX) j.y.) @.1 w N A c A w c D $ 9 9 @ 6 q N w 9 0 C e t q q > t Z c 9 + e 9 q W s C t p 0 y y y ",
"> > 9 9 t 9 t a b - p q 9 s p C 0 p , p u S 0 S t C t b C S S 9 Z b , e 0 O - > Z 9 i p.:X:X! b c K K A t A v ~ M ; ; n S ~ b 0 u b e e 0 0 u b 0 0 0 p 0 0 0 e e e 9 9 9 e e e t e A G c $ 9 6 > 1 1 > 9 9 9 9 9 9 9 9 9 9 9 1 1 1 1 1 1 > p.u.u.y.u.g.g.g.g.g.g.g.h.h.h.U.U.U.U.U.>X>X>X>X>X>X>X>X>XU.>Xp.# # + $ # $ :Xh.h.U.U.U.U.U.U.>X& @ # # # # # # # # # # # # % # P.h.h.h.h.h.h.h.h.U.d # # $ $ $ d h.h.h.h.h.h.h.h.U.. # + + + # # # # # # # # # # # # # # p.h.U.U.U.U.U.U.U.U.d $ $ $ $ $ y.h.h.U.U.U.U.U.U.U.U.U.h.g.g.g.g.g.g.g.g.g.h.h.h.h.h.U.U.U.>X>X>X<X: - > > > > 9 1 > - - n.V.V.: 0 0 0 0 q q q q 9 q 9 q q q *.2.6.$ 6 9 9 9 6 - B T F $ $ w 1 o 4 w e / ! ( ( :.vXHXHXHXJX) j.y.y.c.1 w N r c A t v 1 K D r N V 1 e $ @ 9 $ 9 q 9 t 9 e > e t - D D p t e Z p p t p W p ",
"b C w b Z e t Z 9 p - q q q e p b p Z e b 0 0 q t t t t q $ t q w e e e q Z q > q 9 W c.P.:X! > # r r 1 1 1 K r c - 0 p c ~ A q q Z A t t p C S p q e t e 0 6 q t b q 9 9 q q q q q K P P t 9 9 c v > 9 > 9 9 9 9 9 9 9 9 9 9 1 1 1 1 $ 1 > o.t.) ) t.g.g.g.g.g.g.g.g.g.g.h.h.h.U.U.U.U.U.U.U.U.U.>X>XU.>Xy.# # # $ # 1 >Xh.h.h.h.h.h.U.h.>X& # # # # # # # # # # # # # % % P.h.h.h.h.h.h.h.h.h.d # # $ $ $ d h.h.h.h.h.h.h.h.>X. + # # # # # # # # # # # # # # # # # P.h.h.U.U.U.U.U.U.U.d $ $ $ $ $ s.h.h.h.h.U.U.g.g.h.h.h.h.g.g.g.g.g.g.g.g.g.g.g.g.g.g.h.h.U.>X>X>X<X: @ > > > > > 6 > 9 e n.V.V.: 0 9 0 e e q q q 9 q q q q q *.}.}.$ 6 9 9 9 6 @ H .XF $ 9 9 w v 4 e e ! ( ! ( ! cXHXHXHXJX) j.j.y.c., c c c m A e G N I c c @ t q N w t C w D S t t t b c C > q Z > e Z q q 0 p p y 0 Z ",
"9 9 @ 9 + t 9 Z > p - p C e S e t - t q Z > C Z 1 C a D t t S w c t N C q q 9 t C t y y.:X:X! t N 1 L 1 N N r N C $ q t b C c 9 9 b A r t q t A t q t t t 9 6 q N A w q 9 0 0 0 0 q *.*.*.t 9 9 + 1 $ $ > 9 9 9 9 9 9 9 9 1 1 1 1 1 1 $ 1 w ! R ! ! t.g.g.g.g.g.g.g.g.g.g.g.g.g.h.U.U.U.U.U.U.U.U.U.U.U.>Xy.$ $ $ # $ 1 >Xh.h.h.h.h.h.U.h.>X; # # # # # # # # # # # # # % % P.h.h.h.h.h.h.h.h.h.d # # $ $ $ d h.h.h.h.h.h.>X>X>X. + # # # # # # # # # # # # # # # # # P.h.h.h.U.h.h.h.h.U.d $ $ $ $ $ s.g.g.h.h.h.g.g.g.g.g.g.g.g.g.g.g.g.g.g.g.g.g.g.g.h.h.g.h.h.>X>X>X<X: - > > > 9 0 0 , ; ; n.:X:X: , 9 0 0 0 q 9 9 q q q 9 q 9 &.6.6.9 6 9 9 9 6 1 B .Xl > w 9 x B 4 9 e ! ( ! ( ! cXHXHXHXJX) j.j.y.c.> e v b m m v F 4 v c $ + $ 9 r @ @ $ r 9 $ 9 c 9 Z e Z q 9 p p p 9 Z C 0 p p s p i ",
"q I 9 S D N c D t b * q q q C q D t C q t e e 9 t N C @ @ w 9 w C Z w t t @ q e - 6 0 B.:X:X/ w N c 4 r N t N r r - 9 9 9 6 9 9 9 q t t t y 9 9 9 9 9 t q 9 - - t c q 9 q q 0 0 9 9 N N r > 9 r aXsXaXyX4 9 9 9 9 9 9 9 9 1 1 $ > > 1 1 1 % > > > 9 E s.P.f.P.f.f.f.f.f.u.u.u.u.s.u.u.u.u.u.s.s.P.P.P.P.:X) # $ $ $ $ $ V.f.f.s.M.s.s.s.s.B.; @ $ $ $ # # # # # # # # # # $ ) s.P.P.s.s.u.y.y.p.: $ $ $ $ $ : P.P.s.u.u.s.M.V.,X: @ # # # # # # # # # # # # # # # % @ m.P.I.I.P.:XP.:X,X:X: $ $ % $ $ y.s.u.y.t.r.R f f R R R R R R R R R f f f f f f f R r.t.u.u.P.:X:X2X: - 9 9 9 > = vXvXvXvXvXvXvXvXxXxXvXg 9 9 9 9 q 9 9 9 9 9 9 9 6 9 9 9 9 9 9 > 1 x l e C.V.V.V.c.j.) gXgXgXgX!.SXJXJXJXKXx.C.C.gXvXgXgX^.^.^.^.! A P 1 1 @ D r C 9 $ q w D c C 9 N q w q e @ e W > e p W 9 0 Z 9 p 0 Z ",
"t A $ @ 1 9 $ @ $ c @ + 9 $ @ @ w w t c 9 q 9 c @ 9 $ C q t t q Z 9 9 c > C t Z b O 7 m.:X:X( $ c 1 N 1 c c A @ q 6 9 9 9 9 6 9 9 q t e e t 0 q 9 9 9 D >.t * + q c q 9 9 q 0 0 9 9 9 6 9 9 9 r qXdXdXdXl v 9 9 9 9 9 9 9 1 1 $ 1 1 1 1 1 1 9 9 1 , , , , , , , , , , , , , , , , , > > > $ $ > > , > 6 $ $ $ $ $ $ 1 1 $ % $ > > > w $ $ 1 1 1 1 $ $ < # # # # # $ $ $ # $ $ $ $ $ $ $ > $ $ $ $ $ # $ $ 1 1 w 4 > > 9 w w 9 > $ # # # # # # # # # # # # # # # # 2 $ > > > > > w w w w > 2 % % % 1 % % > $ $ > w > > > > > > > , , > > > > > > > > > > > , , , 0 , , , , , 9 9 9 9 9 X xXxXvXvXvXvXxXxXxXxXxXg 9 9 9 9 9 q 9 9 9 9 9 9 9 9 9 r x 1 @ 9 1 1 l $ y.E.E.E.E.E.^.bXbXbXbXFXHXJXJXJXJXJXKXKXKXKXbXJ.R.J.~.~.N.x V v A r 9 w N D C w 9 @ @ 9 9 1 @ ;.C W 9 9 9 - S e S Z p p Z 6 Z 6 ",
"@ c t ;.w > C D t A 9 t C $ q D c D c L L K c N r C t t t 9 t > 9 9 9 w > 9 q e q p * c.P.:X/ t K # w 9 N c 9 c r 9 9 9 9 q 9 9 q t t q e 0 q t 9 6 6 6.6.&.- @ q c q 9 9 q 0 0 q q 9 9 w w w r qXdXdXdXz e w 9 9 9 9 9 9 9 9 1 9 9 9 9 9 9 1 9 1 > 1 > 9 9 9 9 9 9 > > > $ $ $ $ $ $ $ $ $ $ $ $ $ $ $ $ 1 $ $ $ $ $ $ 1 $ $ 1 1 1 1 1 1 1 1 $ 1 $ $ < # # # # # $ $ $ + # # # # $ $ $ 1 1 1 % $ 1 # $ % % % 4 l 1 1 1 1 1 1 $ % % # # # $ # # # # # # # # # # # % # $ % % 4 , 4 3 1 1 1 1 2 % 1 1 1 1 1 1 1 $ > w > > > , > 1 1 1 1 1 1 > $ $ $ > > > > > > 9 9 9 9 , 9 9 1 9 9 9 q 8 vXvXvXbXbXbXvXvXxXxXxXg 9 9 9 9 q A K q 9 6 9 9 9 9 9 D 6.P 4 6 w w w 9 j.E.E.E.R.R.^.bXDXDXDXFXJXJXJXJXJXJXKXKXKXKXbXJ.R.J.~.~.^.K K e D 9 r &.V 9 C S c C 1 t r w t 9 9 9 @ C S t e - q > 0 s - - Z p ",
"A w c 9 + @ q q 9 r 9 c 9 w 9 t 1 c A C c 9 N w c $ r w c N 9 t e 9 w c q t a q q t p m.P.:X( e r $ 1 r 1 r 1 V r 9 q 9 q q q 9 q p p e t t q q 9 9 6 6.XX>.@ @ t b q 9 9 0 0 9 q q q q w w w t qXdXdXdXz r q q 9 1 9 1 @ 1 @ 1 9 9 9 9 1 9 1 1 9 w w w w w w w 9 1 w w 1 $ 1 $ $ $ $ $ $ $ $ $ 1 $ $ $ 1 $ 1 1 $ $ $ $ 1 1 $ 1 1 1 1 1 1 1 1 1 1 1 1 $ 1 $ # # $ $ $ $ # $ $ $ $ $ $ $ $ $ 1 $ 1 1 % $ % % 1 1 1 4 4 4 1 1 1 % # 1 # # # 1 1 1 # # # # # # # $ % % $ $ 1 1 1 1 1 1 4 1 1 1 1 1 1 1 1 1 1 1 1 1 1 1 1 1 1 1 1 1 1 1 1 1 1 1 $ $ 1 $ $ $ > > 9 9 9 9 9 9 w w w 9 9 9 w e : ; & & ) L.E.. : : . , 9 9 9 9 r Y Y K 9 6 6 6 6 9 9 L 6.*.x 9 r N V e m.E.E.E.E.E.^.DXDXDXDXFXFXJXJXJXJXKXKXKXKXKXSX~.~.~.~.~.hXm P 1 V c x V e L r x 9 $ @ w 9 + w D t ;.> 6 + t 9 > e t e t q C t * ",
"@ @ $ t C 9 C > 9 D @ A 9 S 9 N w D e w D w c r $ S t C A t D 9 q D t t q C t 9 ;.t s m.M.P.( v x A A w 9 c c r a 9 q q t 9 9 9 t t t q t y q q 9 6 6 t c 9 @ - 9 t 9 6 9 9 9 q q q q q e x v c qXdXdXaXz r e w 9 9 9 > @ 1 @ 1 1 9 $ $ 1 1 1 1 9 w w w w w 4 4 w 1 w 1 1 1 1 1 $ $ $ $ $ $ $ $ 1 1 1 $ $ $ $ $ $ $ $ $ $ $ $ 1 1 1 1 1 1 1 1 1 1 1 1 $ 1 1 # # # # # # # $ $ $ $ $ $ $ $ $ $ $ 1 1 1 $ $ $ 1 1 1 4 4 4 1 1 1 1 1 1 1 1 1 1 1 1 1 1 1 1 1 1 1 1 1 1 1 1 1 1 1 1 4 4 4 1 1 1 1 1 1 1 1 1 1 1 1 1 1 1 1 1 1 1 1 1 1 1 1 1 1 1 1 $ $ $ 1 1 1 1 1 9 9 9 9 9 9 w 9 9 9 9 9 9 e e e e ) A.I.d w q 9 9 9 9 9 9 9 U Y K 6 6 6 9 6 6 9 x 6.6.N > c A A u N.J.E.E.R.E.jXbXDXDXDXDXJXJXJXFXFXKXKXKXPXHXDX~.~.~.~.~.jXJ U A V r c A c N w c 9 S 9 D 9 s C t w A Z Z ;.@ q > S q t e p 6 p S ",
"w e c 9 + @ C t q c > C > t w 9 D w c c t w c c w 1 9 c A 9 q q t t t D t q t t @ q p V.P.P.O.v # w r c 9 @ A 1 9 9 9 9 t 9 9 9 9 q t q t t q q 9 - 6 * - 6 - - - 9 9 6 9 9 9 q q q x r x l x B 9XdXdXaXz x x l 4 3 9 > 1 1 @ 1 $ $ $ $ $ 1 1 1 9 w w w w w 4 w w w 1 1 1 1 1 1 $ $ $ $ $ $ $ $ 1 1 1 $ $ $ $ $ $ $ $ $ $ $ 1 1 1 1 1 1 1 1 1 1 1 1 1 $ 1 1 # $ $ # # # # $ $ $ $ $ $ $ $ $ $ $ 1 1 1 $ $ $ 1 1 1 4 4 4 1 1 1 1 1 1 1 1 1 1 1 1 1 1 1 1 1 1 1 1 1 1 1 1 1 1 1 1 4 1 1 1 1 1 1 1 1 1 1 1 1 1 1 1 1 1 1 1 1 1 1 1 1 1 1 1 w 1 4 4 1 1 1 $ 1 1 1 9 9 9 9 9 9 9 9 9 9 9 w w w e e e ) A.L.d q 0 6 6 9 9 9 9 6 $ $ 1 6 9 6 6 6 6 @ 1 N A 9 > r V C m N.E.E.E.E.E.hXDXDXDXbXDXGXFXFXFXJXKXKXKXKXKXJX~.~.~.^.jXjXA H L 1 1 r 1 c w c r 9 @ 9 t @ 6 $ t $ 1 9 9 t q t - C t e Z W t + p ",
"+ + 1 1 q 9 e > @ c $ t t C c 9 c w c c e e t > t c C w e w S 9 c C q t 9 q C q Z t y m.P.P.O., &.r V $ 9 r @ q q 6 6 6 - 9 9 9 6 9 e q t q q q w 6 9 6 - - - 6 @ 9 9 6 q q q e e t 9XdXBXBXBXNXNXNXNXNXNXNXNXNXBXNX3 9 9 1 @ 6 1 1 $ $ $ 1 1 1 1 1 w w w w w w w w w 4 4 1 1 1 1 1 1 1 % $ 1 1 $ $ $ $ $ $ $ $ $ 1 1 1 1 1 1 1 1 1 1 1 1 1 1 1 1 1 1 $ $ $ @ @ # # # # $ $ $ $ $ $ 1 1 1 1 $ $ 1 1 1 1 1 1 1 1 1 1 1 1 1 1 1 4 1 4 1 1 1 1 1 1 1 1 1 1 1 1 1 1 1 1 4 % 1 1 1 4 4 4 1 1 1 1 1 1 1 1 1 1 1 1 1 1 1 1 1 1 1 1 1 1 1 1 4 1 1 4 4 4 4 1 1 1 1 1 1 1 1 9 9 9 9 9 9 9 9 9 q q q w w w y.A.I.: q w q q w w w w q q q w 9 6 6 6 6 6 9 - @ + * @ w w e > 6 y u u u y y ! f g ! g !.DXFXFXFXg / ! ( ( b v K S w.m > B V B x 4 V c L w N 9 S c N t c A 9 S r D q t t 6 @ e b 0 Z , e > e e ",
"c v w b b C 9 C - A 9 > c q D c b D 1 D c S > c c w q > t t 9 9 q @ t t C > t @ t C p &X:X:X8.w 1 $ r C 9 1 N + t 6 9 9 S K 9 6 9 t t 9 q C >.>.c 9 q c t t - 9 C 6.*.1 q q q t e t qXdXdXdXBXBXBXNXNXNXsXsXsXsXsXNX1 9 9 @ 9 9 1 1 $ $ $ 1 1 1 1 1 w w w w w w r r x x 4 4 w 1 1 1 1 1 1 1 1 1 $ $ $ $ $ $ $ $ $ 1 1 1 1 1 1 1 1 1 1 1 1 1 1 1 1 $ $ $ $ $ @ # # # # # # $ $ $ $ $ 1 1 1 1 $ $ $ 1 1 1 1 1 1 1 1 1 1 1 1 1 4 4 4 4 4 4 4 4 4 4 4 4 4 4 1 1 1 4 4 4 4 4 1 1 4 4 4 4 1 1 1 1 1 1 1 1 1 1 1 1 1 1 1 1 4 w 4 w w w w w 4 4 w 4 4 l w 4 1 1 1 1 1 1 1 9 9 9 9 9 9 9 9 9 q q q w w w y.P.V.g q q q q 9 9 w w q q q w 9 9 L &.L 6 @ @ v v $ $ P H F v v v v v v m G 8.@.O.} ! gXDXDXDXDXg 7.O.O.+.w x L v U v t v A 4 A c N N r c r 9 9 $ 9 C $ w c $ 1 @ 9 t 9 q a C t p b t 9 @ W Z ",
"+ w 1 q 9 t > t - e 9 @ e q c 9 w 9 r c t e t t 9 w w w $ t D c b 9 C 9 t e S t C C p V.P.:X7.w N N x t @ t 9 w w 9 9 9 D K 1 6 9 t t 9 q D 6.6.c 6 q A N C @ 1 N 6.2.1 t q t t t t yXdXdXBXsXdXsXNXNXNXsXsXsXsXsXNX3 1 9 @ 9 6 9 9 9 9 1 1 1 1 1 w w w w e w w r x x x w 4 4 1 1 1 1 1 1 1 1 1 $ $ $ $ $ $ $ $ $ 1 1 1 1 1 1 1 1 1 1 1 1 1 1 1 1 $ $ $ $ $ $ # # # # # # $ $ $ $ $ 1 1 1 1 $ $ $ % % % 1 1 1 1 1 1 1 1 1 1 4 4 4 4 4 4 4 4 4 4 4 4 4 4 1 4 4 4 4 4 4 4 4 4 4 4 4 4 1 1 1 1 1 1 1 1 1 1 1 1 1 1 4 4 w w w w w w w w w w w l x x w w w 4 1 1 $ $ 1 1 9 9 9 9 9 9 9 9 q q q w 9 9 8 g i u w w q q 9 9 9 q q q q w 9 9 ;.>.6.6 6 6 >.*.B - P H L v w x c v v v v @.@.@./ g fXbXDXbXDX:.w.7.O.<.@ > x B v v x x V x D N V N r v w @ C 9 9 A w 1 t t r D t w e - @ t C D c t C c c t ",
"e c e A w D $ C $ c t + A q S 9 C c e c w D D q D r D t C C 9 D r c w N C q 9 9 t p p c.P.:X8.v # V r A 1 9 N N N @ q q ;.&.$ 9 9 t t 9 9 L 6.6.6 6 q A A A @ @ r 6.>.$ q q t e e t aXdXdXdXsXdXBXBXBXBXaXsXBXBXBXNX3 9 9 1 1 1 9 9 9 1 1 1 w w 9 w v v v v v v v v v v v x x x x x w l 4 1 1 1 $ $ $ # # # $ $ $ 1 1 1 1 1 w 1 1 1 1 % % % 1 1 $ $ $ # $ $ # # # # # # # $ $ $ $ $ $ 1 1 w 1 $ % % 1 1 1 % 1 4 l 4 4 4 w x 4 l l v v v l l l l l l l l l l l x x x x x l l l x x 4 w 4 1 1 1 1 $ 1 1 1 w w w 4 4 w x x x x x x x v x v v v v v x x l l $ 1 1 > 1 1 1 1 9 9 9 9 9 q w w w w w w w e w w w 9 9 9 9 9 9 9 9 9 9 9 9 9 &.6.>.6 6 6 >.2.V @ P P K w 9 v t v v A A q.q.q.} W fXbXbXbXbX:.w.0.0.7.@ $ M B B c t x >.w V e c x r V e w c B D V V D 9 I 9 t t C t t t 9 t C D t * C ;.t ",
"@ @ $ w $ c c c 9 C S c c 1 A q t t c b t t w t t w t 9 D > D 9 t c r 9 9 q q t q q 6 m.P.:X8.> D c c x + 9 $ 9 t 6 9 9 t t 9 9 q t t q 9 t t e 9 9 q r r t q 9 9 L e w q q q e e t H z l l l l z dXdXBX2 3 3 3 3 4 9 9 9 1 9 1 1 1 9 9 9 9 :.1.e.fXfXfXfXfXfXQ.Q.e.e.e.e.e.e.!.fXfXfXfXq t e 9 1 1 1 # $ $ 1 $ $ 1 # $ 1 1 1 t D &.;.:.;.;.2 1 % # # # # # # # # # # # # 1 $ @ # + + < q %.1.1.;.% % 1 1 % 1 % l v w t a a C C s s a C C s s Z Z Z Z s s s s s s s s s s s s s %.:.fXLX&.1 $ $ % # 1 6 6 6 9 6 9 9 q q q e q t t t C D D ;.:.;.:.:.:.:.:.:.W > 1 1 1 1 9 9 9 9 9 9 q q w w w w w w w w w w w w w w 9 9 9 w w w q q q 9 6 6 6 9 w 9 1 @ 1 1 9 9 9 9 9 9 t c c b M M S u C.^.jXjXvX8 J A A A $ w w $ 9 > > # w w $ w w v w $ A 9 w x 1 A x r O $ 9 C w D c c t D # &.N I w N c A ",
"+ $ 9 r N 1 t t + t C + S 9 D 9 C C e c c t C t D c t t t t t t c t 9 t + C 9 q Z t p V.P.:X8.> $ # A V 9 9 @ 6 @ 6 6 9 1 9 9 9 q t r q 9 9 9 9 9 9 q r q q q 9 r c w w q q q e e e w l 4 x v v z dXdXsX# 1 4 w w 9 9 9 9 9 1 9 1 1 9 9 9 * IXKXKXKXJXJXJXJXJXJXKXKXKXKXKXKXKXKXHXHXFXgXi A c 9 1 1 $ # $ $ 1 1 $ 1 4 x LXIXIXPXPXHXSXZXcXcX$ 1 % $ $ $ # # # # # # # $ # 1 r fXfXfXfXZXKXPXPXPXUX1 1 1 % 2 1 4 CXZXHXKXKXKXKXKXKXKXKXKXKXKXKXHXHXHXHXHXJXJXJXHXJXJXHXHXJXJXJXKXJXKXPXIX6.1 1 $ % 1 @ IXIXIXIXIXIXIXIXIXPXPXPXPXPXPXPXPXPXHXHXHXFXSXSXcXcXgXC.1 1 1 1 1 9 9 9 9 9 9 q q w w w w w w w w w w w w w w 9 q w w w w q q 9 9 9 9 6 6 6 6 6 1 q 9 w 9 6 1 % 9 t c t c A C b e C.J.R.J.~.: c x D 9 v 1 r t 9 t c x V r c t V x r c c w V K 9 e > 9 @ C 6 D w C t C @ c r L >.%.z z =.=.",
"-.-.-.6.B A t D e c r w A 9 c c t D c C r C c D w c c c c c t C N r 9 1 c @ b $ t - p m.P.:X8.w c w D $ 9 $ L H L 9 6 N K r 9 9 9 q r w r C A D q q q q q q q r N N r q q q q r r t r r r r r x =.dXdXNX2 9 4 4 9 9 9 9 9 1 1 9 9 9 9 9 9 1 PXHXJXJXGXGXGXGXJXGXJXJXJXJXJXJXJXJXJXJXJXfXZ D c w $ $ $ $ $ $ $ $ $ 1 l + FXFXDXDXFXDXbXbXvXcX9 $ $ $ $ # # # # # # # # # # 1 6 cXcXcXgXbXJXJXJXJXIX1 1 1 % % $ 1 ZXvXbXDXFXFXFXGXGXGXJXJXJXJXJXJXJXJXJXJXJXJXJXJXJXJXJXJXGXGXJXJXGXGXJXIX1.$ $ $ % 4 # KXHXFXGXGXGXJXJXJXJXJXJXJXJXJXJXJXJXFXFXFXFXDXDXZXcXgXfX> 9 9 1 1 9 9 9 9 9 9 q q 9 w 9 9 q 9 w w w w w w w q q q w r w t w w q q q 1 q 1 x w 9 w B B v 9 9 z `.T r t t p e D e , z.R.R.R.~.8 b v c 9 N $ x $ e 9 1 1 x x x x 1 1 1 V x L w $ 1 c @ t c N c 9 r q Z $ c .XtXtXpXtXpXtXtXpX",
"'.`.`.`.P v c c w c c c c A A $ c t c t c w c 9 C 9 w t 9 c t 1 1 t t D t c 9 N W 0 y V.:X:X8., # N c w $ 1 r H >.9 9 D >.C 9 9 q q w w c &.;.>.q q q q r q q r x c r q e t t r r r r r r r x x =.iXdXNX3 9 4 4 9 9 9 9 9 9 9 9 9 9 9 9 9 1 ZXHXHXJXGXGXGXGXGXGXJXJXJXJXJXJXJXJXJXJXJXC.Z C r 9 $ 1 1 # $ $ $ $ $ 1 l + FXFXDXDXFXDXSXbXvXvX9 $ $ $ $ # # # # # # # # # # $ @ cXgXgXgXZXFXJXJXJXIX4 % % % % % $ cXvXZXDXFXFXFXJXGXGXJXJXJXJXJXJXJXJXJXJXJXJXJXJXJXJXJXJXGXGXJXGXGXGXJXIX6.$ $ $ % 4 + HXHXJXGXGXGXJXJXJXJXKXKXJXJXJXJXJXJXGXFXFXFXDXDXZXcXgXfX, 9 w 9 9 9 9 9 9 w w 9 9 9 w 9 9 q 9 9 w w w w w r r w q w w e t w w w q q e x -.-.B r w F B x 9 9 z `.`.c t t p c c e - z.R.R.R.~.& w A D t A 1 c v A w w V V v I B c D r K x V r ;.c A 4 w x 1 c r t t q 1 r 9XuXtXtXtXtXtXrXrX",
"'.'.'..X.X*.A A c C C c t t c c C w c r A c D c c r c C t ;.t t C 9 w S 9 C 9 N e 6 s V.:X:X8.v r A D c r D N P *.9 9 N >.C $ 9 q q w r t &.>.;.r r r r r q q r r r r q e t t r r r r r r r x x =.pXdXNX3 q 9 9 w w w 9 1 1 1 9 9 9 9 9 9 q cXFXHXJXGXJXJXJXJXJXJXJXJXJXJXJXJXJXJXJXJXe.Z C r 9 $ 1 1 # $ $ $ $ $ 1 l   FXFXFXFXFXDXSXbXbXZX9 1 $ $ # # # # # # # # # # # $ @ gXcXgXgXSXJXJXJXJXIX4 1 % % % % 1 cXvXZXFXFXFXFXGXGXGXJXJXJXJXJXJXJXJXJXJXJXJXJXJXJXJXJXJXGXGXGXFXGXGXJXIX&.$ $ 1 % 4 + HXHXJXGXGXJXJXJXJXJXKXKXJXJXJXJXJXJXGXFXFXFXFXDXZXcXgX&X9 9 w 9 9 9 9 9 9 w w 9 9 9 w w 9 q q 9 w w w w w r r r r r r e t w r q q q q x -.-.B r w x x r 9 9 4 *.Y e e t e e c N + C.R.R.R.hX; v v w t N $ 1 $ t $ # w % w v v x w w x L r 1 A 1 V 1 V N r c 1 r t N &.&.qXuXuXuXuXuXrXrXtX",
"'.'.'.+X`.-.2.*.U 6..X*.H L x x A A N c w A c A r D w L c A A N r S w c w t @ A ;.q b m.P.P.8.v 1 r 1 1 1 @ $ 1 $ 9 9 q q w q w w w q r r t t t r r r q q q q r r r r r r r r q r r r r w r r r 3 x x w 9 w 9 9 w 9 9 9 9 9 9 9 9 O @ @ @ * SXFXFXGXGXGXGXJXJXJXJXJXJXJXJXJXKXJXJXJXGXh 0 8 s s 6 1 % > w $ # # # 1 %   FXJXFXFXFXDXDXSXSXZX6 $ $ # # # # # # # # # # # # $ :.SXFXDXDXJXJXJXJXJXIX4 1 % % % 2 s gXvXSXFXGXGXGXJXJXJXJXGXJXJXJXJXJXJXJXJXJXJXJXJXJXJXGXGXGXFXFXGXGXGXGXIXC $ $ $ 1 4 + HXHXJXJXJXJXJXJXKXKXJXJXJXJXJXJXJXJXGXGXGXGXDXDXbXcXcXfXS 9 q :.1.e.9 9 9 9 9 9 9 9 w 9 9 q q w w w w w w w 0X6.%.B c x t r r q q q q q 9 q q q q q q q 9 r 9 q q q q q 9 q q m e C.~.R.~.hX0 v x A e D 1 c e A w v w N B r L x N D 4 N x N V c D r r V B V N *.P %.*.-.aXrXtXrXtXtXtXtXtX",
"'.+X+X9X'..X.X6.6.2.}..X9X9X9X0XP K K v x D x D 4 x c w c $ c r S w N D w D 9 C c t C m.P.T.8., 1 $ c w t c t t t q q 9 9 9 q 9 r r t q w q r r r r r q q q q r r r q q q r q q q q w e w e r r r w w w w w 9 9 w 9 9 9 9 9 w w 1 CXcXZXSXSXDXDXFXGXGXJXHXKXKXKXKXKXKXKXKXKXPXPXPXKXGXFXHXFXFXDXSXJ 6.XXXX% # $ # % % + JXJXFXFXFXFXFXSXSXSXq 9 $ # # # # # # # # # # # $ $ 1.HXJXFXGXJXJXJXJXJXIXl 4 % % % < cXHXJXGXJXGXGXGXJXJXJXKXKXKXHXHXHXJXJXKXHXHXHXHXHXHXHXHXHXHXHXHXHXHXHXHXLX0 $ $ $ 1 % + KXHXHXJXJXJXJXJXJXKXKXKXKXKXKXKXKXKXHXHXHXHXSXSXGXFXDXDXgX!.cXcXcXCX9 9 1 9 9 9 9 9 w w w q 9 9 w w w w w w NXNXNXNXA c t t r t r r r q q q q q q q q q q q q q q q q q q q e t c ( T.E.E.hX, v A w v r 9 c 1 r 1 r w 1 4 r c 1 C r D 1 1 D $ 1 K N r x r 9 2 qXyXtXqXtXtXrXtX].T -.-.-.`.",
"`.+X+X9X9X+X.X2.2.[..X`.9XqXqX9X6.2.K ;.V v A K w D c K c r ;.c &.c C w t w $ t c @ Z m.T.:X8.v w A r + w $ 9 ;.&.q q t C r 9 r t t t q r q r r r q q q q q q q r r q q q q q q q q r e w e r r r w r w w w 9 9 w 9 9 9 9 9 r 9 < SXbXDXDXSXDXDXFXGXGXSXT.<XkXlXlXlXlXlXZXZXSXSXSXZXgXFXFXFXDXbXZX>.w.XXXXj # $ # 1 % + JXJXFXFXFXFXFXDXSXSX6 $ # # # # # # # # # # # # $ $ 1.HXJXFXFXJXJXJXJXJXIXl 4 % % % < fXHXJXGXJXGXGXGXJXFXJXT.,X<X<X<X<X<X<X<X<X<X<X<X<X<X<XT.T.P.P.Z.P.P.P.P.:X: # $ $ 1 % + KXHXHXJXJXJXJXJXJXgXhXhXhXhX<X<X<X<XT.I.I.P.u.ZXJXFXDXDXvXgXcXcXcXCX9 q 9 9 9 9 9 9 w w 9 9 9 w w w w w w l yXNXNXNXV V c t t t r r r q q q q q q q q q q q q q q q t q r r x c V E y.r.f d e v c A A S N c V K c c e v B r D r &.N D N w r x c B r w %.V 4 2 pXtXpXrXtXtXtXyX`.T [.`.[.[.",
"-.-.[..X9X+X.X2.2.[.}..X'.9X9X9XXX,.<.5.G V x K V t e c t c $ C t 9 A N C C C w D N S V.T.T.8.v 9 w + 9 9 9 t r c q t a &.K w q 6.6.,.r r q q q t r r r t t q q r 9 q q r r r q q q q q w q q q w w w w w w 9 9 9 9 9 9 9 q q q 9 SXSXFXFXDXDXDXDXGXGXZXh.h.h.h.h.h.h.h.h.>X>X<X1X1XhXFXFXFXFXDXgX4. XXXXX% $ $ $ 1 % + JXHXHXFXFXFXFXFXSXSX6 1 $ $ $ # # # # # # $ $ $ % 1 1.HXHXJXGXJXJXJXJXJXIXl 4 4 1 1 2 fXHXHXGXFXGXJXJXJXGXFXU.h.h.h.h.h.h.h.h.h.h.h.h.h.h.h.h.h.h.h.h.h.h.h.U.>Xd $ % $ 1 % + KXHXHXJXJXHXKXJXFXT.>X>X>X>X>X>X>X>X>X>X>X>XP.ZXHXDXFXDXvXgXcXcXcXCXw 9 9 w w w w w w 9 9 9 9 w w x x l l 4 yXNXNXNXV B c c t t t t r q q r r q q r r r r r r t t t t t 6.-.6.v m E u.u.u.! c V c A t r r c A c L v 1 1 r w w v x x V w K x V x V 1 l -.-.%.z pXtXtXtXpXyX'.`.[.T [.[.[.[.",
"-.2.2..X+X+X.X6.6.[.}..X`.9X+X`.@X@X0.5.U &.x L L I e t D w &.D c K c c w t 9 C N c C V.P.T.8., c D c @ t N t C C t t t I I 9 w 6.6.6.t t t t t t t r t t t r q r r q q r r r r q q q q w q q q w w w 9 w w 9 9 9 9 9 q q q q w 8 SXDXDXFXDXDXDXDXDXDXZXh.h.h.h.h.h.h.h.h.h.>X1X1X1XhXFXFXFXFXDXfX0. XXX@Xv $ % $ 1 % @ JXJXJXJXFXFXFXFXFXHXq 1 $ $ $ # # # # # # $ $ $ % 1 1.HXHXJXGXJXJXJXJXJXIXl 4 1 1 4 2 fXHXHXFXGXGXJXJXJXGXFXU.h.h.h.h.h.h.h.h.h.h.g.g.g.g.g.g.g.h.h.h.h.h.h.U.>X: # % % # % + HXHXHXJXJXJXJXJXDXT.h.h.h.h.>X>X>X>X>X>X>X>XP.ZXHXFXFXDXvXcXcXcXcXCX> w 9 w 9 w w 9 9 9 9 9 w w w w x x v x 0XNXNXNXH H V N c t t r r r r r r r q r r r q r r t t t t r *.6.6.w c E u.u.u.E c V r D r S c c c 1 w r K c x V B V B V I V r K K x >.B l l B B =.tXrXrXtXyX-.+X+X`.[.}.[.[.[.",
"-.`.`..X+X+X`.2.2.`.}.}.-..X+XF @X@X` 2.U ;.N A V K c r w r t C w A r D 9 c c C r N S V.T.T.8.v + 1 w 9 t a 9 C C t t q e t 9 q ;.&.A q t t r r t r r t t t r r q q q q r r r q r r q q w q q q w q r r w w 9 9 9 9 9 q q t t t 1.HXDXDXDXDXDXDXDXDXDXvXh.h.h.h.h.h.h.h.h.h.>X<X1X1XhXGXJXJXFXDXC.w.e.e.;Xv % % $ % l @ JXJXJXJXFXFXFXFXFXSXt 1 $ $ $ # # # # # # $ $ $ % 1 1.HXJXJXGXJXJXJXJXJXUXl 2 % 1 1 4 fXHXHXFXFXGXJXJXJXGXFXU.h.h.h.h.h.h.g.g.g.g.g.g.g.g.g.g.g.g.g.h.h.h.h.h.>X: $ $ $ # % + HXHXHXJXJXJXJXJXDXT.h.h.h.h.h.>X>X>X>X>X>X>Xf.ZXHXFXFXDXSXSXDXDXDXIX9 w w 9 9 9 9 9 9 9 9 9 r w r x r l l x 0XNXNXNXF L V V N N r t r r r r r r r q q q q r r t t r r t 9 1 $ $ c i c.c.c.~ D V w c c c 9 N x N c w w B v x 4 B B V w x w c x V &.l x V V V z tXrXtXtXtX`.[.[.`.T }.}.}.}.",
"[.2.-.T [.[.2.[.[.[.[.T -.`..X-.}.}.2.}.[.V V L L K x A A x &.A A C r c w N N N t C b V.T.T.8.b x c N 9 t q q e q q 0 q 9 q q q r t r r r t t t q q q t q q t t r q r r r t t t t t t q t q q q q q q q 9 9 9 9 9 w w r w t c p gXDXFXDXDXDXDXbXbXDXFX,Xs.u.u.u.u.s.f.f.f.f.>X<X<X<XT.HXHXHXJXGXGXGXGXJXKXe.4 4 4 4 4 @ JXJXJXGXFXFXJXFXHXHXs w 1 @ @ # # # # # # $ 1 1 $ $ e.JXJXJXJXJXJXJXJXJXIX4 2 2 2 2 4 C.HXHXJXJXGXJXJXJXGXFX:Xf.f.f.s.u.t.t.t.t.t.t.t.R R R R R R R R R r.r.R ! O $ $ $ $ % + HXHXHXJXJXJXHXJXFXgXf.u.u.u.u.y.t.t.) R f d : vXHXJXFXFXGXJXJXFXFXKX9 w w w w 9 9 9 9 9 9 w w w x .X0XyXyX0X0XNXVXNXNXNXNXNXNX%.t t t t r r r r 9 9 9 q q q r r r t t r w 9 9 $ r c c C t e w C r D c N r w x x K N V B x V c x L x L L x B L >.w 4 =.qXtXtXtXtXtXpXtXtX`.2.`.[.[.[.2.2.[.",
"`.`.[.-.2.2.`.[.[.[..X[.}.-.T v Y }.6.}.}.F K >.K V x w N r A c r N r @ r r $ N 1 C Z V.T.:X8.b w 1 9 1 r t C t q t a 9 9 t w t t t r r r t t t q t t t q q t t r r r r r t p t t t q q q q q q q q q 9 9 9 9 9 9 9 r r t t c C ZXDXFXDXDXDXDXDXvXgXC.i , w w w w $ > > , , E R R ) ) HXJXJXGXGXGXGXGXJXHXfX4 4 4 4 4 @ JXFXFXFXFXFXJXJXJXHXq 9 1 $ $ # # # # # # $ $ 1 1 w e.HXJXJXJXJXJXJXJXJXIXx 4 4 4 4 l e.KXHXJXJXGXJXJXJXGXFXw l k > > > $ > > > > > $ $ $ @ @ @ @ @ @ @ + + + # # # $ $ 1 4 + HXHXHXJXJXJXJXJXFXfX> - $ $ $ $ $ $ $ $ $ % , ZXHXJXJXGXGXGXGXGXGXKX9 c r w w 9 9 9 9 9 w w w w z AXVXAXAXAXVXAXAXVXVXVXVXBXVX=.t t t t r r r r q q q q q q r r r t t t >.6.6.r c N D c D C c w r N N c c w A x c 1 4 v w K r r c r N l x H z *.H H 9XpXuXpXpXaX=.`.`.`.T [.[.[.[.[.2.[.[.",
"`.`.`.-.[.-.`.[.[.}..X}.-.*.2.-.2.XX}.}.}.6.6.P >.&.D c K A c r L r c c r D w &.A C q m.T.:X8.c V N r q a t N a a r &.&.L N r r t t r r t t t t q t t t q q t t r r r r r t p p t t q q q q q q q q q 9 9 9 9 9 9 9 r r t t C C SXDXFXDXDXDXDXDXvXlXgXn , 1 1 4 1 $ $ $ % $ / ) ) i.) KXJXJXJXGXGXGXGXJXHXfX4 4 4 4 4 @ JXFXFXFXFXJXJXJXJXKXq 9 1 $ $ # # # # # $ # $ 1 1 1 fXJXJXJXJXJXJXJXJXJXIXl 4 4 4 4 l e.KXHXJXJXGXJXJXJXGXHX4 l w $ $ $ $ > $ $ $ $ $ $ @ @ + + @ + @ # # # # # # # $ $ 1 4 + HXHXHXJXJXFXJXJXFXfX$ @ $ $ $ $ $ $ % % % 2 9 ZXHXHXJXGXGXGXGXGXGXKX9 r r w w 9 9 9 9 9 9 w w w z AXAXAXAXAXVXAXAXVXVXVXVXBXVX=.t t t t t r r r q q q q q q r r r t t t >.6.6.1 w r r r r w r w c r N N r w x 1 r 1 V V x A r x D x &.V L 6.-.-.H -.qXpXpXpXpXpX-.[.[.[.[.[.[.[.[.[.[.[.[.",
"`.`.`.`.`.`.`.[.[.}.}.[.Y P H 2.2.}.[.[.}.}.2.*.L B x c N K c D e &.A &.1 $ t &.x @ D m.T.<X8.b v G v L r r q 9 9 r &.6.6.A q r r r r r t t t t t t t t t t t r r t t t t t t t t t t q q q q q r q q q 9 9 9 9 9 w w r t t C s FXDXDXDXDXDXFXDXbXlXgXn 1 1 1 1 1 1 1 1 1 , / y.y.y.) KXKXJXJXGXGXJXJXJXJXfXw w 4 l 4 < JXJXJXJXJXJXJXJXJXKX6 9 1 $ $ # # @ $ $ $ $ $ $ 4 1 fXJXJXJXJXJXJXJXJXJXIXl 4 l l l 4 1.KXHXJXJXJXJXJXJXJXKX9 v w $ $ $ $ $ $ $ $ $ $ $ $ $ $ + + + @ + # # # # # # # 1 1 l + HXHXHXFXJXFXJXJXJXfX@ $ $ $ $ $ $ $ % % % 4 e ZXHXJXJXJXJXJXJXJXGXKX1 r w w w w w w 9 9 9 w w w %.AXAXLXAXAXAXAXVXAXNXNXNXVXVX6.t t t t t t t t r r r r r q r r r r r r r r r w w v A 1 C w D c &.a &.N D c &.4 L V V w V V r 4 r 4 K x x F H z .X.X8XpXpXpXpXaX`.[.}.}.[.[.[.[.2.2.2.[.[.",
"`.`.`.`.[.[.[.}.}.2.-.T T T T T 2.}.2.6.6.I 2.U >.>.c D w N e 1 e w w $ 9 S 9 c c + a V.T.<X8.b w x c w 9 q r w 9 w r r r r q r r r r t t t c t t t t t t t t t t t t t t t t t t t t t r q q q q q q q q q 9 9 9 w r r t t b s HXDXDXDXDXFXDXDXbXvXgXp 1 1 1 $ 1 1 1 1 1 w / i.i.i.) KXKXKXJXGXGXJXJXJXJXfX4 w 4 l 4 @ JXJXJXJXJXJXJXJXJXKX* 9 9 $ $ @ $ $ $ $ $ $ $ $ % 1 fXJXJXJXJXJXJXJXJXJXIXl l l l 4 4 :.KXJXJXJXJXJXJXJXJXKX> v w w > > $ $ $ $ $ $ $ $ $ $ $ $ + $ @ + # # # # # # 1 2 2 l + HXHXHXJXJXFXFXJXJXfX@ $ $ $ $ 1 1 1 % 1 1 l $ cXHXKXJXJXJXJXKXJXJXKX1 x w w w w w w w 9 9 w w w x z z z z z z NXNXNXN t r r 3 t t t r t t t t t r r r r r r t t r r r r r r r r x V x r 9 w 1 w c e 9 $ w r r 9 w r w V V r x 3 B B &.B &.-.-.-.'.'.9XtXtXtX9X.X[.}.}.}.[.[.[.[.2.2.T T T ",
"-.-.-.-.`.`.`.[.[.Y Y Y T -.-.T -.-.2.*.2.B *.F >.V c A x K K r c A 1 x c D c x v 9 q m.T.<X8.9 1 1 r 9 q q c t r 9 q q r r r r r r r t t x V x t t t t t t t b u u u u t t e t t t r r t q q q q q q q q q 9 9 9 w r r t t C s HXDXFXFXDXDXDXDXbXgXC.p 4 1 1 1 1 1 $ $ 1 v v E E E i KXJXKXJXJXGXJXJXJXJXfXv l l l 4 * JXJXJXJXJXJXJXJXJXKX6 9 9 $ $ $ $ $ $ $ $ $ $ $ % w fXJXJXJXJXJXJXJXJXJXIXl l l 3 3 l :.KXHXJXJXJXJXJXJXJXKX9 v v w $ $ $ $ $ $ $ $ $ $ $ $ $ $ $ $ $ # # # # # # # 1 1 1 4 + HXHXHXJXJXJXJXJXJXfX$ $ $ $ $ 1 1 1 % 1 1 l w fXKXKXKXJXJXJXKXJXJXKX1 w w w w w w w 9 9 w w w w w l v v v v H NXNXNXt 0 q e e t r r t t t t t t r r r r r r w r r r r r r r r r x A c r C r N D b D t C C C &.B &.V D r 1 V 1 l P P x x x =.'.9XqXqXqX9X9X9X'.[.[.}.}.[.[.[.[.[.2.2.*.Y *.",
"P U *.-.`.`.[.[.T Y Y [.+X+X+X}.-.2.6.2.}.L 6.*.6.6.>.D N w w w $ $ c w A w $ V w t ;.m.T.<X8.v N x ;.r w w *.&.*.9 q q r r r r r r r t t -.].-.w t t t t t e a.a.a.a.u t t e e t t t t t q t t r r r r q q w w w w r r t t c s JXFXFXFXDXDXDXDXvXgX<.w 1 4 1 1 1 1 1 1 1 1 1 1 1 4 e KXKXKXJXJXGXJXJXGXJXfXv v l l 4 @ JXJXJXJXJXJXJXJXJXPXq w 9 $ $ $ $ $ $ $ $ $ $ $ % w cXJXJXJXJXJXJXJXJXJXIX2 l l l l l g KXHXJXJXJXJXJXJXJXKXc v v w , , % , , w w w 9 1 $ $ $ $ $ $ @ # # # # # # 2 2 1 1 3 + HXKXHXJXJXJXJXJXJXfX$ $ $ $ $ $ $ $ % % % l 1 fXKXKXKXJXJXJXJXJXJXKX1 w w w w 3 3 9 9 9 9 4 r r l x x x v v 6.NXNXNXc q e r t r w w w t t ;.;.p r c c c r q N >.>.c r r r r r r r x r r w w N w r N w A r c w r r w $ 1 1 A 4 B 6.6.-.6..X9XqX8XtXtXpX`..X`.}.`.[.}.}.}.}.[.[.2.2.2.2.T *.",
"&.*.-.}.[.-.2.T T T T 2.}.+X+X}.[.2.>.>.>.B H P U V v x K V A V 9 c 1 c N N c A ;.t D j.,X<X8.e w w 4 9 r r >.&.>.9 q q r r r r r r r r r 2.`.-.w t t t t t e a.a.#Xa.u t t e e t t t t t t t t t t t r q q w w w r t t t t c s JXFXFXFXDXDXDXDXbXfX~ w 1 4 1 1 1 1 1 1 1 1 1 1 1 1 w KXKXKXJXJXGXJXJXGXFXgXw w l l x + JXJXJXJXJXJXJXJXJXPXp e 9 1 $ $ $ $ $ $ $ $ $ $ 1 r fXJXJXJXJXJXJXJXJXJXIX2 l l l l l s PXHXJXJXJXJXJXJXJXKXD v v v w , w v w v v v w w w w $ $ $ @ # # # # # # # 1 2 1 2 4 @ HXKXHXHXJXJXJXJXJXfX$ $ $ $ $ 1 $ $ % % % % w fXKXKXKXJXJXJXJXJXKXKX1 w w w w 9 9 9 9 9 9 w r r x l l l v x 9XNXNXNXc r e t t t r r r t t <.;.e r D K N q q C ;.>.V r r r r r r w c N D w A A A c N A r 1 r D c L r &.A x A N x &.*.6.6..X.X'.'.tX9X9X`.`..X}.[.[.}.}.`.[.[.[.[.[.[.2.T 2.",
"*.*.-.`.2.T T 2.2.T Y T [.[.[.}.[.-.>.2.6.H 6.2.H P P x N c c x w L w N 1 N $ K 1 r D j.,X<X8.c x A D c c c ;.&.&.q q q r r r r t t r r r c B B t t t t t t r a.#X#Xa.u t t e e t t t t t r t t t t t t q q w w w r t t t t c s JXFXFXFXDXDXDXDXbXfX~ w 1 4 1 1 1 1 $ $ $ 1 % 1 1 1 9 PXKXKXJXJXGXJXJXGXFXcX4 4 l l 4 @ JXJXJXJXJXJXJXJXJXPXp v w 9 1 > $ $ $ $ w $ $ $ w w fXJXJXJXJXJXJXJXJXJXIX2 l l l l l s KXHXJXJXJXJXJXJXJXKX1.W i 8 5 5 6 9 9 9 9 9 9 9 9 9 9 9 # # 1 # # # # # # 1 2 1 2 4 @ HXKXHXHXJXJXJXJXJXfX, 9 $ 1 4 4 4 4 l % % 1 $ fXKXKXKXJXJXJXJXJXJXKX1 w w w w 9 9 9 9 9 9 w r r x l l l l x 0XNXNXNXc r e t e t t w w t t ;.;.e r D K N w q 9 > 9 $ r r r r t r c x r r c N e A r A 1 A c N r 1 D 1 r w w r 1 N *.6.6.6.6..X9X9XyX8X9X.X`.`.`.}..X+X.X}.}.[.[.[.[.[.2.2.,.",
"P Y 2.}.6.P Y Y T [ Y T 2.[.[.}.[.2.*.Y 2.F P >.P *.*.V &.L B v 1 w $ 1 $ L c F N N N j.<X<X8.> $ e w 9 9 q 1 9 1 q r r r r r r t t t t r t t t c t t t e e v a.a.#X#Xg e e e e t t q q t q q q q q t q q q r r r r t t t t c s JXFXFXFXDXGXFXFXbXfX~ w 1 1 1 1 1 1 1 1 1 1 1 1 2 2 9 PXKXKXJXJXGXJXJXGXFXcX4 % 1 4 x + HXJXHXJXJXJXJXJXJXSX!.fXfXfXfX;.- 9 $ 1 q 6 O   + i cXKXJXJXJXJXJXKXJXKXIX2 l l l l l y PXKXJXJXJXJXJXJXJXJXKXKXKXKXKXKXKXKXKXKXKXHXHXKXJXKXKXHXKXKXHX# # # # 1 # 2 1 1 l l @ HXKXHXJXJXJXJXJXJXcXmXcXCXLXLXIXIXIXIXLXLXLXSXCXKXKXKXJXJXJXKXKXKXPX$ 9 w w w 1 r r 1 r r w w w x x x w w x 2 2 3 9 r r t t t e q t w w w w e q 9 V A v 9 q 9 9 9 9 r r c c c x r V r S r D r D w D c N N N N c 1 e &.r r N V v -.6.6.-..X9X9X8X8X8X'.'.`..X}.+X+X+X.X}.}.[.[.}.[.[.>.' ;.",
"N A L -.Y Y T [ [ [ [ [ [.[.-.yX9X9X9X'.9X'.'.'.'.'.'.V V >.V K L V &.x v r B L # x D j.<X<X8.C A V K D N r c N q 9 N D C r r r D L D t t t t t t t u E E ! ! a.a.a.#XE ! ! ! Q e y q q t t q q q q q q q q r r r r t t t t c s FXFXFXFXDXGXFXFXbXfX;.1 1 1 1 1 1 1 1 1 1 1 1 1 2 2 $ PXKXKXJXJXGXJXJXJXFXCX4 % 1 4 4 + PXFXGXJXJXJXJXJXJXKXKXKXKXKXKXcX9 1 $ @ 5 PXIXIXIXIXPXPXKXKXKXHXHXHXHXHXUXj l l l l l 8 PXKXJXJXJXJXJXJXJXJXKXKXKXKXJXKXKXJXJXJXJXJXJXJXJXJXGXFXFXGXSX+ # # # 1 # 2 1 1 4 l @ HXKXHXJXJXJXJXKXKXKXPXKXKXJXJXJXJXJXGXJXJXGXKXKXJXJXJXJXgXT.T.T.<XgX$ w 9 9 9 1 9 1 r r r w w w w w w w w w w w w w w w r t r q v c 9 9 1 A c w 9 V V A w q N C N t N x N N N c r w c c N D N r c N N N A A r C t L r L r r $ N z =.=.8X8XtXdXpXdXtX'..X`.`..X+X+X+X.X}.}.2.2.,.>.>.>.>.>.",
"9 w x H H H [ [ [ [ 2...-.*.U qXrXtXtXtXtXtXtXtXtXtXqXP 6..XV v >.v V $ w V x L r D D j.<X<X8., V x P 1 c w t t q 9 N D D r r r K I K c t t t t t e n a.o.o.a.a.a.a.a.a.a.a.a.a.m 0 q q t t t t t q q r q q w w r w t t t c c s FXFXFXFXDXGXGXGXDXgX;.1 1 % 1 1 1 1 $ 1 1 1 1 1 2 2 1 PXKXKXJXJXGXJXJXJXFXCX4 % 1 4 4 + lXlXlXxXvXvXGXGXGXJXKXKXKXKXKXcX9 9 9 9 5 FXPXIXIXIXPXPXKXKXPXT.T.T.T.T.&Xj % l 4 l 2 8 PXKXJXJXJXJXJXJXJXJXKXKXKXKXKXKXKXKXKXKXKXKXKXKXJXJXFXFXFXDXHX+ # # # # # 2 2 2 4 l @ HXKXKXJXJXJXJXJXJXKXJXJXKXJXJXJXJXJXGXGXGXGXJXJXJXJXJXFXT.f.g.g.g.P., w 1 1 9 1 1 9 r r r w w w r r r r 9 r q w w e e w t r r N 6.6.1 $ 9 I K N w V V A w q N N N t N x N N N N N L N &.N D N D c A c N C A t C 9 N t ;.c V K x yXtXpXaXtXpXpXpXpXtX'.].'..X.X+X+X+X+X}.}.2.>.,.,.>.>.>.>.",
"6 9 r '.8X'.*.[ ..[ [ [ Y Y Y qX8XrXuXpXpXwXwXwXtXtXtXl H *.H H I I B K 4 c r L 4 N D c.T.T.8.Z c c A c D q t t t 9 a t C t q r K L A t t t t t t e E #Xa.a.a.a.a.a.a.a.a.a.a.#Xu q t t t q t t t q q q q q r w r r t r c c c s FXFXJXGXGXGXGXGXDXfX~ $ 1 1 1 1 1 1 1 1 1 # # 1 2 2 1 KXKXKXJXJXJXJXJXJXJXCX% % % l % * vXlXlXlXlXvXJXGXJXJXKXKXKXKXKXfX9 9 9 9 @ HXKXKXKXPXPXPXPXPXPXkX1X>X>X>X3X% 2 2 4 l 2 5 KXKXJXJXJXJXJXKXKXKXKXPXPXKXKXKXKXPXKXPXPXPXPXKXKXKXHXJXGXDXHX+ # # # # # % 2 2 4 3 @ HXHXJXJXJXJXKXKXKXKXKXKXKXJXJXJXJXJXJXJXJXJXGXJXJXJXJXGXhXg.g.g.g.I.& 1 1 1 1 1 4 4 9 9 9 w w w w w w w w 9 w r r w e e t r t &.}.}.+ 9 r J K F q c c N w 9 N V N c c c N N N N C N c D c A w N r S r A r c w N N V ;.N A A I H rXrXtXpXtXpXtXqX8X9X'.9X'..X.X9X+X+X`.`.2.2.>.>.>.>.>.,.2.",
"9 9 w 8X8X'.-.2.2.[ [ [ Y Y Y qX8XpXuXuXpXpXpXpXpXtXtXF F o .XP % &.l &.v K B V x x B j.<XT.( > w r w w t 9 N 9 9 q q t C q q t D D N t t t t t r r E #X#X#Xa.a.a.a.a.a.#X#X#X#Xu q t t t q q q r r q q q q r r r r r c c c c g FXFXJXGXGXGXGXGXbXfX;.1 1 1 1 1 1 1 1 1 1 1 1 1 2 4 $ KXKXKXJXJXJXJXJXJXHXCX% % % l , & vXlXlXlXlXvXJXJXJXKXKXKXKXKXKXfX0 6 6 t O HXKXKXKXKXKXPXPXPXKXlX1X1X1X1XkX% 2 2 2 2 3 5 PXKXJXJXJXJXJXKXKXKXKXPXPXPXPXPXPXPXPXPXPXPXKXKXKXKXHXJXFXGXHX+ # # # # # % 2 2 4 3 @ HXHXHXKXKXKXKXKXKXKXKXKXKXKXKXKXKXKXJXJXJXJXJXJXJXKXKXJXlXI.g.g.g.I.& 1 1 1 1 1 1 w q r 9 w w w w r r r r r r r r w t t t r r V >.L 9 9 w b C v q c c N w q q q q r c c c N N N c r r N r r r r 9 A r D 1 r A D 1 N r N 1 B r l 8X].tXtXqXtXtXrXqX9X+XyX].+X.XyXyXyX}.2.2.,.>.>.>.>.>.3.2.",
"6 9 w '.'.-.T 2.[ [ [ [ T Y Y qXrXpXpXpXpXpXpXpXpXpXtXF -.H }.F l *.z P 2 x V V 2 x &.j.<X<X8.e c c c c C 1 D t t q t t c q 9 t c N a t t t t t r t E $X$X$X$X#Xa.a.a.a.#X#X#X#Xu q t t t q q q r r q q q q r r r r r c c c c h FXFXJXGXGXGXGXGXbXfX;.1 1 1 1 1 1 1 1 1 1 1 1 1 2 4 1 KXKXKXJXJXJXJXJXJXHXCX% % 4 l % - vXlXlXlXkXlXJXJXJXKXKXKXKXKXKXfX7 7 6 q O HXKXKXKXKXKXPXPXPXKXlX1X1X1X1XkX% 2 2 2 2 3 5 KXJXJXJXJXJXJXKXKXKXKXPXPXPXPXPXIXPXPXPXPXPXKXPXKXKXHXJXFXGXHX+ # # # # # % 2 2 4 3 @ HXHXHXJXKXKXKXKXKXKXKXKXKXKXKXKXKXKXKXJXJXJXJXJXJXKXKXJXlXI.g.g.h.I.& 1 1 1 1 1 1 w q r q 9 w w r r r r r r r r r w t t t r r w % $ 9 q t t t t q c c N 1 1 6 9 9 9 t t c N N N N A N S C w c L 1 D N D r A c c 1 N V x ;.V V B 8X8XtXtXrXpXrXrXqX'.'.yX].+X.X9XyXyX[.2.>.>.>.>.>.,.>.3.2.",
"9 9 w r x B 2.}.2.[ [ [ [ T T -.-.`.'.=.=.8XpXtXtXpXaXtXaXaXtXpXpXaXaXsXsX=.%.6.H x &.j.<X<X( 9 w x c x c w C t C @ t a c C t t t t t t t t c t r e m ~ Q M u o.i.t.i.d y y y y 0 y q 9 q r r q r r r r r r r r r r r r c c c :.FXGXJXGXGXGXGXGXbXfXW 1 1 1 1 1 1 $ 1 1 2 2 1 4 2 2 4 PXKXKXHXJXJXHXJXJXJXSX% % % 4 9 > kX<X,X:Xs.P.lXlXlXvXPXKXKXKXKXfX:.:.:.:.1.HXHXJXJXKXHXSXZXZXZXN.f.Z.P.P.&Xl 4 4 2 4 3 5 KXHXJXJXJXJXJXJXHXgXK.K.K.T.T.T.T.,X,XhXhXhX<X,X,X<XT.T.T.f.s.@ # # # # # % 4 4 4 l @ HXKXHXKXKXKXKXKXKXKXZXZXZXZXZXZXPXKXJXJXJXJXHXlX<X,X<XhXN.d f t.u.p.# 1 1 1 1 1 1 9 9 q r r r r r r r 9 9 r r r r r r r r r c N t t t t t t t t r N N V w r q a t r t a N N N c c A c w c N r c N r C w t r r A D D z z =.=.=.=.tXtXtXtXtXtXtXtXtX9X9X+X+X+X}.-.}.+X[.2.>.>.>.>.>.,.>.A ~ ",
"9 q q r t t >.[.T Y ..[ [ ..T T T T -.-.-.`.`.`.-.T `.rXuXuXrXpXuXpXpXpXdX=.H Y H *.V j.<X<X8.9 A c c V c N t w 9 t t t t C C t t t t t t >.>.&.w e m Q Q m u o.a.t.o.d 0 0 0 q y q &.XX6.9 q q r r r r r r r r r r c c c c c e.GXGXJXGXGXGXGXGXbX!.S 1 1 1 1 1 1 1 1 1 2 2 2 4 2 2 4 PXKXKXKXJXJXJXJXJXFXSX% % 4 4 $ , s.s.s.s.u.f.<X<X<X<XKXKXKXKXKXcX!.!.fXfXbXKXJXJXJXHXvXkXkXkXkXt.R R R R m l l 4 4 4 2 5 KXHXJXJXJXJXJXJXHXZXh.h.h.g.h.h.g.h.h.h.h.h.g.g.g.h.g.g.g.h.h.+ # # # # # % 4 4 4 l @ HXKXHXKXKXKXKXKXKXKX:X>X>X>X>XV.PXKXKXJXJXJXHX<Xh.>X>X>X,X. O # $ $ # 1 1 1 1 4 1 9 r r r r r r r r r r r r r r r r r r r t t c t t t t t t t t x N c V N a N K K t a a N N c t t c r S c r c A w r S r &.N D D 1 r qXpXpXpXpXwXpXpXpXtX9X+X].].tXtX9X[.[.[.(...[ [ [ [ >.>.>.>.2.2.' c b ",
"9 q t r t t V 6.XX2.[ [ ......T T T T T T `.`.[.[.T `.8XuXuX8XpXpXpXpXpXdX=.*.-.*.-.L j.<X<X8.> A w x x c A t D w t C C t t t t t t t t t 6.6.>.w v m Q Q m u o.a.t.o.g 0 0 0 0 q q &.XX.Xq q q r r r r r r r r r r c c c c N !.GXGXJXGXGXGXGXGXSXfXW 1 1 1 1 1 1 1 1 1 2 2 1 4 4 2 4 PXKXKXKXJXJXJXJXJXJXSX4 4 , % w w p.s.u.t.p.P.<X<X<X<XKXKXKXKXKXcX!.fXfXfXbXKXJXHXJXHXvXkXkXkXkXy.o.o.R R G l l l 4 4 4 5 KXJXJXJXJXJXJXKXKXZXg.h.g.g.g.g.g.g.g.g.g.g.g.g.g.h.g.g.g.h.h.+ # # # # # % 4 4 4 l @ HXKXHXKXKXKXKXPXPXHX:X>X>X>X>X:XKXKXJXJXJXKXGXhXh.>X>X>X:X. + + # # # 1 1 4 w 4 9 9 r r r r r r r r r r r r r r r r r r r t t t t t t t t t t t x c c N N t t K I t a a N C N C c D w C w c c w w C r r t w D V 9 D eXpXpXpXpXpXpXpXpXtX9X+X+X9XtX9X].{.{.(.(.{ [ ' >.>.>.>.>.2.2.5.I t b ",
"q e t t t t c K P K 3.......[ [ T T T T T [.[.[.[.`.`.8XuXrX'.pXpXpXpXdXdXz -.-.H -.H y.<X<Xv.w V x N N N r w t 9 c 9 t t t t t t t t r 9 6.6.6.9 e t E n m e o.a.a.o.E q q q q q r r D r q q q r r r r r r r r r r x x c c A gXGXGXGXGXGXGXGXGXDXfXW 1 1 1 1 1 1 1 1 1 2 2 2 4 4 4 4 HXKXKXKXJXJXJXJXJXHXSX, 4 4 % % % a.s.s.t.p.:X>X>X>X<XHXKXKXKXPXcXfXgXgXgXbXKXKXKXJXFXvXlXlXlXkXs.#Xa.o.o.G l l l l l l 5 KXKXJXKXKXKXKXKXKXZXg.g.g.g.g.g.g.g.g.g.g.g.g.g.g.g.g.h.h.h.>X+ # # # # # 2 1 1 l l @ KXKXKXKXKXKXKXKXPXPX:X>X>X>X>X<XPXKXJXJXJXJXDXhXh.>X>X>X:X. O + # # # 1 1 4 4 4 4 r r r r r r r r r r e q r r r r r r t r t t t t t t t t t t t r r r N N r r N a r t t N V N t c c N r 9 C w A w S t A N r N r r 4 aXaXaXpXpXpXpXpXpXtX9X+X+X+X9X9X}.{.(.(.X.{ [ >.>.>.>.>.>.2.2.v e t p ",
"q e r t t t c t t e  X{.[.[.....T T T T T [.}.[.[.}.`.pXpXrX'.pXpXpXpXdXdX=.8XqXpXqX-.x.<X<Xv.w v v x c w r V C r r w r t t t t t t t r 9 q 9 q 9 t t u u u u ( ) ! ! E t t t t q q r r r r q q r r r r r r r r r r x x c r A gXGXGXGXGXGXGXGXGXSX;XS 4 1 1 1 1 1 1 1 1 4 4 4 4 4 4 l SXPXKXKXKXJXKXKXJXJXHX% l l 4 % % i.s.s.s.s.>X>X>X>X<XSXKXKXKXKXcXgXgXxXgXvXKXKXKXJXSXvXlXkXkXkX,X%X$X).| F l l l l l l 5 KXKXKXKXKXKXKXKXHXSXd.d.d.d.u.t.t.r.r.R R R f f f f f f R R ) + # # # # # 2 2 1 l l 6 KXKXKXKXKXKXKXKXKXPXP.>X>X>X>X>XZXPXJXJXJXJXDXkXf.f.f.f.:X. O # # # 1 4 4 4 4 r r r r r r r r e q q p e t r r r r r t t t t t t N c t t t t t t r r r r r r r q r t N N N D N C N D t C N D c C t C w r r N L x >.%.aXdXaXpXpXpXpXpXpXtXtX+X+X9X9X9X}.(.(.(.X.{ >.>.>.>.>.>.>.,.>.t p p p ",
"q e r t t c c b p p XX|.`.[.[...T T T T T [.[.[.}.oX`.dXdXdX8XdXpXdXdXpXpXdXdXdXdXdX'.v.<X<Xn.w K L V N c w x c 9 D D c 9 q r t t t c r 9 r r t w t c b t e p y 0 y e q t t t t q q q q q r q q r r r r r r r r r r x x c N D vXGXGXGXGXGXGXGXGXSXC.M 4 1 1 4 1 3 1 1 1 4 4 4 4 4 4 4 ZXPXPXKXKXKXKXKXJXJXPX% w 4 4 % % m ! ( ! ) y.y.y.u.m.vXKXKXKXKXDXDXDXJXFXJXKXKXKXJXSXlXkXhXhXgX~ m v v l l l l l l l l 5 KXKXKXKXKXKXKXKXHXHXf . . . . : & & & & & & > > , > > & & & > @ + # # # # 2 1 4 l l 6 KXKXKXKXKXKXKXKXKXPXP.>X>X>X>X<XgXKXJXJXJXJXFXgXd : : E Q   + $ # # $ 4 4 4 4 r r r r r r r t :.C.j.C.9 t r r r r r t t t t t t N N c t t t t t r r r r r r t t a t N N N D N w r C w C r A A A t c C r x r x x B %.aXpXpXpXpXpXaXaXaXpXtX+X+X9X9X9X}.(.(.(.X.{ >.>.>.>.>.,.,.2.K e p p p ",
"q q q e b b b b b b v F aX8X'.T T T T T T T T T [.[.}.'.].8X+X8X8X8X8X8XqXdXdXdXdXdX'.v.<X<Xv.w V x B c V c c c t x c r r C r w D >.>.q 6 N L P r t C D A t r r r q q q r t t r r r r q r r r r r r r r r r r r r x x c c C :.vXGXGXJXGXGXGXGXGXvXe.A l 4 1 3 3 3 4 4 4 4 4 4 l l l 1 cXKXPXKXKXKXKXKXJXJXIX% 4 4 4 4 4 4 4 4 l , , , u k m fXHXJXKXKXKXKXKXKXKXKXKXJXJXJXSXlXkXkXkXgX1 3 2 l l l l l l l l l 5 KXHXKXKXKXKXKXKXKXKXl % $ # # # # # # # # # # # # # # # # # # # # # # # # 2 3 4 l l 6 KXKXKXKXKXKXKXKXKXHX. d : & & , :.PXJXJXJXJXJXgXv v v F l # # $ % 1 3 4 4 4 4 4 r r r r r r c h /./.xX8 t t r r r r r r t a a N N N t c x 6.>.x x x x t t a c c c a a a N A V C c V c C N t c c c r r x L r L 6.H %.aXpXpXpXpXqX`.`.`.'.`.+X+X+X+X+X}.(.(.(...{ ,.[ [ ' -.2.6.XXK b p p p ",
"9 q q 9 b b b b b b c C rXuXtX`.`.T T T T ..[.[.[.}.[.].].9X].].9X8X8XrXtXdXdXdXdXdX=.v.,X<X X1 V l V B x v V V r r D D C D r 9 &.6.>.9 9 r K K r r N D N r r r t q q t r t t r r r r q r r r r r r r r r r r r r x x x c b w.bXJXJXJXGXGXGXGXGXcX1.b x w 1 3 4 4 l 4 4 4 4 4 4 l 4 w fXPXKXKXKXKXKXKXKXKXIX% 4 4 4 4 4 4 4 4 % w u u m m M C.HXJXKXKXKXKXKXKXKXKXKXJXJXJXSXlXkXkXlXgX# 3 2 2 2 2 l l l l l l 6 PXKXKXKXKXKXKXKXHXPXl 4 4 % % % # # # # # # # # # # # # # # # # # # # # # 2 3 3 l l 6 KXKXKXKXKXKXKXKXKXPX, w t c c c y IXJXJXJXJXKXgX1 r 1.fX6.$ % 1 % 3 4 4 4 4 4 4 r r r r r x c g xXxXxX8 t t r r r r r t a N N N N N t c V 6.*.B c x x t t a t c c t t t N V x 9 A c c c A t ;.N L r N N x L x P H z aXpXpXpXpXpX[.[.}.}.}.+X+X}.}.}.}.(.(.(.X...,.{ U '.9XY A A A b p p p ",
"9 q q q b b b b b b c c =.8X`.'.pX-.T T T ..[.[.(.[.[.+X].8X].+X9X8XrXrXtXdXdXdXdXdX=.$X3X<X Xl x x V c A V x c x N N c c N 9 @ C ;.>.q 6 r x x r r c N r r r r t q q q r t t r r r r q r r r r r r r r r r r r r x x x c ~ w.vXJXJXJXGXGXGXGXGXcXC.!.fX+ > 4 4 4 4 4 4 4 # 1.t + + @ e.IXKXKXKXKXKXKXKXKXIX% 4 4 4 4 4 4 2 4 2 w k u m m M C.HXJXKXKXJXKXKXKXKXKXKXJXJXJXSXgXkXjXlXgX# 2 2 2 2 2 l l l l l l 6 PXKXKXKXKXKXKXKXKXPXl 2 l 2 2 % # # # # # # # # # # # # # # # # # # # # # 2 3 4 l l 9 KXHXKXKXKXKXKXKXKXPX9 e v v v v : PXJXJXJXJXJXfXcXHXKXKXe.3 1 1 1 3 4 4 4 4 4 4 r r r r r x r i ( C.fX= t t r r r r t r a N N N N N c c B &.D x t x x a a a t c c t t t N V x t A c t c c r c t S C C L x V B H P %.aXpXpXpXpXpX`.}.}.}.}.@X+X}.}.}.[.(.(.(.X...,...-.9XrX*.m b b p p p p ",
"9 q t t b b b b b b A A J ;.&.qXuX`.-.T ..[.[.[.(.[.[.+XrXyX].].].].].+XqXdXsXdXdXdXqXCXkX3XXXL %.l V D N N B A r N N c c C q @ @ 9 9 9 6 r t t r r r r r r r r r r r r r r r r t r r r r r r r r r r r r r r r r r r r c / @.y.,XvXbXDXFXDXGXGXJXJXGXGXy A v x r r 4 4 w @ IXKXJXJXJXJXJXJXJXJXvXvXvXZXZXZX, 4 4 4 4 4 2 1 1 % , e k k k G n.PXDXDXGXHXJXJXJXJXJXJXFXFXFXSXN.,X,XgXfX+ % 2 2 2 2 2 2 2 2 l l 5 PXHXJXKXKXKXKXKXKXKXx l l 2 2 2 # # # # # # # # # # # # # # # # # # # # # 1 3 4 4 l 9 KXKXKXJXKXKXKXKXKXIXu v v c c c - SXJXJXJXDXGXKXJXJXJXJXfX$ 1 1 1 4 4 4 4 4 4 r r r r r r r r r e v c t t t r r r r t t N N N N N N t r 9 q t t t c c t t t t t t t N N c N r c A C D r N c C c N A c A x x =.=.%.z aXpXpXpXpXpX`.}.}.}.}.@X+X+X}.}.}.(.(.(.X.X...6.9XtXrXH C b b b b b b ",
"9 q q t b b b b m C C C A A D '.tXdXsX-.[.........T `.].`.`.[.(.[.}.}.}.9XdXdXdXdXpXsXNXmXkXfXv H B B B V B V N x c x r w w w r w w t 9 q V B V r t t D D c t t r r r r r r r r r r r r r r r r r r r r r r r r r r r r c ! o.y.P.lXvXvXvXvXGXGXGXJXGXJXp v v v r x r x r 1 LXHXFXFXJXJXJXJXJXJXM.>X>X>X>X>X, 4 4 2 4 4 2 2 1 1 1 , e m m b g ,XxXDXGXJXJXJXJXJXJXJXFXFXFXZXt.f.s.s.( < 2 2 2 2 2 2 2 2 2 2 l 5 KXKXKXJXKXKXKXKXKXKXx l l l l l l % % % % % # # # $ # # # # # # # # # # # 1 3 4 4 l q KXKXKXJXKXKXKXKXKXIXu v v v c v y lXkXkXkXhXGXJXJXJXJXJXfX$ 4 4 4 4 4 4 4 r r r r r r r r r r t t t t t t r r r r r N N N N N N N N N c r N ;.D c c N N t t t t t t c t P P N r D D N N L A c A c A c V V =.qXeXqXeXpXpXpXpXpXpX`.`.`.`.[.}.@X+X}.}.}.(.(.{.(.2.6.qX9XyX9XF b b b b b b b ",
"9 q q t b b b b m C C C A A D z z 8X8X`.`.(...(...T `.[.`.[.(.(.(.}.}.}.9XpXpXpXpXdXpXNXmXlXfXL *.&.P &.B L %.L V A N L c N r D A D &.w t 6.6.6.c t t D D N t t r r r r r r r r r r r r r r r r r r r r r r r r r r r r c / i.p.P.lXvXvXvXbXGXGXGXGXGXJXb v v v r x x x r 1 cXHXJXJXJXJXJXGXGXGXZ.>X>X>XU.>X, 1 4 4 4 4 2 2 2 2 % , v m m m g lXvXDXFXJXJXJXJXJXJXJXFXFXFXZXu.f.f.s.o.2 2 2 2 2 2 2 2 2 2 2 l 6 PXKXKXKXKXKXKXKXKXKXB z l l l l j j j % % % # # # # # # # # # # # # # # # 1 3 4 3 x q KXKXKXJXKXKXKXKXKXIXe e v v v x , lXlXkXkXjXFXFXJXJXJXJXfXe 4 4 4 4 4 r r r r r r r r r r r r t r r t t t r r r r r N N N N N N N N N c r &.6.S c D D D t t t c t t r t *.*.V c A r D D x c c v x c c V x =.qXqXqXqXqXtXqXtXtXyX[.[.[.[.[.`.[.`.}.}.}.(.(.{.X..X9XqX].T F m n b b b p b n ",
"0 0 0 t p p b b b m A A A A D V l =.tX'.-.-.[.(.2.2.2.}.}.[.(.(.(.[.}.}.9XpXdXpXpXpXpXNXmXlXfXH *.H H %.V V %.V V L V L c A q c N C L r c 6.6.6.c t t D A t t t t r r r r t t t r t r t r r r r r r r r r r r r r r v v c ( p.s.P.lXvXvXvXbXFXJXJXGXGXHXZ b F v e w w w q 6 fXJXFXJXJXJXJXKXJXGXZ.>X>X>X>X>X: % w 4 1 1 1 2 2 1 % 4 e e v m u lXxXDXGXGXJXGXGXGXGXHXFXFXDXZXu.f.f.f.i.# < 2 2 2 2 2 2 2 2 2 l 6 PXJXJXJXJXJXJXKXJXPXV F x v l l % % % 4 % % % v l 4 % % 4 4 2 2 # # # # 1 1 3 3 4 l 9 PXJXJXJXKXKXKXJXJXIXe e v v v e : lXkXkXkXkXFXFXGXJXJXGX1.c x w e 4 l 4 4 4 r r r r r r r r r r c t t r r r r r r r N N t a N N C C N c t ;.I C c C &.D c c c c c t t x *.-.L A c D N r N V V L D L K A V =.qXpXpXtXqX9X9X+X+X.X`.`.`.`.`.[.[.[.}.}.[.(.{.{.2.9XqX'.T F b b Z b C Z s n n ",
"0 0 0 t p p b b b m A A A A A K B l l aXdX-.[.(.2.2.T [.T T (.(.}.(.(.}.+XpXpXpXpXdXwXNXcXlXmXB =.%.=.%.*.*.*.H L V B v x r q 9 9 r A r r N N r r t t r r r r t t t t t t t t t t t t t t r r r r r r r r r r r r e v v v / a.s.P.lXlXvXvXvXFXJXJXGXGXbXcXcXSXHXKXPXIXPXIXIXPXJXJXJXKXJXJXFXJXJXN.U.>X>X>X>X: % l 4 1 1 2 2 2 1 1 $ , e v v , lXxXDXFXGXGXGXGXFXFXFXFXFXFXZXs.f.f.f.i.# # 2 2 2 2 2 2 2 2 2 l 6 PXJXJXJXJXJXJXKXKXKXcXSXSXHXKXKXPXPXPXKXPXPXKXPXPXPXHXHXLXLXLXSXHXPXIXUXo 1 3 3 3 l @ KXJXJXJXKXKXKXJXJXIXw 1 w e e e * lXlXhXhXhXvXHXJXJXJXJXcXSXSXHXKXKXr x r r r r r r r r r r r r r r t t r r r r r r c N W W S Z C C N t t t t t t t t t c c c c c t N x V H B r V V N V V >.K K L K P K L =.qXpXpXpXqX'.].+X+X.X}..XyXyX+X[.[.}.}.}.[.[.[.[.2.yX9XF A C C b b C C C s s s ",
"0 0 0 t p p b b b m C A A A A L L I &.pXpX-.(.(.2.2...2.T T (.(.[.(.(.(..XtXpXpXeXeX8XNXmXlXfX9XqX8X8X9X=.%.%.z %.%.B V A N a t r r c t t q q t r t t r r r r r r t t t t t t t t t t t t r r t t t t r r r r r r r x x x v m u d V.P.<X<XhXSXFXGXDXDXGXJXJXKXJXJXJXJXJXJXJXJXJXKXKXKXHXKXHXPXHXg d R c.:X,X: 4 2 4 2 2 2 2 2 1 1 1 > > > 4 @ lXvXDXFXGXGXGXJXGXFXFXDXDXbXZXn.$X$X$X+.# 2 2 2 2 2 2 2 2 2 2 l * PXHXHXJXJXKXKXKXJXGXJXJXJXJXJXJXJXJXJXJXJXJXJXJXJXJXJXJXJXHXHXKXKXKXPXIXo 1 3 3 3 3 @ KXHXJXKXKXKXKXJXJXIXw 1 4 4 4 1 > gXT.Z.Z.Z.gXKXJXJXJXDXGXGXJXJXJXJXa x r r r r r r r r r r r r r r r r r r t t t a N N e.:.W W b N t t r r t t t t t t c t t t c c N x x 4 x 4 z z z z %.0X=.=.%.z z z z z 8X8X8X8X9X+X+X+X+X}.[.+XaXyX+X-.[.}.}.}.[.[.[.[.2.0XqXV C m b b b s s s s s s ",
"0 0 0 t p p p p b b C C A A A A K J H pXpX-.[.[.2.2...T T T T (.{.}.(.(.(.`.`.].`.`.`.nXmXgXfXqXwXwXpXeXeXaXaXsXsXNXN N V V V N V N N t t t t t t t t t t t r r r t t t t t t t t t t t t t t t N C t r r r r r r r r r r x x l E s.f.f.f.s.ZXbXbXDXGXJXJXJXJXJXJXJXJXJXJXJXJXJXJXJXPXu.f.f.f.P.+ # # # # # # 1 4 4 2 2 2 2 1 2 2 2 1 % % % # lXvXDXDXFXGXFXGXJXFXFXDXDXbXfX$ % % % # # 2 2 2 2 2 2 2 2 j j l 6 KXHXJXJXJXJXJXJXKXJXJXJXJXJXJXJXJXJXJXJXJXJXJXJXJXJXJXJXJXJXJXJXJXKXKXUX  1 1 1 1 4 @ KXJXGXJXJXJXKXJXJXIX1 4 1 % % 2 2 > f.f.f.d.T.KXJXJXJXJXJXGXJXGXGXJXD x r r r w w r r r r r r r r r r r r t t t t t t t 1.E 7.1.p t t t e e t t t c c c c t t t t a N D K D N 3 eXpXeXaXeXaXpXeXeXaXaXpXtXpXpXwXwXqX9X+X+X].+X}.T T yXnX`.2.[.[.[.[.[.[.[.2.2.qXqXH m b b b b n s s n n n ",
"0 q 0 t t t p p p p b A A A A A A K H pXtX-.2...2.2.T T T T T ..}.}.(.(.(.`.`.`.`.].].mXlXgXfXqXwXwXpXpXeXaXaXaXsXsXB V V V A C K &.&.c t t t t t t t t t t t t t t t t t N N N t t N A N t t t t t t t r r r r r r r r r w w l @.f.f.s.s.s.SXbXbXDXGXJXJXJXJXJXJXJXJXJXKXKXKXJXJXJXKXP.U.I.U.I.+ # # # # # 2 1 1 4 2 2 1 1 1 2 1 1 % % % 2 + ZXbXDXDXGXJXGXJXFXFXFXFXDXDXfX$ % % % # 2 2 2 2 2 2 2 2 2 % % l q KXJXJXJXJXJXJXJXJXJXJXJXHXJXJXJXJXJXJXJXHXHXKXKXJXJXJXJXJXJXJXJXKXKXKXUX  $ $ $ 1 4 + KXJXGXJXJXJXJXJXJXIX1 1 % % % 2 % , I.f.f.f.T.PXJXJXJXJXJXJXJXJXGXFXD x r r r r r r r r r r r r r r r r t a a t t t N N D Z w.w.c x t t Z ~ S c c t t t t t t t t a N V K D N z sXpXpXaXaXaXeXaXaXpXpXpXtXpXpXuXuXwXqX+X+X].+X}.T T T T T T 2.`.`.[.[.[.[.2.2.yXqXH b n b b b p p p n n n ",
"0 q 0 0 p p p p p p c c A A M A A A H pXtX-.2...2.2.T T T T T ..(.(.(.(.(.`.`.`.].].].mXgXgXfXqXpXwXpXpXpXaXaXaXaXaXV V V V A c D &.&.c t t t t t t N C t t t t t t t t t N N N t t A A A t t t t t t t r r r r r r r r w w w w i.f.f.s.s.i.bXbXbXDXGXJXJXJXJXJXJXJXKXKXKXKXKXKXJXJXKXP.>XI.I.:X+ # # # # # 2 1 1 4 1 2 1 1 1 1 1 1 % % % 2 o ZXbXDXDXFXJXJXJXFXFXFXFXDXDXfX$ % # # % 2 2 2 2 2 2 2 2 2 2 2 l p KXJXJXJXJXJXJXJXJXJXJXJXJXJXJXJXJXJXJXJXJXHXJXJXJXJXJXJXJXJXJXJXKXJXKXUX  $ $ $ 1 % + KXJXGXJXJXJXJXGXGXIX1 1 % % % 2 2 , I.f.f.f.V.PXJXJXJXKXKXKXJXJXGXFXD x r r r r r r r r r r r r r r r r t a a a t c c N C W w.w.c x t t Z ~ S c t t t t t t t t t r N V L V N z aXeXpXaXaXaXeXaXaXaXaXtX'.qXpXrXrXwXtX].+X+X+X}.(.......T T -.`.`.[.[.[.[.2.2.yXqX%.b m b b b p p p i n n ",
"0 q 0 0 0 y = = 8 e c c A A A C A A %.aXaXT `.`.-.-.-.-.-.-.-...(.(.(.(.(.`.].].].].].gXhXhXfXqXwXwXpXpXpXaXaXaXaXqXH H H V D c r c N t t t t t r a D >.N r x r r t c c c N N N N N A A A p a t r r r r r r r r r r w x w x x w u : @ # # # ZXbXbXDXDXJXJXKXKXKXKXKXKXKXKXKXKXKXKXJXJX,X>X<X<X<X+ # # # 1 1 2 1 1 1 1 1 1 2 2 2 2 2 2 % % %   SXbXDXGXJXJXJXJXJXJXFXFXFXDXfX# # # # 2 2 2 2 2 2 2 2 2 2 2 j l s KXJXJXGXJXJXJXKXKXKXKXKXKXJXKXKXKXKXKXKXKXKXKXKXJXJXJXJXJXJXJXKXJXKXKXUXo $ $ $ 1 1 + KXGXGXGXGXGXGXJXJXIX1 4 % % % 1 4 , :XP.P.B.x.IXPXKXKXJXJXJXJXJXJXJXs r r w w w r r r r r r r r r r r t t r t r r t N N N t D D r r t c A ~ S c t t t t t t t t t x c N c c c 3 aXeXaXaXaXaXeXaXaXaXaXqX-.+XtXtXpXpXtX].+X].+X}.(.(.......T -.`.`.`.-.-.'.-.-.0X9X6.n b p b p i i i b p i ",
"0 q q 0 0 p gXlXlX& t b b A A m m A A K J F 9XrX].`.pXpXpXpXtXT T (.(.....T T T T T T gX<X<XgXyXtXtXpXpXaXaXaXaXaX8X8X8X9XqX9Xw t C c t N C C N r r r c r r r r r c c t N N N N N N L L B t t t r r r r r r r r r w w w w x x w 4 4 1 1 % % V.f.f.f.Z.T.hXhXkXlXlXlXlXlXlXlXlXlXlXkX,X: : : d g $ 1 $ 1 1 1 2 1 1 1 1 1 1 1 2 2 2 2 1 2 % l # ZX<XhXhX<X<X<X,X,X<XhXlXlXlX<.$ % % % 2 2 2 2 2 2 2 2 % % % j 2 n <XkXkXkXkXlXlXlXZXZXZXZXZXZXZXZXSXSXSXSXSXSXSXSXSXSXSXHXHXSXSXSXSXSXSXLXo $ $ $ # $ @ <XhXhXhXhXhXhXhXhXgX% 4 % % % 1 1 $ ; & @ +   V.T.<X1XhXhXhXhXhX<XL.g 9 r w w r r r r r r r r r r r r r r r r r r t t c t t t t t t r r r e t r r t t c c c c N c c x c c c c z aXpXaXaXaXaXaXaXaXpXaXyX`.9XpXpXpXaXyX].}.`.`.[....._ .._ 9XtXyXyXqXtXyXyX.XG c b n n b p b p i i p m p i ",
"0 q q 0 0 p n.jXlX& e u c b b b A A S J Z F rXrX].].pXpXuXuXpX-.T ........T ....[ [ T hX<X<XgX-.`.].].'.qXaXpXpXpXeXpXpXpXeX8Xw r C t t N C N N r r r t r r r N D A c t t t c N N N %.=.=.r t t r r r r r r r r r r w w w x x v w 4 1 % 1 $ :Xh.g.U.U.U.U.U.U.U.U.I.I.I.I.I.I.I.I.U.P.; > $ $ > $ # $ 1 1 1 2 2 1 1 1 1 2 2 2 2 2 2 2 2 % j # d t.f.f.f.f.g.g.h.h.f.f.f.f.u % % % % 2 2 2 2 2 2 2 % % % % j 2 : >X>Xh.U.U.h.h.I.I.I.I.I.I.I.I.I.P.I.I.P.I.I.I.I.P.A.A.A.I.I.I.I.I.I.I.&XO $ $ $ # # @ f.g.h.g.g.h.g.g.g.P.% 4 % % % % 2 2 2 $ $ 1 o 3XU.Y.U.Y.I.I.I.U.U.U.g 9 r r w r r r r r r r r r r r r r r r r r r t t t t t t t t t r x c c A x t r C c t c c c c c c A D A N z aXpXaXtXqX9XyXqX9X].].].`.9XaXyXyX].`.[.[.(.........[ ` ` 9XtXuXrXrXtX9X+X[.G n Z s b n b p p i p s b u y ",
"0 q q q u E g jXlX= u u p b c b A M A J G F 8XrX`.9XpXpXpXpXpX=.T T ....T ..T ........hX<X1X3X[.`.].+X].qXaXaXpXpXeXeXeXpXpXqX4 x L t r N N N N t r t t t r t V *.>.c t t t c c c C fXsXaX0Xt t t r r t r r r r r r w w w w w w 4 4 4 1 1 > >Xh.h.U.U.U.U.U.U.U.U.U.U.U.U.U.U.U.U.U.:X, > > $ $ $ 1 1 2 1 1 2 2 2 2 1 1 2 2 2 2 2 2 1 2 2 2 2 o.f.g.g.g.g.h.h.h.h.h.h.h.>X: % # 2 2 # # # # # # 2 % % % % j 2 : >Xh.h.h.h.h.h.h.g.g.h.g.g.g.g.g.g.g.g.g.g.g.g.g.g.g.g.g.g.h.h.U.U.>X>XgXO $ # # # # $ g.h.h.h.h.h.h.h.h.>X> 2 1 % % % 1 4 4 4 4 1 # 3XU.U.U.U.U.U.U.U.U.U.f q w w w w r r r r r r r r r r r x .X9XXXt t t t t t t t t t c t r r ,.2.V r t >.5.v c N N N N x D L V x z aXaXaXtXyX'.9X9XyX+X9X+X`.9XaX'.}.[.[.2.2...........T T T 9XpXpXpX8XtX`.2.[ M Z C n Z Z b p p b b b p y y ",
"9 q q y m.K.gXjXjX) !.C.p b c b m S J I J V ].].`.tXpXpXpXpXpX=.T T T T T ....[ ....{ <X1X1X,X2.`.].9X].tXaXaXpXaXpXpXpXpXpXqXw V V c r N N N N c t t t t t r N &.6.c t c c c c c C aXsXBX0Xr t r r r t t t r r r r w w w w w w 4 4 4 3 3 & U.h.h.g.g.h.h.U.U.U.U.U.U.U.U.h.h.h.h.h.:X, > $ $ $ 1 1 1 1 1 1 3 3 3 1 1 1 1 1 2 2 2 2 2 2 1 2 l a.g.g.g.g.g.g.g.h.h.h.h.h.>X: % % % 2 2 2 2 # # # 2 2 2 2 % j 2 : >Xh.h.h.h.h.h.h.h.g.g.g.g.g.g.g.g.g.g.g.g.g.g.g.g.g.g.g.g.h.h.h.U.>X>XkXO # # # $ # > U.g.h.h.h.h.h.U.U.>X> $ 1 1 1 1 4 4 4 4 4 4 $ 3XU.U.U.U.U.U.U.U.U.U.d q w w w w r r r w w r r r r r r B 9X.X0Xt t t t t t t t c c c t r r ,.>.v t w I 5.v c N N N c r A V V N 2 aXaXaXtXyX+X+X+X].yXaXaX].qXaX`.}.[.[.2...........T T T T 9XtXtXrX8XtXT U ' M Z Z n n n b p p n b b u 0 7 ",
"9 9 9 8 T.G.jXxXxXxXxXjXp p t b m S J J J H 9X8X].pXpXpXpXpXpX=.T T T T T [ [ ..[ [ X.<XE.1X,XX.`.].9X].tXdXaXpXaXpXpXpXpXpXqXr r x r r N N N N c t t t t t t t c N t t c c c N c a 0XzXfX0Xt t r r r t t t r r r r w w w w w w 4 4 4 4 4 & U.g.g.g.g.h.h.h.g.U.U.U.h.h.g.g.g.g.h.h.I., > > $ $ 1 1 1 1 1 1 3 3 3 2 2 2 1 1 2 2 2 2 2 2 1 2 l @.g.g.g.g.h.h.f.I.>X>X>X>X>X: % % % % 2 2 2 # 2 2 2 2 2 % % j 2 : >Xh.h.h.h.h.g.h.h.h.g.g.g.g.g.g.g.g.g.g.g.g.g.g.g.g.g.g.g.h.h.h.U.>X>XkX> $ # # $ $ > U.h.h.h.h.h.U.>X>X>X> $ 1 1 1 1 4 4 4 4 4 4 $ 3XU.U.U.U.U.U.U.U.U.U.d 9 w w w w r r r r r r r r r r r x .X.XXXt t t t t t t t c c c t r r A D r t q b I c a N N N N c K L V B z aXpXaXtXyX].'.`.9X8XaXaX].yX9X[.}.{.[.[.2.2.........T T T 9XtXtXrXrXqXY U I M Z Z n n n p p p p p p u 0 7 ",
"6 9 9 : hX~.jXxXjXxXxXxXi b p p M M J J J A V V B %.=.=.=.=.'.8XpXpXtXqX9XT T T Y Y 7.^.^.hXhX7.`.`.].].tXsXsXpXpXaXdXdXsXsXsXz x N N N c N N N N N N N c N c t t t c c c c c a c t p p p t t t t t t t t t q q q r r r w w w w w r 4 4 4 , d : : : : : : : d : d : : : : d d d d f o.9 9 w 9 9 1 1 1 1 1 1 1 1 1 1 1 1 1 1 1 1 1 1 1 4 4 2 l w , , , , , , , , , , , , , % % 2 2 2 2 2 2 2 # # # # # % % % 2 % d d : : O     . . . . . . . . . d d d d d d d d d R R R t.y.y.u.M.P.:XgX& # $ $ # $ 1 : d d d d d d d d R , 1 1 1 1 1 1 1 4 4 4 4 2 ( R f f d d d d d d d : 9 w w w w r r w w r r r r r r r c r r r r r r t t t t t t t t t N N t t a N c r t c c N V V A 6.9X9X9X=.z aXpXpXtXyX`.+X'.yXyXtXyX+X`.T [.(.[.2.........}.tXpXpXpXpX-.9X9X9X'.-.J J A b Z Z Z Z C p p p u u u 0 0 0 ",
"- > > > : : d ~.^.8 i i n b p p S S J S S A A v v c c Y Y Y T 8XuXwXwXwXpXP T Y H H C.^.^.^.jXn.2.T `.T `.].`.9X].tXdXdXdXdXdXz B B N N N C C N N N N N N N N N N N N a a b J J c t t t t e t r e V r r r r q q q r r r r r r w r r r w 4 4 l l x x w x x x x x v x v v v v v v x x v w 1 1 1 1 4 3 3 4 4 3 3 1 1 1 1 1 1 1 1 1 1 1 1 4 4 4 l l 2 4 % $ % % 4 4 1 1 1 1 1 2 2 2 2 2 2 2 2 2 2 # # # # % % % % j j j j % % % % % % j % % % % % % % % % % % % % $ , % , , , 9 w w w w 9 > , $ % 1 1 1 1 1 1 1 4 w 4 4 w w 4 1 1 1 1 1 1 3 3 4 4 4 w 4 w w e e e e e w q q q e 9 w w w w r w r r c r r r r r r c x v x r r r t t t N a N N N N N N a a a N N N V V V A V H H qXsXsXsXsXsXaXqXz `.'.`.+X+XtX].+X+X+XT ..(...{.......2.2.+XuXiXiXiXpXY U I I V V A A A b Z Z Z Z Z p p y 0 0 0 0 0 0 ",
"- 6 6 - 9 9 g l.z.i M b b b p p Z S S J M C m b A c v K Y Y T 8XwXwXwXwXpXF Y K H H C.^.^.^.jXn.T T `.T `.+X+XyX].pXdXsXdXdXsXz V V N N N C N N N N N N N N N N N c t N c ] 0.,.p t t t t t t t 6.6.V r r r r r r r r r r r r r w r r r 4 4 4 3 4 w w r 4 4 w 4 w x l l l l v l l 4 w 1 1 w 9 1 4 4 4 4 3 3 3 1 1 1 1 1 3 1 1 1 1 1 4 4 4 4 l l 2 1 $ % 1 1 4 4 1 1 1 1 2 2 2 2 2 2 2 1 1 2 # # # # # % % % % % % j j j % % % # % % # % # % # # # # # $ % % % $ % 4 4 , w w w w w w 4 4 1 1 1 1 1 1 1 1 1 1 w w w 1 1 1 3 1 3 1 3 3 3 3 3 4 4 4 3 4 w w w w e w e w w w 9 9 9 w x x r r x K &.I r r r r r r r L L B r r r t t t N N N N N N N N a a a N N N B V B G V H L qXsXsXdXdXsXaXaX'.+X+X].9X].9X].+X+X+X-.......[.......2.2.9XuXiXiXiXpXY U I I A A A C m b Z Z Z Z Z s p y 0 0 6 0 0 0 ",
"- 6 6 6 0 y j.E.E.g m n p b p b M Z S S S Z M M m c c U [ [ Y 8XrXuXuXuXtX2.4.,.Y K C.^.^.^.jXC.T T `.T `.`.+XtX8XdXsXsXsXsXsXz V A B B N C C C N N N N N N N N N N c t b 4.|.9.c t t t t t t t 6.}.V r r r r r r r r r r r r r r r r r r 4 w 4 w w w 4 r w w w w w w w w w w w w w w 4 4 4 1 1 9 9 1 1 1 1 1 1 1 3 3 3 4 4 4 3 3 3 3 3 3 4 1 1 4 4 1 1 4 4 4 4 1 1 1 1 1 1 $ 1 2 2 2 2 2 1 # 1 # # # % % % % % % % % % % % # # % % # % % % 2 2 % % % % % % % % % 1 4 4 1 1 1 1 1 1 1 1 4 1 1 1 1 1 1 1 1 1 4 4 4 4 4 4 4 1 3 3 4 4 3 3 3 4 w w w e w w w w e e w w w r w w w w K P F r x 6.6.2.r r r r r r c P P c t q r t t t N N C C C a a a N N N N N N v V A A G G H qXsXsXsXsXsXpXaX+X+X+X`.+X].9X].+X].+X-.....2.2.......2.2.9XuXuXuXuXpX-.' ' I A A b b C Z Z Z Z Z Z Z 0 0 7 6 7 y y y ",
"6 9 6 6 y y ) T.T.g b n b b b b b M Z S S M M M m m b G I Y Y 9XtXtXtXtXtX6.<./ ] ~ !.^.^.^.^.!...T T T `.9XrXyX].dXdXsXsXsXsXz V B B N V N N N N N N N N N N N t N N N b ~ ~ J t t t t t t t t V A r q r q r r r r r r r r r r r r r r r r w w w w r w r r w w w w w w w w w w w w w w w w w w w w w 1 4 4 1 1 1 3 3 3 4 4 4 3 3 3 3 3 3 1 1 1 1 1 1 1 4 4 4 4 1 1 1 1 1 1 1 2 1 1 2 2 2 1 1 1 2 2 # % % % # # % % % % % % % % % % % % % % % % % % % % % % % % % 1 % % 1 1 1 1 1 1 1 1 4 3 3 3 1 1 1 1 1 1 w 4 w w 4 4 4 4 3 3 4 4 3 4 4 4 w w w e w w w w e e w w r r r r r r L L F r r 6.6.U r r r r r r r c B r t t r t t t t t t N c t a a N N N N N N V V B A B V L qXsXsXsXaXdXpXaX].+X+X].].'.9X9XyX9X9X`...2.2.5...2.[.XX}..XtXtXtXtXtXP J J I m b C Z S Z Z Z Z Z Z Z 0 0 0 0 y i i i ",
"6 9 9 9 y y i g g s b b b b b b b b b m M m M M M m b M G G K -.`.`.'.`.`.@.( ) ( ) gXxXxXjXjXgXO.O.O. .`.9X+X`.`.tXdXdXdXsXdXz %.z z B B V V V N N N N N N N N N N t c b e e p t t t t t t t t t q q q q q r r r r r r r r r r r r r r r r r r w r w w w r w w w w w w w w w w w w w w w w w w w w w 1 1 1 1 1 1 3 3 3 4 4 4 3 3 3 3 3 3 1 1 1 1 1 1 1 4 4 4 4 1 1 1 1 1 1 1 2 1 1 2 2 2 1 1 1 2 2 2 % % % # % % % % % % % % % % % % % % % % % % % % % % % % % % 1 % % 1 1 1 1 1 1 1 1 1 1 3 4 1 1 1 1 1 1 w w w w 4 4 4 4 4 4 4 4 3 4 4 4 w w w e w w w w e e w r r r r r r r x x r r r w 4 w r r r r r r r r r r t t t t t t t t t t t t t a N N N N N N V B B z z z %.aXsXsXsXsXdXqXyX.X.X+X+X+X].9X9XyX9X`.T ......2.[ [ 2.2.6.H T Y -.-.H G J K K G A Z Z S Z Z Z Z Z Z Z Z Z Z p 0 i i i ",
"9 q q t p p p p p p p p b b b b b b b b b b M M M m b G G G G I J J J J G ,XT.T.T.T.ZXHXFXFXFXvX~.~.~.hX2.`.`.}.}.+X+X9X].].tXdXsXsXsXsXsX8X&.%.V N N N N N N N N N N N t t t t t t t t t t N c c t t t t t t t t e 7.! E i 0 r r x r r r r r w r 4 r w r w w w r w w w r r r r r r w w w 4 4 4 w 4 4 4 1 1 9 1 1 4 4 w 4 4 4 4 4 4 4 4 3 1 1 1 1 1 1 1 1 1 1 1 1 1 $ 1 1 1 1 2 1 1 2 2 2 # # # 2 2 < # # # # # # % % % % % % % % % % % % % % % 2 2 2 1 1 1 1 1 1 1 $ 1 1 1 1 1 1 1 1 1 1 1 1 1 1 1 9 9 4 4 4 4 9 9 1 4 1 1 1 1 1 1 4 4 4 4 4 4 4 4 4 w w w r r r r r r r r r r r r r r r r r r r r r x x x r r r r r t c c N c c c c N N c N N N N N C C A A V 9XaXaXaXaXsXsXaXaXaXsX'.}.[.}.}..X].9XrX`.[.2...........,.' U U U >.J J J M M M M J ~ ~ ~ J J J J S Z Z Z Z Z Z n Z W W W n p i ",
"q q q 0 t t p p p p p p b b b b b b b t t b b b M M Z S S G G J J K I I J ,XT.T.T.T.ZXHXFXFXDXvX~.E.E.hX[.`.}.}.}.+X9X+X9X+XtXdXdXdXsXsXdX'.*.*.V V N N N N N N N N N N t t t t t t t t t N N c t t c t t t t t t t &XV.V.x., x x x r r r r r r r 4 r w r r w w r w w w r r r r r r r r r w w w r 4 4 4 1 1 9 9 1 4 4 w 4 4 4 4 4 4 4 4 3 1 1 1 1 1 1 1 1 1 1 1 % $ $ % 1 1 1 1 1 1 2 2 2 # # # 2 2 # # # # # # # % % % % % % % % % % % % % 2 % 2 2 2 1 1 1 1 1 2 1 1 1 1 1 1 1 1 1 1 3 4 1 1 1 1 1 1 9 4 4 4 4 9 9 1 1 4 4 9 1 4 4 4 4 4 4 4 4 4 4 4 w w w r r r r r r r r r r r r r r r r r r x x x x x x r r r r t t N N N N c c x S D C D D D C C A A A A V 9XaXaXaXaXaXpXaXpXaXaX.X}.[.2.2.2.+X9X9X`.[.[...........,.I U ' ' U ^ ~ G J M M M J J J ~ J ~ ~ ~ S Z Z Z Z Z n b Z Z Z Z n p i ",
"q q q 0 t t p p p p p p b b b b b b b t t b m m M M M Z S S M J S J J J G ,XT.T.T.T.vXFXHXFXFXxX~.E.E.hX[.`.`.}.`.+X].].].].8XdXdXdXsXsXdX'.-.-.V B N N N N N N N N N N t t t t t t t t t N c c c t c t t t t t t t &XV.N.n.0 x x x r r r r r r r 4 4 w r r r r r r w w 4 4 r r r 4 r r r w w w w 4 w w 1 9 9 9 1 4 w w 4 4 4 4 4 4 4 4 3 1 1 1 1 1 1 1 1 1 % % $ $ 1 $ 1 1 1 1 1 1 2 2 2 2 # # 2 < < # # # # # # % % % % % % % % % % % % 2 2 2 2 2 2 2 1 1 1 1 1 1 1 1 1 1 1 1 1 1 1 3 1 1 1 1 1 4 9 9 4 1 1 1 9 1 1 1 9 9 9 1 4 4 4 4 4 4 4 4 4 r 4 w w w r r r r r r r r r r r r r r r r r r x x x x c c r r r r a a N N N N c x c S S b C C C C C A A A C H 9XaXaXaXaXaXaXaXpXpXpX.X}.[.6.6.[.9X9X9X`.2.[.2.2.2.2.2.,.I U ' ' ' ~ ~ ~ J J M M J J J J J ~ ~ ~ J Z Z b b b n b Z Z Z W n p p ",
"e q q 0 t t p p p p p p b b b b b b b p t b b C M M M S S S A G Q S ~ ~ ~ ,XT.T.T.T.vXFXFXFXFXxX~.~.~.hX[.`.[.[.`.`.].+X+X8XqXdXsXsXsXdXdX-.-.*.H B N N N N r N N N N N c c c t c c N a a N N N c c c c t t t c c c &XP.P.n.0 x x x x r r r r r r 4 4 w r r w w w 4 4 4 4 4 r r r r r r r r r r w w r w w w w w w w w w 4 4 4 4 4 4 3 1 1 1 1 1 1 1 1 1 $ $ $ # $ 1 1 1 # # # 2 2 2 % % 2 2 # # # # # # # # # # # # % % % % % % l l % % % 1 2 2 1 1 1 1 1 1 1 1 1 1 1 1 1 1 1 1 1 1 1 1 1 1 1 1 4 4 9 9 1 1 1 9 1 1 1 1 1 9 9 9 w 9 9 9 1 4 4 4 w r w w w w r r r r r r r r r r r r r r r r r r x x x r t t r r r r x x c N N N x x b C Z b S C C A A A A A V H qXaXaXaXaXaXaXaXpXpXaX.X.X}.`.`.`.9XrX9X`.[.[.2.2.2.2.2.>.I U ' ] ' ~ ~ ~ Q ~ J J J J S J J ~ ~ ~ J Z Z b b b n s s n n n b y 0 ",
"e 0 q 0 y t p p p p p p b b b b b b b b M b b b Z Z Z C S S x.N.N.k.j.j.) C.!.!.^.gXbXFXFXFXFXvXlXlXlXgXfX;XC.e.e.w.XX@XXX-.8XdXdXsXdXdXdX=.=.=.z x x N B B c c N c N N c t t t t t r N N a a a N N N c t t t N t b &XP.P.V.8 v c v t r r r w r r r 4 4 4 w w w w 4 4 4 4 4 4 r 4 4 r r r r r r w w w w w w w w w w w w 4 4 4 4 4 4 1 1 1 1 1 1 1 $ $ $ # # # $ # $ % $ 4 % 4 % # # > % # # # # # # # # # # # # # # $ # % % 1 % % % % % % > # % # # 1 1 1 1 1 1 1 1 1 1 1 1 1 1 1 1 1 1 1 1 1 1 4 4 1 1 9 9 9 9 1 1 9 9 1 4 4 4 1 1 9 9 9 4 4 4 w r r r w w r r w r r r r r r r r r r r r r r r x x x t t t r r r x r c N N N c c c N N N N N N c c c N B B B %.aXsXaXaXaXsXaXdXdXdXaX9X9XyXyXyX+X9X9X+X[.[.2.2.2.2.2.2.2.{ { { { { ^ ~ ~ ~ J J Z b m Z J ~ ~ ~ ~ S S b b b p s i i u i i y 0 0 ",
"q 0 0 p t t p 0 e y q y b b b b b b b ~ { b e t b b b C S M j.~.~.~.~.~.^.HXHXHXJXJXFXFXGXGXHXFXHXHXHXHXHXSXbXbXbXvXv.OX}...T aXdXaXtXpXsXsXsXBXNXB x N B B c c N N N N N N N N N N N N a a a a N N N x t p i y y i V.N.K.V.: i i i m e r r w w r r 4 w w w w w 4 4 4 4 4 4 4 r 4 4 r r r r r r w w w w w w w 4 w w w w 4 4 4 4 4 4 1 1 1 1 1 1 1 $ $ $ # # 2 m R d . . . . . d d f c.8.+ # # # # # # # # # # # # % . p.y.f f f y.) y.y.y.m.. # # 1 1 1 1 # 1 1 1 1 1 1 1 1 1 1 1 1 1 1 1 1 1 1 4 4 9 9 9 9 9 9 1 9 9 9 1 1 4 4 1 1 1 9 9 4 4 4 w r r r w w r r r r r r r r r r r r r r r r r r x x x t t t r r r x N N N N N N N N N N N N N N N x x 6.BXBXBXBXsXsXaXaXaXdXaXyXyX9X9X+X+X+X+X+X+X`.`.}.[.[.2.2.2.2.2.2.3.3.{ { | | ~ M S ~ J J e c b b S S Z J S b b <.,.~ Z i i i y 0 0 0 0 7 ",
"u p p p u u y y y 0 e e b b b m S S ~ ] ] e t e b b b b M M j.~.~.~.~.~.~.KXKXJXHXJXJXFXFXGXHXKXKXKXKXKXDXbXbXxXvXvXc. X{.....9XyXyX+X].dXsXsXsXBXz x N N N c c c c N N N N N N N N N N N N N N N N N x g V.K.K.L.K.K.S.K.z.z.N.N.N.N.u x r r w 4 4 4 4 4 4 4 1 1 1 1 1 1 1 1 w 4 4 w r w r r r r v r w w w 4 4 4 w w w 4 1 1 4 4 4 1 1 1 1 1 1 1 $ $ # # # # . 3X1X1X<X1X1X1X1X1X1X<Xb.> # # # # # # # # # # $ $ $ : <X1X1X1X1X1X1X1X1X1X1X. $ # # # # < < 1 1 1 1 1 1 1 1 1 1 1 1 1 1 1 4 4 4 9 9 9 9 1 1 4 1 4 4 1 1 9 1 4 4 1 1 1 4 4 w 4 4 4 4 r r w w r r r r r r r r r r x x x x x x x x x x x c x x x x x x x N N N N B V B N N N N N N c x x =.sXsXsXsXsXsXaXaXpX9X+X}.}.}.}.}.}.}.}.}.}.}.}.}.}.[.2.2.2.2.[ [ 5.X.X.{ | | ~ p S J J J t p p b b b Z b Z b b <.,.~ S p y y 0 6 7 7 y s ",
"y p p u u u y 0 0 0 e b b b b m J J ~ ,.~ t e t b b b b S M ) J.~.~.~.~.~.HXKXHXJXJXJXJXFXJXHXKXKXKXKXHXDXbXxXxXxXxXm.#.{.....'.].].].9XsXsXsXsXBXl N c c N c c c c a N N N N N N N x x x N N N N N N x i m.S.L.K.K.K.K.S.z.z.z.Z.Z.N.y w r w w r 4 4 4 4 4 4 1 1 1 1 1 1 1 1 w w w w w w r r r 1 9 9 N r r w w w w w w 4 1 1 4 4 1 1 1 1 1 1 1 1 $ $ # # # %   3X>X>X>X1X<X1X1X1X1X<Xx.> # # # # o o o o o o # $ $ : <X1X1X1X1X1X1X1X1X1X<X. $ # # # # # # 1 1 # # 1 1 1 1 1 1 1 1 1 1 1 4 4 4 1 9 9 9 1 4 4 4 4 4 1 1 9 1 4 4 1 1 1 4 4 w 4 4 4 4 4 w r r r r r r r r r r r r x x x x x x x x x x x N c x x x x x N N N N N B V V B B B B N N c x r =.sXsXsXsXsXsXaXaXaX+X}.}.}.}.}.}.[.}.}.}.}.XX}.2.[.[.}.2...2...[ 3.3.| | 4. .~ e S J J J t t t b b b Z Z Z b e <.3.;.S p y y 0 6 ; u W Z ",
"y Z p p u u y y 0 0 e b b b b b m m M J G t t b b b b b m M ) J.~.~.~.~.~.HXKXJXHXHXHXJXGXFXHXKXKXKXKXKXDXbXxXxXxXxXm.#.(...T '.aXaX].8XsXsXsXsXBXz N x N N N N c c a a N N N N N N N N N N N N c c c x i V.K.K.K.K.K.S.Z.z.z.z.z.z.N.y w r r r r 4 4 4 4 4 4 1 1 1 3 3 3 3 3 w w w r r r r r r 5 cXcXfXq r 4 4 r w w w 4 1 1 4 4 4 1 1 1 1 1 1 $ $ $ # # # %   kX1X1X1X1X1X1X1X1X1X<X) , # # # o o o o o + + # # # , ,X1X1X1X1X1X1X1X1X1X1X. $ # # # # 1 1 1 1 # # 1 1 1 1 1 1 1 1 1 1 1 1 4 4 1 4 4 4 1 1 1 4 4 4 1 1 1 1 1 1 1 1 1 4 4 r w w r r r r r r r r r r r r r r r r x x x x x x x x x x x N c c x x x x N N N N N B B V B V V B N N B x x =.sXsXsXsXsXsXaXaXaX`.[.{.{.{.[.{.{.[.[.[.[.}.[.2.2.2.[.2...2...[ 3.X.| | 4. .~ e S J J J t t t b b b e Z n M b M ~ S S p y y 0 6 ; n W n ",
"0 y 0 p p 0 0 0 0 0 e e b b b b b b J ~ ~ b b b b b b b M m ) ~.~.~.~.~.~.HXHXKXKXHXJXJXJXGXGXKXHXKXPXHXbXvXxXxXxXxXn.(.(.[.T `.8XpX9X8XdXsXsXsXsX2 3 3 2 3 x N N N N N N N N N c c x a x c c c c c c B p ( 8.8.x.j.z.S.Z.k.j.j.j.j.8.y r r r r r r r r 4 4 4 1 1 1 9 9 3 3 1 9 1 1 w w w w r r 6 DXbXDXe r 4 4 r w w w 4 4 4 4 1 1 1 1 1 1 1 1 1 $ $ % # # # + hX<X<X1X1X1X1X1XhXhX1XE $ % % % o o o o o o o $ @ % , V.1X1X1X1XW.W.1X1X1X<X. # # # $ % # < # 1 # 1 1 1 1 1 1 1 1 1 1 1 1 1 4 4 4 4 4 4 4 3 4 4 4 4 w w 1 1 1 1 1 1 4 4 4 4 r r r r 4 r r r r r r r t r r r r r l x B x x N N N N N N x N N N N a x B N B B B B B B V V V V B V B x x =.sXsXsXsXsXsXpXpXpX}.{.{.{.{.{.{.{.{.[.[.}.XX}.2...2.2.3.{ 5.....| X.] | 4.4.~ b S J J Z e t p b b b n S S M m ~ ~ S b 0 y 0 y ; * 0 0 , ",
"0 t p y p y 0 6 ; 0 0 e v b v u b b b J S m ] ] J m b b m c t i u g E E g m.l.M.K.K.SXJXGXDXDX!.T.T.E.E.) ! ! ! ! E X.(.(.(.(.T ].+X].'.sXsXqXtXwXdXdXdXdXdXBXx B B N c N N N N x x r x x x c N N N N c c c c c N c m.K.S.c.y t t t v v r r r r r r r r 4 4 4 1 1 1 1 1 1 1 1 9 1 1 4 4 w w w w 6 FXbXSXt r 4 4 w w w w 4 4 4 4 1 1 1 1 1 1 1 1 1 1   3XV.y.! . 1.PXSXSXSXlXvXvXbXbXvXu.M.P.:X3XkX  o o o o E lXkX%X. j.vXZXSXSXvXE.W.1X1X<Xd d d f R R $ # # 1 # 1 1 1 1 1 1 1 1 1 1 1 1 1 4 4 w 4 4 < 5 q 9 4 4 w w w 3 1 1 1 1 1 4 4 4 4 r r 4 r r r r r r r r t r r r r r r c c x c x N N N N N N N N N N x N x x N B B B B B V V V V z 0XyXyXyXyXyXpXpXaXaXsXqXpXaX9X}.{.(.(.{.[.[.[.[.2.2...Y Y [ ' ' ` ` { X.X.X.X.~ ~ ~ ] ] ~ M C J M b b b b b b b b n Z n S S S S b y y 0 7 6 * * 0 y ",
"9 q t Z s u 0 p p 6 e e v b v e v b b S S J ,...,.J b c A c v m v F Y Y G %XP.P.P.I.bXFXGXDXbXjXE.E.W.W.o._ .._ _ _ (.(.[.(.(.T `.`.`.].`.tXtXtXpXdXdXdXdXdXsXz B B N c N N N N x x %.6..Xx c N N N N c c N N N a N C.K.K.c.0 r r r r e r r r r 4 r r r 4 4 4 1 1 1 1 1 1 1 1 9 1 1 4 w w w w w 6 SXZXcXr 4 4 4 w w w w 4 4 4 1 1 1 1 1 1 1 1 1 1 1 & 1X1X1X<X<XgXIXIXIXIXKXGXJXJXJXSXY.Y.>X>X>X<X  o o o o : hXhXhXhXhXPXPXPXPXKXR.1X1X1X1XY.Y.Y.>XY.B.@ # # 1 # # 1 1 1 1 1 1 1 1 1 1 1 1 w w w 4 w 0XHXHXe.r 4 w w w 3 1 1 1 1 1 4 4 4 4 r r 4 r r r r r r r r t t r r r r W ! ~ x x x N N N N N N N N N N L 2.Y x N B B B B c A V V V z NXBXBXBXBXBXpXpXaXpXpX+X9X9X}.}.5.......2.2.2...2.2.' ' ' ' ~ ~ G ~ ] X.X.X.X.S J J ~ ` J S S J J Z b b b b b b b S Z M M M b p p y y 0 7 6 * * 7 ; ",
"9 9 q W W p y p W p 0 0 e u u u S M ~ ~ ~ ' ....2.,.' c c c v v v Y T T Y V.P.P.P.P.ZXGXDXDXbXjXW.W.W.W.O._ (...` T }.}.(.(.(.(.[.[.}.oX+XtXpXpXpXdXdXdXdXdXNXV K v c N N N N N x x .X'..Xx c N N N N N N N N N N a N.L.P.n.y r r r r r r r r r r 4 r r r r 4 4 4 w 4 4 w w w w w w w w 4 w w w v v v r w w r w w 4 4 4 4 4 4 4 4 4 1 1 1 1 1 1 > 2 & <X1X1XW.W.hXIXIXIXPXHXKXPXPXPXSXY.>XY.>X1X3X  o o o o . hXhXhXW.^.KXPXPXPXKXR.1X1XW.W.Y.Y.Y.>X>Xm.$ $ # # # 1 1 1 $ 1 1 1 1 1 1 1 1 1 4 w w w 4 !.DXDX!.x r 4 4 4 4 1 1 3 4 4 4 r 4 4 r r r r r r r r r c c c c c x x x ( m.w.B N N N N N N N N N N N x *.2.2.c B B B B B L I A V V z NXsXBXBXBXsXsXaXpXpXaX+X+X}.}.{...........2.2.[.2.2.' ' ' ^ ~ ^ ^ ^ } X.X.X.X.I J ~ ~ ~ J J J J J S Z Z Z n n n b S S M S S S S n 0 y y 7 ; - 0 :.~ ",
"9 9 9 0 e Z p p Z 0 , 0 e e e u M M M M M ' { { { ,.,.A c c v v v K Y Y Y V.P.P.P.P.SXGXDXDXbXxXE.W.W.E.+...T T G T [.[.(.[.[.(.[.[.`.oX}.yXpXpXpXdXdXdXdXdXaXF F F F B N B N N c x 6.}.}.x x c N N N c c N c c N p N.L.P.c.e r r r r r r r r r r r r 4 r r 4 4 4 w 4 4 w w r w w w w w 4 w w w w w w w w w w w w 4 4 4 4 4 4 4 4 4 1 1 1 1 1 1 1 4 . 1X1XW.W.W.hXIXIXIXPXJXKXPXPXPXHXY.Y.Y.>X1XkX  o o o o   hXhXhXW.^.KXKXPXPXKX~.1X1X1X1XY.Y.Y.Y.Y.m.$ $ # # # 1 1 1 $ 1 1 1 1 1 1 1 1 1 4 4 w r 4 fXSXHXfX4 r 4 4 4 3 3 3 3 4 4 r r 4 r r r r r r r r r c c c c c c c c N 8.N.n.N B B N N N N N N N N N x *.2.*.c B B B B B K K K V V B NXBXBXBXBXsXsXdXpXpXpX+X}.}.2.2.2.[.2.2.2...2.[.2.2.' ' ' ' ~ ~ ^ ] | X.X.4.3.~ ~ ~ ~ ~ A A J J J S Z Z Z S n n ~ S S n W S S S n u y 7 ; ; ; 0 s W ",
"> 0 9 t b Z Z Z Z ;.0 0 e e u u M M M M M ~ { { ,.,.] A v c v v v K Y Y G V.P.P.P.P.bXGXDXbXbXxXE.W.E.<X+.......` T [.[.(.(.[.[.[.`.[.oX+XtXpXpXpXdXdXdXdXdXqXF F F B B B B N N N x 4 l l x x c N N N c c c N c N a N.Z.M.x.u r r r r r r r r r r r r 4 r r 4 4 4 w 4 4 w w w w w w w w 4 4 w w 4 4 r w w w w w w 4 4 4 4 4 4 4 4 4 1 1 1 1 1 1 4 % : 1XW.W.W.W.^.PXPXPXPXJXKXPXPXPXHXY.Y.Y.>X1X3Xo o o o o   hXhXhX1X^.JXKXKXPXKX~.1X1X1X1XW.W.Y.Y.W.m.$ # # # # 1 1 1 $ 1 1 1 1 1 1 1 1 1 4 4 w r 9 @ :.1.s w w 4 4 4 1 1 3 3 4 4 4 4 4 r r r r r r r r r c c c c c c c c c x.N.n.N B B N N N N N N N N N x x B x c B B V B B B v B v B B NXBXBXsXsXsXsXsXdXpXpX+X.X}.[.[.[.[.[.2...2.2.[.2.2.^ I ~ ~ ^ ^ ^ ` | 4.3.<.| J J ~ J J M A A J J S b Z n S S n 1.S n b S Z n n p p * ; ; y y 6 i E ",
"> 9 9 e t t p u p s y y e e e 0 p m b m m b b b p A *..X.X.X.X-.V m v v c n E i u u gXjXjXxXxXh E E E / G G G ' ` T ..........[.(.[.[.}.+XyXyXyXtXdXdXdXpXpXtXBXBXBXNXNXz V B B N c N c c N c c c c c c c c N N N a e u u u c x r r r r r r r r r r r r r 4 4 4 4 w 4 4 w w w w w w w 4 4 4 w w 4 w w r w w 4 4 4 4 4 4 4 4 4 4 4 4 1 1 1 4 4 4 w l d 1XW.W.W.1X^.GXbXbXvXT.R.~.jXjXvXI.I.f.R . o o o o       1XW.W.W.W.~.~.~.~.E.W.1X1X1XW.W.W.Y.Y.Y.u.$ # # # # 1 1 1 1 1 1 1 1 1 1 1 1 4 4 4 4 4 4 4 4 4 4 4 w 4 4 4 4 4 4 4 4 4 4 r r r r r r r r r r r c c c t t c c c c x.N.C.x V A K v N N N N N N N N x N x x B B V V V z aXaXaXaXaXBXsXBXsXsXsXsXsXdXaXtX}.}.}.[.[.[.[.[.2...[ 2.2...[ M S Z J J J J ~ S b b b Z b b Z Z Z m c v b J M b M S Q n e b n b p 0 0 0 0 6 ; ; ; ; ; ; 0 i y ",
"> 9 q e p e p p p i 0 , 0 0 y 0 u p p u u p p p p e A -..X9XqX9X%.G v v c A A M G G &X~.~.~.hX! J G A F v m G G G G G Y U U [ (.(.(.(.(.(.(.`.`.`.9XrXrXrXtXtXsXsXdXsXsXz V B N N N B B B N c c 6.6.>.c c c c c c c r r r r t r r r r r r r r r r r r r r r 4 4 r r r r 4 4 4 4 w w w w w w w w 4 w w w w w 4 4 4 4 4 4 4 4 4 4 4 4 4 4 4 4 4 4 l l d 1X1X1XW.W.^.JXGXGXFXW.1X1X1X1XhXI.f.s.k o o o o . 3X1X<X1X1X1X1X1X1XW.W.W.W.W.1XW.W.1XW.W.Y.Y.Y.u.$ # # # # # 1 1 1 1 1 1 1 1 1 1 1 3 4 4 4 4 4 4 4 4 w w w 4 4 4 4 4 4 4 4 4 r r r r r r r r r x r r c c c N 7.8.x.8.8.m.K.V.v.8.8.7.b r N N N N N N N N N x B B B V V V z aXaXpXpXaXpXpXpXeXeX9X].].].'.'.}.}.}.}.[.[.[.[.2.[ U I ^ ^ ^ J S Z S S S Z Z n b b b b C C b Z Z b S b t ~ Q W E n W n t u p u e e e e e 0 7 7 y s s y ; Z W ",
"> 9 q e e e Z p 0 s n ~ 0 6 0 0 u u u y 0 y p y p u e *.-.9XqX9X*.M c v c M m M A M C.~.~.hXhX! A G A F B N A G K G K Y T T ..(.(.(.[.(.(.}.(.(.(.9XrXrXtXtXpXsXsXsXsXsXz V B B N N B B B N c c 6.6.6.c c c c c c c t t r r r r r r r r r r r r r r r r r r 4 4 r r r r 4 4 4 4 w w w w 4 4 w w 4 w w w w w 4 4 4 4 4 4 4 4 4 4 4 4 4 4 4 4 4 4 l l d 1X1X1X1XW.hXJXJXGXJXE.1X1X1X1XhXI.f.s., o o o o . <X1X1X1X1X1X1X1X1X1XW.W.W.W.W.W.W.1XW.W.Y.Y.Y.u.$ # # # # # 1 1 1 1 1 1 1 1 1 1 1 3 4 4 4 4 4 4 4 4 w w w 4 4 4 4 4 4 4 4 4 r r r r r r r r r x r r c N N t n.V.m.V.m.N.M.M.m.c.c.x.e r N N N N N N N N N x B B B V V V z aXdXpXpXaXpXpXpXpXpX9X+X+X+X}.}.}.}.}.[.[.[.[.[.2.[ ' ~ J ^ ^ J S Z M S S Z n Z b b b b C C C Z Z A J S b ~ ~ Q W W E n e u u u 0 e e 0 0 0 7 0 0 - , ; * ; * ",
"9 9 9 w e e Z W s ;.i W n s ; y u u e 0 0 i i i u u p &.' -.9X9X&.A c c c A A A A S C.~.~.hXjX! G G G A v A A A J J K U T T 2.}.(.(.(.(.(.oXoX}.(.9X8X9XtXtXpXsXsXsXsXBXz V B B B B B B V N c c 6.w.6.c c N c c c x r r r r r r r r r r r r r r r r r r r r r r r w r r w w w w w r r r w 4 4 w w w w w w w 4 4 4 4 4 4 4 4 4 4 3 3 3 3 4 3 4 4 l l f 1X1X1XW.W.hXKXJXJXJXE.1X1X1X1XhXI.I.s.G o o o o . 1X1X1X1X1X1X1X1X1X1X1XW.W.W.W.W.W.1XY.W.Y.Y.Y.u.$ 1 1 1 1 1 1 1 1 1 1 1 1 1 1 1 1 3 4 4 4 4 4 4 4 4 4 4 4 4 4 4 4 4 4 4 4 4 r r r r r r r r r x r r c N N N n.m.m.m.m.N.M.M.m.c.c.x.u r N N N N N N N N N B B F V B B H z aXaXaXaXsXpXpXpXpXpX9X+X}.+X}.}.}.}.}.}.}.[.[.[.2...` ~ ~ ~ ~ J M M b m m b b M n n b b b b b b b b S J J <./ Q / E ~ W e t e e 0 0 0 0 0 0 - W W i W y ; W ;.",
"q q q w b b Z n p Z 0 0 y i i u u u y 0 0 i p s p u p ~ M &.9X9XH A b c c A C J J J x.^.~.jXjX! A A A A A A A A A K K K Y Y ..}.(.(.(.(.(.oXoXoX`.yXrX9XtXpXpXsXsXsXsXBXF V V B B V V V V N c c x x x c c c c t c r r r r r r r r r r r r r r r r r r r r r r r r r r r w w w w w r r r w 4 4 w w w w w w w 4 4 4 4 4 4 4 4 4 4 3 3 3 3 4 4 4 4 l l R 1X1X1XW.W.jXKXJXJXFXE.W.1X1X1X1XI.I.f./ o o o o   1X1X1X1X1X1X1X1XW.W.W.W.W.W.W.W.W.W.Y.W.Y.Y.Y.u.> 1 1 1 1 1 1 1 1 1 1 1 1 1 1 1 1 3 3 4 4 4 4 4 4 4 4 4 4 4 4 4 4 r r r 4 4 r r r r r r r r r r c c N N N C n.m.m.m.m.B.m.x.) x.i.8.u t N N N N N N B N N B B F H H H H z aXaXpXaXsXpXpXpXpXpX].+X+X+X.X}.}.}.}.}.}.[.[.2.2.,.S S J J M S M M n M M M b b n n n Z Z Z b b b p S J S ~ Q E E M i u 0 e e e 0 0 0 0 0 0 - ; ; , , y & ; & ",
"q q q w e u i p i W 0 n W W Z 0 , 0 0 0 y y p p p p p Z n C *.*.V A A b t t b b b t g T.E.<XgXu b A C A A A A A A K K K K J G Y T T Y ..(.}.}.}.[.yX9X9XyXtXqXsXsXsXsXBXz =.-.6.9X.XV V V N x x x x x x c c c c c r r r r r r r r r r r r r r r r r r r r r r r r w r r w w w w w w w w w 4 4 4 w w w w w w 4 4 4 4 4 4 4 4 4 4 3 3 4 4 3 3 3 4 2 % R 1X1X1X1XW.hXJXGXFXFXE.W.1X1X1X1XI.I.P.@.% o o o   1X1XhX1XhXhX~.~.W.W.W.W.W.W.W.W.W.W.Y.Y.Y.Y.Y.u.$ $ 1 1 1 1 1 1 1 1 1 1 1 1 1 1 1 4 4 4 4 4 4 4 4 4 4 4 4 4 4 4 4 r r r r r r r r r r r r r r r c c N N N A n.V.n.n.8.8.i.@.m n E n p c N N N N N N N N B B H =.=.'.8X8X8XaXdXdXdXaXpXaXaXpXaX'.+X+X}.}.}.}.}.}.[.[.2...[ [ ' S S M M M M M n Z Z b Z M b n n n b b b b b b p m M n W W Z n n s 0 0 0 e e 0 6 0 0 0 0 6 y y i i y & E ; ",
"w e t r e 0 i 0 0 i 0 ; i i i 0 0 y i y 0 y u u p p p p b b b n b m C A b b b b b b i P.A.A.m.i b A C C A A A A A A A A S S C J J I I K Y T T T [ 2.2.[.}.+X`.9XyX8X8X9XaXsXsXsXsXqXV V B V c c c x x x N N C C c c c c r r r r r r r r r r r r x x x r r r r r r r r r r r r r r r w w w w w r 4 4 w w w w 4 4 4 4 4 4 4 4 4 4 3 3 4 4 3 3 3 3 4 v f Y.Y.Y.Y.Y.Y.Y.Y.W.W.W.W.W.W.1XW.I.L.f.s.R .       . .     . f.Y.W.W.W.W.W.W.W.W.W.W.W.I.Y.Y.Y.Y.u.$ 1 1 1 1 1 1 1 1 1 1 1 1 1 1 1 1 1 1 1 4 4 4 4 4 4 4 4 4 4 4 4 4 r r r r r r r r r c r r r r r c c N N N N N N N N C 7.a.a.Q t a C C N B B B B B B B V V B P 8XpXpXpXiXpXpXrXqXtXyX-.-.`.'.'.`.-.-.T [ Y Y Y Y ^ J G S S S J M n n n n Z Z Z Z Z Z Z Z Z C b b b b b b b b b M M n n p y y y p e e 0 0 0 0 0 - p , 0 * i i i i ; - i E ",
"e t c c e 0 p Z i i i s W Z :.0 W W y u u y u u p p p b b b b n b m A A b b b b b b g P.A.L.V.i b A b A A m A A A A S S S S S J J J J G I Y Y T [ 2.2.2.`.`.-.'.'.].9X9XaXaXaXaXsXeXH H P P x c x x x r A D D D N x c N x r r r r r x x x x x x x x x x r r r r r r r r r r r r r r w w w w w r 4 4 4 w w w 4 4 4 4 4 4 4 4 4 4 3 3 4 4 3 3 3 3 4 w f Y.W.W.W.Y.W.W.W.W.W.W.W.W.W.W.W.W.W.Y.Y.>X<X<XkX          . g.U.Y.W.W.W.W.W.W.W.W.W.W.I.Y.U.U.U.u.$ # 1 1 1 1 1 1 1 1 1 1 1 1 1 1 1 1 1 1 4 4 4 4 4 4 4 4 4 r 4 4 r r r r r r r r r c c c r r r c x x c c c N N N N N N / i.i./ c t C C C V V V V B V V H L H H 8XpXpXpXpXpXpXqX8X9X+X`.[.`.`.`.-.T T U U I Q ~ ~ ~ J J J S J J M n n n n Z Z Z Z Z Z Z Z Z Z Z C b b b b b b p b b i i i y 0 y p 0 0 0 0 0 0 9 0 p 0 0 - i i i W Z & i i ",
"e t c D t 0 i y y W y ; n i W i s p n p 0 y u i p p p b b b b b b m A A b b b b b b g P.I.L.V.i b A b m m M A A A A S S S J S J J J J K I U Y Y [ 2.2.2.[.[.-.+X+X+X'.'.aXaXaXaXaXyXH P U P x N x x x r V A V V x x V &.&.x x r r r x x x x x x x x x x r r r r r r r r r r r r r r w w w w r r 4 4 w w w w 4 4 4 4 4 4 4 4 4 4 3 3 4 4 3 3 3 3 4 4 f Y.W.W.W.Y.W.W.W.W.W.W.W.W.W.W.W.W.W.Y.Y.Y.>X<X<X          . g.I.Y.W.W.W.W.W.W.W.W.W.W.I.Y.Y.Y.Y.u.$ # 1 1 1 1 1 1 1 1 1 1 1 1 1 1 1 1 1 1 4 4 4 4 4 4 4 4 4 r 4 r r r r r r r r r r c c c r r r c x r x c c N N N N N N / i.i./ c q C C C V V V V B V V H H H H 8XpXpXpXpXpX8X9X9X+X.X[.`.`.`.`.-.[ [ T ' ' J J J J J J J S S J M n n n n Z Z Z Z Z Z Z Z Z Z Z Z b b b b b b p p p i i i y 0 i p e e 0 0 0 0 0 Z p u p p W W y s i ; y i ",
"t t t S C t t y 0 i i y i s s , ;.s n i W p p p p u p b b b b Z Z A C A A b C b b b u T.L.L.V.E b m m C C C S S S S S S A J S J J J ~ ~ ~ [ { { >.,.,.2.2.[.-.}.'.[.`.`.aXaXaXaXsXtXP L L &.B B x B x x x x x x x N L >.>.x x x x x x x x x x x c Z S b x x r r r r r r r r r w w w r r r r w w r 4 4 4 w w w w w 4 4 4 4 4 4 4 4 4 4 3 4 4 3 3 4 w t.Y.>XY.Y.Y.W.W.W.W.W.W.W.W.W.W.W.W.Y.Y.Y.Y.1X<X<X          : h.U.Y.W.W.W.W.W.W.W.1X1XW.Y.Y.Y.Y.Y.u.@ < 1 1 1 1 1 1 1 1 1 1 1 1 1 1 1 9 1 4 4 4 4 4 4 4 4 4 4 r r r r r r r r r r r r r x x r r r x x x c c c N N N N N N ~ O.O./ c c C C C N V V V V L L K K K H 8XpXpXpXpXtX9X+X+X+X+X}.[.[.2.T ..[ [ [ [ ^ J J J ~ ~ J J J J S M M M M M Z Z Z Z Z M C C C C C C n n n n n n i i s s s s i y y b b u e e 0 0 0 y W , 0 Z ; y i W W 0 E E ",
"q w t c D t y Z i Z y Z i W i i y i i y n n p n p p p n b b n S n M S M J M n n n b n ! ! ! O.m b Z C C C C S S S S A A A A S J J J J ~ ~ ' ' ] ] ,.,.,.2.2.2.}.}.`.[.}.pXpXaXaXaX9Xz %.%.%.z z z H F x x x x c N N N B V c c x x x x N N N x x c n E b c x r r r r r r r r r w w w w r r r w w w 4 4 4 w w w w w 4 4 4 4 4 4 4 4 4 4 3 4 4 4 3 l w m.<X>X>XW.Y.W.W.W.W.W.W.W.W.W.W.W.Y.W.Y.Y.W.>X1X1X          E f.g.U.Y.W.W.W.W.W.1X1X1X1XW.1X>X>X>Xs.$ # 1 1 1 1 1 1 1 3 3 1 1 1 1 1 1 9 9 9 4 4 4 4 4 4 4 4 4 r r r r r r r r r r x x x x x r r r x x x c c x c c c N c c m ~ ~ ~ e t c c N N x V V V H H L L L %.8XpXpXpXpX9X+X}.[.[.[.[.[.........2.2.3.5.<.J J J ~ ~ J J J J S S S S S Z S S S Z Z Z C Z Z C C C Z M E Q Q Q E E W E n n n p p Z S Z b e 0 0 0 0 i n y i y i i : n y E i ",
"q w w w w e t n y i y W i i W i s y W i n i W n p u p b p b n S n M S ~ ~ S n Z Z n Z J S M ~ m m C C C C C S S S S S A S S S J J J S J ~ ~ ~ ] ] | | ,.,.,.2.[.}.[.}.[.0XaXyXyX0X9X0X0X0XyXqXqXqXqX0Xx x x x c N N N N N N N x x x x x x x x x c M S b x x r r r r r r r r r w w w r r r r w w w w 4 4 w w w w w 4 4 4 4 4 4 4 4 4 4 3 4 4 3 3 l % : : d g ! f <XW.W.W.W.W.W.W.W.W.Y.Y.Y.Y.W.W.1X1XhX          . r.g.U.Y.W.W.W.W.W.W.W.W.1Xf ) :X<X<XP.$ % 2 2 1 1 1 1 1 3 3 1 1 1 1 1 1 1 9 9 4 4 4 4 4 4 4 4 4 r r r r r r r r r r x x x x x r r r r x x r r x c N N N c c c c c m e t c c N N %.6..X9X9X9X9X9X.X.X9XtXtXtXyX+XXX}.[.[.[.[.[.2.2.....3.4.4.4.<.J J J ~ ~ J J J J S S S S Z Z S S S Z Z Z Z Z Z Z C C Z E ~ / / / Q Q E E E E Z i n S S b e e 0 y 0 0 0 , & :.w.( / n n , : , ",
"9 q q 9 e e t i p W i W i W i 8 ~ Q ~ n W W W ~ W ~ n ~ M W ~ ;.~ ~ J ~ ~ ~ ~ ~ ~ ~ J J J J M M A A A A A A S S S J J J S S S S S S J J |  .| <.<.4.4.4.<.<.O.q.q.q.v.v.$X;X;X$X X X0XfXfX0XyXaXaXaXNXv x x x c x x N N N N N N x x x x x c c c c c c x r r r r r 9 4 w r r r r r r r r r r r r w w r r w w 4 4 4 4 4 4 4 4 4 4 4 4 4 4 4 4 3 3 l 4 2 2 % % % o 3XY.Y.Y.Y.W.W.W.W.W.W.Y.Y.Y.Y.I.. ; $ # o o   <X1XW.W.Y.Y.W.W.W.W.Y.Y.W.W.1X. + # # # % % % 2 2 2 1 3 3 3 3 3 4 4 4 4 4 4 4 4 4 r r r r 4 4 4 r r r r r r r r r r r r w N ;.>.I r r r x x r r r r c N N c c x x N c c e c c c c L 0XaXaXaXaXyX0X0X0XXXXX@X*X*X$X$X$X$X|.|.|.0.0.0.0.0.|.0.0.0.|.4.~ ~ ~ ~ ~ ^ J J J J J S ~ S S S S S S S S S S J J A A S ~ O.O.O.O.O./ } / / / / n W ~ ~ p 0 n u u u u n , , ! 8./ O.E n m e e ",
"9 q 9 9 9 9 e 0 y W i Z i W s i n / ~ W W W n W Z W n Q Q ~ ~ ~ ~ / ~ / ~ ~ ~ ^ ~ Q J J ~ S M M S S S M S S S S A A A A A A A S S S J I <. . . .7.7.7.7.7.7.i.a.a.p.b.b.B.B.B.b.v.$X$X$X$X-X6.&.%.%.H F v x x x x N x x N c c N N N x x x c c c c c c x r r r r r x 6.%.r r r r r r r r r r r r w r r r w w 4 4 4 4 4 4 4 4 4 4 4 4 4 3 3 3 3 3 3 4 4 2 % % % o kXY.Y.Y.I.W.W.W.W.W.W.W.W.Y.Y.I.: , % $ + + . <X1X1XW.W.W.W.W.W.1XY.1X1X1X<X. o # 2 2 % 2 2 2 3 3 3 3 3 4 4 4 4 4 4 4 4 4 4 4 4 r r 4 4 4 4 r r 4 r r r r r r r x x x x N ;.>.;.r r r x x x x r x c c c c c c N x x e r t a V B L .XNXNX0X6.XXXX X Xq.%XV.B.B.B.B.B.B.B.B.B.B.B.B.b.b.a.q.q.q.|.0.~ J J ^ ^ ^ J ~ J J J S ~ S S S S S S S S J J J J J J J ~ O.@.@.O./ / / / ~ } <.n / W W , 0 W p 0 u n :.u u / 7.( 7./ Q M e e ",
"9 q 9 9 9 9 c u y p y y y i i i E W ~ W W n W ~ n n n Q E / / / / / ~ / ~ ~ ~ ~ ~ ~ ~ J ~ S S M S S S S M M S S A J J J S S S A S S S J <.+.O.O.8.8.8.@.@.@.p.p.p.c.b.b.m.B.B.%X$Xn.$X$X$X-X;.A V V F F V &.6.6.6.N x x c c c N D D N x x c c c x x x x r r r r r B .X&.r r r r r r r r r r r r r r w r w w 4 4 4 4 4 4 4 4 4 4 4 4 4 3 3 3 3 3 3 4 4 2 2 % j   kXY.Y.Y.Y.W.W.W.W.W.W.W.W.W.Y.Y.d % % $ + + . 1X1X1XW.W.W.W.W.W.1X>X1X1X1X<X. # # 2 2 2 2 2 2 3 3 3 3 3 4 4 4 4 4 4 4 4 4 4 4 4 r r r 4 4 4 r r 4 r r r r r r r x x x r N ;.;.&.r r r x x x x x x c c c c c N B *.-.r r t N *.*.-.x H H K G  X|.|.0.q.%XV.B.B.B.B.B.B.B.B.B.V.B.B.s.s.b.v.v.q. Xq.~ ~ ~ ~ ~ ^ J ~ ~ ~ J S E E E E E E W W W ~ ~ ~ ~ J ~ ~ ~ O.@.@.8.O.} } } / } } n ~ / W > , Z 0 p i p i p p / w.8.7.! / E , e ",
"w w w 9 9 9 c b p u y n E W E n W ~ / ~ / n M W m n n E W 7./ 8.@.i.i.a.v.v.x.v.v.@.@.@.@.@.@.@.@.@.@.x.n.n.n.x.x.n.n.n.n.n.n.$X%X%X%XB.%X%X%X%X%XB.B.B.b.b.p.c.c.c.b.b.b.b.b.%X$Xn.w.XXXX-XD B c c v v V &.6.6.6.N N N c c c c D D N c c x x x x x x x r r r r r x x x r r r w r r r r r r r r w w w r 4 4 4 4 4 4 4 4 4 4 4 4 4 4 4 4 4 3 3 3 2 3 3 2 2 2 # . 3X>XY.Y.Y.1XW.W.W.W.W.W.W.W.W.W.d % j # + + . 1XW.W.W.W.W.W.W.W.1XW.1X<X1X3X: # # % % 2 2 2 2 3 3 4 4 4 4 4 4 r r r r r 4 4 r r r r r r r r r r r r r r 4 r r r x x r x x A V c x x x x x x x x x a N N x x N B -.-.v q t B 6.`..XA V A A K [ {.5.,./ %XB.B.B.B.B.B.B.B.V.V.V.B.%Xb.b.%X%X%X%X%X%X$Xn.$X%X%X%X%X%X%X&X%X&X%X&X&Xn.%X%X%XV.V.B.b.b.b.b.b.v.x.a.a.a.a.a.8.@.$.O.7.O.! / ~ ~ p p p S p y u i E y O.n.w.7./ / n v v ",
"w e 9 e e e v S Z Z u E E E E ! W W M E E n n W E W E ~ W ~ ! 8.a.p.p.p.B.B.B.B.B.B.c.c.c.c.p.p.p.p.p.p.p.m.V.V.V.%X,X,X&X,X&X,X,X%X%XB.B.V.V.V.V.c.x.8.8.@.( ( ( ( / / / / / W S Z A C A A V V v c c c B L 6.6.6.N N N c x x c N N c c c x x x x x x x r r r r r r x x r x r w r r r r r r r r r w w 4 r r r r r 4 4 4 4 4 4 4 4 4 4 4 4 3 3 3 3 3 4 2 2 2 % : i.R d d . k.Y.Y.Y.Y.Y.W.W.W.W.Y.d $ $ $ # # d Y.Y.Y.Y.U.Y.Y.Y.Y.<X. d d R b.: o % 2 2 2 2 2 l 3 3 4 4 4 r r r r r r r r r r r r r r r r r r r r r r r r r r r x x x r r x x x x x x x x x x x x r t N N x x x V 2.2.x q t N >.6.6.H L L L L L L D L S Q ! ! ! ! ! ! ! E E Q Q M m m m @.b.B.B.B.B.&X&X&XV.V.V.,X,X&XV.V.V.B.B.B.B.m.B.B.B.B.B.m.c.B.B.B.B.p.a.p.p.p.a.a.@.$.@.O./ / / / W u p 0 p y W / / E E / / 8.( / / ~ ^ ~ ",
"e e t b e e c p p u i E E E E W n Z n S S n n m n n E E n ~ Q O.@.i.i.i.i.i.i.i.i.i.@.@.) ) @.) i.y.i.y.i.i.p.i.i.x.i.i.8.( ( ) ) ) ( ) ) ) ) ) ) ( ! E W W W W W W W W W S S S S D V A C V V V V A A B V B V B V N B N c c x c c c c c c x x x x x x x r r r r r r x x r x r r r r r r r r r r r w w 4 4 4 4 4 r 4 4 4 4 4 4 4 4 4 4 4 4 4 4 4 2 2 2 2 2 2 2 % % % # % % m.>XY.Y.Y.Y.Y.Y.Y.Y.Y.d # + # @ # g >X>XY.Y.Y.Y.Y.Y.Y.<X. % % , , l # 2 2 2 2 2 2 l 3 3 4 4 4 4 r r r r r r r r r r r r r r r r r r r r r r r r r r x x x r r x r r r x r r r x x x x r r N N N N N x l v v q q q w 4 x H V D D D L L D V D S ~ M M C A A A A A G G A G F F O.b.b.b.b.p.p.p.p.B.s.B.B.m.m.p.p.p.p.p.p.p.p.p.p.p.p.c.c.p.c.p.p.p.p.a.p.p.p.a.a.$.$.$.+.M Q Q Q W 0 0 0 ; 0 E +.O.} / / 0.! / ! } | |  .",
"c c c c b e t c b p i W ! ! ! W b n b n n p p p p i n W W <.S / @.i.i.i.i.i.i.i.i.i.i.i.i.i.i.@.i.i.i.i.i.i.i.@.@.@.@.O.( ( / / / / / ( ( ( ( ( ( / ~ W S S Z Z Z S S S S S S S A A D A A A A A L L L V V V V V V N 6.6.6.*.x c c N c c c x c x x x x r N x x r r r t e / 8.n.e r r r r r r r r r r r r r r 4 4 r 4 4 4 4 4 4 4 4 4 4 4 4 4 4 4 4 4 4 2 2 2 2 2 2 % j j j B.>XY.Y.Y.Y.Y.Y.Y.Y.Y.: + + # @ # ! >X>XY.Y.Y.Y.Y.>XY.<X. % % % % l 2 2 2 2 2 2 2 3 3 3 4 4 4 4 r r r r r r r r r r r r r r r r r 4 r x x r x r x x r x x x x x x x x x r r r x x x c x x N N N N x N >.6.6.>.w x B V V V V D D L L D D V A D W S S D D D A A V V V L P P P O.b.b.b.b.a.p.p.p.s.s.s.B.B.b.p.p.p.p.p.p.p.p.p.p.p.p.p.p.p.b.a.a.p.a.b.b.a.a.b.v.$.a.$.q.^ ^ ~ Q S , q 0 0 0 m +.O.O.O./ +./ } } } <.9.4.",
"c c c b C b b c c t u W E ! ! W b b b b b u u u u n n E n ~ ~ ( @.p.p.p.i.p.p.i.i.i.i.i.i.i.i.) i.i.i.i.i.@.@.@.@.) ( ( / / / ~ / / / / / ! ! ! / / ! W S S Z Z C D D D D S S S S S D A A A A A L L L A V V V V V N 6.-.2.>.N N N N c x x x x x r r x r P }.6.x x t c b C.V.V.9 r r r r r r r r r r r r r r r r r 4 4 4 4 4 4 4 4 4 4 4 4 4 4 4 4 4 4 2 2 2 2 2 2 2 j j l :XY.Y.Y.Y.Y.Y.Y.Y.Y.Y.: O + # @ + ) >X>XY.Y.U.Y.Y.Y.Y.<X. % 2 % % % % 2 2 2 2 2 2 3 3 3 4 4 4 4 r r r r r r r r r r r r r x x r r r r x x x x x x x x x x x x x r x x x x x x x x x c c x x x N N N N 6.6.6.6.x x V V V V V D L L D D V V D D S D D D D A A A V N L *.*.*.P 7.b.b.b.b.a.p.p.p.p.p.s.s.b.b.p.p.p.p.p.p.p.p.p.s.s.s.p.b.b.b.a.a.p.a.a.a.b.b.b.v.$.a.v.v.^ ~ ~ J M e 0 0 6 q m } O.( ( / O./ O./ } ~ ~ ] ",
"c c c c b c b b c t u W ! / / ~ b b b b b u u u p n n E n ~ / ( i.p.p.p.i.p.p.i.i.i.i.i.i.i.i.@.@.i.i.i.i.i.@.) @.) ( ( ( / / ~ ~ ~ ~ ~ / / / / / / Q S S S Z Z C S D D D S S S S S D A A D A D L L L V V V A V V V 6.2.2.*.c N N N c x x x x x x x x x P 6.6.B x c c b C.V.&X9 r r r r r r r r r r r r r r r r r 4 4 4 4 4 4 4 4 4 4 4 4 4 3 3 4 4 4 2 2 2 2 2 2 2 j j l ,XY.Y.Y.Y.Y.Y.Y.Y.Y.Y.: + + # + + ) >X>XY.Y.U.Y.Y.Y.>X,X. % 2 % % 2 2 2 2 2 2 2 2 3 3 3 4 4 4 4 r r r r r r r r r r r r r x x x r r r x x x x x x x x x x x x x N x x x x x x x x x c c x x x x x x N 6.6.6.6.x x V V V V V D D L V D V V D D D D D A D A A A V N L *.>.P P O.v.b.p.a.p.p.p.p.p.p.s.s.B.b.p.a.p.p.p.p.p.p.B.B.B.B.B.b.b.b.a.a.p.a.a.a.b.b.v.v.$.a.a.v.^ ~ ~ M ~ b y 0 0 0 m +.O.o.O./ O./ ( ! / ~ G ` ",
"b b v m m m b c b u q 0 n i i p p p b b b u 0 b m n n n M J J / O.@.@.O.O.@.@.@.@.@.@.O.O.( ( ( O.O.O.( ( ( / ( / / / ~ ~ ~ I K K K K K K I I I J J S S S S C C C D Z Z S S S S S S D A A A A A A A A A A A A A A N *.6.6.L N N N N c x x x x x x x x x V >.P t t t t i C.V.C.t x x c t r x x x r r r r r r r r r r r 4 4 4 4 4 4 4 4 4 4 4 3 3 1 1 1 2 2 2 2 2 2 l l j l 3X<X3X3X3X,XY.Y.Y.Y.Y.d @ + # @ # ! >XY.Y.Y.f P.3X3X<X,X& % 2 2 2 2 2 2 2 2 3 3 3 3 3 3 4 4 4 4 r 4 r r r r r r r r r r r r x r r r x x x x x x x x x x x x x x N B x x r a x x x x x x c x x x x x x >.>.*.K r x V V H V D H V H A V V V A A A A A V A A A C N N N V V V V S ~ ! / / / / / ! / / / ( ( ( ( ( ( O.( ( ) ( ( ) @.@.@.@.O.O.O.O.O.$.$.$.$.q.8.7.O.+.} / ~ ~ ~ m b b p 0 0 y u / } } } } O.} } / } J J ' ",
"G G G ~ ~ ~ M b b b e e e e y e e e b b b i S S M m n } } } ] ~ G I ~ ~ ^ ~ ^ ^ J J J J J ~ J J J J J J I I W W D L L L &.&.L L L L L L L L L L D D D D D D C C D ;.Z Z Z C J S A A K K A N c A D K A V A A D A A N C C N N a N N N c x x x c x r x x x B B x q q s i g n.V.&Xi i p n c c x x x r r r r r r r r r r r r 4 4 4 4 4 4 4 4 4 4 3 3 1 1 1 2 2 2 2 2 2 l l j j % % % # # . >XY.Y.Y.Y.f e e $ % % ) >XY.Y.>Xf $ # % % % % % 2 2 2 l l 2 2 2 3 3 3 3 3 3 4 4 4 4 r 4 r r r r r r r r r r r r x x x x x x x x x x x x x x x x x N V B c N x x x x x x x x x N N N N N x B x B B V V L L H V A v A v c A D A V V V V V V B L H H H B N B K V B V A A A D D D L K L L L L K K D D K ;.W b n n M S J K K Y Y Y Y Y K P F m m A A m M G v v ~ ~ ~ ~ m b p p 0 q b Q / / /  .$X$X X X|.~ <.,.",
"~ Q Q Q ~ Q M M M b b e e e 0 e e e b b b p M G M n i } } } } Q G G J ~ ^ ^ J J J J J A D L L L D L L L &.&.I K K L %.L %.L K L L L L L L L L L D D D D D D C Z ;.6.b b Z S ;.A C K I I J c c D K K A V A D 6.>.>.N N C N N N N V V c x x N c c N x x x B B v W n.n.C.C.gXgXgXC.&X&X8.C V x x x r r r r r r r r r r r r 4 4 4 4 4 4 4 4 4 4 3 3 1 1 1 2 2 2 2 2 2 l l l l j j % % # & Y.Y.Y.U.U.r.v e l , % ) Y.Y.Y.>Xf # % 2 % % % % 2 2 2 l l 2 2 2 3 3 3 3 3 3 4 4 4 4 r r r r r r r r r r r r r r x x x x x x x x x x x x x x x x x N V B N r B F 4 x x x x x x N ;.;.K V x B B B V V V K K H L A K A c N ;.;.A A V A A A V V V *.6.6.&.c B P L H V V A A D D D K K L L L L L L L L L I J C C b S J J P P P P Y Y Y P P K F v F m m E M m v ~ ] ] / m p p p 0 q m Q / / / 9. X X X|.|.~ ,.,.",
"^ ~ ~ ~ ~ G m m m m b e q q q e e e p b p b M M M n n / / } ] G G G G G G J M C C A C C S D K L K L K L &.&.&.&.&.L D D L L L D D D D D D L D D D D D D D D D C >.6.c c c D <.I C A I I J N N D &.&.A A A K 6.6.6.N C A N A V V L I L x x L 6.6.>.x x x x B x ( C.T.!.!.gXhX^.T.T.T.j.b A N x x r r r x r r r r r r r r 4 4 4 4 4 4 4 4 4 4 4 4 1 1 1 1 1 2 2 2 2 % l l j j j j % % + >XU.U.U.U.t.m v > w j ) Y.Y.Y.>X) % % % % % % 2 2 2 2 2 2 2 2 2 3 3 3 4 4 4 4 4 4 4 r r r 4 4 r r r 4 x r r x x x x x x x x x x x x x x x x x x x x B N N x *.-.*.x x x x x x N <.<.<.;.x B B B B V V V V V L L ;.>.v c I ] J D D D D D D V V -.-.-.L c B &.%.P A V A D D D D L L L L L L L L L K K I S C C S >.<.~ J P I K P K P P K F v v v m a.a.} m m ~ ~ / ~ m p p p 0 0 i E / Q / 0.$X X X). XJ ' { ",
"` ^ ] ] ] J m m M M m u u u u e e e e p p b S M W n p } } } } G G G G G J J J C C C D D S D D D L L L D D D L L L L L L L H H L L L L L L D L L D D D D D D A c ;.6.c c c A 6.I c A K K K A V K &.&.A A V K 6.6.6.N A A V A V V L &.P x x &.>.>.P x x x x x c n.T.T.^.^.^.^.^.^.T.T.x.C b c c c r r r r x x r r r r r r 4 4 4 4 4 4 4 4 4 4 4 4 3 3 1 1 1 1 3 2 2 2 2 2 2 % % % % % > >XU.U.Y.U.t.d : u : u R U.U.Y.>Xp.l % % 2 % % 2 2 2 2 2 2 2 2 2 3 3 3 4 4 4 4 4 4 4 4 4 4 4 4 r r r r x x r x x x x x x x x x x x x x x x x x x N N B N N B -.-.*.x x x x x x N <.1.<.;.B B B V V V V V V V V L A K v c I ~ D V D D D V V B B *.2.2.V N B &.&.L D D D D D D D L L L L L L L L L L K ;.A C C J ~ ~ J J K I I P K K K A v v v v m @.i.! v v ,.<.<.<.n p u y 0 y i E W W W  X$X|. X$X XJ ' ] ",
"4.<.] ] ~ G M M Q E n u u u u 0 0 0 e t t u p b n p p / / / / m A G G J J S S C C C C I ;.I K L D K L D L L L L L V D D L L L L L L D L L L D D D D D D D D A t c A v c c S 6.K b A L L L K V K I I K A A K I K D V A A V A V V L P I N x &.>.>.L x v x x x t C.T.^.^.^.hX^.^.^.T.T.x.b N N x r r r r r x x r r r r r r 4 4 4 4 4 4 4 4 4 1 4 4 3 3 1 1 1 1 2 2 2 2 2 2 2 2 2 % % % > I.Y.>X>X>Xu.P.Z.Z.K.N.d I.I.>X>Xp.l l l 2 % % 2 2 2 2 2 2 2 2 2 3 3 3 4 4 4 4 4 4 4 4 4 4 4 4 r r r r x x r x x x x x x x x x x x x x x x x x x N N B N N N H H H x B x x x x C <.<.<.;.B B B V V V V V V V V V N c c c A K D V D D D V V V V V H H V V V V A A A D D D D D D L D L L L L L L L L I I A A C C m A A A G K K K G G K A v e e e e E ! p c m ,.<.<.] n p p y 0 y n n i n n $X$X$X X X XM ~ ~ ",
"] { { ] ~ _ $.$X$X$XO.q.q.q.q.7.0 0 0 0 0 0 0 0 0 y y i i p m M ~ ~ ~ ~ ~ W S D A A D b C Z A K D D D C D D D D D V K K K H L L L L L L L L L L D K D D D D V c c m v c A A A A A A V V V V V L L D A A D D D D A V V V A A A V V L K c c c B N c c c c c c a Z W W E W T.T.T.g W g m b c x x x r r r x x x x r 4 l 4 l x x x 4 4 4 4 4 4 4 1 1 1 1 1 1 1 1 2 2 1 2 2 2 2 2 2 % % % % % % % % j u hXkXlXlXlX: % # % % % % 2 2 2 2 2 3 3 3 3 2 3 3 3 3 4 4 4 4 4 4 4 4 4 4 4 x x 3 4 b b c r r x r r r x x x x x x x x x x x x x x x c c N N N N c c c c N N N x x x N N N N N v V B V V V V V A V L L L L L V V V V V V D K K L L D L L L L D D K L L L L L K K L L L L L L L L L L L K I K D C C A A b b C v c t c c c t Z e , 0 0 e m Q ~ ` ` W n i i i i y y 7 0 i y y 0 0 ;X$X$X$X$X$Xe t b ",
"|.{ 0.X.3.9.;X$X$X$X$Xv.v.v.v.8.0 0 0 0 0 0 0 0 0 0 0 y y y u Q 9.0.0.0.<.~ ~ W W W S S S ~ J C c t t C ;.&.A A V b <. .,.L L L L L L L L L L L L K D D L K D I ,.6.I A A A A H V V H H H H L K D K A D D D D D D A A A D D D V V D 6.I B V V V A A A V V V V V B N v m V.P.P.E B v x x c c c c r r r x x x x r r l l l c N x 4 4 4 4 4 4 4 1 1 1 1 1 1 1 3 2 2 1 2 2 2 2 2 2 % % % % % % % % j & <XkXkXlXlX: % % % % % % 2 2 4 2 2 2 2 2 3 2 3 3 3 3 4 4 4 4 4 4 4 4 4 4 4 x l 3 9 8.v.n.r r r r r r x x x x x x x x x x x x A K K A c V &.&.L N c c c c x ,.>.,.V N N N N N v K 6.6.V V A A A G K K L L L K K K V V V P I I I I L &.%.%.%.L &.&.&.&.S ~ / ~ K L L L L L L L L L L K <.<.4.,.Z C A A A J ;.K c t t t t t c b b W ~ ~ ` _ X.X.X.m u y y y y y 0 y 0 y 0 0 0 0 gX&X$X$X*X$Xe t b ",
"{ ` ` ~ 3.0.$X$X$X$X$Xv.v.v.v.8.0 0 0 0 0 0 0 0 0 0 y 0 0 0 y Q 9.0.0.0.<./ ~ ~ ~ ~ S ~ ~ ~ ~ b t q q S ~ I D V V b <.+.<.L P L L L L L L L L L L D D D K K L I <.6.K A V D D A H H H H H V B A ~ J D D D S D D D D D D D D D V V &.2.I B V V V A A A V A A V v x x v b V.K.K.g v c c c c c c c r r r x r r r x r l l l x N x 4 4 4 4 4 4 4 4 1 4 4 4 1 1 1 1 1 1 2 2 2 2 2 2 % % % % % % % % j , 1XhXkXkXkX: % % % % % % 2 2 2 2 2 2 2 2 3 3 3 3 3 3 4 4 4 4 4 4 4 4 4 4 x x x 3 x q.w.w.r r r r r r x x x x x x x x x x x x ' ,.,.A c V &.I L N c c c r c ,.' >.V N N N N N N K 6.6.B B A A A A K K L L L K K K V V V I I ' ~ ~ J &.L L L D &.;.:.;.W / } } J P L L L L L L L L L K } / } ~ C C A A A J ;.;.c t t t t t e u ~ ~ ~ ~ ` {  .} } , 0 y 8 y y y 0 0 0 0 0 0 y 0 gX;X$X*X*X$Xe t b ",
"G J J G |  .$X$X$X$X$Xv.$Xv.$.O.6 0 0 0 0 0 0 0 0 0 y t 0 0 t W +.0.0.0.7.<./ ~ ~ ~ ~ ~ ~ ~ ~ c r r c J K I D C C C 0.9.4.I P L L L L L L L L L L L D D D D L K 6.6.A V V D A A H H H H H H A <.q.7.J D D I S D D D D A V V V V A >.6.;.B V A A V V V V V V V A B x b b m.M.V.n c N c c c c c c r r r x x r r x r l 4 4 l x r 4 4 4 4 4 4 4 4 4 3 3 3 3 3 3 1 1 1 3 2 2 2 2 2 2 2 2 2 2 2 2 2 2 O 1X1XkXkXkXd % % % % % 2 2 2 3 3 3 3 3 3 3 3 3 3 3 3 4 4 4 4 4 4 4 4 4 4 x x l l l r r r r r x l l x x x x x x x x x x x x x 3.3.3.A c V I I V N c c c c x ,.3.3.K N N N N N B ;.6.6.v A A A A A K L A K K L L K L K K ~ ' ' ~ ~ J L L L L D S gXcXcXcX( ! ~ K L L L L L V L P P P I <.} <.>.S D C C A S ;.;.c t t t t t t b ] { { ] { X.X.X. .e y y y y y 0 0 0 0 0 y 0 0 7 mX;X$X*X*X$Xe p b ",
"v G G G `  .$X$X$X$X$Xv.v.$X$./ ; 0 0 0 0 0 0 0 0 0 0 0 0 0 y Z 0.0.9.9. ./ / ~ ~ Q ~ ~ ~ ~ ~ c t c A J ~ I I A L A <.<.,.I P P L L P P P P L L L L D D L A L A A C C N V D D K L H H H L L K } 8.7.J D I I K D D D D A V V D V V &.6.>.v A A A A A A V V A V A B N N b E g g b c N c c c c t t r r r r r r x r r 4 r r l 4 4 4 4 4 4 4 4 4 4 4 3 3 3 3 3 3 3 3 3 3 3 3 2 2 2 2 2 2 2 2 2 2 2 2 . 1X1XkXkXkXd % % 2 2 4 2 l l 3 3 3 3 3 3 3 3 3 3 3 3 4 4 4 4 4 4 4 4 4 4 4 4 4 l 4 4 4 4 4 l l l l l x x x x x x x x x x x x K K K V V V V V V N N N N c c >.6.6.&.N N N N N V V V V A A A A A A K L K K K L L K D K K ~ ~ ~ ~ D L L L L J 1.:.!.xXxXvXW ~ ~ L %.L L L H H H P P P L K I ~ ;.Z A D C C S ;.;.c c t t t t c c ~ ~ ~ ~ | X.X.X.| u y y 0 y y 0 0 0 0 y u b p y mX;X;X*X*X$Xe t p ",
"k v v m G  .$X X|. X$Xq.q.q.q.q.: 0 0 0 0 0 0 0 0 0 0 0 0 0 q C ] { 4.3.| ! ! Q / ~ W ~ ~ ] ~ A b C J A A K K L L L J K L L L P L L L P P P L L L K D ;.~ D D A C C D A D L L K L L L L L L D / ( / J K K K D D V D D A V D D D A V L K v A A A C C D A V A A A v x N c b A b b c N c c c c t t r r r r r r x r r 4 r r l 4 4 4 4 4 4 4 4 4 4 4 3 3 3 3 3 3 3 3 3 3 3 3 2 2 2 2 2 2 2 2 2 2 2 2 O . . : ! v., % 2 2 2 4 2 l l 3 3 3 3 3 3 3 3 3 3 3 3 4 4 4 4 4 4 4 4 4 4 4 4 4 4 4 4 4 4 4 l l l l l l x x x x x x x x x x x V V V V V N N N N N N N N N c c c c N N N V N N V V V V A A A K K A K L K K K H K J ~ J K J W ~ W D D L L L Z gX!.fXxXxXcX;.~ ~ K L L L L P H P L L L H D A A D C A C C C C C A c t p n n Z b c w e e G | X.X.| | 0 y y 0 y y 0 0 0 0 i / ! ! ! ;X-X*X*X-X Xe t p ",
"m v m m m m Q Q Q G M  X;X%X%X&Xg y 0 0 0 0 0 0 0 0 0 0 0 0 q e q v ' ~ 0.0.O.O.+.+.~ ~ ] ] ] ] ~ ~ ] ~ M I K K K K K K K K I ~ / / I P L P L L L K J J K K K K K L L L L L L P L L &.&.L L K ~ ~ ~ I L L L L L H D D D D V D L V V L A B A gXgXgXgXgXD L A A A A V N N N N N B B B c c c c x x r r r r r r x r r x l l 4 4 4 4 4 4 4 4 4 4 1 1 3 3 3 3 3 3 3 3 3 3 3 3 3 3 3 l 4 4 2 2 2 2 2 2 l l l l l l 3 4 4 2 2 2 2 2 2 3 3 3 3 3 3 3 3 3 3 3 3 4 4 4 4 4 4 4 4 4 4 4 4 x 4 4 4 4 4 x l l l l l l x x x x x V >.>.x x x N N N B B B V V V V B V N N B B B B B B B V V V V V V V V V D L L K K K L K K K D D S D D D D D L L L L L L D /.^.!.cXxXcXcX:.I L L L H H H P I ] ] { V V V A N N C S S S b p c c Z Q O.( 7.W S C b b ` X. . . .| 6 0 0 y y y 0 0 0 0 u 8.v.v.x.q. X X|.X.` e t c ",
", e e , e v Q G G m Q q.;X&X%X&Xg y 0 0 0 0 0 0 0 0 0 0 0 0 q q q m J S ` q.$.$.O.O./ ~ ~ ] ] | ~ ] ] <.~ ~ I K K K K K K J ~ a.a.a.} P P P P P P K J K L L L L L L L L L L L P L &.>.>.>.K I I I I I L L L L H H D D D D D D H P P V L B s xX^.jXjXjXZ K D A A A V N N N N N B V B c c c c x x x r r r r r r r r x l l 4 4 4 4 4 4 4 3 3 4 4 4 4 4 4 4 4 4 4 4 3 3 3 3 3 3 3 l l l 2 2 l 2 2 2 l l l l l l 4 4 4 3 3 3 2 2 2 2 2 2 3 3 3 3 3 3 3 3 3 4 4 4 4 4 4 4 4 4 4 4 4 x 4 4 x x x x l l l l l x x x x x x K 6.6.x x x N N N B V B V V V V V V N B B B V V V V V V H V H V V H H L L L L K K K K K K K K K D D D J D D L L L K K L L e.:.w.gX!.1.:.S K L L H P L P P } O.@.#.G A A C c t I >.>.;.b p c c C ~ ( @.( ~ ~ ~ ~ ~ | X. . . .} - 0 0 0 0 0 0 0 0 0 u ( x.i.i.q.|. X|.X.Q e t b ",
"9 e e v e v Q M M G M ;X;X;X%X&Xg y 0 0 0 0 q 0 0 0 0 0 0 0 q 0 q A J S | q.$.$.O.O./ / ~ } ] <.] ] ] ~ ~ ~ I I J K K K K J ~ a.a.a.} P P P P P &.K K L L L L L L L L L L L L L &.&.:.:.w.I K K I I I L L L L H H D D D D D D L [.2.G G B a gXjXjXxXjXD K D A A A V N N N N N B V B c c c c x x x r r r r r r r r x 4 4 4 4 4 4 4 4 4 3 3 4 4 4 4 4 4 4 4 4 4 4 4 1 3 3 3 3 3 l l l 2 2 l 2 2 2 4 4 3 l l l l 3 4 3 3 3 2 2 2 2 2 2 3 3 3 3 3 3 3 3 3 4 4 4 4 4 4 4 4 4 4 4 4 x l 4 l l x x l l l l l x x x x x x K 6.6.x x x N N N N B B D D A V V V N B B B B B V V V V V V H V V H H L L L L K K K K K K K K K D D J D D D L K K L K L L K ~ w.n.W ;.D D K K L L L L P H } @.@.@.A A C C b a ' >.>.;.b b b b C ~ O.( / } } | | <.<.X. . .| ] - 0 0 0 y 0 0 0 0 0 u @.x.@.x.q.|.#.|. X5.e e b ",
"w v v m m m m G G G G $X%X&X&X&Xi e 0 0 0 0 0 0 0 0 0 0 0 0 0 0 q J J J ~ 0.$.q.q.#./ ~ ~ ] | | { { { { ^ ~ ~ I J J K K I I I q.$Xq.~ &.&.I I I U P L L L L L L L L L L L I L P I ;.C.fXfX;.I K L L L P L L L L L H H H H H H P 6.,.G V V Z gXjXjXjXlXK D A D A V V N N N N N B B B N c x x x x c x r x r r l l x x 4 4 4 4 4 1 1 1 4 4 4 4 4 4 4 4 4 4 4 4 3 3 3 3 3 4 3 l l 2 2 2 l 2 2 l 2 3 4 4 4 l l l l 3 3 3 3 3 2 2 2 j 2 2 4 1 1 3 3 3 3 3 3 4 4 1 3 3 4 4 4 4 x x r 4 4 4 l l l x x x l x l x x x x x x x 4 l x x x N B B B B B V H V V V V V V V V V V V H H V H H H H H H L L K L L K K K L L L K K D D L L K K K K &.&.&.&.L P I ' 8.( ~ &.I I P L P L L L P &.,.q.0.9.G A A C c a >.,.,.;.b c b b C Q Q Q ] } X. .X. .<. .X.X.| | ; 6 0 0 0 y 0 0 0 7 i ( @.v.@.v. X). XX.Q e t t ",
"v v v m m m m m m m G $X;X;X;X;Xd : d d d : 0 6 6 6 6 0 0 0 0 0 0 e b b n / / } / } / / / / | | <.<.| | ~ ~ ~ I ~ J J ~ I K K A J J I I &.I I I *.P L L L L L L L L L L L L L &.:.:.C.!.gXe.P L L L L &.L L L L L H H H H H L L F F L L V p :.i a C C V D D V V V V V V N N N B c c c c N c c c c c c x x r r w r r 4 4 4 1 4 4 1 1 1 4 w 4 4 4 4 3 4 3 4 4 l x 2 4 4 % 3 l l l l l l l 2 2 2 3 4 r x x l l l l l 3 3 3 4 4 # j % # 2 1 3 3 4 4 3 3 3 3 3 4 1 4 1 1 4 4 4 r x r x x x x x x 4 x r l x x x x x x x x x x x x x B B B B B B V V V V V V V V V V V V V H H V H H H H H L L L K L L L L L L L L K K D L L L K K I K &.&.L L L P &.I ~ &.&.&.I I P P P P P L P P H F F H K J ~ J S Z b C C b b b b b b ~ ~ / ] |  . . . .4.|  .| | | 6 7 0 0 0 0 0 0 0 i ! i.p.p.c.@. .}  . .G t e e ",
"v v v v m v v m m m m G Q } } E ,X,X,X3X,Xd 6 6 6 6 6 6 0 0 0 0 0 e t t p p n M W Q } / }  . . .| | | <.,.,.] ~ ] ~ ~ ~ I K K L K P I I >.' >.>.>.P %.L L L L L L L L L L &.L $XfXcXvXxXxXC.P %.L I I P L L L L L H H H H H D H H L L L L L K K L L L V V V V B B c V V N N N B B c c c N c c c c c c x x 4 x x x 4 l x 4 4 4 1 1 1 1 w 1 4 4 4 4 l l 4 4 4 < N # 2 % % 2 l l l l l l l l l 2 3 w w x r 4 4 l l l l 3 3 4 % o % % # # 1 # l 4 4 3 3 3 4 3 3 # # # 1 1 1 1 r r c c c c N c x r a r l x x x x x x x x x x x x x B B B B B B V V V V V V V V V V V V V H H V V V V H H L L L L L L L L L L L L L L L L L L K K I I &.&.L L L P &.&.K %.&.&.P P P L P J ~ ~ U H H H F F J | } } <.~ b c c b m n M W ~ ~ ~ ~ }  . .X. . .4.<./ ~ ~ W 6 7 0 0 0 0 0 0 0 y ,X,X:X:X:X) ~ G M M b t e e ",
"v v v m F v v v v v m m G Q Q E ,X,X<X<X<X: > 9 6 6 6 6 0 0 0 0 0 0 0 0 u u p p n n  . . .}  . . . . .4. . . . . .] ] ~ I K K K I U >.>.w.n.n.n.:.P P L L L L L L L L &.L K 6.w.gXvXvXvXbXfXI P P P P P I I &.I P H K P K J H D L L H H H L L L L L L H H H V L L D D V x x x B B B x x x x N 0XLXCXCXCXCXCXLXUXUXD 1 1 % # %.cXfXfXfXcXcX3 LXIXIXUX  1 % j 4 < fXNXCXLXLXUXUXUXu w 2 UXIXIXIXUXIXIXUXUXUXUXUX4 r l t 8 cXCXLXUXUXUX# # # # % e.UXLXLXCXcXcXCXUXUXUX+ # $ # < UXIXIXUXUXIXIXUXUXUXUXUXx x x x x x x x x x B B B B B B B B V V V V V V V V V D D V B L ,.<.I L L L L L L L L L L L L L I I L L D K D &.&.&.I I &.&.&.&.P P &.&.&.&.&.&.&.P P P P P q.v.v.0.H P H H H ` } /  .} / b c c b @.@.7.| | | ] } }  . . . . .<.W - 0 ; ; 6 6 0 0 0 0 7 7 7 8 ,X:XT.T.:X( G A C C b t t t ",
"m m m F F F v m c v m m G Q Q E ,X,X,X,X,X. - 6 6 6 6 6 0 0 0 0 0 0 0 0 y u p b p Z /  . .+. . . . .<.4. . .<. . .} <.,.;.L K K >.6.,.<.C.K.N.K.7.P P L P P L L L &.&.L L >.w.e.cXvXvXvXbX;.I I P P P P &.I >.>.P L J #.$.#.` A L L H L L L L L L L L L H H H L L 6.6.6.x x x B B B x x x N N 0XIXIXIXUXUXUXUXUXUX+ $ 1 $ $   PXPXPXIX4 l UXUXUXIXUX  % % % l   UXUXUXUXIXIXIXHXfX* 4 UXIXIXIXIXIXPXIXUXUXUXUX4 K l 9   IXUXUXUXUXCXo o o # % + UXUXUXUXUXUXUXUXUXUX+ $ + # # UXIXIXIXIXIXPXIXIXUXUXUXx l l x x x x x x x B B B B B V V V H H H D L L L L L L L D V I 3.<.<.;.L L L L P L L L L L L >.0.5.I L L I ~ I &.&.&.&.&.&.&.&.&.&.&.&.&.&.&.&.&.P P P P P q.v.v.q.P Y T Y U ] } }  .} <.c b b n @.) O.| | | | |  . . . . . .<.e 6 6 ; ; 6 6 0 6 6 6 ; ; 6 8 ,X:XT.T.:X( G J C C b c c c ",
"F F m F F F v F v v m m G Q Q E ,X,X,X,X,X  ; 6 6 0 6 6 0 0 0 0 0 0 y 0 y p p b p p <. . .+. . . . . .<. . . . . .} ] ~ ;.I K K >.6.3.,.C.K.K.K.8.P Y P P P L L L L L L L K <.w.vXvXvXvXcX*.P I P P P P I >.>.>.I H ~ #.$.$.Q H H H H L L L L L L L L L L L L L L 6.6.6.x B B x B B B x x N N 0XIXIXIXUXUXUXUXUXUX      # $   IXIXIXIXUXUXUXUXUXIXUX  % # # #   LXIXIXIXIXPXPXcXHX& 2 UXIXIXIXIXIXKXIXUXUXUXUXl >.e +   KXUXUXUXUX+Xo   + # % + IXIXIXUXUXUXUXUXUXfXo @ o # # UXIXIXIXIXIXKXIXUXUXUXUXl l l x x x x x x x x x B B B V V V H H H V D L D L L D L L V P <.<.<.;.L L L L L L L L L L K <.0.|.I L L I ' ~ I &.&.&.I I I &.&.&.&.P P &.P P P P P P P P q.v.v.q.P Y Y Y ` <. . .<.<.<.C A A Z @.@.+.X.| | | |  . . . . . .| u 6 6 6 6 6 7 0 6 6 - ; ; ; 8 ,X:XT.P.P.! G J Z C b c c c ",
"F F F F F F v v v v v m M Q Q E ,X,X,X,X,X& , , ; : : , 0 0 0 0 0 0 y y y p p p p p <.<.}  . . . .4.4.4. . .|  . . .,.>.] ~ I K I I U ` n.C.C.n.<.P P P &.&.&.&.&.P P P L L L S ZXbXDXbXcX&.P &.P P P I I I ;.&.P L I #.$.#.G V V V L L L L L L L L L L L L L L L >.6.>.x x x x B x B x x B B 0XIXIXzX0XfXzXCXQ.UXIXUXe.# #   IXPXPXr %.:.Q.fXCXLXCX  l # 1.UXLX0X%.< < < z NXUXUXi 2   <     LXKXKX1.O X + o 4 8 bXGXKXe.o o 2 '.LXPXJX:.# #   UXIXfX< z %.fXfX0XUXUXUX  # #   <     LXKXKX1.  X   o l l x x x x B B B B B B V V V V V H V H H V V L D D D D D D V I 6.>.>.~ L L L L L L L L L L K 6.|.|.U L L &.>.;.I I I I I I I &.&.&.P %.%.&.P P P P P P P P ' ,.,.' H Y Y Y ` /  .} <.<.<.J A V m M ~ } | |  . . . . . .X.4.<.~ u 6 6 6 6 6 6 6 6 , ; ; ; ; ; ,X:X,X,X,X) Q M m b e , > > ",
"XX@X@X5XnXnXNXNXNXNXfXv m m m m g g E E u &X,X,X,X,XgX0 0 0 0 0 0 0 y y p p p p p p n n u W  . . . . . . . . . . . . .<.<.} ] ~ ~ ~ ' Y Y Y G G G *.*.U *.P &.P &.&.&.&.&.&.L &.L %.D D L P &.&.P P P P &.&.I P P L &.' ] ] A L L L L L L L H H L L L L L L L L V x x N B B B x x x x x B x x fXIXIXCX2 j j j < UXIXUXe.# #   IXKXPX  o + o o o o # # z fXUXUXUXUXo o o o o o     + 2 j % % l UXKXGXfX+ $ 4 l 4   KXKXPXo j j j o UXPXGXfX# o + UXUXfX# j j j z NXUXUXUX1.2 % j j % j UXKXGXfX+ 1 4 l l x x x B B B B B B V V V V V H P H H H L V V V H H H L H V V V V H H L L K K K K I K K K L I I I K L L L K ~ &.&.K K I P &.&.&.&.&.&.&.U &.*.I I I I I U P P P H Y Y Y U ] | } } <.<.<.<.J J G G G G | |  . . . . . . .4.~ m p 0 0 0 6 6 6 6 6 6 8 &Xn.x.y.y.( / / / ! m >.I Y Y fXmXmXmX",
"@XOX@X5XnXnXnXaXBXNXNXv m v m m m m m G G ,X<X<X:X:X,X0 0 0 0 0 0 y y y u p p y p p i 0 0 p ~  . . . . . .<. .+.+.+. .+.<. . .} 7.4.#.' P Y Y G G ' ~ ] ] ' P P &.&.&.&.&.&.&.&.P &.I I P &.&.&.L L P &.&.&.P P P %.>.>.B A L L L L L L L L L L L L L L L L L L V V N N B B B x x B B x B x x fXIXIXCX2 j j j < UXIXUX1.# #   PXKXPXo o o o o o o o o l fXUXUXUXLXo o o   o       o 2 j j j 2 UXKXJXcX+ $ 4 3 2   IXIXIXj j j j o UXKXGXfX# # < UXUXfX% j j j z CXUXUXUX0X% j j j j 2 UXPXJXcX  1 4 3 l l x x z B B B B B V V V V V H 2.....U L L L L H H H V V H V H V V L L L L L I K K K I I I I &.L L D L ;.~ >.&.&.&.&.P &.&.&.&.&.&.&.U U I ' } } | } ] ' H H P P U U [ <. . . .~ ~ J I K <.| ] | ] ] | |  . . . . . . .} n b 0 0 0 0 6 6 6 6 6 6 : ,X,X,X,XP.g M b A C m 2.-.[.}.nXmXmXmX",
"OXOXOX5XnXnXNXNXVXVXNXv m v m v m m m G G 3X<X<X>X>X&X0 0 0 0 0 0 u y y p p p y p y y 0 y y u / } <. . . . .+.+.+.+.7.7.+.+.+.+.+.q.q. .G Y Y G G 9.$.q.q.q.~ P P &.&.&.&.&.&.P &.&.&.&.&.&.&.&.L L L &.P P P P P P 3.5.v N K L L L L L L L L L L L L L L L L L D A A V B B B B B B B B B B B fXIXIXLXj j j 2 < IXIXUXa % #   PXPXIX  o       o o o o 2 0XUXUXUX&.o     fXUX      o l j j j 2 IXKXJXSX  4 4 2 2   UXIXIXj j j j j LXKXJXfX1 # @ UXUXcXo o o o 2 UXIXKXPX1.% % j j j 2 IXKXJXSX  4 3 2 x x x B B B B B B B B B B V V V ` X.X.{ U L L L L P J ~ +.<.G V V H H V L K I I J w.e.w.w.:.I I &.L L L 4. .| ^ &.P P P &.&.&.&.&.&.&.2.X.| #.$.O.$.@.@. .J H K | | ` } +.#.#.7.K L H V N | |  .| | |  . . . . . . .+.} / u e 0 0 0 0 0 0 0 6 6 0 : ,X<X<X<X,X! m A A A G 6.[.+X+XnXmXmXmX",
"@X@X@X@X@X5XnXNXNXVXCXU m v v v m M G ~ G ,X>X>X>X:Xn.0 e 0 y u u p y y p p p y y y y y y y u Q / }  . . . .+.9.+.7.7.7.7.7.7.} Q ~ 0.4.` Y U Y G #.q.v.v.v.J I P &.P P &.&.P P P P &.&.&.&.&.&.L L L &.P P P P P I >.,.A D L L L L &.&.L L L L L L L L L L L L D D A V V V B B B B B B B B B fXIXIXfXfXCXLXLXIXcXAXCX  % %   PXPXIXUXUXUXUXUXzXo # # l 0X0X1.cXfXUXUXUXUXUX    o o l j % % l UXKXJXKX+ % 3 3 4   UXIXIX%.< o o o CXKXKXfXl % 1 UXUXUXUXUXUXUXIX!.      + j j % j j l UXKXJXPX+ % 3 3 x x x B B B B B B B B B B V V H ~ _ X.' U L L L H L Q @.a.q.G V K H H H L J J I W C.!.!.!.C.;.U &.L L &.4. .] I &.P P &.&.&.&.&.&.&.&...X.#.#.#. .$.$.$.4.J V G {  .' | +.7.7.<.~ I I V A | | |  . . . . . . . . .} / m p u 0 y 0 y 0 0 0 0 7 0 6 : ,X<X<X<X,XE m v v v A *..X0XyXnXmXmXmX",
"@X@X@X5X5X5XnXNXNXVXCXP m v m m m m G J J ,X>X>X>X:X) 7 0 u u u p u y y p p p y y y y y y y i ~ / ~ |  . . . .7.9.9.9.9.9.7.7.~ G ~ ` ` U Y Y Y G 9.q.$.v.$X~ I I &.P P P P P P P P &.&.&.&.&.&.P L &.&.P P &.&.P &.I K D L P L &.&.&.&.L L L L L L L L L L L L D D A V V V B B B B B B B B B fXIXIXIXUXUXIXIXIXh < o # % %   PXPXIXUXUXUXUXUXNXo o o #       fXUXUXUXUXUXUX  CXCXo 2 % # # j UXKXJXPX  l 3 l l o UXUXPXIXIXIXIXUXIXKXPXfXl j 1 UXIXUXUXUXUXUXIXh       + % % % # % % UXKXJXPX+ 4 3 l x x x B B B B B B B B B B V V B K ` ` U P L L L H G Q @.a.q.A V K H H V L K J ~ W C.!.!.!.&X;.I P L K I <. .| I &.%.%.%.P &.&.&.&.&.&...).#.#.X. .$.$.$. .A H G {  .] ,.+.7.7.<.~ >.,.>.;.|  . . . . . . . . . . . .E b u 0 0 0 0 y 0 0 0 0 7 0 7 : ,X<X<X<X<Xd m v v F b Y +XyXnXnXmXmXmX",
"@X-X-X5X6XnXnXNXNXCXCX@XfXfXXX;.e F G G M 3X<X,X:X:Xd : : E Q : : : : : y y q y 0 0 0 0 0 u u W ~ ~ ~  . . .} 9.9.9.9. .9.7.7.` G G ' ~ ` ` Y Y ' | q.q.$X$X~ I &.&.&.I P &.&.P P P P P P &.&.&.*.&.&.U I &.&.&.&.P P P L &.&.&.&.&.&.L L L L L L L L L L L L H H H V V V V V B B B B B B B B 0XIXIXIXUXUXUXIXUX# % # # # j   PXKXKXUXUXUXUXUXfXo o o o         LXIXcXfX< < UXUXUXo 2 % % % 2 IXKXPXIX  l l l l < UXIXIXIXIXIXIXIXIXIXIXfXl j < UXIXIXUXUXUXUXUX!.    O # % j % % % 2 IXKXKXIX+ l 4 l x B B B B B F B B V B H H H H V H H P P P H H L H H G  .0.0.V H H H H H L J ~ ~ W 1.e.1.1.~ ~ &.&.L L ~ <.} <.I P %.%.P P P P &.&.&.*.5.).).#.+.~ 9.O.7.4.J L A ] 4.| | | 4.4.<.] ~ ] ' { |  . . . . . . . .X. . .} p u u y y 0 y y 0 0 ; : : : : . ,XkX3X3X3X: v v v e 0XfXCXCXCXCXnXnXmX",
"..{. X@XOXnX5XOX4XOX-XCXNXCXCXLX$ F F m m M _ _ _ Q ! ;X%X$XX.&X3X,X3X3XgXt t y 0 0 0 0 0 0 u u u p p M 4.9.+.9.9.9.9. .7.7.7.4.<.<.| | |  . . . .P K K I I P >.,.| ' I I I I &.&.&.&.I &.*.*.>.{ ] ] ~ &.I &.&.P I I I U *.U *.*.*.&.L L L L L L L L L L L L H H H H H V V B F l F B B V B B Q.IXIXUXCXCXAXIXPXfX  + + % j   KXJXJX  o o o o + o o o o             o o # CXUXUXUX6.l j j % 2 IXPXKXIX+ l l l l # UXUXIXIXIXIXKXIXUXIXIXfXl j < UXUXIX6.0XzXLXKXcXe.    o j j j j j 2 IXPXPXIX+ l 3 l x B B B B B V V B B H P P K H H H H P H H H H H H H H H H H H P P H H H H J ~ ~ ~ J K K K K &.&.&.&.&.&.I I P P P %.%.P P &.U [ U *.*.3.#.X.>.I I K K K G ` | | | | | <.+.7.7.<.' ' ' ] {  . . . .| | | | | X.X. .} p u u y u y i i i i ! ,X:X,X3XE M Q Q Q n m v v v w CXCXMXMXMXmX).OX X",
"XX X{.}.(.OX5X5X4XOX-XMXNXCXCXCX4 F G F m m Y _ T G ]  X$X|.[.&X,X3X3X3XgX0 e 0 0 0 0 e 0 0 e e t p p b 9.9.+.9.9.9.9.9.9.7.7.+.+.4. . . .#.0.0.9.P P P P P U 9.0.q.4.~ I I I I &.&.&.>.&.Y [ 9.$.$.@.} ~ ~ ~ I P I I I U ' U U >.U &.L L L L L L L L L L L L H H H H H V H 6.XX}.}.B V V B B e.IXUXUXo j l PXIXIXPX  O % j   KXJXJX  o o + o o o o o o       o o o o o 2 UXUXUXUX0Xl j l l 2 IXKXKXIX+ l l l 2 # UXUXUXo         fXIXIXfXl j < UXIXUXo o < < %.UXIXUXLXo j j j l l 2 IXPXKXIX+ l l l x B B B B B V V V B H 6.{.|.>.H H H H H H H H H H H H H H H H H H K U Y L J ] } J K L L L &.&.&.&.&.&.&.&.&.&.P P %.%.%.%.Y 3.|.X.,.*.0.0.4.P P P P L L P `  .X. .| |  .+.7.7.<.' ' ' ] ] }  .| | | | } | | X. . .] u u u y i u p i i i g ,X:X,X&XQ M G G G m v v v v r CXCXMXmXnXmXOX=X5X",
"..(.[.OXOX4X5X4XOXOX6XMXNXCXCXCX1 G F F c v ` _ ` G G {.{.{.{.&X3X3X3X3XgXy 0 0 0 0 0 e 0 0 e e e t p b 7.O.O.+.#.9.9.9.+. .9. . . . . . .#.$.$.0.I P U P P { q.q.v.4.I I I I I I *.5. X,.P U #.a.a.a.( ^ ~ } ' I I I ~ >.>.' ~ ;.&.I I I K L L P L L L L L L L L L H H H L 6.XX.XXXB B V B B 1.IXIXUX# % j 1 PXIXPXcX  % j   KXJXKX  # + o o o   fXo o o LXUXLX9X=.=.z o zXUXUXUXfXl j l l 2 IXKXPXIX+ l l l 3 # LXUXUXz j j j j fXIXIXfXl j o UXUXUX  # # % z UXUXfXPX+ j j l l l 2 IXKXPXIX+ l l l B F F B F V B V V H P 5.|.|.2.H H H H H P H H H P H H P H P P Y ..).).X.K K 4.$X] L L P P &.&.&.&.&.&.&.&.&.&.&.P &.&.&.%.%.[. X#.4.>.0.|.4.I I P K K L P '  . . . . .+.#.7.7.| ' ' >.] ]  . . .| | | | ^ ] } } } ~ u u u y i i i p i i g ,X:X,X,XQ G G G G m v v v v x CXMXMXMXmXMX*X5X5X",
"..T [.{._.OX5X=X_.(.-XMXzXCXVXCXv G F v B v ' ` ` G G {.{.{.X.&X3X3X3X3X3Xu 0 e 0 0 0 e 0 0 u p b Z p b +.@.O.+.+.#.#.#.+.+.+. . .<. . . .7.#.#.9.I P P P P ,.0.q.q.9.K I I I I &.&.4.|.<.*.' #.a.a.a.O.] ~ ;.>.I P I ' >.>.>.;.I &.I I I K K K L L L L L L L L L L H H P L 6.XXXXXXB V V V V :.UXUXUXo j j j + IXIXPXq l j < IXKXPXUXUXUXUXUXUXUXUXo # + o o UXAXAXLXLXUXUX< LXLX%.l l l l l IXKXPXIX# l l l 2 < LXUXUXz j j j % fXIXIXfXl j o UXUXUX  # # % 2 LXcXPXIXr j l l l l l IXKXPXIX# l l l B F F B B V B H H H H 6.{.|.>.P H H P H H H H H H P H P P P P Y ..).$X#.K I ,.;XI P P P P P &.&.&.P P &.&.&.&.&.&.&.&.&.&.%.T  X|.|.>.0. X4.U Y K P P L P >.+. . . . . . . .} | ' ' >.] ]  . . .| | | } ` ` } } } ~ e u y i i i p p i i g ,X:X,X&X_ G G J G m v v F F B CXMXMXMXMXMXOXOX@X",
"{.{.{.}.(.(.OX4XOXOX-XMXNXCXVXCXB J F v c v ' ` ' Y Y |. X{.{.&X3X3X3X3X3Xu e e 0 0 e e e e p p Z Z p b O.@.O.+.+.+.+.#.+.+.+.+. .<. . . .+.#.#.9.I P U P P >.] ] <.| ~ I I &.&.&.&.<.4.>.*.'  .a.a.a.} ^ ;.~ >.I P I ~ ' >.>.~ I I I I I I I I P L L L L L L L L L H H P H V P P &.V V V V V %.UXUXIXo j j 2 o UXKXPX:.l j < PXPXIXIXUXUXUXUXUXUXUXo # +     UXUXUXUXUXUXUXe.r z l l l l l l IXPXPXIX@ l l x l < LXUXUXH j j j # cXIXIXQ.j j o UXUXUXo $ # % z h PXPXIXD l l l l l l IXPXPXIX# l l x F B B V V V V H V H P L P K P H P H H H H H H H H H H P H P P Y ..).). .J P U 3.P &.P P P P P P P P P &.&.&.&.&.&.&.&.&.&.%.T |.|.0.*.0.|.4.U P K I I K P >.7. . . . . . . .<.<.' ' >.] ]  . . .| | | ] ~ ` ` Q Q ~ e u y i i i i p i i d 3X:X,X&XQ G J J J G v v v v x CXMXMXMXMXMX X@X@X",
"m v v 2...T }.OXOX4X4X=XnXMXCXCXCXCXCXCXCXb e w , e m {.{.{.X.;X3X3X&X;X;Xv.$X&XgXgXu u e e e e e p p p Q / } }  . .+.7.7.+.<. . . . . . . . . . .~ ~ ' ' I >.{ { | ,.>.' ' ' I &.&.U U U *.' ' ] ] ] ' I ~ / ~ I I I I I I I I I ~ I I I I I I I P P P P P P P P P P P P P L L L H H V V H H &.UXUXIX% j % %   IXPXPX1.v l w bXDXKXIXIXIXIXUXUXIXUXl j + O   UXUXUXUXUXUXUXUX2 F F l z l l z UXIXIXUXo F F F l 1 UXUXUXH j j j 2 LXIXIX:.j j o UXUXUXo # # % F :.PXPXIXe.l l l l l z UXIXIXUXo F F F F F V V V H H H H H H P L H H H H P H H H P P P P P P H P H P [ { } _ ~ K P U U P &.&.&.&.&.P P P P &.&.&.&.Y *.&.&.*.&.&.*.*.>.>.[ U P U Y P G G  . . .] ,.<. . . . .} { | | | ] { ] ] ] }  .} } ] ] / s i n n m E g g g E E E g E E Q i ;X;X;X;XQ G J J G G MXnXnXMXMXCX5X5X5X5X-X(. XXX",
"A A A K F k (.OX(._.OX4X7X=X5XMXCXCXCXCXCX, > 9 - 9 v I I U m |.).X.-XOX&X3X3X3X3XkXy p u e e e e p p b m G ] ] {  . .O.+. . . . . . . . . . . . . . .+.7.7.{ | | ] | ' '  . .] I &.*.U U *.' ' ~ ' ' U 0.$Xb.$X<.*.I I U I I I I I &.&.&.&.&.&.>.*.' I ~ I P I I &.I I P P P L L L H H H H H B 4 4 x F j l # + 0XQ.fXa F F F t t r 1 1 1 < # < # < l l o + + o o o o o o o o 2 F F l l l l 2 l F l l l 2 4 l l 2 2 l l F z j l l 1 V %.V F F x 2 3 3 B l F F F L + r D 6.F F z F F z 3 3 3 x B F F F B V V H H H H H H H P P P P H P P Y Y Y P P P P P H Y U U P P ` ..} ` ~ J U U *.&.&.&.&.&.I ~ } } <.>.&.U [ { U *.*.*.>.>.0.|.q.0.<.*.4.9.4.F H K  .+. .| <.<.| |  . .] ~ ~ ~ ~ 7.7.7.+.| | ] ] ] ~ ~ m y y y i i i kX,X,X:X,X3X%X$X$X*X X3.X.X.X.M e p t e b MXMXMXMXMXMXOX*X).OX X_ X...",
"K K K F F F oXOX(.(.OX4X5X*X=XMXCXMXMXMXMXw 0 9 e 9 v Y Y Y m |.|.(.-XOX;X3X3X3X3XkXy u e e e e e p p b M M ] { { ] O.$.O. . . . . . . . . . . . . . .+.7.4.]  . .O.+.{ ] $.a.7.I &.*.*.U *.' ' U >.' U 0.$X$X$X<.*.,.<.{ ~ I I I I &.&.&.&.&.&.>.>.' >.<.<.I I I U &.I I P P L L L H H H H H H H H H H F B F F F F F F B H V H H B F F F F H H F F H H H P H H F F B B l F F B B B B F F H F F F B z z z z l F F F H F F H F F F F H F V F F F F F z F F L V Y P H F F F F F F B B B B F F F F F F H V B V H H H H H H H P P P P P P U 4.#.[ Y P P P P P 4.0.5.>.P { X. .` ~ ~ U U U &.&.&.&.&.&./ @.@.7.~ &.U ..X.' *.*.*.>.>.#.q.$.0.<.U 0.q.q.G L G  .+.+.} | ,.| | } } ] ~ ~ ~ ~ 7.#.O.7.} ] ] ] ] ] ~ J y u y i i g 3X,X<X,X<X3X$X$X$X$X X[ ` ....G t p t u b MXMXMXMXMXMX*X=X).OX XG G G ",
"K J G P >.U (.OXOXOXOX=X*X=X*XmXMXMXMXMXMXm q q 9 9 9 G G I v |.). X*X*X;X3X3X3X3X3X8 u t u e t t p p b b G ] ] ] ] O.i.a. . . . . . . . . . . .+. .<.I ~ 9.] ] | v.$.] } a.p.$.I I I U *.*.>.*.&.&.&.P q.$X$X X,.>.9.q.q.` U I I I I I I I *.>.>.>.] <.4.<.*.U U *.U U I I K P P P H H H H H H H H H H F F F F F F F F F F F H H H H H H F H H H H H H H H F F F F F F F F F F F F H F H H H H H F F F F F F F F H H H H H H H H H H H H H H F Y F F F H H H H H H H H H H H F F F H H H H H H F H H H H H H H H H P P P P P H P P L ` $.$X9.Y H H H P P 4.0.0.,.L | #.X.` I ~ ' U *.*.&.&.&.&.*.] $.i.@.' I ' { #.{ U *.*.>.>.9.q.q.9.,.P 9.q.q.J K U +.O.7. .} ,.| | ,.,.] ~ ~ ~ ~ 7.q.$.#.} ] ] ] { ] ~ G e u i p p u ,X3X3X<X<XkX%X$X*X*X X` ..X._ G c t t e m MXMXMXMXMXMX_.*X_.=XOXG ..' ",
"A K A I U P {._ ..).).5X=X*X_.nXMXMXMXMXMXG q q 9 q v J J I v |. X-X-X*X;X3X3X3X3X3Xy u u u e e t b b b M ~ { ] ] ] 7.@.$. .| |  . . . . . .9.7.4. .} G J <.] | ] O.7.{ | v.a.O.I I I I I *.*.*.&.I I P { { { [ U U 4.0.q.| ' I I I I I I I *.*.>.>.>.>.' U *.U U U U U *.I K I P P P P P P P P H H H H H F H H H H H H H H H H H H H H H H H H H H H P H P H H H F F F F F F H H H H H H P H H H F F F F F H H H H H H H H H H P P H H H H P 6.,.F F H P P H H H H H H H H H H H H H H H H H H H H H H H H H H H P P P P P P H P P P ` $.$Xq.Y H H P H P <.9.0.,.H ^ `  .~ I ~ ' ' U *.&.&.&.&.%.' } @.+.~ I ' { 9.3.>.>.>.>.>.<.| { I K P 0.q.q.K L U <.+.<.<.<.,.| | ] ,.] ~ ~ ~ ~ +.#.q.#./ ] ,.,.| | ] I b i p i i p %X,X<X,X3X3X$X$X$X$X X` _ ..` ~ b y y e m MXMXMXMXMXMX_._._.4X*X_ { [ ",
"A G G P P U T ..{. XOX5X4X4X4X6XMXMXMXMXMXG q q e e v J J J v (. X-X-X-X;X3X3X3X3X3X: y y : y p t b b b m J ~ ~ G ' } O.+. .| |  . . . . . . . .<.<.9.<.<.<.' { ] } ] ~ ' +.O.] I P I I I *.*.&.I I I P Y Y U U U *.4.0.0.] U I I I I I &.&.*.*.U *.*.U U *.U U U U U U *.I &.I P P P P P P P P H H H H H H F H H H H H H H H H H H H H H H P P P H H P H P H F F F F F F F F H H H H P P P P H H F F F F F H H H H H H H H H H H H P P H H K 5.5.V H H H H H H H H H H H H H H H H H H H H H H H H H H H H P P H P P P H P P P P P P ` #.#. .Y Y Y P P Y K K I L H &.I ' I &.I ' ' U *.&.&.&.&.%.*.' ' ] ' I U [ { ' >.' >.>.' ' U I I K G }  .7.K I '  .} <.<.,.,.| | ] ,.] ~ ^ ^ ' ` ` ~ ~ ~ ~ ,.,.,.{ { ~ n : y y y y ) 3X<X<X3X3X$X$X$X$X XM ~ Q M n t y y e v MXMXMXMXMXMX*X*XOX*XOX~ { ,.",
"V c v H L v c >.G Y ..OX*X4X*X*XMXMXMXMXMXM q q 9 e e v m M c G G G ...._ $.v.v.a.%X,X,X,X,X8.u t p p t b ~ | ] ` ] | | ,.| |  .<.+.<. . . . . .<. .4.<.<.| { 3.4.<.] ' I I I I I I U U U *.&.&.' K P P *.[ Y U Y T U ' ' U U U ' ' >.*.*.&.I ~ ' U &.*.U U U *.*.*.*.*.*.I I P P P P L K L H P P H H H H H H H H H H H H H H H H H H H H H H H P P P P H H H H H H H H H H H H H H H H H H H H H H H H H H P P H H H H P P P H P P P L P L L K L H H P H H H H H P H H H H H H H H H H H H H H H H H H H H H L L L L L L L L Y Y Y P P P P Y Y U Y Y P P P P P P &.*.*.>.&.I U ' ' ' U *.*.*.*.*.*.*.*.>.>.U *.[ >.>.>.| +.+.] ' ' { ` ] ` ] ] / ~ I '  .+. .<.<.,.{ { { ] ~ / / ^ ` `  .} / ~ ~ ~ ~ ] ~ M u kXhXkX<X<XhXq.Q _ ` Q G _ _ G Y ' 0 6 7 6 0 0 y 0 e v MXMXMXMXMXMX).*XOXOX)., , e ",
"V A A G K c c P ,.{.(.=X*X4X4X-XMXMXMXMXMXF w 9 9 9 9 e e t b b b G {.(.X.$X$X$X$X&X,X,X,X,X8.p p p b t b ,.| | ] ~ ] ] ;.] / / 8.x.8. . . . . .<.<. .~ ~ ,.| 9.9.0.{ ' U U U U U *.' 5.0.5.*.>. X X>.I ,. Xq.0.' U 5.4.<.U U I ' >.*.*.*.*.w. X XI I <.0.0.U *.U U U U U >.&.&.&.&.P | } ` P H P 4.0.#.` H H H H H H H H H H H H H H H H H H P P P P P P P H H H P H P H H H P P P P P P P P L P H Y [ Y H P P P H H H Y Y Y H P P L P P P P L L P H H H H H H H H H H H H H H H H H H H H H H H H H Y ~ ~ K P P P P P P I I I I I P P P U Y Y U U P Y P >.0.0.9.' *.*.&.&.&.U ' ' ' *.*.*.*.*.*.>.>.>.>.>.*.>.[ { ,.>.v.b.b.q.K I +.$.@.} ] } ] | ] { +.+.+.+.<.{ ] ] ' ~ 8.c.c.8.' ]  .$.O. .J ~ ~ ~ m , , gX,X<X<XhX<X$...` ..[ G Y ' G ` ~ q 0 0 0 0 0 0 0 e e MXMXMXMXMXMX).*X=X X|., e b ",
"V V c V L N 4 K G G (.OX*X*X4X*XMXMXMXmXMXv w 9 9 9 9 e e v m M n G X...X.$X$X$X$X,X,X,X,X,X8.u t t p t b <. .| ] ~ ;.<./ / / / B.V.B.+. . .<.<.<.<.<.~ ~ ,.| 9.9.0.| ] >.>.>.>.*.*.{ w.0.5.>.>.w.w.;.U { q.v.0.U ' 4.9.<.U U I ' >.U *.*.>.w.$Xv.I I 9.q.$X` *.U *.U U U >.&.&.&.&.I q.$.+.P H Y |.$X$X~ H H H H H H H H H H H H Y Y Y H H H H P P P P P P P P P Y U U H H H P P P P P P P P P L Y {.|.3.' P H H H H H Y Y Y H P P P P P P P P P P P P H H H H H H H P H H H H H H H H H H H H H H H 5.$.$.` P P P 3.<.I I I I I I P 6.@XXXY Y U U P P P <.$X$X$X] *.*.&.&.&.U ' ' ' *.*.*.*.*.*.>.>.>.>.>.;.>.<.3.<.] v.b.$Xq.K ~ v.b.c./ ~ ] } | | | +.O.+.+.} <.] ] ] ] 8.m.c.8.] ] +.$.O.+.J ~ ~ W n , , gX3XhX,X<X<XO.X...,.{ G Y ` ^ G J 0 0 0 0 0 0 0 0 e e MXnXmXmXmXMX*X*X*X).(.> , u ",
"N N N B v V *.P G [ OX=X7X7X7X4XMXMXMXMXMXk , 9 6 9 9 e e v m M G { {.{.X.$X$X$X$X3X:X,X,X,X7.b b b b c M 9.#. .| ~ <.] <.;./ O.B.V.%XO. .| | | | <.| ] / }  .9.9.9.<.' >.[ [ >.>.>.5.q.q.0.*.>.w. X>.&.' $X$Xw.Y U <.<.4.U ' U >.>.>.*.*.>. X$X X~ U 4.$X$X' *.U *.*.*.U *.&.&.&.&.~ q.a.O.I P Y |.$X$X` K H P P H H H H H H H { $X#X$XF P H H P H P P P P H H P 2.{.2.H L L L L L P P P P P L L U 3.|.|.` P P H P P P P P P P P P P P P I P P P P P P H H H H H P [  X$X` H P H H H P H P H H H H H |.a.a.~ U I U  Xw.' I I I I P P 6.XXXXU U Y Y Y P P 3.$X$X$X' *.*.*.*.*.' ' ' ' *.*.*.*.*.*.*.>.>.>.>.>.,.<.4.,.' 9.0.0.,.I I n.%XB.O./ ~ ~ ] | ] <.+.+.7.} ] ] ] ' { 8.C.n.v.] ] 7.$.#.#.E b b b e e , &X,XhX<X<X3XO.4.5.X.X.G ` ` ` ` ~ 0 0 0 0 0 0 0 0 q e MXmXMXmXnXmX_.*X*X).).e W e ",
"c N N c x x x v v ' .._.4X*X4X=XMXMXMXMXmXv e 9 6 0 - e p p b S J ' {.5._ $X$X$X$X&X,X,X,X,XO.u m n n m m 4.9.5.<.~ <.} <.<.~ ~ O.O.O. . .| | | | <.<.| 4.<.<.<.<.<.,.,.,.,.,.,.,.,.3.4.3.,.*.I I I I I ' 9.4.' U ' ' ~ ' U ' U >.>.*.*.*.*.<.0.4.I P '  .| U U U *.*.*.*.*.&.&.P P P 9.#.] I P U 4.9.0.` G P P P P H P H H H H Y $X%X$XG P P P H H H P Y Y Y Y Y 2.5.>.P P P L P P P P P P P P P Y ..|. X` P P P P P P P Y Y P P P P I I I P P P P P P P H P H P P Y |.$X9.K P P P P P P P H H H H Y 4. Xq.' U U U 3.{ I I I I I P P P P P U Y Y Y Y P P Y  .4.| *.*.*.*.*.*.U >.>.>.>.>.*.*.*.*.*.*.>.>.>.>.3.3.3.,.' U [ [ U I I q.v.8.} ] ~ ~ ~ ] ]  .+.7.<.] ] ] ] ] { / / / / ~ ^  .0.9.9.M u b i u u , n.,XkX<XhXkXO.#.4.5.4.G ` ` ` ~ ~ 0 0 0 y 0 q y 0 t c MXmXMXMXMXMX*X6X-X).(.& & , ",
"N N N c t t D L v K {.OX4X4X4X*XMXMXMXMXmX, t t a 9 + * 0 0 0 0 0 b M m G ~ ~ ] } Q 3X,X,X:X3X&Xx.x.n.8.m m G G A ~ ] ] ] / ~ ` ^ ` ^ X.| | | | <.<.<.<.| | ] | { | | <.| 3.3.3.3.3.<.,.,.>.>.' U ' ' ' ' ' Y U U U [ [ [ U ' >.,.,.*.U U I I J I P P I ' I U *.U *.*.*.*.*.&.&.P P I I ~ I P I I I ~ I P Y Y P P P H P P H H H [ $X$X$XH H P P P P H P P P Y Y Y U Y U P P P L P P P P P P P P P U { #.9.' P P P P P P P P P P P P P P P I P P P P P P P P P H P P Y #.$X| Y P P P P H H H H H H P *.Y ' ' U U U U ' ~ I I I I I P P Y Y Y Y Y Y Y Y Y P Y Y K U *.*.*.*.*.*.*.*.*.>.>.>.*.*.*.*.*.*.>.>.>.>.,.<.<.,.' ' ' ' ] ~ >./ / ~ ~ ] ] ~ ] | ]  . . . .~ ~ ] ] >.{ ,.] ~ ~ / ~ ~ Q G J m u E R ! ! ! 8.8.%X%Xn.%X} | 3.5.4.G ~ ~ J G b 0 0 0 y 0 s s %.%.%.nX6X6X6X6X6X*X4X5X).(.& - , ",
"c C C c c c K V e I {.OX4X4X4X=XmXnX7X6XnX@XfXfX0X0X1., 0 , 0 ; 0 e e e m J K K K S 3X,X<X,X3X3X:XV.V.B.M A G A V ~ <.+.} } <.] ] ^ ' { 7.q.8.8.}  .<. .] ~ ~ 7.O.#.#.| 4.+.#.4.4.9. .<.| ,.>.>.>.>.>.' >.,.>.>.,.,.,.,.,.,.,.{ 3.4.{ ] ] U ,.] ' U U U U *.*.*.U { { U U *.>.<.>.U I U U I U U I I I I U K ] | { [ T Y P P Y H P Y Y P P P Y Y P P P P I I U I U P P P P P P P P P U U U U U U U [ X.{ ' U I I U P P P P P P P P U U U U U P P &.P P Y Y Y P %.P H Y Y Y Y Y P P P H H H Y Y Y Y *.U U U U U ' ' ] >.>.>.*.*.I U U Y Y Y Y U Y Y U Y Y U U Y U U *.*.,.[ U *.*.' [ >.>.>.*.*.*.>.>.{ | >.*.' 0.7.0.9.<.0.7.7.7.9.,.~ ~ ~ ~ ~ ~ ] | | | | / ] ~ ~ 9.8.7.<.<.]  ./ / / ~ ~ M p y e u &X<X<X<X,X$X .3.{ ] 3.~ ~ ~ ] ] t p t v p 0 0 0 0 7 + CXAXAXAXAX-X5X7X7X4X6X X XOX).X.- , , ",
"c c c c c N K L A K 5.=X4X*X*X-XmXmXmX6XnXfXfXfXfXfXXX0 0 0 6 6 0 0 0 0 m J K I K M gX,X,X,X3X,X,XP.P.V.M M M A V ~ <.+.O.O.} ] ~ ' ~ ~ O.x.@.8. .+.+. .] ] ~ 8.@.$.+.} <.7.7.4.+.#.$.#.O.+.{ >.>.>.,.,.,.| 0.9.{ { { { ,.{ { { 4.0.#. .4.{ 4.9.4.' ' ' ' ' ' >.>.q.0.9.>.>.,.<.,.' U *.*.' ' ' U U *.U I ' $Xv. X3.Y T T T T Y Y Y Y Y Y Y 2.,.>.' U U ' ' ' U U U U U U U P U U U U U U U U U ' 0.0.0.4.` U U *.U U U U U ' ' P I U U U U U U &.P *.Y |.|.5.Y T Y Y Y Y Y Y P P P P P &.Y |.|.5.Y U U U U ' ' ] | ,.,.>.>.>.>.6.>.U 5. X|.4.U Y 5.0.3.' ' 3.3.U *.3.q.#.{ *.-.0.q.0.,.>.>.>.*.*.| 0.v.q.,.>.q.q.q.7.<.$.$.$.0.7.] ~ ~ ~ ~ ~ ~ ] <.} <.] ~ ~ ~ ~ 7.@.7.7.<.] }  . .} / ~ S b u e , n.<X<X<X,X$X| { ] ~ ] ^ ~ ~ J J e t t b e e 0 0 0 7 O CXVXAXVXAX-X4X4X5X5X5X).OX).(.X.- , 0 ",
"c c c c c A K K D K 5.OX*X*X*X*XmX6X6X6X6XfXfXfXfXfX0X0 0 0 6 0 0 0 0 0 m A K I K M gX<X,X,X3X,X,XV.V.%XQ J J A L ~ / +.O.O.O.~ ' ~ ~ ~ O.x.8.8. .+.+. .] ] ] 8.O.7.+.] <.7.7.7.7.7.$.$.$.7.{ ,.{ { ] >.{ | $Xq.} { { { ,.{ { ,.| 9.#. . .| 4.9.4.] ' >.' ' ' ' ,.q.q.9.>.>.,.<.,.>.U *.>.' ' ' U U U *.I ' $X$X$X3.T *.T T T Y Y Y Y Y Y P 5.3.>.' U ' ' ' ' U U U U U P U P U U U U U U U U U ' 9.0.#.4.` U U *.U U U U | $X4.U U U U U U U U *.&.*.*. X$X|.Y Y Y Y Y Y Y Y P P P &.&.*.Y q.q.0.U U U U *.' ] | { ,.>.>.>.>.>.,.>.Y ,.|.0.4.U U 0.0.4.' ' 4.X.U *.2.q.#.{ *.*.0.v.q.,.>.>.*.*.*.{ 0.$Xq.<.,.q.q.q.0.<.$.$.$.0.7.<.~ ~ ~ ~ ~ ~ <.<.} <.] ~ ~ ~ ~ 7.8.7.} <.] }  . .} / ~ S b i b u C.<X,X,X,X%X0.5.{ ] ] ~ ~ ~ M M e t t b e e y 0 y 0 @ CXVXAXVXVX X5X5X4X5X5XOXOX).).)., , 0 ",
"c c c t c A K K K K X.*X4X=X=X=XmXnX6XmX6XfXfXfXfXfX0X0 0 0 7 7 y y 0 e m M G J A J kX<X<X,X,X,X,XV.V.V.E J J J J ~ } } 7.7.+.~ ~ ~ ~ ~ ] 8.O. .+.+.+.| ] ] ]  .} | | | 9.0.q.8.8.q.q.0.9.<.,.,.,.>.>.>.,.{ v.0.,.,.,.| ,.{ ,.,.' 9.0.0.<.>.4.<.<.>.>.' ' ' >.>.>.9.q.0.' >.,.,.>.' ' ' ' >.>.>.' ' ' I I '  X X X>.Y T *.*.*.T Y Y Y Y Y Y 2.,.>.' ' ' ' ' U U U U U U U U U U U U U U U U U U [ #.9.9.4.] *.*.*.U U U U 4.$X XU U U U U *.U U Y *.*.*.|.$X XU Y Y Y Y Y P Y *.Y *.*.*.*.2.|.|.0.[ U U U U [ ' >.>.>.>.>.>.>.>.2.*.Y >.0.|.3.U U 3.4.<.' U 3.3.>.-.5.q.#.[ *.*.0.v.q.,.2.>.*.*.Y { 0.$X$X<.,.q.q.q.q.7.7.7.9.7.<.] ;.;.~ ~ ] } <.<.<.] ] ~ ~ ~ ~ ] ] { ] ,.,.]  . .} / ~ W m m m u %X<X<X<X3X$X0.3.| ~ | ^ / ~ ~ ~ b e b b p p t y t y 9 CXVXVXVXVXXX5X5X5X6X6X4X=X).).|.> e 0 ",
"c c c C C J K K I I X.=X=X4X4X=XnXnX6XmXnXfXfXfXfXzX0X0 0 0 y 7 y 8 0 q b m m M Z C kXkX3X,X,X,X,X:X,X3XE J J J J ~ / } } <.<.~ ~ ~ ~ ] ] } <.,. .+. . . . .|  .| }  . .#.0.#.O.7.9.9.<.<.<.,.,.,.,.>.>.>.,.,.,.,.,.,.,.| | | ,.<.<. .4.<.<.<.<.<.,.>.<.| { >.,.>.] | <.' ' >.>.>.>.' >.>.>.>.>.>.>.>.U U U ' ' ' U T T -.T T Y *.*.T T T Y Y U [ [ [ [ ' ' U U U U U U U U U *.*.*.*.*.*.*.*.>.{  . .X.| >.>.' ' ' U *.U ,.w.w.U U U U U *.*.U Y *.*.Y Y Y U Y Y Y Y Y Y Y Y *.*.*.*.*.*.*.*.[ *.[ [ U U U [ >.>.>.>.>.*.*.*.*.*.*.Y ,.5.9.{ U U ' ' ' [ [ >.>.>.*.>.[ [ Y -.*.<.<.<.,.2.>.>.>.*.*.,.<.<.>.,. . .<.<.<.<.<.<.<.<.<.,.<.<.<.<.<.<. . .} ] ] ~ ~ ~ ] { { } <.<. . .+.} / ! ~ W Q ~ ! &X<X,X,X,X$X .] ~ ~ ^ ~ Q M W W p e e e t t p p p p - CXzXzXzXzXfX5X5X5X5X5X4X=X_.).|.- 0 e ",
"c c c t A J K K I K X._._.*X*X*XmXnXnXnXnXVXVXVXVXVX1.0 0 0 7 0 0 8 0 q e t c t p t W ! E E d ,X,X,X<X3XE M J ~ J ~ / }  .} <.<. .} +.+. . . . .+.7.7. . . .} +.+.7.7.7.#.O.O.9.4.9.4.4.4.<.4.<.>.>.>.>.,.{ X.X.,.,.,.,.,.| | <.<.<.<.<.<.<.4.4.<.' >.<.<.| ,.I P J J J ' ' ' >.' >.' >.>.>.>.>.>.>.>.>.>.>.' >.>.*.*.-.Y Y Y Y *.*.*.T T Y *.U [ [ [ [ ' ' U *.*.U U U U *.*.*.*.*.*.*.*.' [ [ | 9.9.9.<.>.' ' ' ' ' *.U ' ' ' U U U U U *.*.*.*.*.*.Y Y P Y Y Y Y Y Y Y Y Y *.*.*.*.*.*.*.[ [ [ [ [ >.*.*.>.>.>.>.>.>.*.*.*.*.*.*.[ ,.4.| ] ' ' ' ' ' ' [ [ [ [ T Y U U Y T [ | ] >.>.2.{ ] { [ U >.<.,.,.,.] ] ] { <.,.,.,.<.9.9.<.<.<.<.<.7.7.7.7.7.7. .} } /  .} } +.+.+.+.+. .} / / / Q Q W n.,X<X<X<X,Xq.! ~ ~ W J n b p 0 0 0 0 0 0 0 y p p s p q CXVXVXVXVXfX5X7X5X5X5X*XOX_.).).- 0 e ",
"Z b b c A J K K K A | OX_.*X*X-XnX6XnX6XnXzXVXVXVXVX1.q 0 0 6 6 0 y 0 0 e t t t c c S ;.~ J ~ ,X,X<X<X<XE M J ~ ~ ~ } } / / } O.O.O.O.+.+. .} ] <.7.7.+.+.+.+.+.0.0.+.7.+.#.#.+.<.<.7.<.<.0.q.<.>.>.>.>.<.+.#.#.#.,.,.<.q.0.4.4.<.<.4.4.4.4.4.4.4.{ ,.0.9.9. .| { >.' ' ' ' ] | | { ] { { { { { { { { { { { { { { >.2.X.q. X$X' *.*.*.Y Y P { | [ [ >.[ [ [ >.>.[ [ 0.0.{ U U *.*.*.>.[ { 4.<.] 4.9.9.#.4.| <.|  .7.9.' U U U U U Y U U U *.*.5.9.5.Y Y Y Y Y U ..X.Y T *.*.*.U 9.0.5.>.-.[ { { { { [ [ >.>.>.>.*.*.*.*.*.*.,.<.{ ,.,.0.4.X.| | | 7.9.>.[ 9.q.q.q.[ T 3.$X| ,.X.0.#.{ U >.] v.a.O.>.] 7.7.4.' ' ' >.' ,.4.0.<.4.4.9.4.9.7.7.<.<.7.7.+.+.7.+.+. ./ +.+.+.+.+. .} } } } / / ~ W W W %X<X<X<X<X,X~ J J ~ Z n b p i y q 0 q q 0 0 0 C C Z Z y CXVXVXVXVXnX5X6X4X=X*X=X*XOX X|.- 0 0 ",
"C C C A J J I I K J ` *X=X5X=X-XmX6XnXnXnXzXVXVXzXVXe.; ; 6 7 7 7 y 0 0 e t t t b c S J ~ J ~ gXT.<X<X<XE G G J J ~ } } / ] } O.O.O.O.O.+.+.} ] <.7.7.7.+.+.+.O.O.+.7.7.+.O.O.+.7.9.0.7.7.7.q.<.>.>.>.>.|  .+.#.#.,.,.4.v.q.4.3.4.3.3.4.4.4.4.4.4.,.>.9.0.0.0.9.| >.' ' >.<.w.n.q. .{ { { { { { { { { ,.{ { { ,.,...{ #.#X#X$X[ *.Y Y T T 5.%X$X| [ [ [ [ [ >.>.[ X.q.$X .>.*.*.*.*.>.>.,.] <.{ 4.9.9.#.9.9.9.9.+.q.q.| U U U T T U *.*.U U ..|.|.4.U *.Y Y U |.).$.{ T Y Y *...q.a.0.[ >.{ { { { { { { >.>.>.>.*.*.*.*.*.>.0.$X0.,.,.9. .| | | 9.q.0.3.| q.x.x.q.[ 2.4.$X| .. .0.#.{ >.>.] a.a.@.{ 4.b.b.q.' [ >.>.' ,.0.0.9.9.9.9.9.7.7.7.7.7.7.7. . .7.7. ./ / O.O.O.O.+.} / } } / / / W W W W &X<X<X<X<X,X~ J J S C p p p i p e q 0 0 q q 0 C C C C a AXVXVXVXVXMX5X4X*X_.OX=X).OXOX X- e 0 ",
"b C C J J K I I K I ` *XOX*X_.*XnX6X4X6XnXzXVXVXzXVX1.; ; 6 7 7 6 y 0 0 e t t t b b S J ~ J ~ gXT.T.<X<XE G M J J ~ } } / } +.O.O.O.O.O.+.+.} ] } 7.7.7.+.+.+.7.7.+.7.7.O.8.@.O.+.0.q.q.q.7.q.<.>.*.*.>.<.+.#.0.0.3.,.4.v.v.9.3.4.4.4.4.4.4.4.4.4.{ >.9.0.0.0.4.<.>.' ' >.<.w.n.v. .{ { { { { { { { { ,.{ { { ,.,.,.,.#.#X#X%X[ *.*.Y T *.7.%X%X .[ [ [ [ [ >.>.[ X.|.$X3.*.*.*.*.>.>.>.,.| | | 4.9.9.9.#.#.9.9.+.q.q.| >.U U U T T *.*.U [ ..{.9.5.*.Y Y Y U |.|.).{ [ U U *...v.x.q.>.>.{ { ,.{ { { { >.>.>.>.*.*.*.*.*.>.q.$X0.{ ,.9. .| | | 9.q.0.,.| 0.v.v.q.,.[ 4.v.3.2.3.0.0.{ >.>.] a.a.@.>.<.b.b.q.] ,.>.>.' ,.q.9.9.9.9.9.9.7.7.7.9.9.9.7.7.+.7.7. . ./ O.O.O.O.+.} / / / / / / W W W W &X<X<X<X<X,X~ J J S b p p i i p e 0 0 0 0 q 0 C Z Z Z a AXVXVXVXVXMX5X4X*XOXOX=X).OXOX X> , 0 ",
"b Z Z I J I I J I J _ =X*X-X-X-XnX6X6X6XnXzXVXVXVXNX%.; 6 6 7 6 6 0 0 0 e e p p t p Z ~ ~ ~ Q mX,X<X<X<X: m E E E ! / }  . .O.O.O.O.O.+. . . . .9.7.7.7.<.+.7.7.7.+.7.7.O.O.O.7. .7.8.8.8.9.9.<.>.~ ' >.<.+.+.+.#.<.3.<.n.n.9.3.4.4.4.4.<.4.4.4.<.,.>.] >.,.,.<.<.>.~ ] ,.<.q.$X X .| { ,.,.,.,.,.,.,.,.,.,.,.,.,.,.,.9.$X$X$X' Y Y Y *.*.0.%X$X| >.[ [ [ [ [ >.[ ..4.9.>.*.*.>.>.>.2.,.,.| | | 4.9.9.9.9.9.9.+. .9.9.| >.[ [ [ >.>.>.>.>.*.>.2.3.2.*.*.Y Y U  X X X[ [ [ U U { q.q.9.>...........,.,.,.,.>.>.>.*.*.*.*.*.[ |.$X|.3.,.4.3.| 3.3.<.9.4.,.] 0.v.v.q.,.,.{ 4.>.2.| #.#.{ ,.,.{  .+. .>.<.v.v.7.{ { { >.{ <.q.0.0.0.4.4.9.9.4.9.7.7.O.O.O.7.7.7.7.+.} #.O.O.O.} / / / / / / ! / ! ! ! &X<X<X<X<X3XJ J J Z b p p p s u 0 6 6 6 0 0 0 C S S S C CXVXAXVXVXMX5X4X*XOX*X=X).=XOXOX- 0 0 ",
"q q q c ~ I A A A v G OX*X=X=X*XnXmX4X6XnXo < <     O - 6 6 6 6 6 0 0 0 0 0 0 t t t b b C J m u g E g : gXkXkXkXkXkXo.o.O.} } O.O.O.+.+.+.O.+.+.O.7.7.+.+.+.<.7. .+.7.7.O.7.7.8.7.7.0.q.0.7.7.0.7.7.+.7. .<.<.<.<.<.3.<.<.| ,.,.4.4.X.<.<.<.<.4.<.<.<.<.<.<.<.<.4.9.9.9.0.{ { ] { [ { 3.,.{ { { ,.,.,.,.,.,.,.,.,.,.2.>.T Y T T >.[ [ [ *.U { ` [ [ [ [ [ [ >.>.[ [ [ [ >.*.2.>.2.>.2.2.<.| X.| 4.9.9.9.9.9. . . .<.<.,.>.[ { [ >.[ >.>.*.*.*.*.>.*.*.*.U [ ] [ ` ' Y ' ' ' [ >.{ [ 2.2.,.,.,.X.,.,.,.,.3.,.>.>.*.>.>.>.*.*.' [ { { { { [ ' ' ' ' ] ] ' >.<.} | ] { ,.| { { { | 4.9.4.<.| { { { | 3.3.<.| <.<.] } ] ] | X. .X. .4.4. . .#.+.7.7.@.8.O.O.O.O.O.O.O.O.O.O.O.O.( ( @.@.@.b.%X%X%XV.fXE ! ( ( ( ! J J S Z b p p p i 0 0 6 6 6 0 0 0 9 0 0 0 9 w.5.5.w.4.MX-X7X6X6XnX X|. X X|.e 0 0 ",
"0 0 0 e b m v A A c G |._._.).).nX6X7X6XmX> > 9 @ * - - - 6 6 6 6 0 0 0 7 7 7 e t t b b Z I b m M M m m &XkXkXkXkXkX) y.@.} } O.O.O.+.+.+.+.O.O.+.#.$.q.q.0.<.+.+.+.+.+.O.O.O.$.7.7.#.#.0.7.7.@.$.$.$.O. .4.4.4.<.<.3.3.,.2.,.,.9.$.0. .<.<.<.<.<.<.<.<.4.4.9.9.7.7.7.9.0.] [ ' [ ..{ { { { { { { { { ,.,.,.,.,.,.,.>.[ T T T T ` #.q.0.~ [ [ [ U [ *.[ [ [ [ >.>.>.>.[ ..>...X.{ [ 2.,.X.4.| | 4.9.9.9.9.9.<.<.| | { { [ | X.9.{ [ [ [ [ *.*.>.>.>.>.*.} +.O.' Y Y ' | } ] ' [ ......,.2.,...X.,.,.,.3.9.4.>.U >.<.| { U U U [ [ [ ,.{ U ' ' ' ' } ] { | <.4.] ~ `  .q.q. .| 3.#.+.#. .| 4.4. .3.4.9.9.9.<.] 0.$.$.+.| | X...X. .X.<.#.#.O.@.@.@.$.@.O.O.O.O.O.O.O.O.O.7.O.( @.i.i.i.,X3X3X3X,X&XM M n i m M ~ J S S Z b p p i 0 0 6 6 6 0 0 0 9 0 0 e 0 } *X*X|.| MX6XnX6XnXnX{.{.|.|.{.e 0 0 ",
"q t t Z A A A v c c G |.*X=X=X-XmXmX6XmXmX> 9 > 6 6 6 - - - 6 0 0 0 0 0 0 0 0 y p p b b Z I A A A A A F gXkXkXkXkXkXo.s.o. .+.O.O.} +.+.+.O.$.$.O.q.q.v.v.q.7. .7.8.8.O.O.+.+.+.+.7.7.0.7.0.q.q.$.8.O.O.<.3.3.3.<.4.4.4.3.3.3.| B.B.B.+...| <.4.<.4.4.9.9.9.9.9.9.7.7.7.9.{ >.[ >.>.] q.v.q.{ { { { { ,.,.,.,.,.,.,.#.0. .T T T  .%XV.%X} [ [ [ [ [ [ [ [ [ 2.2.>.2.2.2.2...b.B.b.| { ..3.4. . .4.4.9.9.4.4.<.| | { ' ' { $X$X$X#...>.>.>.[ >.>.*.*.>.>.$Xb.a._ Y T  .$XB.v.` [ ,.,.,.....,.....,.,.,.4.q.0.[ [ | v.$X$X[ [ [ [ { <.4.{ ' U U U 7.v.v.v.7.q.9.} ] ' 7.q.$.#.X. . .+.O.+.9.q.#.#.4. .#.O.+.} } v.a.i.7.| { { { { X.X. .4.+.O.@.@.@.8.O.O.O.O.O.O.O.O.O.O.8.O.O.@.i.y.y.3X3X3X3X3XgXM n m m m m J S S S Z b p p u 0 0 0 0 0 e e > > 0 , e e ~ #. X|.Q MXnX6X6XnX6X|.|.{.{.3.e 0 0 ",
"q q t b A A A A A A G  XOX_._.*XmXmX6XmXmX@ 9 > 6 6 - - - - 6 0 0 0 0 y 0 y 0 0 t t b b b C A A K A K m gXkXkXkXkXkXo.p.O.} O.O.O./ } +.+.O.O.O.+.+.O.O.O.7.7.+.7.8.8.O.+.O.+.+.7.7.8.8.q.q.q.q.$.#.O.+. .4.4.4.4.4.4.3.3.3.3. .B.V.V.$.| | | 0.b.0.4.9.9.4.4.4.4.7.7.q.9.{ >.>.>.' | b.b.v.{ ,.,.,.,.,.,.,.,.,.,.| q.$X#.Y T T 0.%XP.:X} [ [ [ [ [ [ [ ....2.2.>.2.,.2.2.X.v.B.b.} [ ..3. . . .3.4.9.9.9.9.<.<.| { ] [ { $X$X$X+.[ >.>.>.[ T >.*.*.>.[ $Xb.a.} Y [  .$XB.v._ [ ,.,.,...,.,.,.,.<.,.3.4. X0.,.>.<.v.$Xv.[ [ [ X.9.9.9.| ' ' ' ' 8.b.b.b.O.+.+.} ] ' +.q.q.#.X. . .+.+.+.9.q.q.q.| | #.+.+.| | v.p.i.O.] { { { { X. .+.+.+.O.@.@.@.@.8.@.O.O.O.O.O.O.@.@.8.O.O.) i.i.y.3X3X3X3X3X3XM b b m m M J J S S Z p p p u , , 0 0 0 0 9 9 > , 0 0 e M ).)._ G nX6X6X6X6X6X{.{.5.{.3.0 0 p ",
"q q e t c A A A A A G  X*X*X*X=XmX6X6XmXmX@ 9 , 6 6 6 6 6 6 0 0 0 0 y y 0 0 0 q t t b b b C A A A A A m kXkXkXkXkXkX@.a.} } O.O.O.} +.+.+.O.+.+.+. . . .}  .7.+.7.O.8.O. .7.<.<.7.7.8.8.8.8.v.x.8.O.+.+.#.4.4.4.4.4.4.3.3.3.3. .B.V.V.8.} | | q.b.#.4.4.0.9.<.4.<.7.q.q.9.{ >.>.>.' | v.v.q.,.,.,.,.{ ,.{ ,.,.,.,.,.q.$X#.Y T ..7.%XP.%X} [ [ [ [ [ [ [ ....2.2.2.2.2.2.2.X.b.B.b.} [ ..3.3.3.3.3.4.9.9.9.9. .| | { { { { $X$X$X#.{ >.>.>.[ -.>.*.*.*.[ $Xb.b.` [ [ } b.B.n.` [ ,.2.,...,.,.,.,.<.<.3.3.0.5.,.,.<.$X$Xv.[ [ [  .0.q.0.| [ >.' ' q.b.b.v.+.+.+.} ] ' 7.q.q.#.X. . . .+. . .q. X0.{ | #.#.+.4.<.v.p.x.O.| { { { | | 0.@.O.O.O.O.8.8.@.8.@.O.O.O.O.O.O.O.O.@.O.O.@.i.i.i.3X3X3X3X3X3Xm n b m m S J J S S Z b b b u 0 0 q 0 0 e e e e e e 0 q m #.#._ ~ nX6X6XnX6XnX{.{.4.5.| 0 y p ",
"0 0 q p m m ~ J S J G 5.OXOX XOXmX6XmXmXMX> m m ~ 6.XXfXfXfXfXfXfXzXzXzXzXVXAXAXAXAXr b b N v v A K K c mXlXkXkXkXkX,X,X%X,X3XO.O.O.O.O.O.O.@.@.+.O.+.+.+.+.7.7.+. .+.+.+.7.7.<.7.7.0.0.0.8.v.$.7.O.O.+.9.9.4.<.4.4.3.3.3.3.3.| q.i.v.+.} |  .q.v.4.5.3.3.3.3.3.<.4.9.4.<.{ ,.,.,.,.| |  .<.| <.{ { ,...,...,.,.,.,.|  .{ T T ..|  .O.+.{ [ [ [ { ....{ ....2.2.,.2.2.2.2.2.X.O. .| { { 3.X.3.3.3.4.4.9.9.0.4.<. .{ { { { | #.9.X.{ [ [ >.2.2.[ [ [ [ -...| { ` [ [ X.| } { ..{ ,.,.,.,.,.{ { ..X.3.3.X.X.3.,.,.,. .<.| [ [ {  .#.0.9.| [ { { { |  . .#.4.4.<.| ] ] #.q.q.#.#. . . .} | X. .9. .X.X. . . . .4.+.+.O. .| | } }  . .7.@.@.@.O.O.O.@.@.@.O.O.O.O.O.O.O.O.O.@.@.$Xb.b.c.%X3XmXmXmXmXmXM M m b b b C C b b b b CXzXfXzXzXzXfXfXfXfXfXfXXXXXXXXX-X*X XX.Q 6XnX6X6X6X6X5.5.4.4.{ u p p ",
"9 6 9 e e u ~ ~ ~ ~ ` { ..` _ ..)._._._.7XnXnX7X7XnXMXCXCXCXCXAXAXAXAXAXVXVXAXAXVXAXr b b b V A A K A F ` .._ _ (. X3X3X3X3XkXO.O.O.O.O.@.@.@.@.O.O.O.O.O.O.O.O.O.+.O.7.7.8.8.8.7.7.9.7.9.9.7.0.7.7.7.7.8.@.@.@.8.4.<.<.9.3.3.| +.7.<.} ] ' 0.$.q.3.2.2.3.4.| 3.<.<.3.3.<.<.9.9.<.<.| | | <.| <.3.0.@.+.{ ..,.,.,.,.,.[ ,.2.2...............2.2.[ ..X.$X$Xq.2.2.2.2.2.2.2.,.2.X.X.X...| #.9.<.<.| #.9.q.q.0.| 9.7.9.| { { { { { { { 2.2.2.2.>.q.$X$X%X{ { { ..{ [ { ..{ ,.2.2.......X.X.X.| | X.X.X.X.X.X.4.3.,.,...{ ,.[ ~ $.$.#. .<.{ ,.<.| ,.3.3.3. . . . . . .} +.q.$. .<.} | | ] | X.X.3.3.{ | q.$.O.+. .|  .<. .| | +.#.#.+.7.@.@.@.O.O.O.@.@.@.O.O.O.O.O.O.@.@.@.@.b.3X3X3X3XgX;X).{.{.{.X.G G M M M c c c c b b C AXVXVXVXVXVXVXVXBXBXVXNXnXMXnXnXnXnX6X6XnX-XX.#.#.X.X.<.| X.| ] E E E ",
"9 6 9 0 0 u Q / ! / ` ` ` ` { { )._._._.4XnX7X7X7X6XMXCXCXCXcXAXVXAXAXAXVXVXVXAXVXAX4 b b A A A A A A F {.(.(.(.).$X3X3X3X3X3XO.O.O.O.O.O.@.@.@.O.O.O.O.O.O.O.O.O.@.O.O.7.x.c.x.7.9.9.9.9.9.9.9.7.7.7.O.x.p.p.p.p. .<.#.$.#.X.{ #.#.4.] { { $X$X$X,.3.| q.$X| <.<.3.3.3.,.9.0.0. .| | | <.<.<.<. .B.B.b. .| ,.,.,.,.,.3.|.|.......2.2.......2.2.>.[ X.B.s.B.....2.2.2.2.3.X.X.X.2.3.,.| $X$X .<.<.q.v.v.v.0.} q.$X X| { { { { | { >.2.2.2.2.,.q.%X%X%XX.2...2.{ ..>.{ { ,.>...| X.X.X.X.X.X.| | X.X.X.X. .X.3.,.,.....2.[ _ $X#Xv.| ,.{ ,.9.9. .<.4.4. .9.9.#.+.+.| q.b.v.q.} ] ] { { | X.| ,.,.,.| q.a.a.$. .|  . . . . .#.$.a.O.0.@.@.@.O.O.O.@.@.@.O.7.O.O.O.O.@.@.@.@.b.gXgX3X3X3X$X(.(.(.(.(.J J S Z m v c e v b b t AXVXVXVXVXVXVXVXBXBXBXNXnXnXnXnXnX6X6X6X6X5X(.X.|.X.X.| | { ] ~ i E E ",
"9 t t Z u p ~ / / ~ ^ ` ` ` ` { )._._.4X4XmX6X7X6XnXMXCXMXMXCXAXAXAXAXAXVXAXAXAXAXAXq c c c V A A K A G |.).).). X XkX3X3X3X3X} } } } O.O.@.O.O.O.O.O.O.O.O.O.O.O.@.@.8.7.x.x.x.7.9.7.9.9.9.9.q.q.7.O.#.i.p.u.s.p.O.+.p.s.a.} | q.q.9.{ { { ;X%X$X,.,.+.%X%XO.3.3.3.3.<.,.<.<.| | | | | | | <.<.O.M.M.m. .<.3.3.,.,.,.4.$X X........2...[ ..2.,.2.,.,.%X:X%X..2.2.2.3.X.X.X.X.3.,.3.,.4.$X;X#.X. .%X%X$Xv.q.] } 4.0.| { { ,.,.,.{ >.2.2.2.2.,.q.%X%X%X .,.2.>.2.2.,.,.,.,...{ X.X.X.X.X.X.X.X.X.| | | 2.4.0.3.,.,.2.2.2.[ } $X%Xv.} { { 4.v.q.<.<.| 4. . .4. .} | | v.b.p.a.} ] ] ] { { { { X.X.,.} v.b.b.@. .<.<.<.<.| 4.q.v.q.8.7.+.O.@.O.O.x.b.v.8.O.7.8.( O.O.O.O.O.O.b.kXkX3XkX3X$XX.(.(.(...M Z M M m c e 0 e b b a AXVXVXVXVXVXVXVXVXVXVXNXnXnXnXnX6X6X6X6X6X6X(.(.{.).{.4.4.| { { g E ! ",
"q t b J M Q ~ ~ / ~ ~ ` ` { { { (.4X4X4X4XmXnX7X7XnXMXCXCXCXCXAXAXAXAXAXAXAXAXAXVXVXr r 4 3 3 x M A m G 3.(.).).{.$.3X3X3X3XkX( ( ( ( o.@.@.O.O.O.O.O.O.O.7.7.O.O.O.O.7.+.O.8.7.7.7.9.9.9.7.9.q.v.#.#.+.8.p.u.s.u.O. .a.s.c.} | 0.q.9.{ { { $X%X0.,.,.7.%X%Xq.3.,.3.3.3.,.X.X.<.| | | | | | <.<.O.V.M.B. .X.3.3.3.3.,.<. X|.X.2.................2.,.,.|  . .2.2.........2.X.,.3.3.3.3.9.$X$X#. .#.$X$Xq.q.9.| | <.4.| | { { ,.,.{ >.2.2.2.2.,. .$.v.v.X...,.,.,.,.,.,.,.,.,.,.X.X.X.X.X.X.X.X.| | | | 3.4.9.3.,.,.,.2.>.2.| $.a.O.X.{ { 4.$X$X9.4.#.#.4.| X.| <.<.<.q.b.b.$.} ] ] ] { { { ....X...{ #.O.#.7. .<.<.<.<.<.#.q.q.q.q.O.7.O.@.@.O.x.x.v.8.O.O.8.8.@.@.@.@.) @.b.3X3XkXkX3X X..{. X X5.G M S C C C 1 q y q q C AXVXVXVXVXVXVXVXVXVXVXNXMXMXnXmXnX6X6XnXmX5X).(.(.(.X.| | ` ` ~ i E ! ",
"e b c J M W ~ ~ ~ ~ J ' { { { { |.OX4XOX4XnXnXnX7X6XnXmXMXMXMXCXCXCXCXCXCXAXAXAXAXCXe.zXCXAXAX3 A A m A 5.(.).(.{.#.3X3XkXkXkX) ) ) ) ) ) @.O.O.O.O.O.( O.O.7.7.7.7.+.7.7.#.7.7.9.7.7.7.7.9.9.7.q.7.#.O.8.p.u.m.c.+.| @.s.i. .<. .+. .{ { <.7.O.<.,.,.9.%X%Xq.3.3.3.3.3.,.X.X.4.| | | | | | | |  .@.O.( 3.3.3.3.3.3.,.|  .3.2.,.................2.,.,.....2...2.2.......2.X.X.3.3.3.3.4.0.$.#.#.#.q.8.9.+. .] | <.4.| { { { ,.,.,.>.2.2.2.>.2... . . .X.X...,.,.,.,.,...,.......3.X.X.X.X.X.X.| { { | <. .4.X.,.,.,.2.>.{ {  . .X.X.{ { | $Xq.9.#.#.#.9.|  . .<.<.| 7.v.v.#.] ] ] ] { { { { X.X.....3.4. . .4.4. . .<.<.X.9.O.+.+.+.+.O.O.@.8.8.@.8.8.O.O.( x.i.n.B.c.c.@.b.3XgXgXgXmX X` ..{.{.' e e b b b a zXzXfXfXfXfXCXAXAXAXAXCXCXCXCXCXCXMXMXnXnXnX-X6X6X6X6X=X).{.(.(.X.| ` ` { ~ i W W ",
"t t p b n W * , M ~ ~ ] ` { { ` ..........{.OXOXOXOX5X7X7X7X7X7X7X7X7X7X7XmXmX6XnXnXAXAXAXAXAXz A m m v X.(.(._ G (.=X*X*X*X;X3X3X<X<X3Xc.( ( ( O.7.( ( ( ( ( 8.i.@.O.O.O.@.@.8.9.7.@.p.c.v.9.7.#.#.$.+.O.O.#.#.9.X.3.4. . .| #.#.#. . .<.4.9.#. .,.2.3.3.3.3.3.<.4.4.3.3.3. .+.+. .| | | | | | | | | | 3.3.4.4.3.<.,.2.,.2.,.,...X.X.` 2.........[ ....X.X.......}  . .X.3.3.3.3.3.3.#.#.#.#.9.9.#.#.#. . .} v.n.q.<.{ { { { X.{ {  .#.#.{ ,.,.X.X.X.X.3.3.,.,.,.,.X.| | ......{ 3.| | X.X.X. .| ,.,.#.$.O.2.[ X.4.+.7.| | |  .X.X.| | | | | | 3.| | X.| +.O.$.7.} >.{ { ] ] ] ] | 4. . .$.$.#.X.3.9.q.O.+.+.@.@.@.7.7.8.8.q.8.O.O.O.O.O.@.@.@.8.7.7.O.O.x.m.V.gXhX<X3X,X$X X|. X X Xm c b b b c t e b c b a Q.AXAXAXAXAXnXnX7X7X7X7X4X4X7X4X7X4X7X7X7X7X*XOX).).).X.X...` ` { } ` ` ] ~ * O + ",
"t Z b Z u p 0 , M J ~ ] { { { { { ` ......(._.OXOXOX5X7X6X6X6X6X4X6X7X7X6XmXmX6XmXmXCXAXAXAXAX2 v v v v ` (.(.(.2.|.=X=XOXOX5X3X3X<X<X3Xj.( ( ( ( ( ( ( ( ( ( 8.i.i.@.O.i.p.c.v.q.7.m.M.P.V.7.9.#.#.8.+.0.q.q.q.q.4.3.3.<. .<.9.+.+. . .+.#.#.#. .3.,.3.3.3.3.4.4.0.0.9.3.| q.p.p.@. . . .| | | | | | | <.4.4.9.9.0.3.3.2.2.2.3. X%X%Xq.{ ......,.[ X.v.v.v.X.X. .B.m.m. .X.3.3.3.3.4.0.$.#.#.9.9.9.9.9. . .+.b.B.$.| | { { ,.{ ,.| %X%X&X#.| | X.X.X.4.4.3.3.3.3.3.O.b.%X9...[ 9.v.v.q. ...X.9.0.,.,.O.@.@.| | 0.@.i.$. .| |  .| | X.X.X.| 3.3.,.4.{ 3.4.q.a.a.b.O.] >.{ ] { ] {  .$.q.O.B.s.b.+.9.v.m.p.@.#.$.@.@.8.8.n.c.i.@.@.@.@.@.@.@.@.@.8.O.7.O.7.x.c.B.,X,X<X3X,X$X$X|.|. X Xm c b b b c e t c c b c 1.AXAXVXAXAXnX6X7X7X7X7X7X4X4X4X4X4X4X4X*X4X*X X).).).X.X.{ { { ` } } { ` ~ 0 0 ; ",
"p b S e > e ; b S ~ ~ ` { { { ] { { { { { (.OX=X4XOX5X=X=X4X4X=X*X5X7X7X6XmXnX6XmXmXAXAXAXAXAX2 c v v m G (.(.....{.=X=XOXOX*X3X3X<X<X3Xx.( ( 8.( ( ( ( ( ( O.8.i.i.@.O.x.p.c.x.8.7.V.Z.K.V.7.9.0.#.$.O.#.8.@.q.8.9.4.4.<.<.4.+.O.+.4.#.+.$.#.+.4.3.3.3.3.3.3.4.9.0.q.0.3.<.v.s.s.@.X.X.| <.| | | | | <.| <.9.0.0. X3.2.3.3.3.3.v.%XB.$.| ......2.[ | v.a.v.X.X.O.P.M.P.X.X.3.3.4.5.4.q.$.#.9.9.9.9.9.7.+.+.} b.B.v.| ,.{ { { ,.,.| %X:X:XO.<.| X.X.X.4.4.3.3.3.3.<.q.B.V.0.....9.b.c.q.| ..X.q.q.{ ,.7.i.i.4. .q.@.i.$.X.| |  .X.| X.X.3.3.3.3.,.0.4.5.X.q.p.p.b.O.] { >.' [ { |  .8.q.O.m.s.B.O.7.8.s.s.@.@.i.i.i.8.8.c.c.i.@.@.O.O.@.@.@.@.@.8.O.7.O.O.x.m.V.,XhXhXhX,X$X X{. XOXOXm c c b b c t t c c c c 1.AXVXVXVXAXnX6X6X7X7X7X4X4X4X*X*X4X4X4X4X7X*X).(.).(.X.X.......` ` ` { ] ~ Z 0 0 ",
"b b u Z p e p e W ~ ~ ` ` ` ` [ { { { { {  XOXOX=XOX5X4X4X5X6X4X*X*X*X*X5XmXmXnXmXmXAXAXAXAXNXz e e e v G ........(.=X=X=X=X*X3X3X3X3X3Xx.) ( 8.@.O.( ( ( ( 7.8.i.@.8.O.c.c.c.n.w.0.B.b.B.b.9.0.9.7.0.+.8.8.8.q.q.7.4.4.4. .4.7.#.#.4.#.#.q.#.9.4.4.3.3.4.3.3.4.0.q.0.0.3.3.q.V.V.@.<.4.4.#. .<. . . .4.<.4.0.q.q. X3.2.3.3.3.3.0.$Xb.O.| ,.X.X.2.{ | v.b.n.| 4.0.P.P.:X .X.5.X.4.4.9.0.q.#.0.#.+.+.O.#.7.7. .v.b.q.| 3.3.<.<.3.X.3.%X&X&X+.3.4.3.3.4.4.4.3.3.3.3.3.8.B.B.7.X...4.v.c.q.| X.| q.q.{ ..4.#.$.9.<.8.a.$.#.| | |  . . .| | ,.3.X.3.,.w.0.|.0.0.b.b.b.7.] { { { { ]  .7.q.7.$.b.B.b.+. .O.m.m.x.$.x.i.x.x.8.n.b.v.O.7.$.@.@.@.@.@.@.@.O.7.O.O.c.m.V.,XhX3X3X,X;X$X{.{. X Xm b m A A v c t c b c c :.AXVXAXVXAXnX7X6X7X7X7X4X4X7X4X4X7X4X7X7X7X*X|.X.{.(.X.......{ } } | { ] ~ C 0 y ",
"b u b ~ n M p m m W ] ] ` ` { { [ [ { { { (.). XOX).OX*X-X4X5X6X5X5X6X6X6XmXMXmXMXMXCXAXAXVXNXVXt c v v G ..{.5.3.{.-X=X=X5X-X3XkXkX3X3XV.c.m.m.n.O.O.( ( ( 7.8.@.@.+.7.0.7.0.q.|  .+.#.9.9.0.q.7.7.0.O.8.q.7.7.7.9.9.7.9.4.4.9.7.7.9.9.9.9.0.9.9.<.4.0.9.9.9.4.4.4.9.9.4.5.#.O.O. .3.9.9.9. .4. .4.4.<.<.9.q.q.9.9.4.5.4.3.3.3.4.#.7. .3.3.3...X.3.3.+.+.+.3.5.4.+.#. .3.5.#.4.4.4.4.7.7.#.0.0.7.0.q.q.7.4.9.+.+.#.+.<.3.3.3.3.3.3.4.9.5. .4.4.#.X.X.4.4.4.4.3.3.5.4.7.+.4..... .#.q.#.| { 4.4.4.,.2.X. . .| 3.X. . .| | | |  . . . . . . .3.3.3.4. .4.4.<.} } | ] ]  .} } | | 9. .+. . .} O. .}  . .O.O.7.O.@.@.O.O.7.O.O.O.O.7.$.i.x.@.@.8.O.@.( @.x.b.V.V.V.,X,X3X3X&X$X|.` { 5.5.m v A A A v t t fXfXfXzXAXAXVXVXVXCX6X6X5X7X4X7X7X7X7X4X4XOX*X*X*X*X).X.X.X.X.X.` { ..X.} } } ` ~ ~ Z p i ",
"t p p Q ! Q m m W E ` ` ` ` { [ { { { { { {.).|. X X).).OX).).OXOXOX=X=X=X4X=X*X4X-XCXAXAXVXAXVXc v v v e w v v 9 Y X.X.X..... X%X%X;X%X,X<X<X<X,X@.@.@.@.@.8.x.p.c.@.O.@.@.$.q.<.<.7. . .+.#.@.$.#.$.O.O.+.} /  .<.@.@.@.4.4.9.7.7.7.7.7.9.9.9.9.9.9.$.$.$.$.9.4.<.4.4.4.5.4.<.3.3.3.9.9.9. .4. . . .4.4.9.v.q. . .9.9.7.4.4.3.4.4.X.X. .3.|  . .4.5.9. . .3.5.5.X.5.X.X.0.q.q.4.4.4.9.7.7.0.0.0.7.q.q.7.7.7.7.$.$.q.0.3.3.3.3.3.3.5.0.4.3.0.$Xb.q.X.3.9.0.0.9.4.5.5.4.5.4.X...4.0.X.| ..`  . .<.,.....3.3...3...,.X.X.| | |  . . .X.X.#.q.3.,.| 7.8.7.| | | | | { } #.a.@.O. .0.+. .} } } } }  . .4.O.O.O.+.O.7.+.O.7.+.+.O.@.( 8.c.x.@.@.@.@.i.x.x.&X,X,X,X,X:X&X;X;X$X).#.e m m m m b A J K A e t Q.AXAXAXAXAXAXAXnXnX6X-X4X4X4X*X4X=X4X=X=X_.OX_.OX*X).3.` ` { .._ _ ` ` ~ } } ] ] ~ Z W W ",
"C b u } 8./ / E ~ n ~ ` ` ` ` ` ` ` { ....{. X X X X).).OXOXOXOX=X*X4X4X*X4X4X=X4X5XLXAXAXAXVXAXc e t v c c b b t D ..X.....X. X$X$X Xv.,X<X<X<X,X@.@.@.i.i.y.M.P.P.i.$.x.i.i.x.| } O.X.#. .@.m.V.c.@.@.+.+.} /  .+.B.M.B.+.9.+.x.c.b.8.7. .+.q.q.7.q.%XV.B.@.0.4.7.7.7.3.3.3.3.3.3.3.q.q.9.4.4.<.4.<.4.9.0.$Xq. .| q.$X$X$X .5.4.4.4.3.3.X.b.V.B.q.|.9.0.9.X.5.0.9.4.| ..q.n.%X7.4.9.0.7.7.q.q.q.q.q.0.0.q.8.v.v.a.b.$.3.3.3.3.3.4.|.|.0.4.+.b.B.v. .4.9.q.q.9.4.4.4.5.3.3.,.3.-X XX.{ { } %X%X$X| { ..3.3.2.2.,.,.3.3.| | | X. . .#.+.$.$.| X.4.c.V.%X} | { { { | } 8.p.p.@. .#.+.@./ O.#.O.@.O.O.O.@.x.x.O.O.@.O.@.O.O.+.( B.( x.V.c.) O.O.@.p.c.c.,X<X<X<X,X:X;X*X*XOX X_ u e u u b A A J J L r a 1.cXcXAXAXAXAXnXnX5X5X4X4X4X4X=X*X=X=X*X*X_._._.*X*X(.{ ..{ X.{ _ _ ` } } } | | | | J ,.;.",
"b b p 7.q. .~ Q ~ Q ~ ^ ] ` ] { ` { { ....(.(.(.|.).). X XOX=X*X5X7X6X6X4X6X6X6XnX5XCXAXAXAXVXAXt e t u v b J J M J { ..{ ' <. X$Xq. X$X,X<X<X<X,X) @.) 8.@.) M.K.K.i.$.@.@.i.v.} } O.+.9./ ( m.M.) ( / } } } }  .+.B.M.B.+.9.7.c.m.m.b.7.9.+.$.O.7.7.n.$Xn.+.9.4.9.9.+.3.3.3.3.3.3.3.0.0.9.4.4.4.<.4.4.4.0.$Xq. .| q.b.$Xv.X.X.4.4.4.3.3.+.B.V.V.O.4.9.0.0. .9.q.q.4.3.X.q.n.B.7.9.9.7.7.7.q.q.q.$.$.q.q.q.v.a.$.b.b.7.3.3.3.3.3.9.$Xq.q.4.O.b.B.v.#.4.0.q.q.9.4.4.4.3.3.3.3.,. X X4.{ { } %X%Xa.| ,.2.....,.,.,.,.,.3.|  . . . .#.#.+.$.@. .3.7.c.V.B. .| | ] <.<. .O.p.x.8.] +.O.#.} } / O.$.@.O.O.) i.x.O./ ( O.O.O.O.O.@.c.8.x.V.V.@.O.O.@.c.c.c.,X:X:X,X,X,X*X*X$X X).G u u u b b A A J J L t N 1.cXcXcXAXAXCXnXnX6X4X4X4X4X=XOX=X*X=X=X*X_.OX_.*X_.(.{ { { .._ ` ` ` } } | | <.<.| J ,.;.",
"m n p 7.+.} Q Q ~ ~ ~ ] ] ` ] { ` { { { ..(.(.).).(.(.).).OX=XOX4X6X6X4X5X5X6X5X6X4XMXAXAXAXAXAXt t t u v b J J G G { { { [ 3.$X$X X X$X,XT.<X<X,X( ( ) i.i.@.m.k.m.i.$.@.@.@.v./ } O.+.7.} O.c.m.) O.O.+.+.} }  .+.b.V.b. .#.$.b.m.m.b.0.9.+.#.7.7.9.9.q.0.4.4.4.9.0.9.3.3.3.3.3.3.3.9.9.9.4.4.4.<.4.4.4.+.#.+.X.<.q.v.v.q. .4.4.4.4.3.3. .%XV.%X+.4.#.0.0.9.0.q.v.9.3.3.8.b.b.7.9.9.9.7.7.q.q.$.$.$.0.q.q.q.v.q.8.q. .3.3.3.3.3.9.q.q.7.9.+.b.B.v.#.4.0.q.q.9.5.4.4.3.3.3.3.,.9. X4.{ {  .B.B.i.| ,.2.....,.2.2.,.,.3.3. . . . .#.#.#.i.@.| 3.+.x.n.%X .|  . .4.4. .O.p.i.8.] +.@.#.} +.+.O.8.@.8.@.@.x.c.O./ +.O.@.O.O.O.@.@.O.@.x.c.@.O.O.@.x.c.x.,X,X,X,X,X,X;X*X$X X).m p u u m A A A J J L c a :.cXcXcXAXAXCXnX6X6X4X4X4X4X4X=X=X4X*X=X=XOX*X*X*X*X(.........X._ ] ` ` } | | | <.<.J ,.<.",
"e u t ~ <.] Q Q / / ~ ] ] ~ ~ ~ ] ] ] ] ] {.(.(.{.X.{ X.X.(.(.OXOX4X4X5X4X4X4X4X6X4XMXcXAXAXAXCXt e e e t t b C b G ~ G I I ,.$X X|.|.b.<X<X<X<X<Xy.o.y.y.i.@.i.i.i.i.i.@.@.@.@.O.O.O.O.8.#.O.@.i.@.O.O.@.O.} }  .4.9.#.#.4.4.q.v.x.b.v.q.0.7.#.#.9.#.9.9.0.4.4.4.0.4.4.4.3.X.4.<.<.4.9.9.9.4.4.<. .#.9.4.<.4. . .<.9.$.$.9.4.3.4.4.X.4.4.X.O.@.$X#.4.0.0.0.0.q.$.$.0.4.<.#.v.v.0.9.9.9.0.q.q.q.v.b.v.q.q.q.q.q.0.0.9.<.3.X.X.3.5.5.0.0.0.9.#.#.$.q.9.X.0.0.0.9.9.4.4.3.4.3.<.2.3.3.| { { 3.#.8.+.| <.<.X.X.X.,.,.,.,.3.3.X.4. . . .#.#.@.O.4.3.X.} } q. .X.|  .+. . . .@.a.@.} 8.O.+.} +.+.+.O.@.@.i.@.8.x.O.( @.@.@.O.@.@.@.@.8.8.@.@.@.@.@.) @.@.x.,X<X<X<X,X3X$X*X*X*X).m m m m b A M b b C A N a :.cXcXcXcXcXCX6X6X6X4X=X4X5X5X4X4X=X4X7X4XOXOX X_.OXX.{ ..` { | _ ~ ~ ~ / ] | <.| { > & S ",
"6 6 6 > - e q.q.q.$X .m S b b 0 0 0 0 > - I ` ` ` ` ~ ..[ [ {  XOX5X5X4X=X=X=X4X5X4XmXcXCXVXAXVXp t t q > > > e > e J J K F G 9.0.} #.v.,X<X<X1X1Xu.y.y.i.y.) i.i.i.i.i.@.@.@.i.$.$.$.$.$.$.$.v.x.$.q.8.i.b.b.v.7.9.0.O.7.9.0.0.q.q.q.q.0.7.@.$.$.O.9.7.0.7.9.q.q.q.7.7.9.$.$.q.0.0.0.0.9.4.4.4.$.a.v.v.9.q.q.q.q.#.0.#.$.#.0.9.+.$.$Xq.7.#.4.9.#.0.9.9.0.0.0.$.$.|.#.9.9.7.v.v.0.7.q.$.$.$.q.q.v.b.v.v.a.v.q.q.q.0.0.7.q.v.v.v.9.5.0.0.0.9.#.#.q.q.9.#.O.v.b.v.<.4.7.q.v.$.0.<.9.0.$.q.$.X.X.X. . .X. .| +.#.4.4.#.9.3.2.9.q.q.O.+.0.0.#.q.0. .4.X.{ | | 3.+.#.9.7.7.+.O.#.7.7.q.@.$.O.q.v.v.8.@.v.i.@.8.8.@.8.@.@.( @.) i.i.i.x.c.m.m.m.p.c.i.x.@.y.kXkXkX,X&X%X(. X).).X.G M M M m e - - - - 6 a C h cXcXcXcXcXmX6X5X5X6X4X4X4X4X=X*X=X4X4X4X).).(.(.).` ~ ~ ~ ~ ~ ~ Q Q Q Q ~ ] | | | , 0 Z ",
"0 0 0 6 , , |.q.$.$Xq.E M n b q 0 0 q 0 0 I ` ` ..` ` ` ` ` { OXOX4X4X5X=X=X=X4X4X4XmXCXCXVXVXVXp t e q e e e e e e J G P G G |.q. .|.b.<X<X1X1X1Xu.y.i.i.y.) i.i.y.i.i.@.@.@.i.$.$.$.$.$.a.a.x.x.i.@.@.b.%X%X%XO.#.v.v.q.0.q.q.q.q.q.0.7.@.%X:X%X@.9.#.0.#.q.$.$.q.#.0.7.b.B.B.a.$.$.7.9.4.4.7.b.B.B.b.9.q.v.$.q.#.#.$.$.q.q.0.q.%X%X%X8.7.+.+.+.9.9.7.0.0.0.$.$.q.q.q.0.q.v.n.8.q.b.b.a.@.$.v.v.x.v.v.a.v.v.@.8.q.q.8.b.s.s.B.9.5.4.9.0.#.0.$.$.q.9.9.@.%X%Xb.7.4.7.n.%XB.v. .+.$.a.a.$.#.X.X. . .X.3.4.v.B.q.|.$X$X0.2.q.$Xb.v.v.#.O.@.q.q.+.4.X.{ { ]  .#.$.q.#.0.O.#.#.7.q.$.v.$XO.q.$.v.v.@.x.i.8.8.@.@.@.@.@.@.@.i.p.p.c.j.m.l.l.l.u.y.@.@.) i.kXkXkX3X&X;X X X X).X.G M M M m u 7 ; - 6 6 s C :.cXcXcXcXcXnX6X5X6X7X4XOX4X=X4X4X4X4X4X4X).).).).).` ~ ~ Q ~ Q Q ~ ~ ~ ~ ~ ] | | | , 0 W ",
"0 0 0 6 e ,  X Xq.$X0.Q M m b b 0 0 0 e e ' ` ` ..` _ ......{ OXOX7X5X4X*X4X4X4X4X4XmXMXCXAXAXVXp e e q e e t c c v A G K G G 0.|.#.|.$X,X1X1X1X1Xy.y.i.i.i.@.i.i.i.i.i.@.i.@.$.q.q.q.#.$.$.x.c.B.B.x.8.c.V.V.B.@.O.v.8.q.8.q.q.q.0.0.7.7.8.:XP.:X#.#.9.0.$.$.0.7.7.7.7.7.v.V.V.s.a.$.9.4.4.4.7.V.P.P.b.7.q.v.q.$.#.#.$.a.$.q.+.@.V.V.:Xv.9.#.#.#.9.9.9.0.0.q.$.q.b.b.$X0.0.v.b.8.8.B.b.i.8.x.b.a.b.v.v.v.v.v.8.q.n.$Xq.b.B.s.B.9.9.5.9.9.#.#.$.$.$.$.0.8.%XP.B.#.7.7.$XV.V.b.+.+.#.$.a.$. . . .4.| | <.| v.s.v.9.a.a.0.2.0.B.V.V.V.O.#.q.q.q.O.X.X.{ { } 7.&X%Xv.#.0.#.#.7.7.q.@.q.$XO.O.O.q.q.O.x.i.i.@.8.@.@.@.@.@.@.y.M.f.M.k.M.l.l.l.u.y.) @.@.) kXkXkX3X&X;X XOX*X).` M M M M b p p 0 0 0 0 p Z :.cXcXcXAXAXmX6X5X7X5X4X4X=X=X4X4X4X4X4X4X).).).X.)._ ~ ~ ^ Q ~ ~ ~ ~ ~ ~ ~ ] | | { , 0 p ",
"0 0 0 6 b @ q. Xq.q.q.m M M E n u t e e e ~ ` ` [ ` ` ........=X4X4X5X5X=X5X4X4X4X4X6XMXCXCXAXCXu u e e q t c c t e c v G M J 0.).+.0.q.,X1X1X1X<Xy.y.y.y.y.i.i.i.i.i.i.@.i.i.q.$.q.8.q.q.a.i.c.c.x.x.O.n.V.V.b.8.7.8.8.x.8.q.q.q.q.7.7.7.8.T.P.:X7.9.9.0.$.#.q.8.7.7.7.9.v.V.M.B.a.q.9.4.4.4.7.:XP.P.v.9.q.q.$.#.#.#.0.a.v.v.9.q.%XP.%Xv. .#.#.9.9.9.0.0.0.q.$.q.b.%Xb.q.q.q.v.q.8.V.b.a.v.v.b.b.b.v.q.v.v.v.q.8.n.$X0.8.B.B.B.9.9.5.9.9.9.0.$.q.q.q.0.q.V.:X%X@.4.+.$X%XV.v.9. .#.q.$.q. . .#.#. . .| | v.B.v.|.$Xv. .3.O.B.V.P.V.O.#.q.$Xq.9.4.X.{ { ` 0.%X&Xx.0.O.#.7.7.7.q.$Xv.$X@.O.8.7.7.+.8.c.c.@.8.8.@.O.@.@.@.p.Z.Z.M.k.k.Z.l.l.u.p.i.8.@.@.kXkXhXkX3X;X{.(.).).Q m b b b b p t q q y q p Z :.zXcXAXAXAXMX6X6X6X7X4X4X4X4X4X4X4X4X=X=X(.|.|.|.)._ G J J Q Q ~ ~ ~ ~ Q ~ ~ ] ] ] , u Z ",
"0 p p 0 b b w.w.w.<.7.m E E ! Q u t 0 0 0 ~ ~ ~ ~ ~ ~ { { { ` OXOXOX X|. X5X4X4X7X7X6XMXCXCXAXCX0 u e e q t c c c c A A A J J  X|.#.|.@.,X<X<X<X<Xy.y.y.y.y.y.y.y.i.i.i.i.i.i.v.$.q.@.i.i.i.x.x.x.v.$.$.8.x.x.8.8.7.8.v.v.v.8.q.q.q.7.7.7.q.,X,X,X7.9.9.0.#.0.q.8.O.7.7.7.8.B.B.b.$.#.4.4.4.4.7.B.V.V.$.4.q.q.$.#.+.9.0.q.q.q.7.7.n.%X%X@. .#.9.9.9.0.0.q.0.q.q.q.b.b.v.q.q.q.v.q.8.n.b.v.v.x.x.v.b.b.v.v.b.v.q.q.n.$X9.9.v.v.v.9.9.9.0.0.9.q.q.$.q.q.0.O.8.v.x.#.7.7.q.b.b.q.9. .#.0.#.+.#. .#.+. . . .| v.B.$X5.{.|.5.5.+.b.V.V.V.O.$.O.q.q.9.4.| { { | 0.$X%X8.7.+.7.7.7.7.q.$Xv.$Xv.8.7.8.8.O.x.c.c.x.8.@.@.@.@.) @.c.k.k.k.k.k.k.k.k.k.y.y.i.@.@.kXkXkXkX3X;X|.|.|.#.Q m b b b t 0 0 q q y q p s :.fXfXAXAXAXmX6X6X6X5X5X4X4X4X4X*XOXOXOXOX..4.4.5.5.~ J ~ ~ Q W W ~ Q Q ~ ~ ~ ~ ~ ~ , y i ",
"0 0 0 0 0 6 ; s 0 - y w.$X X X;Xu u u y y 0 6 6 6 6 6 e e e e M G M M M } 5X7X4X4X4X6XMXCXCXCXCXy y 0 e e p b b b c c b b M M ` X.{ | _ #.a.;X&X$X,X<X<XhXhXy.y.y.y.p.p.p.p.x.p.p.p.p.c.c.p.v.x.x.x.x.@.8.@.@.@.8.7.O.O.q.q.$.q.a.p.a.i.8.0.O.O.O.9.9.q.b.b.v.@.8.q.@.@.0.q.q.8.@.q.#.4. .#.9.4.9.#.0.9.9.#.$.i.i.@.0.q.q.$.$.O.9.9.@.8.+.+.O.#.#.q.q.q.q.q.q.v.v.b.b.v.v.q.q.v.q.q.q.q.x.8.v.x.b.b.b.b.b.b.v.q.q.q.q.0.7.v.v.v.0.0.q.v.v.q.q.q.q.q.q.0.0.0.q.8.8.7.0.0.7.0.0.O.O.$.$.#.9.#.9.+.O.@.O.#.#.4.5.2.[.4.9.q.#.0.$.@.$.@.O.$.7.#.+.+.O.O.@.+.3.7.$.q.0.7.@.@.8.7.7.O.8.7.7.O.8.8.8.x.x.x.x.i.i.@.x.y.c.c.j.j.y.y.j.j.y.j.j.y.y.y.,X,X<X,X<XkXgX;X X|.0.] { ` ..G G ' ` ` b q 0 0 0 0 q y p s Z s AXAXAXMX6X6X6X6X4X4X4X4X=X{.3.X.X.X.v p p u 0 0 7 0 7 0 0 ~ Q Q Q W E ~ ~ M W * * * ",
"6 0 0 0 0 6 0 ; & * i <. X|.$X$Xm i y y y 0 6 6 0 0 0 e e e v M G M S S } 6X7X4X7X6X6XMXMXCXCXCXi y y u p p b b c c b b b M M { X._ { _ #. X;X;X$X&XE.E.E.E.j.y.y.u.p.y.p.p.p.p.p.j.p.p.p.c.p.c.N.N.M.N.) @.O.@.8.7.8.8.8.8.@.x.c.M.P.B.x.0.#.#.7.7.7.V.P.P.V.O.$.@.@.x.$.0.q.8.c.b.$.9.8.%X$XO.#.O.q.7.4.q.V.V.M.%X$.v.b.a.a.v.9.0.0.9.9.9.x.B.v.q.q.q.v.v.b.b.b.b.p.c.v.v.q.v.q.q.v.v.x.x.v.v.c.b.B.B.b.b.v.q.q.q.q.0.7.V.V.%Xv.v.v.b.b.b.q.q.q.q.q.q.q.q.q.8.8.7.v.v.q.0.0.7.c.V.P.a.0.9.9.8.V.P.b.v.$X9.2.2.0.V.B.s.a.#.#.#.#.q.#.#.q.$.q.8.V.M.V.b.+.@.$.q.q.O.B.V.V.@.7.O.q.O.7.O.8.x.x.b.b.i.x.x.c.c.c.u.k.k.k.j.c.y.y.y.j.y.j.y.y.y.,X,X<X<X<X%X$X$X#.).0.~ <.{ { ^ { { ` ` b q 0 0 0 0 q y y p Z a AXAXAXMX6X6X6X5X4X4X=X=X=X{.5.X.X.X.m p p u y 0 6 6 6 0 y ~ Q Q Q W W ~ W m W * * * ",
"6 0 0 0 0 6 , - - - p w.$X$.$X;Xm i y y y q 6 6 0 0 0 b e e b S G S S S } 6X4X4X7X6X6XmXMXCXCXCXu y y u p p b b b b b b b A A ,.X.X.` ` q.|.$X$X$X&XT.T.T.E.j.k.k.u.u.u.p.p.p.p.p.j.p.p.p.p.c.j.K.K.z.N.) @.@.8.v.@.@.@.i.8.8.x.m.M.Z.P.b.0.0.7.9.7.O.P.K.K.V.( 8.$.$.x.8.8.8.@.c.s.i.9.8.P.b.O.7.O.q.8.7.8.P.P.P.V.8.v.B.b.p.a.0.0.9.0.0.7.&X,Xb.q.q.q.v.b.b.c.c.c.p.x.v.v.q.q.q.q.%Xb.x.v.v.v.c.c.B.m.B.b.v.q.q.q.q.0.8.V.P.V.v.v.v.b.b.b.v.q.q.q.q.q.q.q.8.8.8.8.v.v.q.q.0.0.p.P.P.i.0.0.0.b.P.P.c.q.v.8.X.3.8.P.P.M.a.#.#.#.#.$.#.O.q.x.x.x.V.M.P.b.O.x.i.i.@.@.V.P.V.8.7.7.q.#.7.O.8.x.x.c.c.x.x.x.c.c.j.k.k.l.M.j.j.y.j.y.y.y.j.j.y.y.kX,X,X<X<X%X$X$X#.0.+.W ] ] ~ G ` [ [ ` b q 0 0 0 0 q y y p s s AXAXAXMXmX6X6X=X4X5X5XOX=X{.5.{.{.{.m p p u y 0 6 6 6 0 0 S Q W Q W M W W n W * * * ",
"; 6 6 6 0 6 y p 0 e u 0. X X$X;Xi i y 0 0 0 0 7 7 0 0 b b b b S G G G J ..5X4X4X7X7XmXMXmXMXZXfXy y y p p b b M b C C C m A A ,.....` _ $X;X;X;X;X,XT.T.T.T.u.k.k.k.k.k.y.y.u.u.y.y.p.y.j.j.j.k.S.S.S.K.) ) @.@.$X@.8.@.x.i.@.x.m.M.P.P.b.q.0.7.9.9.7.K.L.K.V.O.$.q.i.b.@.@.v.a.b.b.a.#.8.V.v.#.9.@.b.b.q.x.P.P.P.V.q.v.B.B.B.a.0.7.7.0.0.q.&XT.%Xq.q.q.v.b.b.c.B.c.c.x.v.v.v.q.v.q.V.V.v.v.v.v.b.c.V.B.B.b.v.v.v.q.q.q.0.V.P.V.v.q.v.b.b.b.v.q.q.q.q.q.q.q.q.8.8.8.v.v.q.q.0.0.c.P.P.i.0.0.q.c.P.P.b.9.9.9.5.3.7.P.P.P.p.O.#.#.#.#.#.#.q.x.x.x.B.B.V.b.O.x.B.B.x.x.V.P.V.@.O.O.q.O.7.8.8.x.x.x.x.x.c.c.c.c.j.l.l.N.M.k.j.j.j.j.c.p.j.j.j.j.3X,X<X3X<X%X$X$X|.|.0.M J ~ m m J [ { ,.S e 0 0 0 0 0 y y i t a AXAXCXMXmX6X7X4X5X4X=X=X4X{.{.{.{.{.e p p p p 0 0 0 0 0 u S Q ~ Q ~ M W ~ ~ ~ * * * ",
"- ; ; ; ; ; ; - - - , ~ 0.<.w.w., u k m Q - 6 6 7 0 e b b e e b Y Y I I X.5X4X4X6X6XnXMXmXmXCXw.p u u p p Z Z Z Z Z Z Z C D C J ' ' ` Q 0.|.|. X|.x.,XT.K.T.V.k.j.k.k.j.y.y.y.p.y.y.p.p.p.p.p.c.m.m.k.M.) @.i.x.n.@.x.8.i.i.@.x.c.c.c.n.x.0.$.q.8.7.9.@.x.x.x.( @.i.i.B.x.x.x.8.@.$.q.0.8.q.q.0.0.@.x.x.q.q.x.b.b.b.q.q.b.b.b.a.q.q.q.q.q.q.n.n.v.q.q.v.v.v.b.b.b.b.x.x.v.v.v.q.q.q.b.n.b.v.b.b.b.B.V.B.B.b.x.v.x.q.q.q.q.b.b.b.v.v.v.x.x.x.v.q.q.q.q.v.q.q.q.q.q.q.v.v.v.q.q.q.b.V.M.@.q.0.0.v.b.b.v.0.q.7.7.4.7.b.b.b.$.q.q.$.O.#.#.$.q.8.8.x.@.8.x.8.O.v.b.x.x.x.b.m.i.@.7.O.v.$.8.8.8.v.x.v.c.c.c.c.c.c.c.p.j.c.j.j.c.j.y.k.m.k.u.u.j.y.,X,X,X,X,X%X$X$X X X0.M m m b b b b b b e 0 0 0 0 0 0 0 0 y 0 0 a NXCXMX6X6X6X4X4X4X4X4X@X2.2.,.3.,.e p 0 y y 0 6 6 7 0 0 p p n p p 0 7 0 p i * - * ",
"- - - ; ; ; ; ; ; * ; m n m ~ > ;X$X-X-X X> 6 6 7 0 0 6 0 6 0 m ' [ ' ' X.=XOX=X5X6X6XMXmXmXmXi p p p C Z Z Z Z Z C C C C p t J J J J ^ ~ _ _ X.{ @.,XP.hXkX,Xp.y.y.y.y.y.y.y.y.y.y.p.p.p.p.p.y.y.y.i.) p.u.m.m.c.@.x.@.i.i.@.8.i.i.@.@.8.@.8.i.@.$.#.#.@.@.O.( x.i.x.c.x.x.i.8.@.$.+.q.$.x.q.$.$.@.x.$.q.q.8.q.q.v.q.q.q.q.q.8.v.v.v.q.q.v.v.v.v.v.v.v.v.v.v.x.x.v.v.v.v.v.b.b.x.q.x.x.v.c.c.b.b.B.V.B.B.b.x.x.c.v.q.q.q.b.b.b.v.v.v.x.x.x.q.q.q.q.v.q.q.q.q.q.q.8.q.v.v.q.q.q.@.@.@.0.0.9.9.#.|.q.0.i.b.b.v.9.9.$.$.O.7.q.$.8.8.8.8.v.v.i.x.x.v.@.8.@.@.8.x.@.@.x.@.@.@.@.O.@.x.i.8.8.v.x.c.c.c.c.m.m.m.j.c.p.i.x.c.c.p.u.k.k.u.u.k.u.k.u.kX3X3X,X,X8.| } _ _ m 0 u u p p p p p t y 0 0 0 0 0 0 0 0 0 0 0 r v MXmX6X6X6XOXOXOX_._.{.Y U ' ' U , 0 q y 7 6 7 7 7 0 6 - - - * - * * * ; ; - ; ; ",
"- ; ; ; ; ; - - - ; ; n n m W :  X$X*X*XOX, 6 6 6 6 6 0 0 0 6 m ` ....[ {.=XOXOX=XnXmXMXmXmX$Xn p p s C Z Z W W W Z Z Z C N N A J J J I ~ | X.5.` @.,X:X:X3X:Xy.y.y.y.y.y.y.u.p.y.y.y.y.u.p.i.i.i.y.c.( N.K.K.K.K.y.@.i.i.i.@.@.x.x.v.O.8.m.M.Z.P.y.O.#.q.q.@.@.m.N.P.P.j.m.V.V.@.+.O.V.P.P.B.i.a.i.i.$.$.q.q.q.q.q.q.q.q.q.q.8.V.P.P.c.b.b.v.v.v.v.n.P.b.v.v.v.v.v.v.v.x.V.P.:Xx.8.x.B.V.B.B.m.m.V.V.V.m.m.c.P.T.b.q.q.x.P.P.P.v.v.v.v.v.v.8.x.c.i.x.q.q.q.q.q.q.q.x.K.P.V.i.q.0.0.9.9.9.0.0.b.n.q.0.V.L.L.P.8.0.q.B.m.$.v.m.M.m.V.c.x.x.i.@.@.y.i.y.c.n.V.V.i.x.x.8.8.@.@.@.i.m.m.x.i.c.M.M.V.m.M.K.S.K.N.c.b.x.x.x.j.k.k.l.l.u.k.u.u.k.u.kXkX3X,X,X8.^ ` G G b 0 u u p p p y p p u 0 0 0 0 0 0 0 0 e 0 0 0 k MXMXmXmX6X=XOXOXOXOX X[ ' ' ' ' e 0 7 0 0 6 6 6 6 7 7 7 ; ; ; * ; ; 7 ; ; ; 7 7 ",
"- - ; ; ; ; - - - * - p n u W ,  X X X X X, 6 6 6 6 6 0 0 0 0 M ........X.=XOX=X=X5X6X-XmXmX7.Z p p b b Z Z ;.;.;.S C C C C C A A J J J ~ } X.5.` a.:Xy.:X3X%Xy.y.y.y.y.y.u.u.p.u.k.k.u.u.p.i.) y.y.x.@.N.K.D.D.D.y.i.@.@.) @.i.p.u.i.@.@.p.l.Z.P.p.@.8.q.8.@.y.N.D.L.L.c.m.B.m.O.+.+.m.K.K.M.i.i.i.i.$.8.q.q.q.q.q.q.v.v.q.q.8.V.P.P.m.b.v.v.v.v.v.V.P.b.b.v.v.x.v.v.v.x.V.P.:Xx.q.x.c.c.c.m.m.B.m.B.B.m.B.m.P.T.c.q.q.m.P.L.P.i.a.v.v.v.8.q.b.x.b.i.8.8.8.q.8.8.8.x.T.L.m.x.q.0.0.9.9.9.0.q.B.M.v.q.N.L.L.K.8.0.q.B.m.$.v.m.S.m.m.m.c.x.x.x.i.8.x.i.i.@.j.i.@.i.x.@.@.@.@.@.p.m.m.c.x.j.K.K.l.m.M.K.S.K.K.c.x.x.x.i.j.l.l.k.l.u.k.k.k.u.u.kX3X,X,X,Xx.Q ` G G u 0 u u y y p y u u u e y y y 0 0 0 0 0 0 0 0 k MXmXmXmX7X=XOXOXOXOX X' ~ ' ' ' 0 0 7 0 0 6 6 6 6 6 7 7 ; 7 7 5 7 7 7 0 7 8 7 7 ",
"- - ; - ; ; - - ; - - p n u M ,  X X X X X, 6 7 6 6 6 6 6 6 6 M ....(.(.{.=X=X5XOX5XmX;XmXnXW p b C b Z S W ;.:.;.S S C C C C D C S A J ~ } | 4.` v.3Xs.:X3XV.y.y.y.y.y.y.y.u.p.u.u.k.k.y.p.i.8.) y.) @.N.L.L.D.D.p.@.) ( @.( i.p.j.i.8.8.m.l.Z.L.c.@.8.8.8.8.y.K.D.L.L.c.x.c.x.O.O. .B.P.P.M.i.i.a.@.8.8.q.q.q.q.8.q.v.v.q.q.q.V.P.P.c.x.v.v.v.v.x.m.P.c.b.x.x.x.x.x.v.x.B.P.P.x.q.v.B.m.b.m.m.B.V.B.m.m.m.B.M.T.c.v.q.B.P.L.P.v.v.v.v.v.8.8.b.x.b.x.8.8.8.8.8.8.8.c.T.L.m.q.q.0.0.9.9.9.0.0.b.M.b.q.N.L.L.K.8.7.0.n.c.$.a.m.K.m.m.m.c.p.x.x.i.@.y.x.x.) j.y.x.x.x.@.@.@.@.@.p.m.m.c.x.k.K.K.M.m.z.S.S.K.K.c.c.x.x.x.c.l.k.k.k.k.M.k.k.u.u.kX3X3X,X,X8.Q ` ~ G b 0 u u y p p y u u u e y y 0 0 0 0 0 0 0 e 0 k mXmXmX7X7X=XOXOXOXOX X' ' ' [ [ 0 q 0 0 0 6 7 6 6 6 7 7 ; 7 7 7 7 7 7 0 7 8 7 7 ",
"- - - - - - - - - - * u p e n &  X X X|. X, b b m m - 6 ; 6 9 J 5.5.5.5... XOX-X X X*X X#.4.~ ;.;.;.;.:.1.1.1.e.1.:.1.e.e.Q.1.%.c N m G G 4.4.5.' b.,Xp.:X3Xp.y.y.y.y.y.y.p.u.j.j.y.k.j.j.u.y.j.j.i.i.i.N.T.L.K.T.c.) ) 8.@.8.B.i.x.c.i.y.m.u.m.N.c.8.8.8.8.8.j.N.N.N.N.c.x.i.i.@.$.O.c.N.K.V.i.i.i.@.$.@.8.q.q.q.q.v.v.v.q.q.q.c.m.m.c.b.v.v.v.v.x.B.V.c.c.b.b.c.c.x.v.x.c.m.m.v.v.v.m.m.B.m.m.m.V.B.B.B.B.m.c.c.x.v.v.c.m.m.b.i.a.x.v.v.x.v.v.c.b.v.x.8.8.8.q.q.8.c.P.P.c.x.q.7.0.0.0.0.0.q.v.c.b.8.B.M.N.V.8.q.q.q.v.v.i.c.N.V.c.x.x.x.x.x.x.x.i.i.i.@.x.i.x.c.c.i.@.i.i.i.p.c.c.c.x.x.c.c.c.n.V.N.N.K.K.c.c.p.c.i.p.k.k.k.k.m.m.B.m.m.c.kX3X3X3X3Xv.Q ` ~ G m t e e p 5 s :.1.1.1.1.:.:.h h a < < < < < # o 5X7X6X6X6XOXOXOX XOX X{ >.>.{ { 0 0 7 0 0 6 6 6 6 6 7 7 ; 7 7 7 7 7 7 7 7 6 ; 8 ",
"- - - - - - - - - - * - ; ; - O e k e e , ,.{.{.{.{., ; ; 6 0 ~ { X.X.X.` ` ` X.` ` ~ G {.@XfXCXCXCXCXAXAXAXCXCXCXVXVXVXAXAXAX%.c c c c b G G G Y 0.q.$.$.$.R <X<XhXhXhXM.k.k.k.k.k.k.k.k.m.m.i.) i.i.@.@.@.@.) ) ! y.y.y.y.c.i.x.c.j.i.y.i.i.i.x.x.@.i.x.x.x.i.i.i.x.i.i.x.x.@.$.8.@.b.b.c.v.q.@.i.i.@.8.8.p.c.c.c.v.v.q.q.q.x.c.b.n.b.b.b.n.n.b.b.b.b.c.c.m.m.s.c.c.v.v.c.c.c.c.x.c.m.B.b.c.B.m.B.B.V.B.B.m.m.c.b.b.b.v.a.b.b.a.v.i.x.x.x.i.p.m.c.x.x.8.8.8.x.p.v.v.v.v.v.8.q.@.m.m.B.c.v.v.x.x.v.v.8.x.x.i.8.i.x.i.i.b.b.v.a.v.q.@.i.p.c.c.m.y.j.y.x.i.i.i.p.i.y.p.y.y.y.p.c.c.x.x.i.@.i.x.@.j.y.y.y.c.i.y.m.k.k.p.c.m.M.k.u.kXmXmXmXmXmXQ _ _ _ _ Q M G G G b e p p p a AXAXAXAXAXAXAXAXAXAXVXVXBXBXBXBXBXaX}.OX_.).|._ ^ ` ` ` { ,.,.,.] ,., 6 7 6 ; - - ; - - ; ; ; ; ; 7 7 7 7 7 7 6 y y ",
"- - - - - - - - - - * ; ; ; ; O b m b p 0 ,.5.5.{.{., ; ; 6 9 ~ { | X.X._ ^ ^ ` ` ` G Q 0.-XfXCXMXMXMXMXMXMXMXnXnXVXVXVXVXAXAX%.c b b v b { [ U Y | } #.#.(.! <X<X<X<X<XM.l.l.k.l.l.l.k.l.M.m.y.x.i.i.@.8.@.$XO.O.! K.K.S.P.m.j.y.m.m.) ) i.i.i.i.x.c.B.B.B.m.c.i.i.i.p.x.x.i.q.$.$.i.B.B.b.8.8.B.V.B.v.8.m.P.P.P.V.v.8.q.q.q.x.c.c.B.b.b.c.c.b.n.c.b.m.T.P.P.M.m.c.b.b.v.b.b.b.c.c.P.P.m.b.c.b.m.B.B.V.V.V.m.c.c.V.V.B.x.i.b.b.v.v.x.i.i.v.c.P.P.T.x.x.x.x.c.B.M.m.c.x.x.x.8.8.x.P.L.P.V.x.c.p.p.p.a.8.8.i.i.i.i.m.B.B.b.a.$.$.q.q.$.V.M.M.m.M.y.j.y.m.i.p.y.p.i.y.M.Z.M.M.M.m.c.x.j.i.@.) i.y.c.c.y.y.y.i.k.K.S.S.u.m.m.m.u.s.3XmXmXmXmXmX_ .._ ` ` ^ G G G J b p b b b a AXAXAXAXAXAXAXVXVXVXVXBXBXBXsXsXsXBXXX*XOX*X X_ ~ ~ ` ` ] ..,.,.,.3., 6 7 7 7 - - - ; ; ; ; ; 7 7 ; 7 7 7 7 7 6 i i ",
"- - - - - - ; - - - - - - - - O n n m p e ,.{.{.5.5., ; ; - > ] X.X...X.` ` ` { ~ Q G X.|.OX-XMXnXnXnXnXnXmXMXMXMXCXAXAXAXAXAXV c c c c t ,.{ K P }  .X.X.X.o.<X1XkXkX3XM.l.l.u.u.u.l.l.l.l.m.i.x.y.) ) 8.O.( / ! ) D.D.D.L.N.x.y.M.M.) ) @.@.@.@.@.b.m.m.p.c.p.i.i.i.i.x.x.x.8.8.8.i.s.s.c.8.8.V.B.m.x.8.m.I.I.I.P.x.q.q.q.q.v.c.c.c.c.c.c.c.c.c.c.c.N.L.L.K.M.m.p.p.v.x.b.b.b.b.c.l.K.M.c.c.b.m.V.V.V.V.V.m.c.c.V.V.B.v.v.b.v.x.x.x.x.c.c.k.L.L.L.c.v.x.x.x.s.s.m.x.x.x.8.8.q.8.N.L.P.M.x.x.p.p.p.p.i.i.i.i.@.i.P.M.M.B.@.$.q.q.q.8.M.M.Z.l.m.x.x.i.c.@.i.y.x.x.p.M.Z.Z.A.K.c.x.x.j.y.@.@.i.y.j.p.y.i.i.i.k.A.A.Z.u.m.s.u.u.s.3XmXmXmXmXmX_ ....T T G ~ Q G G M b b m M q AXAXAXAXAXAXAXAXVXVXVXBXBXBXBXBXBXNX@XOX*X X*X_ ` ~ ` ] ] ,.,.,.,.3., 6 7 6 7 - * * * ; ; ; , 0 0 7 7 7 7 7 7 7 E E ",
"- - - - - - - - - - - - - - - - n M M b q <.5.{.5.5., - ; - - ~ ` ` | | ` { ` ^ ~ ~ 4.9. XOX-XnXnXnXnXnXnXnXMXMXMXCXVXAXAXAXAX&.N c e e p ~ I J K } #.#. .} ) <X1XkXkX3Xm.M.k.k.k.k.k.k.l.l.m.@.@.x.@.) O.( ( ( ( ) D.D.F.L.K.x.y.c.m.@.@.x.@.@.x.@.x.c.c.i.x.x.i.i.i.i.@.x.8.8.8.8.8.s.m.p.x.8.x.c.c.v.8.m.L.L.L.V.v.q.q.q.q.x.c.c.c.c.c.c.c.c.c.c.c.c.P.P.N.M.k.s.c.x.a.b.b.b.b.b.m.K.m.c.c.v.m.V.V.V.V.V.m.c.c.m.V.B.v.v.8.8.v.v.x.c.c.c.c.T.L.T.p.v.v.v.x.m.M.s.c.v.x.8.8.8.8.V.L.P.V.x.x.p.p.c.c.i.i.i.i.x.i.K.Z.Z.m.@.O.q.q.q.x.N.K.K.K.m.@.( ( @.@.x.j.i.i.i.M.Z.S.Z.l.y.x.i.c.x.) ) x.y.j.m.u.y.y.y.k.D.A.M.k.s.m.p.p.p.&XmXmXmXmXmX_ ...._ T G ~ ~ J J S m m J S a AXAXAXAXAXAXVXVXVXVXVXBXBXBXBXBXBXNX@X*X=XOX X| ` ~ ~ ~ ] ' ,.,.,.5., 7 7 7 7 - * * * ; 6 6 0 y 0 ; 7 0 7 7 7 ; W W ",
"- - - - - - - - - - - - - - - - b b b p 6 3.{.{.5.{., - ; - 6 ~ ` | | ] m ^ ^ <.~ G |.5. X=X-XnXnX5XnXnXnXnXMXMXMXCXVXAXAXAXAX3 < < < < < J G K J | 0.#.#.+.o.<X1XkXkX3Xu.u.k.k.k.k.k.k.k.k.c.) ( 8.8.) @.( ( ! ! ) L.L.D.L.N.x.i.i.) i.@.x.@.@.x.x.x.i.x.@.x.x.y.i.i.8.@.i.8.@.8.8.8.m.s.p.x.8.@.x.x.x.8.x.m.m.m.c.q.8.8.8.8.x.c.c.c.c.c.c.c.c.c.c.c.c.c.m.m.m.k.s.p.x.x.b.b.c.c.x.c.V.m.c.c.v.V.V.V.V.V.V.m.c.c.c.B.b.v.v.8.8.v.x.x.x.c.c.c.V.N.V.x.x.x.x.x.c.c.c.x.v.x.8.8.8.8.j.N.N.B.8.x.p.c.p.p.@.i.i.i.i.i.P.P.P.V.( O.8.q.8.8.N.K.K.M.M.) O.O.@.8.x.x.i.i.i.M.Z.S.Z.Z.) @.y.c.@.) ) x.j.j.k.u.y.y.y.k.Z.l.k.c.c.c.p.p.p.%XmXmXmXmXmX_ X.......G J J J J S C C S D 1 AXAXAXAXAXVXVXVXVXVXVXBXBXBXBXBXBXNX@X*X=X XOX| ` ~ ~ ~ ~ ' ,.,.,.5., 7 y 7 ; ; * * * ; 6 6 0 y 0 y 7 7 7 8 7 0 W n ",
"- ; ; ; - - - - - * * * * * * - 7 7 6 6 6 3.5.5.5.{., ; ; ; - 0 0 e e > , ^ ^ ~ ~ ~ 9.|.|. X X X X XOXOX=X=X4X5X5X-XnXnXCXCXNXAXAXAXAXAX0Xc c A A G _ _ | _ } 3X,X3X&X&XkXkXkXhX<X,Xk.k.M.k.m.y.j.j.c.y.c.c.p.y.y.k.m.j.y.y.j.i.i.i.@.@.i.i.i.i.c.x.x.c.i.x.x.c.x.i.i.i.i.i.i.i.i.@.8.c.c.c.x.8.i.c.c.m.c.c.c.j.j.i.x.x.x.x.c.c.c.c.c.c.c.c.c.c.c.c.c.c.m.m.p.m.m.m.p.p.c.m.m.m.m.b.b.m.m.m.m.c.m.V.V.V.V.V.m.m.m.b.b.c.b.c.x.x.c.c.c.c.c.c.v.x.b.c.c.c.c.c.b.c.x.c.c.v.v.8.8.x.8.8.x.c.x.8.i.p.m.p.p.8.i.i.x.v.8.@.@.@.@.@.i.i.@.@.x.p.m.m.m.k.y.p.u.c.c.c.m.c.j.c.k.k.l.l.l.y.j.j.c.j.j.y.y.y.j.u.u.u.u.u.k.m.m.p.j.m.P.T.,X,X,X;X6XnX6X;X_ ........F c c v A fXAXAXAXVXVXfXfX5X-X5X4X4X=X@X@X@X@X@X@X@X@XOXOX X).X.X.X.} ~ ~ ~ ~ ~ e t e e b ; 7 5 7 i ~ / / / / E i i i i i n n E m p 0 * * ",
"- - - - - - - - - * * * * * * - 7 7 6 6 6 5.5.5.5.|.e ; ; ; - ; - > > > n ^ Q ~ ~ ~ |.|. X X X XOXOXOXOXOXOX=X4X=XOX7X6X*X5XfXAXAXAXAXAX0Xv c v A J }  .X.X...OXOX(.).;XkXkXkXhXhX,Xl.k.M.k.m.m.k.k.u.u.K.N.K.l.l.l.l.m.x.x.i.i.i.y.i.y.y.M.M.M.M.m.j.K.K.K.K.k.k.k.k.j.k.K.L.K.N.N.i.8.8.8.8.@.N.P.K.P.P.m.k.Z.A.K.m.M.m.M.m.c.c.x.c.c.c.m.m.m.c.c.c.M.M.k.M.k.M.M.M.M.l.Z.Z.Z.M.m.m.K.K.K.P.M.m.V.V.M.M.M.M.N.N.M.N.N.P.K.K.K.P.M.V.m.m.m.m.m.m.m.k.Z.K.K.K.M.M.k.M.c.v.v.x.N.N.N.M.M.M.M.K.K.M.M.m.k.M.p.i.q.@.O.$.@.O.B.V.%Xi.x.B.m.M.m.c.j.A.A.A.K.k.K.l.k.M.k.K.K.K.K.K.K.Z.l.l.l.k.k.k.k.y.k.l.S.l.l.z.m.k.p.j.,XhXhXhXhX3X). XOX X X..........v c c v c 1.AXVXVXVXVXnX7X4X4X4X4X4X4X4X=X=XOXOXOXOXOX X X|.|.X.X.| } ^ ~ ~ ~ ~ u b b b b 0 ; * - y <.} } } } ~ E n n n i E E E n m , * * ",
"- - - - ; - ; - - * * * * * * - 7 7 6 6 6 5.5.5.5.5., ; ; ; - - - 9 > > m ^ ^ ^ ~ ] |.|. X X X X XOXOXOXOXOXOX@XOX@X-X5X5X=XfXAXAXAXAXAX0Xc c v A J } X.X.X... X X(.(.;XkXkXhXhX<XT.l.k.M.l.m.m.m.k.u.u.Z.Z.Z.z.l.l.l.m.x.i.x.y.y.y.i.p.y.u.Z.l.M.m.j.Z.L.D.L.l.M.k.k.k.j.K.L.A.S.S.i.8.8.i.@.@.N.K.K.K.K.k.k.S.A.L.l.M.M.M.k.c.c.x.c.c.c.m.m.m.m.m.m.K.K.l.l.l.l.u.l.l.l.Z.Z.Z.M.m.z.L.K.K.K.m.N.N.N.N.N.M.M.N.N.K.K.K.K.Z.L.L.P.M.m.m.m.k.m.m.m.m.M.Z.Z.Z.K.M.z.k.M.c.v.v.x.N.Z.l.m.M.m.k.Z.Z.l.M.k.k.s.p.x.q.7.O.O.@.O.B.P.P.c.v.b.M.M.m.i.m.A.A.A.A.l.Z.l.M.M.k.K.K.K.L.K.K.M.l.M.l.l.k.k.u.u.k.Z.K.Z.l.l.m.c.c.c.,XkXhXhXhX3X). XOX).)...X.......v t c v c 1.AXVXVXVXVXnX6X4X4X4X=X=X=X=XOX=XOXOXOXOXOX X|.|.|.X. .} } ~ Q W ~ ~ b b b b b 0 5 5 * , <.<.} } } ~ E n n n n E E E n n , - * ",
"- ; ; ; ; ; ; - - - - - - - - - 6 6 6 6 7 |.{.{.{.|., - ; ; , , , 0 , , M ` ^ ` { 5.|. X|. X X X XOXOXOXOXOXOXOXOXOX=X5X6X6XfXAXAXAXAXAX0Xv c b M J | X.X.X...(.).{._.;XkXkXhXhX<X,Xm.M.M.M.M.M.M.j.j.j.N.S.S.z.l.k.k.k.x.x.c.m.c.y.p.c.l.Z.K.S.k.c.c.K.K.K.K.k.k.k.k.y.j.l.L.L.D.K.i.i.x.8.@.@.N.K.K.K.l.k.k.A.F.L.l.M.l.k.k.m.c.c.x.x.c.m.m.m.m.m.m.K.L.Z.M.k.l.k.k.l.l.S.Z.Z.m.c.m.K.L.K.K.M.N.N.N.N.N.N.M.N.N.K.K.K.L.S.L.L.L.M.m.m.m.m.m.M.m.M.l.S.S.A.K.K.K.M.m.c.x.x.x.K.K.K.m.c.c.N.A.S.z.M.m.M.m.p.@.q.7.@.@.@.@.B.P.P.b.8.c.M.M.m.i.j.L.A.D.A.Z.l.M.k.c.m.K.L.L.L.L.M.l.k.k.k.k.l.u.l.l.k.Z.Z.S.S.l.m.m.c.c.,XkXkXkXhX3X).). X).|...X.X.X...F t t t p 1.AXVXVXVXVXnX5X4X5X7X=X=X=X=X=XOXOXOXOXOX X X|.|.5.4.9.X.| ] ~ ~ ~ ~ S Z M M M 6 5 - - , <. . .<.<.Q E E E E m n n n n n 0 - * ",
"; ; ; ; ; ; ; ; - - - - - - - - - - 6 6 6 w.|.0.0.w.> 0 , , , 0 0 0 , , M ' ' ` { {. X X X X X XOXOXOXOXOXOXOXOXOX*X*X*X*X5XfXAXAXAXAXAX0Xx x a a S ,.4.| | `  XOXOX X;XkXkXhXhXhX,XV.N.M.M.N.M.k.y.y.y.l.S.S.l.k.k.k.m.x.j.j.c.y.j.c.i.y.S.K.Z.k.k.c.k.k.m.p.j.M.M.m.j.c.k.K.K.K.K.i.i.i.x.i.i.K.K.K.K.N.k.k.D.D.L.M.M.m.m.m.m.c.c.c.c.c.m.m.m.m.m.m.z.S.K.M.k.k.k.k.M.l.M.Z.Z.m.c.k.K.K.K.K.z.z.N.K.K.N.M.M.N.K.N.K.K.K.S.L.L.L.K.N.m.m.m.m.M.l.k.l.S.K.M.l.M.m.m.m.c.n.x.x.K.S.P.N.m.m.N.S.Z.l.m.x.c.c.x.x.x.8.x.i.i.@.B.V.N.x.8.c.M.l.l.M.M.D.A.A.A.Z.u.m.p.m.k.S.S.K.K.K.l.l.k.M.k.k.l.k.l.l.k.z.Z.Z.Z.l.M.M.m.k.V.kXkXkXkX;X). XOX X X` 5.(...3.v r r q a Q.VXVXAXVXAXnX=X4X=X=X=X=XOXOXOXOXOXOX X X|.{.{.X.X.X.4. .] ^ ~ ~ ~ W S Z Z S S y ; ; - , / <. .<.<.E E n n n i E n E n n ; ; * ",
"; ; 6 ; ; ; ; ; - - - - - - - - 6 6 6 * * O & & , ; - 0 0 0 0 0 0 0 0 e e G M M J ,.5.5.5.4.|.|. XOXOX*X*XOX=X=X=X=X6X6X4X4XfXAXAXAXAXAXBXfXfXfX0X1.&.G G G G {.|.{...Q 3X3XkXkXkX,X,X,XT.,X,Xk.l.l.M.l.z.Z.z.z.k.k.l.k.j.k.j.y.k.z.k.y.y.Z.l.l.l.M.s.y.u.k.m.j.l.l.k.M.m.M.k.m.l.M.y.j.p.p.p.p.l.K.N.M.k.k.k.z.Z.z.k.k.m.k.m.k.m.c.j.m.m.m.m.k.k.k.k.l.l.M.M.M.l.l.M.k.k.M.Z.Z.l.k.M.K.S.N.z.z.N.N.N.N.N.N.N.N.N.z.N.z.z.S.K.D.A.M.M.l.l.M.M.l.l.Z.Z.Z.M.N.M.m.m.m.m.m.c.m.m.M.l.l.j.k.M.M.l.k.j.y.c.c.c.c.j.j.j.p.j.j.p.p.m.m.c.c.m.k.l.l.M.M.l.Z.Z.Z.l.M.k.k.M.N.Z.z.N.N.M.l.k.l.l.k.k.k.l.l.l.k.l.S.S.S.T.,X,X,X,X,X&X&X&X3X;X(.(.(.(.{ G Y Y ' [ 0XzXzXzXzXVXVXAXNXNXnX5X4X5X4X5XOXOXOX*X*X*XOX X X X X|.|.5.4.X.4.} ~ ~ ~ ~ ~ ~ , 9 0 y u n p p p i ~ ~ ~ W W n m M E M E ~ ~ ~ ~ ~ E } <.",
"; 6 6 6 6 6 ; ; ; - - - * * * * ; ; 6 * * * * * * * 0 Z M M b e t e e q - - - - - e ] >.~ { 5. X=X=X=X4X4X=X4X=X=X=X=X4X6X6X6X-X@X@XXX0XVXVXVXVXVX1.C M ~ ~ ~ { X.{ G G =X=XOXOXOX6XZXlXlXlXlXm.Z.l.l.Z.Z.S.Z.l.k.k.Z.S.S.S.z.S.S.S.S.S.z.Z.S.Z.Z.Z.l.y.u.j.k.l.S.Z.Z.Z.M.m.m.m.m.k.k.L.L.L.Z.Z.l.k.k.k.k.k.k.M.m.M.l.l.N.m.j.m.k.Z.D.D.K.m.M.k.z.Z.Z.Z.l.K.k.l.S.Z.S.l.M.L.L.I.K.N.T.L.T.z.K.T.K.m.m.m.V.M.N.E.E.L.K.K.L.D.E.E.K.M.K.M.K.M.M.l.M.l.Z.Z.l.M.M.m.m.M.M.M.K.z.z.K.N.k.l.S.Z.M.z.z.z.l.l.k.l.k.k.k.u.D.D.L.M.M.M.M.m.m.M.M.M.M.M.M.l.K.m.m.k.S.S.S.S.K.z.z.M.M.z.l.Z.D.L.l.Z.Z.Z.Z.Z.S.L.L.D.L.hXhXhXhXhX,X X X X X3.[ Y T Y I m G G G F e.VXVXVXVXVXVX0XnX6X6X5X4X4X=X=XOX*X=X*X*X*X*XOX X|.{.5.<.<./ ] | ~ ~ ~ Q W W S * ; ; ; = W ~ ~ ~ ~ ~ * * * * S ~ ` ` ` ^ | | | | }  X X X",
"6 6 6 6 6 6 ; ; ; ; - - - - * * ; ; 6 * * * * * * * 0 S S S b b b p t y 6 * * * - > ] ~ ' X.X. XOX=X=X=X=X=X4X=X=X*X=X5X6X6X6X-X6X5X@X0XVXVXVXVXVX1.b A m M J { G <.| ` -X=XOX).OXnXZXlXlXZXlXm.Z.Z.Z.Z.Z.Z.Z.l.k.k.z.l.u.k.l.S.S.S.S.S.l.S.l.u.K.u.l.m.m.k.M.S.A.A.S.Z.M.m.m.m.m.k.k.L.D.A.D.Z.k.k.k.k.k.l.l.M.k.M.m.M.j.c.c.j.l.A.F.F.D.l.k.k.k.z.z.D.Z.K.K.S.K.Z.S.S.K.L.L.L.N.k.z.T.T.N.N.l.M.m.N.m.N.N.N.T.L.L.L.K.L.D.H.H.K.M.k.l.N.M.N.l.Z.A.D.D.l.N.M.m.m.K.K.l.z.z.l.l.l.l.k.K.l.N.S.z.l.K.l.l.k.y.y.u.l.G.H.F.z.m.M.m.y.j.Z.M.M.M.M.k.l.M.k.j.l.A.A.A.D.D.Z.Z.l.k.z.z.A.Z.Z.Z.Z.Z.A.A.A.S.L.L.L.L.hXhXhXhXhX,X X|.|.|...[ Y T Y I m G G G F Q.VXVXVXVXVXVXnX5X5X6X5X4X5X5X4XOX=X=X*X*X*XOX X X X X9.~ ~ ~ ~ ~ ~ ~ ~ Q E E W * ; 6 ; = W ~ ~ ] ] W * * * ; n ~ ~ ] ] ^ ] } |  .<. X).|.",
"6 6 6 6 6 6 ; ; ; ; - - - - ; ; ; ; 6 * * - * * * * e Z S Z Z b b p t t 6 * * * * > 3.3.5.5.{.OX*X*X*X4X=X=X*X=X=X=X5X*X6X6X5X=X6X5XnX0XVXVXVXVXVX1.b m m m M Q G { X.` -X=XOXoXOXnXZXlXlXZXlXu.Z.Z.Z.Z.Z.S.Z.l.k.k.z.z.k.z.l.S.S.S.S.S.z.l.l.Z.Z.l.l.l.k.k.M.S.D.A.S.Z.N.m.k.m.j.j.k.D.D.A.A.Z.l.k.k.m.M.l.l.M.m.M.m.V.m.c.c.m.z.A.F.F.D.l.k.k.k.l.Z.D.S.S.S.Z.K.S.S.S.z.K.S.z.N.k.z.T.E.K.K.N.N.N.N.z.N.k.K.T.G.G.T.K.T.H.H.H.K.M.N.N.K.k.k.S.A.A.A.A.z.N.M.m.m.N.K.z.z.z.z.Z.K.z.z.K.l.k.S.l.z.z.k.k.u.y.k.l.Z.G.H.F.k.k.k.j.y.j.Z.Z.M.M.M.l.l.M.m.m.l.D.D.D.D.S.S.S.S.S.z.z.l.l.Z.l.Z.S.S.S.D.D.L.L.L.L.hXhXhXhXkX&X X X X|...Y Y ....U J J G G m fXAXVXVXVXVXBXnX5X5X5X5X4X=X=X=XOX=X=X*X*X*X X X|. X|.X.~ ~ W W W ~ ~ Q W E E M ; 7 7 7 7 W ~ ~ ] <.n * * ; ; S ~ ` ] ] ^ ] } |  .<. X X X",
"0 0 0 , e e ; 6 7 ; ; ; - - ; ; * ; ; * * * * * - - 0 S S S b 0 p p p p 9 6 6 * * - 3.,.3.5.{.OX=X*X*X=X=X=X=X=X4X*X=X4X6X6X6XOX5X-XnXfXVXVXVXVXVXe.B m m m m ' Y [ ` ..-X=XOX_._.nXZXZXlXZXlXu.Z.Z.Z.Z.Z.Z.Z.Z.l.k.l.l.l.l.k.S.S.S.S.S.z.l.u.l.S.Z.l.Z.l.k.k.l.D.A.S.S.z.m.k.k.k.M.l.F.F.A.K.l.k.k.k.k.l.l.l.l.l.M.M.N.k.j.m.m.S.D.D.D.D.l.k.k.k.l.S.L.D.S.K.S.K.S.Z.z.z.K.K.K.K.K.z.L.T.K.K.K.N.z.N.N.T.z.z.T.T.L.L.K.L.D.H.H.L.N.N.l.N.M.m.N.Z.A.A.A.K.N.M.m.m.m.N.N.S.K.K.K.K.z.S.S.M.k.Z.Z.Z.Z.Z.l.Z.u.S.D.Z.K.L.L.M.k.l.k.k.k.K.K.K.K.M.m.k.z.l.l.Z.D.D.D.D.S.Z.S.Z.S.z.l.l.l.l.l.Z.Z.S.Z.A.S.L.T.L.L.<XhXhXhXkX&X X X X X..` [ [ [ ' J J J J G fXAXAXAXVXVXnX5X5X5X6X4X4X=X=X=X*X=X=X*X*X*X X X X|. X4.} ~ ~ W W ~ ~ Q ~ Q Q S ; ; ; 7 7 n ~ ~ } ] p * - - = M ~ ~ ~ ~ ^ { ` {  .9.|.XX X",
"2.{. X@X@XXX- ; ; ; ; ; ; ; ; ; * * ; ; - - * * - ; p J S S b n p ~ ~ ~ ~ ] ,.,.,.,.3...3.3.{.OX=XOXOXOX=X*X=X*X*X*X*X*X*X*X*XOX5X-X-X0XVXzXVXBXVX0XV m m m m m Q } X.`  X X X|.(.nXMXmXmXmXgX:XhXhXhXkXZ.S.A.Z.Z.l.l.S.A.Z.k.S.S.S.S.S.z.S.S.S.Z.z.l.Z.l.l.l.l.S.A.S.S.l.M.k.k.K.Z.l.D.L.A.Z.l.M.l.l.l.l.l.l.l.l.l.N.l.l.k.m.M.Z.S.z.l.l.l.l.l.K.Z.S.D.S.S.K.K.Z.Z.N.N.z.K.S.S.K.K.N.K.T.K.K.L.N.z.K.N.T.N.z.T.T.T.K.K.K.L.H.E.L.K.K.K.Z.N.z.S.A.A.A.L.Z.l.z.l.z.K.S.K.S.S.S.Z.Z.l.Z.l.l.N.z.Z.S.S.l.Z.A.D.Z.l.K.j.k.M.k.k.l.Z.K.K.Z.Z.S.Z.k.M.k.l.l.Z.Z.S.S.S.A.A.A.A.S.S.S.Z.S.Z.D.S.K.K.L.L.K.hXkXkXkXgX%X&X&X&X&X X5.{.5.5...` { [ ` m m m J J W zXAXAXAXAXVX@X7X5X7X6X=X=X=X=XOXOXOX*X*X*XOX|.X.X.|.9.4.n p i s s n i n W n n n ; 7 7 7 7 9.0.0.w.4.- - - - ; n W ~ ~ ~ M ~ ~ |  .4.6XnXnX",
"OXXX X-X@X@X- ; ; ; ; ; ; ; ; ; * * ; ; - - * * - * p ~ ~ ~ J M n ~ ~ ~ | X.2.,.{ ..{ { ..,.` |.).).).OX=X=X=X*X*X*X*X*X*X*XOX=X6X5X5XXXVXzXzXBXBX0XV M M M G Q 9.#.| G G G G G G ..OX X$X).&XkXkXhXhXkXZ.A.A.A.A.A.A.D.D.l.k.Z.S.S.S.z.z.S.A.l.S.u.Z.D.D.A.L.S.S.A.Z.Z.S.A.S.S.Z.A.Z.S.Z.A.Z.l.l.A.L.l.k.l.Z.A.Z.z.l.K.L.L.L.K.K.z.z.l.l.A.D.D.Z.K.Z.Z.K.L.L.S.K.D.S.L.K.T.E.E.1XK.K.E.E.E.E.E.T.z.z.z.z.k.z.E.E.T.T.K.K.H.H.E.D.S.S.S.S.S.Z.Z.A.D.L.Z.l.S.S.D.S.D.D.D.D.D.S.Z.S.S.S.K.l.l.l.z.l.l.l.Z.H.F.L.S.l.j.N.l.N.M.L.L.K.K.Z.Z.A.L.l.l.A.F.A.K.Z.S.Z.Z.S.A.A.A.A.A.A.S.S.Z.A.S.E.E.E.E.<XkXmXmXmXmX$X$X$X$X#.X.` ` ` G ` Y { { ' m n n Q E W zXAXAXAXVXVXOX4X4X7X5X=XOX*X*X=X).). XOX X|.0.0.5.X.| ~ Z i y 7 7 0 - 0 0 0 0 7 ; 6 7 7 7 4.9.9.9.<.> - - - 7 0 u m b b m } }  ./ } 6X7X5X",
"OXOXOX5X5X-X- 6 6 6 - 6 ; ; ; ; - - ; ; ; ; * * - * S ~ ~ ~ ~ S S W ~ ] ,.....{ ....{ { { ,...{.OX)._.OX*X*X=X*X=X*X*X*X*X*X*X=X6X6X6XfXVXzXzXzXBX0XV S S A M Q 9.|.4._ Y Y _ [ Y {.*X*X*X).&XhXhXkXkXkXZ.A.A.A.A.A.D.A.D.l.k.S.S.Z.S.S.Z.Z.S.Z.A.l.S.Z.D.D.S.L.D.F.Z.Z.D.D.A.D.A.A.Z.A.A.F.Z.Z.l.F.F.A.k.l.D.D.D.l.z.l.L.D.D.Z.S.S.D.D.S.D.A.A.A.D.S.S.L.L.L.K.K.L.L.L.L.E.E.E.E.L.T.T.E.J.E.E.L.K.K.l.M.m.S.hX~.E.E.T.L.R.W.E.L.T.D.Z.L.K.S.S.A.S.A.K.l.S.A.D.S.D.D.D.D.A.Z.Z.S.S.K.l.M.M.l.K.l.l.l.A.F.F.D.Z.M.k.Z.l.l.S.D.D.D.K.Z.A.F.D.l.k.F.F.L.L.Z.S.A.S.Z.S.A.D.D.D.L.Z.Z.Z.A.Z.T.<XE.<XhXmXmXmXmXmX6X;X;X*X$XX.` ` ` ` G Y G G G m m E Q Q E cXAXAXAXVXVX5X7X7X7X7XOXOX*X=XOX X X X X X|.9.0.3.<.~ ~ n p y 0 0 0 6 6 7 6 6 7 7 7 7 7 7 9.5.5.0.w.> * - ; ; 0 i p p b m / / } } ] 6X7X6X",
"OXOXOX5X5X-X6 6 6 - 6 6 6 6 6 7 7 7 ; ; ; ; * * - - S ~ ~ ~ ~ S b M ~ ] { { { { { { { { ,.,...{.).)._.OX*X*X*X*X*XOX*X*X=X*X=X-X5X5X=XfXVXBXBXBXBX0XV S J A J G G G G ` ,.` ` G G ..).).).X.3XhXkXkXkXkXA.D.A.A.A.Z.D.A.Z.l.u.S.S.Z.S.S.S.S.A.D.D.S.Z.S.Z.S.z.l.Z.Z.S.S.Z.D.D.D.A.D.S.A.A.A.A.Z.Z.A.A.A.l.z.A.K.Z.k.z.D.H.F.D.K.Z.z.D.D.D.Z.l.l.Z.Z.l.S.L.L.K.K.K.K.N.N.N.E.E.H.L.L.K.T.E.E.E.E.Z.L.T.z.M.k.z.~.E.E.E.T.E.E.E.E.L.L.Z.K.Z.M.l.l.K.k.Z.k.l.S.D.D.S.D.A.D.A.D.S.Z.l.l.Z.S.K.K.l.l.l.l.l.Z.F.F.A.S.M.M.Z.l.m.S.D.D.D.S.Z.Z.Z.Z.Z.Z.F.D.Z.K.l.S.A.S.S.A.S.S.Z.D.L.Z.Z.Z.Z.Z.T.<XE.hXhXmXmXmXmXmX;X|.). X#.X.` ` G G G ` G G G m m M Q Q S zXAXAXAXVXVX=X7X7X7X7X=XOXOX*XOXOX X X|.|.|.4.5.<.] ~ Z p i y 0 0 0 7 7 7 7 7 7 7 7 7 7 7 w.0.5.0.w., - 7 ; ; 0 u b b b n ~ ! / / ~ 6X7X6X",
"OX@XOX5X5X-X6 ; 6 ; 6 - 6 6 6 7 7 7 ; ; ; ; * * - - S ~ ~ ~ ~ ~ W E ~ ~ { { { { { { { { ,.,...|._.)._.OX*X*X*X*X*XOX*X*X*X*X*X-X6X6X6XnXNXBXBXBXBX0XL S S A J m b m m G [ G ` ` G |.OX X X X3XkXkXkXkXkXA.D.A.A.A.Z.Z.Z.Z.l.u.S.S.S.S.S.Z.Z.S.K.D.l.Z.Z.A.L.Z.l.Z.A.L.Z.D.D.F.D.D.D.A.D.A.D.A.S.D.F.F.D.l.Z.Z.l.u.M.S.L.F.D.D.K.S.z.G.D.S.Z.S.Z.A.A.A.L.D.H.K.K.K.S.N.N.K.E.E.E.E.L.T.T.E.H.H.E.S.L.T.K.K.l.z.~.~.E.E.E.T.E.E.E.D.K.S.K.S.N.l.l.T.k.K.S.z.D.D.D.S.G.S.D.D.D.S.K.Z.l.Z.Z.M.M.M.l.l.l.l.Z.F.F.D.S.N.M.Z.l.m.K.L.D.L.K.S.A.A.Z.Z.Z.F.F.A.K.l.S.A.A.S.A.S.S.A.D.A.Z.Z.Z.Z.Z.T.E.E.E.<XkXmXmXmXmX;X..X.{.X.X.` ` ~ G G G G M m m m n Q Q J fXVXVXAXVXVX5X7X7X4X5X=XOX*X=X=XOX X X|.|. X4.0.<.] ~ p s s 0 0 7 7 7 7 7 7 7 7 7 7 7 7 7 w.0.5.0.w., - 7 ; 7 0 u b b b m ~ ! / / ~ 6X7X6X",
"@X@X@X5X5XnX|. X$X*X-X, ; ; ; 7 ; ; ; ; ; - * * - 7 s W S S Z b S ~ ~ ~ ^ ~ ] ' ] ] ] ] ' ] { {.{.{.{. XOXOXOXOX*XOXOXOXOXOXOX4X7X7XnXnXNXBXBXBXBX0X&.*.6.6.C b b b b b I G I ` G {.OXOX X X3XkXkXkXkXkXZ.D.D.D.D.S.Z.Z.l.Z.Z.Z.S.S.S.S.S.S.S.S.D.A.A.D.A.D.A.S.A.Z.A.A.A.D.D.D.D.A.D.D.D.D.Z.Z.A.A.A.A.Z.Z.A.S.l.z.Z.L.D.D.D.K.z.z.G.D.S.A.Z.S.S.z.S.D.D.L.S.S.K.S.K.K.L.T.L.L.H.L.T.T.E.E.H.H.D.H.G.D.L.S.S.E.E.E.E.T.L.H.H.H.D.D.L.L.L.K.Z.S.D.K.K.L.Z.D.D.D.D.K.A.D.S.D.S.Z.Z.Z.Z.Z.Z.M.Z.Z.Z.S.S.S.D.D.A.Z.l.l.A.Z.M.Z.D.D.S.S.Z.A.A.Z.A.A.A.Z.A.Z.Z.A.D.D.D.A.Z.Z.D.D.Z.Z.Z.Z.S.Z.T.,X,X<X,XmXmXnXnX;X X_ X...{ ` I G G G G m Q n n b b b b m n e.VXVXVXVXVX@X=X=X=X5X-XOXOX*X*X X|.|.9.9.0.<./ ~ ~ ~ 0 0 7 7 ; ; 0 b m M m m , ; ; ; 7 7 4.5.4.5.4.@ - 7 ; 6 0 0 0 p i Q #.#.#.X.Q 5XnXnX",
"....` .._ OX7X7X7X7X5X& ; ; ; ; = ; ; ; ; - * * - - - 0 0 0 u n Q ~ ~ ~ ~ ~ ~ ~ ~ ~ p p p p m X.X...X.X.X.{.X.X.X. XOXOXOXOXOX5X4X4X4X4X@X@X0X0XXX0XXXXX.X.XS b b b b b G ` I ` ~ 5.(.(..._ |.*X;X6X;X3X<XE.E.E.R.G.G.G.G.G.G.D.S.S.S.S.S.D.F.F.F.F.F.F.F.F.F.D.F.F.D.F.F.F.F.H.F.F.A.D.F.D.A.A.A.A.A.Z.Z.L.H.H.H.H.D.H.H.E.L.K.T.T.D.L.S.D.L.L.D.S.L.E.E.E.E.D.H.H.E.E.E.E.E.H.H.H.R.~.~.~.R.R.J.H.G.R.R.R.R.R.R.~.~.E.E.E.H.H.H.H.E.E.E.H.H.H.H.L.F.H.D.L.L.L.L.K.D.D.L.D.S.D.H.H.E.H.D.T.E.E.H.H.L.D.F.D.F.D.D.H.F.F.D.Z.S.D.S.S.D.F.F.F.F.F.F.F.A.D.D.F.F.F.H.F.D.G.L.D.G.L.G.G.L.L.,X3X,X3X3X+.X.X.(.(.{ ` ` ` Y G v m m c v } a.a.a./ e w e e v w .X.X0X0XXXXX X X|. XOXOXOX*X*X|.X. . . .| Q E ^ ~ J 0 0 7 7 7 ; ; S J ^ ~ ~ u ; ; ; ; ; 4.5.4.4.4.@ ; ; ; 6 6 0 e 0 y |.5X4X4X7X6X(.(.[.",
"....G (.(.OX6X7X6X6X5X> ; ; ; ; ; ; ; ; ; - * * - - - e 0 0 u n Q ~ ~ ~ ~ ~ ~ ~ ~ ~ p p p b m X...X.X.X.X.(.X.X.X. XOXOXOXOXOX4X4X4X4X5X-X@X0X@XXX0X0X0X.X.XS n n b b b G G G I G 3.{.{.X.`  X5X6X6X6X3XE.E.E.E.E.G.G.G.G.G.G.D.D.S.D.S.S.G.F.F.F.H.F.F.F.F.F.D.F.D.D.F.F.H.H.H.H.F.D.D.D.F.D.A.H.H.H.F.D.H.J.H.H.H.D.D.G.T.L.K.L.L.S.S.S.L.F.F.D.S.D.E.E.E.H.L.H.H.E.E.L.E.E.E.H.H.R.~.~.R.R.J.H.G.G.G.R.R.R.~.~.~.~.~.H.E.E.E.G.G.E.E.E.E.H.E.F.E.E.I.L.F.D.F.L.K.D.L.G.L.Z.D.J.H.H.F.A.H.H.H.H.H.L.D.F.F.F.F.F.H.H.F.D.Z.A.D.D.D.D.F.F.F.F.F.A.A.D.D.A.F.H.H.H.H.D.G.D.D.G.L.L.L.L.K.,X3X,X,X3X#...X.X.X.{ ~ [ ` ' ' m m m G G O.p.a.a.! t r v v e c .X.X.X.XXX X|.}.|. XOXOXOXOXOX|.| | | | } E E ^ ~ Q y 0 7 7 0 7 7 n ~ ~ ~ ~ u ; ; ; ; ; 3.3.3.4.4.* ; ; ; 6 6 0 e 0 0 |.4X4X7X7X7X}.}.[.",
"Y { G {.OXOX6X6X6X7X5X& ; ; ; = ; ; ; ; ; - - - - - - 0 0 y 0 M ~ ~ ~ ~ ~ ~ ~ ~ ~ ~ p p p p M X.X.X.X.{.(.(.(.(.(. XOXOXOXOXOX5X4X7X7X5X-X@XfX@X@X0X0X0XXXXXS C m m b b F G G ` G 5.(.X...~  X*X5X-X*X;X<XE.E.E.E.H.G.G.G.G.G.G.D.D.D.D.D.H.F.F.F.D.D.D.D.D.D.D.D.D.D.D.F.H.H.H.H.H.D.Z.D.D.D.D.J.H.H.D.D.H.H.H.H.H.S.E.D.D.L.K.L.G.L.L.D.G.F.F.L.D.D.E.W.E.H.L.E.E.E.E.D.E.R.R.E.E.R.~.~.~.~.~.R.T.R.R.R.R.R.~.~.~.~.R.E.E.J.E.H.G.H.D.L.L.T.E.F.H.F.F.D.D.F.H.H.S.S.L.S.S.S.S.H.H.H.F.D.H.H.H.H.H.F.D.H.H.H.H.H.H.H.F.L.A.S.A.L.L.L.F.F.F.F.F.F.F.F.D.A.F.F.F.H.H.D.D.D.D.D.L.L.L.L.L.,X3X,X3X3X)._ ..(.{.X._ ..` T _ m m m G G O.a.i.a./ c t c b b c 6.6.6.e.6.|.{.|.|. XOXOX*X*X*X|.X.} | | | M n Q J J u 0 0 0 7 7 7 M ~ ^ ~ ~ p = ; = = = 4.5.5.5.4.> ; ; ; 7 6 6 , e u |.7X4X7X7X7X(.(.(.",
"I 5.G ~ |.|.6X6X6X7X6X, ; ; , - * ; ; ; ; - - - - - - 6 y y 0 m ~ ~ ~ ~ ~ ~ ~ ~ ~ ~ u b b b J X.X.X.X.X.X.{.{.{... XOXOXOXOXOX5X7X4X5X4X-X@XfX@X@XfX0X0X0X0X~ Z Z S b Z m G m G G 3.5.5.X...|.-X5X4X4X;X<XE.E.E.E.E.G.G.G.D.G.D.D.D.D.D.D.G.H.H.H.H.G.D.D.D.D.D.A.D.D.A.D.H.H.H.H.H.D.D.D.A.A.D.J.H.H.H.F.H.H.H.H.H.S.E.G.G.K.L.L.G.G.H.T.L.D.L.S.S.L.W.E.W.H.L.L.H.L.H.D.E.E.E.E.E.R.~.~.~.~.~.G.H.R.R.R.R.E.~.E.E.E.E.E.E.R.E.H.E.E.L.L.L.T.E.E.E.E.I.Z.L.H.E.H.S.S.T.L.D.K.L.H.H.H.H.F.T.L.L.H.H.H.D.H.H.H.H.H.H.D.D.D.Z.S.S.D.D.D.H.F.F.F.F.A.D.D.A.D.F.H.H.H.F.D.D.D.D.D.L.L.L.L.L.T.3X3X3X3X$XX.X.X.X.X._ _ ` G ` m m m G G / / / / W S S Z S Z C 6.6.6.e.e.XXXXXX X XOXOX*X*X*X|.X.| X.X.| Q m G ~ ~ 0 0 0 7 7 7 7 p ;.` ` ` n ; , ; ; ; <.4.4.4.3., 6 6 6 0 0 y 0 0 0 |.4X4X4X4X4X..T ..",
"e b b b Q ` 6X6X6X6X6Xk n  .|.XX- 7 ; ; ; - - - - - - ; 6 6 - m ~ ~ ~ ~ ~ E ~ ~ ~ ~ b b b e b ~ <.4.3.,.,.,.5.5.5. XOXOXOXOXOX5X6X4X5X5X@X0X0X0X0X0X0X0X0X0X&.%.%.a a a e m b b e ,.{.5.X...|.-X6X6X5X;X<XE.E.E.E.E.D.D.D.D.D.S.D.L.G.D.L.G.G.G.G.D.D.D.D.D.D.D.D.D.D.D.D.H.H.H.H.H.F.D.D.A.S.S.H.H.H.H.H.H.H.H.H.F.D.D.D.L.S.S.K.S.S.E.E.Z.A.S.K.K.D.H.H.H.F.L.L.H.E.E.H.E.E.E.E.E.R.R.R.R.R.J.H.J.~.R.R.R.E.~.E.E.E.E.E.E.R.R.E.H.H.L.L.D.D.R.H.H.F.D.S.D.D.D.D.S.D.L.D.D.D.L.H.H.H.H.H.D.D.D.H.H.H.D.H.H.H.H.D.D.D.D.D.S.S.D.D.D.D.D.D.D.D.D.D.A.A.D.D.F.F.F.F.D.D.D.D.D.D.D.L.L.L.K.:X3X3X3XkX XX.....X.` ` ` ` ` ` b b b m N a :.:.%.a s s D %.D D 6.w.w.XXXX|. X X X X XOX*XOX*X|.3.| | | } E M S W W u 7 7 7 ; ; ; ; Z ~ ~ W b 0 0 0 0 0 <.| | X.3., 6 6 0 , / ] } ~ Q X.5X5X5X-XOXk m S ",
"S S b Z e b m G Y G OX5X6X6X6X6X, , ; ; ; ; - - - - - ; ; ; - p Q ~ ~ ~ ~ i m S S S n n n n s p t y y y 0 e e t b [ }.}.{. X X|. X{.{.[.fXzXaXzXzXzXzXzXzXzXzXVXVXVXVXVX< b b t p m G F G m m G G G G _ &X,X,XkXkX,XL.D.D.D.D.G.E.E.R.R.R.H.H.H.H.H.H.H.H.H.H.H.H.H.H.H.H.H.H.H.H.H.H.H.J.H.H.H.D.D.G.F.H.H.R.R.R.J.R.R.J.R.R.G.R.E.H.H.H.E.E.~.R.R.E.E.E.E.E.E.E.~.~.~.R.E.E.E.E.E.~.~.~.~.~.~.R.^.jXjX^.~.~.~.~.~.~.~.E.~.E.R.E.~.~.~.~.hXG.R.~.~.R.R.R.R.~.R.R.R.R.R.~.R.~.H.R.J.R.R.J.J.H.J.H.H.H.H.H.H.H.H.D.H.H.H.H.H.H.H.H.H.H.H.H.H.H.H.H.H.H.H.F.F.F.F.F.D.hXkXkXkXkXT.:XT.K.V.n.q.q.+.~ G G G G G m u u m e m e p p v < AXVXVXVXzXzXzXVXVXVXCX5X-X-X-X-X*X*X-X=XOX).|.|.|.|.4. .| | | } u y 7 ; ; = = = = = = ; 7 7 7 7 7 i |  . .| | ] | | X.3., 6 0 0 0 -X-X5X5X5X;Xn n m 4.m ; ; Z ",
"> , , - , , v I ~ b 5.-X5X6X6X6X, , ; ; ; ; ; ; ; ; ; ; ; ; - b ~ ~ ~ ~ W i n S S M n p p i n p t q q t t t p C C ,. X X X{.{.{.{. X}.}.zXzXzXzXzXBXzXzXzXzXzXVXVXVXVXVX< b m b c v G G F M G [ ..2.....;X%X%XmXgX3XK.S.D.D.D.G.R.R.R.R.G.H.H.H.H.G.H.H.H.H.H.H.H.H.H.H.H.H.H.H.H.H.H.J.H.J.J.H.H.D.D.D.D.R.R.R.R.J.R.R.J.G.G.G.R.R.J.R.R.E.R.R.R.R.R.R.R.R.E.R.R.~.~.~.R.R.E.R.E.E.~.~.~.~.~.~.~.jXjXjXjX^.~.^.~.^.~.~.~.~.R.R.R.~.~.R.R.~.R.~.~.~.~.~.J.R.R.R.R.R.R.~.R.~.R.R.R.R.R.R.J.J.J.J.J.J.H.H.H.H.H.H.D.H.H.H.H.H.H.H.H.H.H.J.J.J.H.H.H.H.H.H.F.F.F.H.F.F.kXkXkXkXkX,X:XP.P.&X$X$X X#.` Q G G G G m u u u e e e p p v < AXVXVXVXVXzXzXVXVXVXNX5X=X=X5X5X=X*X*X X|.).|.9.|.#.4.X.| | | } u 0 7 ; ; = = = = = = ; 7 7 5 7 7 s | }  .| | ] ] { X.<.e 0 0 0 0  X*X-X-X-X-Xm & 8 E , & - i ",
"b S e Z C S M v ' >. X-X-X=X5X6X, , ; ; ; ; ; ; ; ; ; ; ; ; 6 b ~ ~ ~ ~ ~ i m S S M p p p i b b Z b b s t t t b b >.}. X X X{.{.{.}.XX.XzXzXzXzXzXBXzXzXzXzXzXVXVXVXVXVX< b b t t v G G F M G [ ..2.....*X$X%XmXgXkXK.S.S.D.D.G.R.R.R.R.H.H.H.H.H.H.H.H.H.H.H.H.H.H.H.H.H.H.H.H.H.H.H.J.J.J.J.H.H.H.G.G.D.R.R.R.J.J.R.R.H.H.H.G.R.R.R.R.R.~.J.J.R.R.R.R.R.R.R.R.~.~.~.~.~.E.~.E.~.~.~.~.~.~.~.~.~.jXjXjXjX^.~.^.^.^.^.~.~.~.~.~.R.~.~.~.~.R.E.~.R.J.~.~.R.~.~.R.R.R.R.~.~.~.~.J.J.~.~.~.R.J.J.J.J.J.J.H.H.H.H.H.D.H.H.H.H.H.H.H.H.H.H.J.J.J.J.H.H.H.H.H.F.F.F.F.F.F.lXkXkXkXkX3X,X,X:X&X$X$X$X0.| G G G G G m p p b u u u e t c < AXVXVXVXVXzXzXVXVXVXNX4X4X5X5X-X=XOXOX).|.).9.9.|.|.4.X.| | | ] u 0 7 ; ; * = = = = = ; 8 8 7 7 7 s | }  .| | ] } | X.<.e 0 0 0 0  X6X-X=X-X-X~ i u i 8 ; ; i ",
"> , e b v ~ m J ,.V X.-X-X5X6X6X, 0 ; ; ; ; , 6 6 6 6 6 6 6 6 m ~ ] ~ ~ ~ M M J J J y i i i b Z S b b C e e b Z Z ] {.{.{.{.{.{.{.XX}.XXzXzXzXzXzXBXBXVXzXzXVXVXVXVXVXVX1 m b c b m G G G G G { ........ X;X;XmXmXkXK.S.D.L.D.T.R.T.R.R.R.H.H.H.G.G.H.H.H.H.H.H.H.J.J.J.H.H.H.H.H.H.H.J.J.E.J.H.H.H.H.G.D.R.R.R.R.R.R.R.R.R.R.G.R.R.R.R.R.~.R.R.R.R.R.R.R.R.R.~.~.~.~.~.~.~.~.~.~.~.~.~.~.~.~.~.~.jXjXjXjX~.~.^./.^.^.~.~.~.~.~.~.~.~.~.~.~.~.~.~.~.~.~.R.~.~.~.~.~.~.~.~.~.~.R.R.~.~.~.~.J.R.R.R.R.J.H.H.H.H.H.G.H.H.H.H.G.H.H.H.H.H.J.J.J.J.H.H.H.H.H.H.H.H.H.H.H.lXlXlXkXkXkX3X,X&X$X$X0.0.9.` G G G G G m u b b b u p t t c < AXVXVXVXVXVXVXVXVXBXNX6X5X5X6X6X=X-X*XOX XX.|.|.|.|.|.X.X.| | ] m i 7 7 5 ; ; ; = = = - p p p y i n | }  . .| | | | { { , q q 0 0  X6X6X5X-X Xm & & s y ; & 0 ",
"e e e p , , v v > A |.@X-X-X-X5XQ _ #. X*X> ; - 6 6 6 0 0 0 6 Z W W W W S b b m b b y y y y y p n b e - t Z S S Z ,.{.{.{.{.{.{.{.}.}.}.NXBXBXBXBXBXBXVXVXVXVXVXVXVXVXVX< A A V b 9 m J J G G { ..[ [ ` |. X$XmXmX3XP.K.K.K.P.gXgXgXgXhX^.R.T.G.T.G.H.J.H.H.H.H.H.H.H.H.H.H.H.H.H.H.H.J.J.R.H.H.H.H.H.H.D.~.~.~.R.R.R.R.R.R.R.H.R.R.R.R.R.R.R.R.R.R.R.R.~.~.~.~.~.~.~.~.~.~.~.~.~.~.~.~.~.~.~.~.~.jXjXjXjXjXjXjXjXjXjX^.~.~.~.~.~.~.~.~.~.~.~.~.~.~.~.~.~.~.~.~.~.~.~.~.~.~.~.R.~.~.~.~.~.J.R.~.R.J.R.H.H.H.H.H.G.G.G.G.G.G.H.H.H.H.H.H.J.H.H.H.H.H.H.H.H.H.H.H.H.F.lXlXlXlXlX;X;X;X$X;Xq.|  .| } G J G G G b u u u u u i u t c < AXVXVXVXVXVXVXNXNXNXMX5X4X5X5X5X*X-X=XOX X#.9.|.|.|.|. .X.X.X.] y 0 7 7 5 ; ; ; = = = - p p b b b b ] | <.} <.] ~ ~ W M e b v e e  X-X6X6X-X-XW u ; i - y * i ",
"> - e 0 u W > b b S m m G ~ G Q 5X6X5X6X6Xk ; - 6 6 6 0 0 0 0 6 6 ; * * ; 7 ; 0 y 0 8 8 8 y ; ; ; * - - W W S b b ~ 2.{.5.{.5.5...2.......-.6.2.`.yXnXNXNXNXAXVXVXVXVXVX< V D D A w e e e v v G G v v v 3.X.#. .#.#.3X3XgXkXkXZXZXZXZXZXZXZXZXvXvXvXT.H.H.H.G.H.H.H.H.H.H.H.J.J.H.H.H.R.J.R.J.J.J.R.R.R.R.~.~.~.R.R.R.R.R.R.~.~.~.~.~.~.~.~.~.~.~.~.~.jXjXjX^.~.~.~.~.~.~.~.~.~.~.~.~.^.^.^.~.~.^.jXjXjXjXjXjXjXjXjXjX^.jXjXjXjXjX^.jXjX^.~.~.~.~.~.~.~.~.~.~.~.~.~.~.~.~.~.~.~.~.~.~.~.~.R.~.~.~.~.R.J.J.J.J.J.H.J.R.R.J.R.R.R.J.J.R.J.J.J.J.H.H.H.H.J.G.R.~.~.~.T.&X;X;X;X;XQ } _ Q / _ Q Q Q Q G G _ Q Q u y p p p y p b p c < AXVXVXVXVXNXnXyXyXyX-X*XOXOXOX X|.|.|.9.5.4.4.X.4.| 4.| | { { ] y 7 7 7 5 ; ; ; = = = - p b b b b 0 , u n n u - ; ; y , w.-X-X-X-X$X XOX X X0.W y y W ; i * p ",
"> u 0 0 - - - , - M m ^ ] ^ ~ { 6X7X=X7X6Xk ; 6 6 0 0 u u u y 0 6 7 ; ; ; ; ; 7 7 7 y y y y 7 ; ; ; ; - W ~ W e p W ,.9.|.X...{ ` ] { X.{.{.{.{.(.@X@X5X5X@XNXVXVXVXVXVX3 L P L L t e e e 9 9 G G G m v { 3.X.X.| } mXmXmXmXmXMXCXCXCXMXCXZXZXZXZXZXT.R.R.R.R.J.R.R.J.R.R.R.R.R.R.R.R.~.~.~.~.R.~.~.~.~.~.~.~.~.~.~.~.~.~.~.~.~.~.~.~.~.~.~.~.~.~.~.~.jXjXjXjXjXjXjXjXjXjXxXxXjXjXjXxXxXxXxXxXxXxXvXvXvXvXxXxXxXxXxXxXjXjXxXxXjXjXjXjXjXjXjXjXjXjXjXjXjXjXjXjX^.^.^.^.^.^.^.jX~.~.~.~.~.~.~.~.^.^.^.~.~.R.E.R.R.R.R.R.R.R.R.R.~.~.R.R.R.~.R.R.R.R.R.R.R.~.jXlXlXjXlX$X*X*XOXOX~ ] { ` ] ` Q ~ ~ G G Q $.$.} p p t p p p p b b B 3 AXVXVXVXVX}.OX@X@X@X@X X X|.|.|.{ <.{ ] ] ] { { | ] <.~ Q G Q Q u y 7 ; ; ; ; ; ; ; ; ; p p b p i y y y y y y ; ; ; 7 y |.fX-X-XfX X|.|.|.X.4.y y ; ; ; ; * i ",
"O 0 0 ; s * , ; b e v ~ ] ~ J X.*X7X=X7X7Xk ; ; 0 0 0 u p u u 0 6 7 7 ; ; 7 7 7 7 7 7 y y y 7 ; ; ; ; * Z W W S p Z / 0.0.} ] { ` ` ` X.X.{.{.{.{.@X@X5X5X@XNXVXVXVXVXVXz U &.&.L C e e e e v G G k k v ` { X.X._ X.;X;X;X;X6X). X X X(. XZXZXZXZXZXT.R.R.R.R.J.R.R.R.J.R.R.R.R.~.R.~.~.~.~.~.~.~.~.~.~.~.^.~.~.~.~.~.~.~.~.~.^.^.~.~.~.~.~.~.~.~.~.^.jXjXjXjXjXjX^.^.^.jXxXxXjXxXjXjXxXxXxXxXxXxXvXvXvXvXxXxXxXxXxXxXjXxXxXxXxXjXjXjXjXjXjXjXjXxXxXxXjXjXjXjXjXjXjXjXjXjXjXjX^.jXjX^.jX^.^.^.^.^.^.^.~.~.E.R.R.R.R.R.R.R.R.R.~.~.R.R.R.R.R.R.R.R.R.R.R.~.jXxXxXxXlX$X*XOXOXOX] ] ] ` ` ` Q ` ` ~ G ~ @.o.( p p t p p p p b c B z AXVXVXVXVX0X5X@X5X5X@X X|.|.|.9.{ | { { { { { ] | ] <.] ~ Q ~ ~ y 8 8 8 7 ; ; ; ; ; ; ; p p b p i y y y y y 0 ; ; ; ; , 0.fX-X-X-X X|.|.X.5.<.W , y s ; * ; y ",
"0 0 0 * 0 & , - 0 u b ~ ~ ~ G X.6X4X5X4X6Xk ; 7 0 0 0 u u u u 0 6 7 7 ; ; 7 7 7 7 7 7 y y y 8 ; ; ; ; * Z W W S Z a ~ 7.7./ ] { ` ` { | X.{.{.{.{.@X-X-X5X@XNXVXVXVXVXVXz U &.&.&.D e e e e e J G G G v <.5.5.X.` X.;X5X6X6X4X).|.|.OXOX=XZXZXZXZXSXT.R.R.R.R.R.R.R.J.J.R.R.~.~.~.R.~.~.~.~.~.~.~.~.~.~.~.^.^.^.^.^.~.^.~.~.^.^.^.^.~.~.~.~.~.~.~.~.^.jXjXjXjXjXjX^.^.^.jXjXjXjXjXjXjXjXjXjXxXjXxXvXvXvXvXxXxXxXxXxXxXjXjXjXjXjXjXjXjXjXjXjXjXjXxXxXxXjXjXjXjXjXjXjXjXjXjXjXjXjXjXjX^.jXjX^.^.^.^.^.^.~.~.~.~.~.R.R.R.R.R.~.~.~.~.~.R.R.R.R.~.R.R.R.R.R.~.jXxXxXjXlX X X*XOX*X` ] { { ` ` ` ` ` ` G ~ o.@.( u p t p p p p b b B %.AXVXVXVXVXyX5X5X5X5X5X X|.|.|.|.{ { { { ] ] ] ,.<.] ~ ~ ~ Q J ~ y 8 8 8 7 ; ; ; ; ; ; ; p p b p i 0 y y y y , ; ; ; ; , 0.fX-X-X-X X|.5.| X.9.i i * i 7 ; & y ",
"* ; - - Z * s & b * b M ~ ] G 5.5X4X4X4X4X, , e , > e 0 0 0 ; ; ; 7 ; ; ; ; ; ; ; ; ; 7 7 0 y ; ; ; - - s Z b e p C } 7.7.~ ~ ` _ { { { | {.{.{.{.OXOXOXOXOXNXBXVXVXVXVX*.*.*.&.&.D u e e 0 v m G G G G ` 3.4.3.` _ *X-X5X-X5X X|.|.(.|.OXCXZXZXCXLXC.R.R.R.R.G.R.^.^.^.^.^.^.^.^.^.^.^.^.^.^.^.^.^.^.^.^.jXjXjXjXjXjXjXjXjXjXjXjXjXjXxXjXxXxXjXxXxXxXxXxXxXxXxXxXxXxXxXxXvXvXbXvXvXvXbXbXbXbXvXvXbXbXbXvXvXxXvXvXvXvXvXvXvXvXvXvXvXvXvXvXvXxXxXvXvXvXvXvXvXvXvXxXxXxXxXxXxXxXxXxXxXxXxXxXxXxXxXxXxXxXjXjXjXjXjXjXjXjXjXjXjXjXjXjX^.^.^.^.^.^.~.~.~.~.~.~.jXjXjXjXlX*X*X*X*X*X{ } } } | ` ` G ~ ~ m n o.o./ u p t p p p C c A V %.VXVXVXVXVX0X@X5X5X5X-X X|.{.{.|.{ { { | ] ] ] ] { ,.~ ~ <./ <.<.y 8 8 8 7 ; ; ; 7 ; ; ; y y p i y 0 0 0 0 7 0 , > - = : <.-X-X-X-X X|.X.| } ] i , = y ; & & 8 ",
"0 * - O * O O O O O , b J ~ M .. XOX*X*X*X5X5X6X5XnXnX0 0 0 ; ; ; ; ; ; ; ; ; ; ; ; ; ; ; 7 7 y 0 0 0 6 6 6 6 - - * ] ~ ~ ~ ~ | X.X.X.5.5.5.{.{.X.|. XOXOXOXnXNXNXNXNXnXAXAXAXAXcXcXp e 0 0 e e 9 v v v J J G G M G _ _ _ X.| X.X.X.X._ ..LXLXCXMXnXmXZXZXvXvXJXKXKXKXKXJXJXJXKXKXKXKXKXKXKXPXKXPXPXPXPXPXPXPXIXIXIXIXIXIXIXIXIXIXIXIXIXIXIXIXIXIXIXIXIXIXIXIXIXPXIXIXIXPXPXPXPXPXPXIXIXIXIXIXIXIXIXIXPXPXPXPXPXPXPXPXPXPXPXIXIXIXIXIXIXIXIXIXIXIXIXIXIXIXIXIXIXIXIXIXIXIXIXIXIXIXIXIXIXIXIXIXIXIXIXIXIXIXIXIXIXIXIXIXIXIXPXIXPXPXPXKXKXKXJXGXDXvXvXvXvXvXlXgXgXfXfX#.{.).(.(.` ^ ^ ^ ^ G m m M m v e u k k u p p p Z q zXAXAXAXLXAXNXnX0X0X@X X{. X|.|.|.{.X.X.X.{ ] ,.{ ] ] u 0 0 u n i y 0 0 0 y 8 8 8 7 ; ; 7 7 7 7 0 ; 0 0 0 0 7 7 7 0 0 , -X-X-X-X-X..5.X.X.X.X.X.X.` ~ ~ W i O y y = O = ",
"- 6 0 6 s * Z O 0 & , , , m ~ ).(.(.|.(...OX4X4X4X7X5X0 6 0 7 ; ; ; ; ; ; ; ; ; ; ; ; ; ; 7 y i u u y 0 6 6 6 6 - * ] ` ] ~ ~ <.3.3.5.5.5.5.5.{.{.|.{.|. X X XOXOX|.(.XXAXAXAXAXAXAXp e e 0 0 e 9 q q b b b b m M G _ ~ ~ ^ ` X.X.X.X.X.X.{.|.{.).(.mXZXvXvXvXHXPXPXKXKXKXKXKXKXPXKXKXPXPXPXPXPXPXIXPXPXPXIXIXIXIXIXIXIXIXIXIXIXIXIXUXIXIXIXUXUXIXIXIXIXIXIXIXIXIXIXIXIXIXIXIXIXIXIXIXIXIXIXIXIXIXIXIXIXIXIXIXIXIXIXIXIXIXIXIXIXIXIXIXIXIXIXIXIXIXIXIXIXIXIXIXIXIXIXIXIXIXIXIXIXIXIXIXIXIXIXIXIXIXIXIXIXIXIXIXIXIXIXIXIXPXPXPXIXPXPXPXPXKXJXJXJXvXvXvXlXgXv.0.#.#.|.X.X.X.X.X.` J J ~ m m m b Z m v e e e e e p p b b a AXAXAXVXAXfXXXXXXXOXOX X|.|.|.|.{.{.X.4.3.{ ' ,.{ ] ] * * ; y n i 7 7 7 7 7 y 8 8 7 ; ; 7 y y y y 7 0 0 0 0 7 7 7 0 0 , -X4X-X-X-X` _ ....5.X.X.` Q ~ Q ; = ; 8 ; * * * ",
"- 6 * O - O - O O + e > m J { X.X.(.).).4.OX4X4X4X7X@X0 0 6 6 - - ; ; ; ; ; ; ; ; ; ; ; ; 7 y p i u u 0 6 6 - - - * ~ ` ] ~ ~ X.X.X.X.5.5.5.5.{.5.{.{.{.|.|. XOXOX X X XAXAXAXAXAXAXe e e q 7 0 0 e e v b b b b M M ~ _ ^ ^ ^ X...X.{ ....(.(.(.(.X.;X,X&X&X&XC.C.N.C.C.C.!.!.!.!.!.!.!.!.!.^.^.gXgXgXgXgXjXlXvXvXvXvXvXvXvXvXvXvXvXvXvXvXvXvXvXvXlXvXZXSXHXHXKXKXKXPXPXPXKXPXKXKXKXKXKXKXKXHXPXKXKXKXKXKXKXHXHXHXHXJXJXHXHXHXFXSXSXSXSXSXSXvXvXvXvXvXxXjXxXgXgXgXgXgXgX^.^.^.gXgXgXgXgXgXgXgXgXgXgXgXgXgXgX!.!.!.T.T.T.C.C.C.N.N.N.N.N.N.N.N.N.B.%XB.B.b.$.#.#.#.X.....X.X...~ ~ ~ ` m m ~ ~ ~ m v u e e e u e b b b r AXAXAXVXAXNXOXOXOXOXOX|.|.|.|.{.{.5.X.X.X.| ] { { ] ' * = 7 y i y 7 7 7 7 7 7 0 0 7 ; ; 7 n n m u 0 7 0 6 6 6 6 0 0 6 , 5X4X-X-X5X.._ { ` _ | ` ~ Q ~ ~ y 8 & 8 8 & 7 7 ",
"6 6 0 6 Z - y - - - , * <.e m _ X.).(.X.X.OX*X4X7X6X X0 7 7 6 6 ; ; ; ; = ; ; 7 7 7 ; 7 ; 7 y p i i i 0 6 ; - - - * ~ ] ] ~ ~ | X.X.X.4.4.4.4.4.5.5.5.{.{.|.|. X X X X XAXAXAXAXAXCXe e e e 6 6 e e e e p p p n n m ~ ` ` ^ ` | | | { ....{.{.{.{.X.;X:X:X&X,X:X:XP.P.P.P.M.P.V.M.M.M.M.M.N.N.P.P.P.P.P.P.P.P.P.P.P.P.P.P.T.T.P.T.T.T.T.T.T.T.T.T.T.<X<XhXhXhXhXhXhXhXhXhXhXhXhXhXhXhXhXhXjXjXhXhXhXhXhXhXhXhXhXhXhXhXhXhXhXhXhXhXhXhXhXhXhXhXhX<X<X<X<XT.T.T.T.T.T.T.T.T.T.T.P.T.T.T.T.T.T.L.L.T.P.P.P.P.P.P.P.P.P.P.P.P.P.P.P.P.P.P.P.P.P.P.P.B.B.B.B.b.$.X.X.X.X.....{ ....~ J ~ ~ m m ;.~ ~ m m b e e e e e p b C r AXAXAXAXAXNXOXOXOXOXOX{.{.{.{.{.{.5.X.X.X.| ' [ { ] ~ * = ; y i y 0 0 0 7 7 7 0 7 7 ; ; 8 M W W n 0 7 7 7 7 7 6 0 0 0 - 5X5X5X5X5X(.~ ` { | | G ~ E W W 7 s ; y ; = ; = ",
"; 6 ; - 0 - 0 - 6 e e Z & u ~ X.X.|.).).{.OX4X4X4X6X|.0 7 7 6 6 ; ; = = * ; ; 7 7 7 ; ; ; 7 y p i i i y 6 ; - - - * ~ ] ] ~ ~ | X.X.| 4.4.4.4.4.5.5.5.{.|.|.{. X X X X XAXAXAXAXAXCXt e e q q q 0 e e p p p p p s n ~ ~ ` ^ ` | | | { ....{.{.{.{.{.;X:X:X:X:X:XP.I.P.P.P.M.P.P.P.M.P.P.P.P.K.P.P.P.P.P.L.L.L.L.T.T.T.T.T.T.T.T.T.T.T.T.T.E.E.E.E.E.<XhXhXhXhXhXhXhXhXhXhXhXhXhXhXhXhXhXjXjXjXjXjXjXjXjXhXjXhXhXjXhXhXhXhXhXhXhXhXhXhXhXhXhXhXhXhX1X1X<XT.T.T.T.T.T.T.T.T.T.T.T.T.T.T.T.T.T.T.T.T.T.L.L.L.P.L.L.L.K.K.P.P.P.P.P.P.P.P.P.P.P.P.P.B.B.B.B.b.$.X.X.X.X.X.....{ { ~ m ~ S M m S S S m m b v e e e e p b Z a AXAXAXAXVXnXOXOXOXOX X{.|.{.{.{.{.5.{.4.4.3.~ [ { ' ~ * ; ; y i y 0 0 0 7 7 7 0 7 7 ; ; y W W ~ Z 0 7 7 7 7 7 6 0 e 0 0 6X5X5X5X5X(._ ` { <.{ m <.n n W = 8 ; i 7 * 7 ; ",
"- - - ; 6 - 6 - O * & - W , :.<.| 4.<.| 4.|.OX*X=XOXX.@X-X-X-X X~ Q M M b ; ; 7 7 7 ; 7 7 7 7 7 0 0 0 , b e e u u b ] ] ` ^ ~ | 4.4.` | 4.4.4.4.4.4.4.4.4.4.4.|. X X|.|.CXAXAXAXCXNXN q r a < a s %.%.%.:.:.:.:.%.a J ~ ~ J J { ` ` ` ` ` (.{.(...X.;X&X&X&X&X:X:XP.P.P.P.V.V.M.V.V.P.P.P.P.P.P.P.P.P.P.T.T.T.T.T.T.T.T.T.T.T.T.T.T.E.T.E.T.E.<X<XE.hXhXhXhXhXhXhXhXhXhXhXhXhXhXhXhXhXjXjXjXjXjXjXjXjXjXjXjXjXjXjXjXhXhXhXhXhXhXhXhXhXhXhXhXhXhXhXhXhX1X<X<X,X,X,XT.T.T.T.T.,XT.T.T.T.T.T.T.T.T.T.T.T.P.P.T.P.P.P.P.P.P.P.P.P.P.P.P.P.P.P.P.P.P.B.%X%XB.$X$.X.X.X.X._ X.X.X.X.~ n n ~ m c s a a a a a a a a < < < < < < LXAXAXAXLXnXOXOXXXOX{.{.{.5.5.X.X.4.4.4.4.4.J >.] ] ~ * = = 7 y y y y 0 7 7 7 7 7 7 7 * ; 0 i i 0 6 6 6 7 6 m -X-X-X X|.nX5X5X5X5X|.G ~ | ~ ~ u u y y y * ; * * * * = = ",
"- 6 6 - - - - * O ; & ; O O   n y 0 , O & ~ | | 5.4.OX=X4X4X=X-X X X X X5.0 ; ; 7 7 ; 7 7 ; ; ; ; ; ; - { ..X...X.| { { ` { ] | <.| | <.| X.X.X.4.X.4.4.4.4.4.5.{.5.4.X.}.}.}. XoX@X0X0X0XQ.0XCXAXAXAXAXAXAXAXAXAXAXN S M b , v m m m m b 3.3.....` Q Q Q Q _ 0.0.q.q.q.$.%XV.B.B.B.c.m.B.m.m.m.m.c.m.m.m.N.N.M.N.m.n.n.n.n.n.n.V.V.V.V.V.N.T.K.K.N.N.N.T.T.T.V.V.V.V.V.N.T.T.T.T.T.T.T.T.hXhXhXhXhXhXhXhXhXhXhXhXhXhXT.T.hXhXhXhXT.T.T.T.T.V.C.V.V.V.C.T.T.T.T.T.T.T.T.T.T.V.V.V.m.m.m.m.m.m.m.m.m.c.x.n.n.b.b.x.x.x.x.x.n.x.x.x.b.x.n.b.b.x.8.O.O.o.o.O.} } } } _ ` ` Q _ Q b s n n Z &.0X0X0X0XVXVXVXVXVXVXVXVXVXVXVX}.}.oX}.}.}.{.{.{.{.{.{.{.{.5.<.| ] ~ ~ ~ ~ b Z M , u * = ; ; 7 y i i i 7 7 7 7 7 7 7 ; ; ; 7 ; 6 6 6 6 7 6 m -X5X5X5X5XX.4. .X.9.Q u p n M W - , , y 7 ; ; = = = ; ; ; ",
"- 6 6 ; ; ; 6 * 6 - & s 0 p u ~ - W u e & ~ ` ] ` X. X=X=X=X*X*X X X X X|., 6 6 7 ; ; 7 7 ; ; ; ; ; ; - { { X.X.3...{ { ] ] ~ } | ] 4.|  .4.4.4.| 4.4.0.0.4.4.4.5.5.4.5.}.OXOXOXXX@X0X0X0XQ.Q.AXAXAXAXAXAXAXAXAXAXAXB J J M v v m m m m e I G I ` [ ....{ ` ..X.(.#.#.#.#.%XV.B.V.B.x.b.B.c.B.c.x.b.x.x.x.m.N.N.N.V.n.n.b.b.n.$X$Xn.n.n.v.T.<X<X<XN.V.V.,X:X&XV.V.&XV.%XV.hX<XT.T.T.T.T.<XE.E.T.T.T.T.T.T.T.T.T.T.T.T.N.N.K.T.gXT.N.N.N.N.N.V.C.%X%X%X%XV.T.E.E.T.N.N.N.K.V.c.V.V.V.V.V.V.B.m.B.m.V.n.v.v.v.v.v.v.v.v.v.v.v.$.q.8.v.v.v.a.v.$.#.} } } +.} / / } } } Q ` ~ ~ ~ p s C n S %.eX0XeX0XVXVXVXVXVXBXVXVXVXVXVX}.oXOXOXXXOX|.|.{.{.{.{.{.5.5.<.] / ~ ~ ~ ~ b Z S , u ; ; ; ; ; 0 i i i 0 7 7 7 7 7 7 ; ; ; 7 7 6 6 6 6 7 7 m -X5X5X5X5XX.4. . .} E n n n , p & ; * y ; ; ; = = = = ; ; ",
"- ; ; - 6 6 0 ; - q O 0 0 , & * * & - O ; J G ' ` |  X=X=X*X*X*X$X X X X X0 0 ; 7 ; ; ; ; ; ; ; ; ; ; ; { ..X.X.X.X.| | | ] ] ^ ] ] | | <.X.X.X.| | | 4.4.4.4.4.3.3.3.3. XOXXXOXXX@X0X0X0XQ.0XAXAXAXAXAXAXAXAXAXAXAXb ~ G m v c m m m m b ` ` _ ` ` ` ....` ` X.#.X.X.X. .V.V.V.V.B.c.c.c.m.B.b.x.8.8.x.8.c.M.M.M.m.n.b.b.b.b.$X$Xv.v.v.q.T.T.T.T.P.V.V.V.V.V.n.n.n.n.n.n.<XE.T.T.T.T.T.T.E.T.T.T.T.T.T.T.T.T.T.T.T.T.T.N.N.N.N.P.T.T.T.T.P.V.&XV.%X%XV.V.N.N.N.V.V.V.V.V.V.m.m.V.V.V.V.V.B.V.V.B.B.B.x.v.v.v.v.v.v.v.v.v.v.q.q.q.v.a.p.p.a.@.@. .} }  .+.} Q Q _ } _ } } ` Q s Z Z n b %.eX0X0X0XVXVXVXVXVXVXVXVXVXVXVX}.OXOXOX X X{.{.{.{.{.{.{.{.5. .~ ~ Q Q M J p W ~ , y ; ; 7 7 ; 7 p p p y 7 7 7 ; ; ; ; ; 7 ; ; 6 6 6 7 7 7 v -X5X5X5X5XX.5.X.| | M p n Z n W ; i ; y = ; ; ; ; = = = = ",
"- ; ; 6 6 6 6 0 - - * ; - p 0 p & Z 0 s y ~ ] ,.~ ]  X-X=X*X*X*X X X X$X X; ; ; ; ; ; ; ; ; ; ; ; ; ; ; { { { X.X.X.{ { ] ~ ] ^ ~ ] ] ] ]  . . .| | | | | <.3.3.3.5.5.5. XOXOXXX}.@XfXQ.Q.0X0XAXAXAXAXAXAXAXAXAXAXAXC ~ J A A C G G G m b ~ ` ` ` ` ` ` ......X.#.#.#.#.X.V.V.B.V.B.c.b.c.B.B.i.8.8.8.@.8.c.m.m.m.V.b.b.b.v.v.n.n.v.v.v.v.T.T.T.T.P.V.%XB.B.%Xn.%Xn.$X$Xn.,XT.T.T.T.T.T.T.T.T.T.T.T.T.T.N.N.K.T.T.T.T.T.T.K.K.N.K.T.T.T.T.T.P.P.V.%X%XV.n.n.c.n.n.V.V.V.N.N.N.N.V.V.V.V.V.m.m.m.B.B.B.v.v.v.v.a.a.v.$.$.v.v.q.8.$.v.a.a.a.a.@.o.} } } } / / Q Q Q ~ Q } } / W s Z Z n Z %.0X0X0X0XVXVXVXVXVXBXVXVXVXVXVX}.OXOXOX X X|.{.{.{.5.{.{.X.X.| ~ ] ] ~ ~ ~ u b m , 0 ; ; 7 7 7 7 y i i y ; 7 7 ; ; ; ; ; ; ; ; * ; e 0 y 0 b -X5X5X5X5XX.X.4.4.} E n p W W i & & ; ; * = = * * = ; = = ",
"- ; ; 6 6 6 ; ; 6 p * 0 0 i p Z O s 0 y i W G ] ~ ~  X-X=X*X*X*X X X X$X X; ; ; ; 0 ; ; ; ; ; ; ; ; ; ; ] { { | | { { { ] ] ] ~ ] | <.4.Q |  . .<.| ] } | <.<.<.<.3.3.3. XOXXXXXXX0X0XQ.Q.0X0XAXAXAXAXAXAXAXAXAXAXAXc W K A A m G G G J b ` ` ` ` ` ` ` ` ` ..X.#.#.#.#.#.V.V.B.B.B.c.B.p.B.B.c.8.8.8.x.x.c.m.m.m.V.b.v.b.b.b.n.n.v.v.v.v.,XL.T.T.:X%XV.V.V.V.V.V.V.B.B.B.T.T.T.T.T.T.T.T.T.T.T.T.T.T.T.K.T.T.T.T.T.T.T.T.K.N.N.K.T.T.T.T.T.P.P.P.V.V.V.B.B.m.m.B.V.N.N.V.N.N.N.N.V.V.V.V.m.m.m.m.B.m.v.v.x.v.a.$.$.a.a.a.a.i.i.@.a.a.a.a.a.i.@.} } } } / / / / / ~ / / / / W s Z Z n Z %.0X0X0X0XVXVXBXVXVXBXVXVXVXVXVXXXOXXXOXOX X|.{.{.5.5.5.X.X.X.3.~ ] ] ~ ~ ~ p n n , ; ; ; ; 7 7 7 7 y y 0 ; 5 7 ; ; ; ; ; 7 7 7 6 e , , 0 0 , -X5X5X5X5XX.X.4.X.| n W W Z W W & ; * i * = * * * * = = = ",
"- 6 6 ; ; ; ; - ; * - - * * * * * * * * * - , b ~ M J J ] G ` |. X*X$X$X*X6X6X6XnXnX, ; ; ; ; ; ; ; ; ; ; * ; , , 7 0 0 u u u 0 0 0 u ~ Q <.<.~ n ] ] ] ] ~ ~ <.,.{ { ,.{.}.}.{.{.@X0X0X0X@X@XfX0X0XfXfXNXNXVXAXAXzXVXVXVXAXAX.XJ J G J J ~ ~ ^ ~ ~ ~ ` | | | | #.} X.X. .$XB.B.b.b.i.b.a.b.b.v.8.@.x.c.i.v.n.n.n.n.b.b.b.b.b.v.m.m.B.b.v.V.V.B.B.V.V.P.P.P.:XT.,XT.P.P.P.,XT.:XP.P.P.K.N.T.V.P.T.T.T.T.N.V.K.P.P.N.P.N.N.N.N.V.V.V.V.:X:XT.P.,X:X,X:X%XV.V.V.V.B.V.V.V.m.B.B.V.V.B.m.m.m.m.m.m.B.B.B.b.a.b.i.x.x.a.$.$.$.@.@.@.i.i.@.@.@.O.} } } o.o.o.( ( ( ! ! Q m E E Q W  X-X-X-X-X-XnXnXnXnXnXnXnXNXNXnXyX0XfX0X0X{.|.}.}.{.X...{ ..3.{ { | | | ] u i y , - * ; ; - ; - * * * = = = = = = 7 7 7 7 7 7 7 ; ; y 7 6 e -X5X5X5X5X X| 5.|.X.` G ~ ~ Q W p n u E y 8 = = ; ; = = = * = * = = = ",
"6 6 6 ; 7 7 y 0 ; s ; ; ; ; ; * * * * * * & > b M m J M J m ~ |.).). X$X$X7X7X7X7X7X, ; ; ; ; ; 7 ; ; ; ; ; 6 6 6 7 0 0 y i i y y y y u m m u y , ~ ] ] ] ~ ~ <.,.{ { ,...2.[.2.{.XX@X-X@X@X@X-X@X-X-XOX@X@X@X@X@XyXVXVXVXVXVXe.~ J G M m M m m m M M ] ] ` ` _  .~ ~ Q Q +.+.+.+.+. .q.#.O.O.v.c.B.s.s.$.9.9.0.0.4.v.b.p.v.v.v.P.L.L.P.c.b.B.p.b.c.V.P.P.N.V.c.n.n.b.b.b.n.n.n.b.$Xn.V.V.V.V.V.V.T.T.T.V.V.V.N.N.V.N.K.P.L.L.L.P.b.n.v.v.q.@.%X&X&XV.n.V.V.V.V.V.n.B.n.b.b.v.b.x.b.p.p.p.p.c.c.b.b.p.a.a.a.i.@.@.$.O.O.+.O.O.O.@.$.}  . .} } _ } o.o.( ( ( / ! ! Q n E n n m -X-X-X-X-X{.nX5X5X5XOXOXOXOXOXoXOXOXOXOXOX{.{.{.{.{.{ { { ..{ ] ] ] ` ` ~ ; y 0 0 0 ; ; ; - ; ; = * * = = = = = = 7 7 7 7 7 7 7 ; , , , 0 b -XOX5X5X=X=X4.] w.<.| ] Q ~ M ~ n n i W i ; ; = ; ; = = = = * * = = = ",
"6 6 6 ; 7 7 7 ; 7 0 ; ; ; ; ; - * * * * * - e b u b M M J m ~ |.OX*X X X*X7X7X7X7X7X, ; ; ; ; ; ; ; ; ; ; ; 7 7 7 7 0 0 y i i y y y y y u p y y y ~ ] ~ ~ ~ ~ <.,.,.,.,.{ 5.5.2.[.XX@X@X@XOXOX=X@X@X*XOX@X@X@X@X@XyXVXVXVXVXVXe.~ J G M b m n m m M M Q ` ` ` ~ } ~ ] ~ Q  .+.#.X.X. .#. . .+.v.B.b.p.p.$.9.4.4.4.4.v.b.p.a.$.q.P.P.P.P.v.v.v.v.v.x.b.c.b.b.c.x.v.n.b.b.b.b.n.n.n.$Xn.V.V.V.c.c.m.T.T.T.P.V.N.V.V.B.V.M.L.L.L.L.P.b.v.b.v.q.$.B.B.V.n.$Xv.n.b.b.b.b.b.b.b.b.x.c.a.p.p.p.p.p.p.p.a.a.a.p.a.a.i.i.i.$.O.O.O.$.O.O.@.$. . . .} } / / O.o.( ( ( ! ! ! Q n E n n m fX-X=X-X@X..5X5X5X5XOXOXOXOXOX XOXOXOX X X{.{.{.{.{.{ { ,...{ ] ] ] ] ` ~ ; y e , , ; ; ; ; - - * * = = = = = = = 7 7 7 7 7 7 5 ; ; e e e m -X=X4X4X=X@X3.~ ] Q G Q Q G E W i i s i 8 ; = ; ; ; = = = * * * = = = ",
"; ; ; ; 6 7 0 s y Z ; ; ; ; ; - - - - - = ; , S m M M b ~ M {  XOXOXOX XOX7X7X7X7X7X, , , - ; ; ; ; ; 6 6 6 6 6 7 6 0 0 y y y y y y y y n i y W n ~ ~ ~ ~ Q / <.3.3.,.,.[ [ ..3.5.XX@X@XOXOX@X-X-X-X=X@X@X@X@X@X@X0XVXVXVXVXVX6.J G G M m M M M M Q ~ ~ } ~ } } } ] ~ ~ G 9.#.#.#.#. .$.#.#.#.O.v.b.c.p.v.4.4.4.4.5.$.@.i.@.$.$.b.m.c.b.x.b.b.v.b.b.b.B.B.B.B.b.b.b.b.b.b.b.b.$X$X$Xb.V.V.V.b.n.B.V.V.V.V.V.V.V.V.B.B.m.K.P.K.Z.V.b.v.v.8.0.8.%X%Xn.$X$Xv.v.v.v.v.b.b.b.b.B.b.b.p.p.p.p.p.p.p.p.p.p.a.a.p.p.i.@.@.o.$.#.#.#.O.$.$.$.} X. . .} } _ / / / ! ! ! Q W Q n n n n n -X-X=X=X@X XnX5X5X-XOXOXOXOXOX XXXOXXXXXXX{.{.{.{.5.X.X.{ { { ] ] ] ] ] ~ ; u e , , * ; ; ; ; = ; ; ; ; ; ; ; ; ; 7 7 7 7 7 7 5 ; , e , v b -X5X5X4X_. XJ m Q ~ ~ ~ Q ~ W n p p n i s ; = = = = = = = = = = = = = ",
"- ; ; ; ; ; 7 i s Z ; ; - ; ; ; - - * * ; - e W m m M e ~ b ~  X X*XOX X XnX7X4X7X7Xk , , ; - ; ; ; ; 6 7 7 6 6 7 6 0 0 y y y y 0 0 y y i n E m W E m ~ ~ ~ ~ 4.3.3.3.,.{ 3...5.5.XX@XOXOXOXOX@X@XOX=XOX@X@X@X@X@X0XVXVXVXVXVX*.J I J M b S S S M ~ ~ } } ~ ~ ] <./ / / Q 0.).$.$.$.+.$.#.#.#.#.a.B.B.B.v.#.4.4.4.4.O.@.$.$.$.q.b.B.b.b.x.B.B.B.B.B.c.B.B.B.B.b.b.$Xv.v.v.%X%X%XV.B.B.V.V.V.B.b.c.V.V.V.V.V.V.V.B.V.B.V.M.P.P.P.P.b.v.v.8.$.@.%XB.b.$X$Xv.v.v.x.b.b.b.b.b.B.p.b.p.p.p.p.p.a.p.p.p.p.a.a.a.a.i.@.@.o.$.#.O.O.O.$.$.$.#.4.9.9. . .} / / / / ! / E W W E E n n i -X-X-X@X@X XnX5X5X-XOXOXOXOXOX XOXXX X XXX{.|.{.{.{.5.X.{ { ..] ] ~ ~ ~ ~ 0 , e , , - ; ; ; ; ; 7 ; ; ; 7 7 7 7 7 7 7 7 7 7 7 7 , , v > v J -X5X=X-X-X{ ~ W M ~ Q W M S ~ W p y W y s ; = = = = = = * = = = = = = ",
"- ; ; ; ; ; ; - - ; ; ; * - - - - * - * = = , 0 ; 7 0 ; y 0 y ~ } 7.4.X.5.@XOX@X4X5X% , , , u : ; ; ; 6 7 7 6 6 7 6 0 0 0 0 0 0 0 0 7 7 y i E i n i i i W W s <.3.,.,.{ G { { { { XX@X}.}.{. XOXOXOXOXOX@X@X@X@X@X.XVXVXVXVXAXF I L K A t t q q q p p W W W W Z W Z s s e 7.|.0.|.|.X.#.#.+. .+.v.$Xn.B.v.#.4.4. . .$.@.$.$.$.0.v.v.v.v.8.b.b.b.n.b.b.B.B.B.B.b.b.b.v.v.v.b.B.b.b.n.V.V.V.V.%X%XV.V.V.V.V.V.m.m.m.m.B.B.m.m.m.m.V.b.b.b.v.b.v.B.B.%X%X%Xv.v.v.v.v.v.v.v.v.v.b.p.p.p.p.p.p.a.a.a.p.a.a.a.a.a.i.@.@.o.$.#.O.O.O.#.#.O. .>.>.<.~ ~ ~ W S Z Z Z Z Z s a p ~ J ~ M XX@X@XOXXX XnX-X-X5XOXOXOXOXOX{. X X X|. X{.{.{.{.5.3.3.{ { { ~ ~ M n n i 7 ; - * * * - ; ; ; ; 7 7 7 7 7 7 7 7 7 7 7 7 7 7 7 6 <.|.0.X.X.` @XOX-XOX X5.~ ~ ~ ~ W Z Z n S u 0 y y y ; ; = = = = = = * = = = = = = ",
"; ; ; ; - - ; = = * * * * * * = = = ; = ; ; ; ; 7 ; ; 6 6 6 6 6 ; ; 7 ; * e v m v m 6X6X6X6X6Xm 6 6 7 6 7 6 6 6 7 ; 7 7 7 0 7 7 ; ; ; ; ; ; ; ; = = = = ; ; , ,.,.,.{ ] ` ,.{ ,.,.,.,.,.,.3.,.5.5.5.4.4.{.}.}.}.}.}.}.}.+X}.`.NXNXNXBXNXfXVXVXVXVXAXAXAXAXAXAXAXAXAXAXAXAX1 m Q ~ ~ ~ Q ^ Q Q Q ~ ~ ~ ` ` 9.#.#.#.X. .+.O.#.#. .3...3.2.3.4.4.4.5.9.0.0.0.0.q.q.q.q.q.q.v.v.v.v.v.v.v.n.n.n.B.B.V.V.V.V.V.V.m.B.B.B.B.B.v.v.v.v.v.v.v.v.v.v.$.v.q.q.q.0.v.V.V.B.B. ...{ { ....}  . . .+.+.+.+.+.O.} } } / / } } / } / / +./ / / / _ D VXVXVXVXVXVXzXzXzXzXzXzXzXzXzX.X@X@X@X@X5.{.5.5.3.,.,.I J G OX@X5X5X=X-X5.5.5.5.4.~ ] ] ] ] ] ` ` ] ~ > 6 ; ; ; ; ; ; = * * * ; ; ; ; ; ; 7 7 7 7 7 7 7 7 7 7 7 6 6 6 7 XX-X-X-X-X*XG b S ;.O - u y i u , i p p b u 7 8 8 8 ; ; ; = = = = = = = = = ; ; ; ",
"; ; ; ; - - = = = * * - * * - = ; ; ; = ; ; ; ; ; ; ; 6 0 0 0 6 y 0 7 0 - e v A , e nX6X*X4X5Xk 7 7 7 6 6 6 6 6 6 7 7 7 7 0 7 7 ; ; ; ; = = = = = = * ; ; ; ; <.{ { { ] ' ,.{ { ] ] ' ~ ' ' ~ ,.>.] <.| {.{.}.}.}.}.}.oXoX}.}.NXNXNXBXzXfXVXVXAXVXAXAXAXAXAXAXAXAXAXAXAXAX1 m ^ ~ ~ Q Q ^ Q Q Q Q Q ` ` ~ +.#.#.#. . .+.O.O.O.| ..,.,.2.[  . . .4.4.9.q.0.#.$.q.$.$.$.$.$.a.a.a.a.a.$.q.q.q.v.v.q.v.v.n.n.n.n.b.b.v.b.b.$.@.@.$.$.q.v.a.a.a.a.a.q.q.q.0.i.V.M.M.m. ...[ [ [ [ ..X.X.| | X.X.X.X.X.X.X.} } } } } } } } } +._ _ _ / / A VXVXVXVXVXVXVXVXVXVXVXzXzXzXBX.X@X@X@X@X{.5.5.5.,.,.,.[ ' U  X=X=X=X=X-X5.5.4.4.4.~ ~ ~ ~ ] ~ ] ^ ` ~ , 6 7 7 ; ; ; ; = = = ; ; ; ; ; ; ; 7 7 7 7 7 7 7 7 7 7 7 6 6 6 7 w.-X-X-X-X*X~ b S W p , n W i u p i p p b i y y y y 8 ; ; = = = = = = = = = ; ; ; ",
"; ; ; ; ; - ; ; = * ; - ; ; - ; ; ; ; ; ; ; ; ; ; ; ; 6 0 0 0 6 0 0 7 0 0 e b n b u nX6X$X4X5Xu 7 7 7 6 6 6 6 6 6 7 7 7 7 0 7 7 ; ; ; ; = = = = = = = ; ; ; 0 <.{ { { ] ' { { { { ] J J J J J ^ ] ~ ] <.{.{.}.}.}.}.}.}.oXoX}.NXBXBXBXNX0XVXVXVXVXAXAXAXAXAXAXAXAXAXAXAXAX1 M ] ` ^ ^ ^ ^ Q Q Q ^ Q Q ~ `  .+.+.+.}  .+.O.O.O.| [ >.{ ,.[ 4.4.| 4.9.0.0.q.0.$.$.q.$.$.$.$.$.$.$.$.$.q.q.q.q.q.q.0.q.$.@.$.$.$.q.$.@.8.@.O.8.0.q.q.q.v.a.a.v.a.v.q.q.q.0.i.m.M.k.m.| ..[ [ [ [ { X.X.| | | X.X.X.X.| | } } } } } } } } } } } Q _ _ / A AXVXVXVXVXVXVXVXVXVXzXzXzXzXBX.X@X@X@X@X2.5.5.5.,.[ [ ' ' '  X-X=X=X=X@X5.0.4.4.4.^ ^ ^ ~ ] ~ ] ` ~ ~ , 6 7 7 ; ; ; ; = = = ; ; ; ; ; ; ; 7 7 7 7 7 7 7 7 7 7 7 6 6 6 7 4.-X-X*X-X*X~ , - , - , p , p 0 0 i p p p i y 8 y y 8 ; ; = = = = = = = = = ; ; ; ",
"; ; ; ; ; ; ; ; ; - ; ; ; ; ; ; ; ; ; ; ; ; 7 7 7 7 7 0 0 0 7 7 7 0 y y 0 u u b , u nX5X*X6X;X, 6 6 7 7 7 7 7 7 7 7 6 0 7 7 7 7 ; ; ; ; = = = = ; = * - ; ; u ,.{ { { { { { <.<.] ] W ~ I ' J J ,.~ <.{ {.{.}.}.}.}.[.}.+XoX}.NXBXBXBXNXfXVXVXVXVXVXAXAXAXAXAXAXAXAXAXAXAX% ^ ] } ] ^ ^ ^ ^ ^ Q } } } }  . .O.O.+. .O.O.o.o.@. .<.<.3.3.X.X.#.9.9.9.q.$Xq.q.q.$.$.$.$.$.$.$.$.$.$.q.q.q.q.q.q.q.q.b.b.b.b.b.v.v.v.v.v.b.q.v.v.v.v.v.b.b.v.v.v.v.v.v.v.q.i.V.k.m.c.#.4. . .+.#.#.#.#.#.#.+.+.X.X.X.X.X. . .} | } } } } } } } / ~ ` ` S AXVXVXVXVXVXVXVXzXzXzXzXzXzXBXXX@X@X@X@X{.5.5.5.,.[ G K I '  X=X4X=X=X-X|.0.5.5.5.^ ~ ^ ^ ~ ~ ] ` ` ` , 0 7 7 7 7 ; ; ; = ; ; ; ; ; ; ; ; 7 5 7 7 7 8 7 7 7 7 7 7 7 7 7 >.-X-X*X*XOX] b S W Z e ;.u n i Z n n n n p y y y y 8 = = = = = = = = = = = ; ; ; ",
"- - ; ; ; ; ; ; = * = * = = ; ; ; = ; ; ; ; ; ; ; 7 7 7 7 0 8 8 7 0 0 0 0 ; ; 0 > > nXnX-X-XnX+ b b m m e e e e e , 7 0 6 7 6 7 7 7 ; * ; = ; ; - ; 6 ; 0 0 u >.;.;.;.;.<.<.<.<.,.] b ~ ' G J m ~ W ~ ~ {.{.{.{.{.}.}.}.}.}.}.NXNXNXnXNXNXVXVXVXVXVXVXAXAXAXAXAXAXAXAXAXAXl I ;.D ;.~ / ~ ~ ~ ~ } } } } | | +.#.+. .$.@.@.o.@.+. . .#.#.#.#.+. .#.#.q.$Xq.q.v.a.v.$.$.$.$.$.$.$.$.$.@.$.a.v.v.v.q.b.B.B.B.b.x.v.v.v.v.v.v.v.v.$Xb.b.v.$X$X$Xv.v.q.q.v.a.v.b.c.x.v.#.#.#.$.$.$.#.#.#.#.#.#.#.#.#.X.X.X. . .| X.} } } | X.` ~ W ~ ~ E &.AXAXAXAXAXVXVXVXVXVXVXVXBXBXNXXX@X@X@X@X}.5.{.5.5...G J J ~ |. XOX=X@XXX4.3.3.,.<.M W ~ ~ ~ ~ ~ ~ ~ ~ ; 7 7 7 7 7 ; ; = = ; ; ; ; = = u k u y , u u u , e e e e 9 , , , m -X-X-X*X Xn Z Z s Z O 0 y p i i Z Z Z s s 0 7 ; ; = = = = = = = = = = = = ; ; ; ",
"; ; ; ; ; ; = ; = * * * ; ; ; ; = = ; ; ; ; ; ; ; ; ; ; 7 7 7 7 7 6 6 6 ; ; ; - - - , G k m k  X X X X XOXOXXXXXXXXX0 0 7 7 6 7 7 7 5 q p Z W W W W S p u 0 ; , ; - - - ; ; y ~ ,.;.  e v b , , u p p b >.,.5.2.2.{.}.}.}.oX}.-XnXnXnXnX0XXX@X0XXXXX0X0X0XfXfXfXfXfXnXNXyXCXAXAXLXAXK / ~ ~ m m Q M M M M J ` } } } O.O.O.O.O.+.#.#.O.+.+.} / } } } +.+.+.+.#.#.#.#.#.#.#.$.@.@.@.$.@.$.q.$.q.q.q.b.b.b.b.v.@.O.$.$.$.$.$.$.q.q.#.#.#.#.+.#.+.7.9.#.#.#.$.$.i.i.i.#.#.$.#.#.#.` ` ` _ } } } ` ` ` G G G m m G G M J ` ` I CXzXAXAXAXAXNXBXVXVXVXNXNXnXNXNXNXyXyXyXyXXX@XOXOXOX[., > , v ] { <.~ ~ { ..{ 3.| { ,.,.>.>.>.> , , ; ; ; ; ; ; * 7 5 7 7 7 ; ; ; = = ; ; ; ; = y ] *X;X;X$X;X;X;X;X$X$X-X-X-X$X$X$X X|. X|.|.|.O * * ; * - * 6 - 7 7 7 7 7 ; ; ; = = = = = = = = = = 5 5 = = = ; ; ; ",
"- - - ; = = ; ; ; ; ; ; ; ; ; ; - ; ; ; - - = = ; ; ; ; 7 7 8 ; ; 8 y p ; - * ; * - - n n u u  X X X XOXOXOXOXOXOX@X0 0 7 7 7 7 7 7 7 y I ^ ^ ~ ~ ~ S p p u 0 7 5 7 7 7 5 i s ~ 5.;.O ;.~ J , 9 p p p u ,.>.>.>.>.2.[.}.}.}.[.5X5X5XOXnX-XOXOXOXOX).OX=X=X=XOXOX@X@X@XoX+XAXVXVXVXVX*.M m m b m M G M m J J J J J ~ ~ Q Q Q Q Q } } } } _ } _ _ ` } _ } } } | | | | | | } #.O.#.#.O.+.+.+.#.#.4.9.q.q.q.q.q.#.+.+.O.+.+.} } } | ] ~ ` ` _ ` ` { ` ` ` ` ` } } } } }  .} } } } I K K P P P K K K J K F m m m m m m m ~ ` G 0XAXAXAXAXVXaXaXaXpXaXoX@X5XnXnX@X@X@X@X@XOX}.OX}.OX[.v e e e ~ ] ] ] { { { | <.<.<.>.>.,.>.>.* ; ; ; * * = = ; ; ; ; 7 7 7 ; ; ; ; ; ; ; ; ; ; 8 Q =X*X*X*X;X;X*X*X*X*X*X*X X X X X|.X.X.X.X.X.& * * 0 ; ; 0 0 0 ; ; ; ; ; ; = ; ; ; ; = = = = = = ; ; ; ; ; ; ; ; ; ",
"- ; ; ; ; ; = = ; ; ; - ; ; ; ; - = ; ; - = = = ; ; ; ; ; ; ; ; ; 8 i W 0 - * ; * - 0 p n u u |. X X XOXOXOXOXOXOX@X0 0 6 7 7 7 8 y q p I ^ ~ ~ ~ ~ S s i p 0 7 5 7 7 7 7 7 W <.{.;.- ;.~ ' v - p 0 y t ;.,.>.>.>.2.[.[.F T ..5X-X-X*X*X).|.{. X{.|. X*X=X=XOX@XoX@X@X@X.XVXVXVXVXVX6.M m m b m m M M G J J J J J ~ ~ ~ ~ ~ ~ ~ } } ` ` ` ~ } } _ _ ` | | { } { { | } | { | | }  . . . . .#.#.4.4.q.q.q.q.q.#.+.+.+.O.O.+.+.+. .] ` ` ` ' ` ` { { | ` ] { { { | { { | | } ` ` ~ I I I K K K K K J K K G M m M m M m G G G 0XVXVXAXAXVXBXaXaXpXtX}.}.OX}.}.}.}.}. X}.OX X}. X X..e p e , ] ] ] ] { { { | <.<.<.,.>.>.] >.* ; ; 7 ; ; ; ; ; ; ; ; 7 7 7 ; ; ; ; ; ; ; 7 7 8 7 E =X*X*X*X*X;X*X$X X*X*X*X*X$X X|.X.X.X.....{ & & * ; ; * y y 0 ; ; ; ; ; ; = = ; = ; = = = = = = ; ; ; ; ; ; ; ; ; ",
"- ; - ; ; ; = ; ; ; - - - - ; ; ; ; ; ; - - = = ; ; ; ; ; ; ; ; ; 8 i n , - * - * - 0 n W n u |. X X XOXOXOXOXOXOX@X0 0 7 7 7 7 y y y p I ~ ~ ~ ~ ~ S p i u y 7 5 7 7 7 7 0 W 6.5.~ S >.~ ' S - p p s W ,.<.>.>.,.{ ..[.T }.2.6X*X$X*X|.|.).|. X|.|. X*X*X*XOXOX@X@X@X@X.XVXVXVXVXVX6.M m b b m m M M J J J G ~ ^ ^ ~ Q ~ ~ ~ ~ / ~ ` ` ` ~ } } _ ` ` ` | | } { { | | | { X. . .X.X.X.+.+.#.#.X.9.0.q.q.q.q.#.O.+.+.O.O.+.+.+.+.| ] ] ] ` ` ` | | } ` } { ......{ { { ` ` ` ' ~ ' U ' ^ ^ I I I I I K G G m m m m M G ~ F 0XVXVXAXAXAXBXsXaXaXaX}.}.}.{.{.{.{.{.}.{. X XOX X X..0 y 0 , ] { ] ] ] { { { <.<.<.,.>.>.] >.* ; ; 7 ; ; ; ; ; ; ; ; 7 7 7 ; 7 7 - 7 ; ; 7 7 7 7 E =X=X=X;X;X;X*X*X X*X*X$X X|.|.|.9.X.....{ X.& * * ; ; * y y 0 ; ; ; ; ; ; = - ; ; ; = = = = = = ; ; ; ; ; ; ; ; ; ",
"- ; ; ; ; ; ; ; ; = - - - ; ; ; ; ; = = - - ; ; ; ; ; ; ; ; ; ; 7 0 i i ; ; ; - - - > b b b e {. X|.{.OXOXOXOXOXOX@Xy ; , 6 6 7 y y 7 p ~ ;.~ ~ ~ W p p i y 8 7 7 7 7 7 7 7 s <.3.Z ;.;.;.;.~ Z e 7 7 p ;.;.>.~ ,.{ [.[.}.[.2.5X*XOX X X).).). X|.).OX*XOXOXOX@X@X@X+XoX.XVXVXVXVXVX6.b t c t t M S S Q Q Q ~ ~ ^ ^ ] ` / } } } } ` } } } } } } | { { { | | ` } | { { { } #.+. .X.X.+.+.+.+.#.#.4.q.q.q.q.q.#.#.#.#.q.0.q.q.|. Xq.q.0.0.0.0.0.0.0.9.} } ` ......{ ] ` ` ` ` ' ' ' ' ' ' ' U I I U U U ~ ~ Q E n m m m ~ G 0XVXVXVXVXVXBXaXaXaXaX}. X}.{.}.{.{.{.{.{. X X X{. X..0 0 0 , { { { { { { ..{ X.X.,.{ ,.{ { { & 7 7 7 7 ; 7 7 7 7 7 7 7 7 5 ; 7 = ; ; ; ; ; ; ; 8 m -X-X*X*X-X-X*X$X X$X X X|.|.|.{.X.5.5.....X.& * - ; ; - 0 0 7 ; ; ; ; ; ; = - - ; ; ; = = ; ; ; ; ; ; ; ; ; ; ; ; ",
"- - - ; ; ; ; ; = = = = ; = ; ; = ; ; = - = = ; ; ; ; ; ; ; ; ; ; ; ; ; ; ; ; ; ; ; - ; ; - - , > @ > $ , w k v k  X-X-X-X-X-X= ; ; 7 7 ; ; ; , , ; ; 7 7 7 ; 7 7 7 7 7 7 7 7 0 0 0 6 6 6 ; u ~ ~ ~ S e W W W W W ~ 2.2.[.2.Y ......X.{ { { X.......(.(.(.(.(.oX@XoX@X+X0XAXNXNXnXyXNXVXzXVXVXzXw e e u m m J M M E ~ ~ ~ ~ ~ ] ` ` ` } } } } } ` ` ` ] ] ] ] ] ] ` ] { ] | | } | | }  . . .#.#.9.0.0.0.0.0.#.0.0.q.9./ ~ ^ ~ ~ ~ ~ ~ ^ ^ Q Q ~ ` } } 7.| | { ` ` ` ` ^ ^ ^ ~ ~ ~ ~ J J I M J ~ I I ~ 6.1.e.1.%.fXzXzXVXVXVXaXNXyXyX0X0X9X9X9XyX}.}.}.}.}.}.{.{.}.{. X X|.|.{.` J ~ ~ { ,.{ { { ] { { ..X.X.,.' ~ ] ] ~ O 7 7 7 0 7 7 7 7 7 7 7 7 7 7 W  X|.4.4.w.w.w.w.w.w. X|.|.4.4.4.| ~ ~ M W W ~ n W ~ ~ m M M m M n W W M m , * ; ; ; ; ; ; ; = = = = ; ; ; ; ; = ; ; ; ; ; ; ; ; ; ; ; ; ",
"- - - ; ; ; ; ; = = = = = = ; ; = = ; ; ; ; ; ; ; ; ; ; ; ; ; ; ; = = = ; ; ; ; ; ; ; ; ; - - ; , , , 0 e b m m W #.5X4X-X5X-X; ; ; 7 5 ; ; ; ; 7 ; ; = = = ; 7 7 7 7 7 7 7 7 7 7 7 7 7 7 5 m { ] ] ~ p 6 7 7 0 0 , ,.2.5.,.I ' [ [ ..[ [ [ [ [ ..........2...}.XX+X+X+X.X.X+X+X+X+XNXVXVXVXVXVX3 u t u u u M 0 y u b b m m n M m m m m m m m m m m m b b b b b b m G G G J J J J J G Q G Q ` _ ` ~ ~ G G G G ] ] } } ~ M G J ~ J J J J J J J G G ~ Q } G G m v v m M m m b b e e t t t t e e b b e b 1.e.e.e.Q.VXVXVXVXVXBX'.+X+X.X.X[.}.oX`.+X}.}.}.oXXXXX X X XX.5.5.5.X.X.{ 3.,.<.<.{ { ] ] ] { { ..X.X.,.J ~ ~ ;.~ * 0 0 y y y 7 7 7 7 7 7 7 7 7 ~  X|.|.|.|.|.|.|. X|.|.~ ~ b M m b p u - , , W & * 0 y , & ; - ; * Q Q J J m * = = ; ; ; = = = = = = ; ; ; ; ; ; ; ; ; ; ; ; ; ; ; ; ; ; ",
"; ; ; ; ; ; = = = ; ; ; ; ; ; ; ; ; ; ; ; ; ; ; ; ; ; ; ; ; ; ; ; ; ; ; ; ; ; ; ; ; - ; ; ; ; ; , e e e , e m W b  .5X5X5X5X6X= = = = = = = = = = = = = = = ; 7 7 7 7 7 7 7 7 7 7 7 7 7 7 8 u ] { ] ] ;.b b p p p b ,.5.3.{ G ' ' ' [ [ ' [ [ [ [ ..2...2.2.2.}.@X+X9X9X9X+X+X9X9X+XNXVXVXVXVXVX1 e u u u u n , u b b b n M M Z J G J G A A A A A A A A A A A A A A K K K K K I I I K ` ` } } } { [ [ [ ' ' ' |  .}  .~ S M M S S S J J J J J J G G Q G G m b b b m J J m b b b b p t t c b e p p p n 1.e.e.e.Q.VXVXVXVXVXBX.XXXXX+XXX..(.[.(.}.(.(.[.{.(.(.....` { 3.3.4.4.4.| 4.4.4.4.| { { { { { { ..X.X.,.b n n p n ; y i i i y y 0 0 7 0 7 7 7 8 m  X X|.|.|.|.|.XX X|.|.~ ~ ~ ;.~ M W Z , p 0 s & & W W s y s s ; Z W J G M n - ; ; ; = = = ; ; ; = ; ; ; ; = = = ; ; ; ; ; ; ; ; ; ; ; ; ",
"; ; ; ; ; ; = = = ; ; ; ; - ; ; ; ; ; ; ; ; ; ; ; ; ; ; ; ; ; ; ; ; ; ; ; ; ; ; ; ; ; ; ; ; ; ; - , , , - , 0 p u E 5X5X5X4X6X= = = ; = = ; ; ; = = = = = = ; 7 7 7 7 7 7 7 7 7 7 7 7 7 7 8 , ,.{ { { ] ~ J Z M n b 3.5.5.3.,.' ' ' [ ' ' ' [ [ [ ..,...2.2.2.[.+XyX9X9X9X+X9X9X9X9XVXVXVXVXVXVXr e u u e u u p b b b b n M M b J J ~ G A G G J J J J J J J J K J K J J J J K I I I J } } } } } } { { { { { {  . . .| ~ J J J J J J J J J J ~ ] } ] ` ' I I I I I ~ J J Z M Z b b b b b b c t p p n p 1.e.e.Q.Q.VXVXVXVXVXBX.X+XXXXXXX{.(.............X...{ { { { X.3.3.5.4.4.3.4.4.4.4.] { { { ] { { ..X.X.,.&   O O O 7 y i i i y y y y y y 7 7 7 7 m  X X|.|.|.|.|.|.|.{.|.b W ~ ;.W e n n i i W ; y s 0 s s i * * * & W J G M M - ; ; ; = = ; ; ; ; = = ; ; ; = = = ; ; ; ; ; ; ; ; ; ; ; ; ",
"; ; ; ; ; ; - ; - - ; ; - - ; ; ; ; - - ; ; ; ; ; ; ; ; ; ; ; ; ; ; ; ; ; ; ; ; ; ; ; ; ; ; ; ; ; ; - 0 0 ; , u n / -X4X5X5X6X; ; ; ; = ; - ; ; ; ; = = ; ; ; 7 8 8 7 7 7 7 7 7 7 7 7 7 7 8 , ,.{ { { { ~ J S Z m b 3.5.3.3...' ' { ' ' ' ' ' ' [ ,.,...2.2.2.[.@X0X9X9X9X9X9X9X9X9XVXVXVXVXVXVXr e u u u u u u b b b b n M M n J J ~ G G G G G G G G J J J K K K J J J J I I I I I I  . .} } } ] ] ] { { { {  . . . .~ J J J J J J J J J J ~  .} } } ' U &.U U I I J S Z M n b b b b b b c p p b p b 1.e.e.XXQ.VXVXVXVXVXaX.X@X@X@X@X{.{.3...........X.{ ` ` { ..X.5.4.5.4.4.3.4.4.4.4.] { { { ] { { { X.3.3.* O O O O y s s s i y y y y y y 0 0 7 7 m  X X|.|.|.|.|.|.|.|.|.S S ;.w.~ S n i i p i & 0 Z W i * 0 & 7 * ; S J G M M - ; ; = ; ; ; ; ; ; = = = = ; ; = = ; ; ; ; ; ; ; ; ; ; ; ; ",
"- ; ; ; ; ; - - - ; ; ; ; ; ; ; ; ; ; ; ; ; ; ; ; ; ; ; ; ; ; ; ; ; ; ; ; ; ; ; ; ; 7 7 7 ; ; ; ; ; ; , 0 , 0 u , u -X6X6X6XnX: E E m n u u u u u u E E E E u y 7 y 8 8 7 7 7 7 7 7 7 7 7 y , <.,.,.{ ,.~ J J b u m ] <.3.3.,.' ' ' ' ' ' ' ] ] ' ] ' ' ' ' ,.>.0X0X0X9X+X9X9X9X9X+XVXVXVXVXNXNXV B B a a a 9 < 9 3 r r N N a q J J J J J J J J J J J ~ ] ] ~ J J J J J J I I ~ ~ ~ ~ } } } } } } ` ] ] ] ] ] ] ] | ] ] J J J J J J J J J J ~ <.} / / ~ ~ I ~ ~ I J b M b n n M C Z Z C D r a a a a a &.6..XXXe.VXVXVXVXVXyX.XXXXXXXXX{.{.3.2...{ X.X.X.{ ` ` { ..4.4.4.4.4.4.X.9.5.4.4.| { { { { { { { { <.<.- * * * & b n Z Z n i y 0 y y m m m m k k |.|. X|.|.{.|. X|.XX|.b W ~ W y ; ; = & * * O & = ; * * - - * - * S S Z p , ; ; ; ; ; ; ; ; ; ; ; ; ; ; ; ; ; ; ; ; ; ; ; ; ; ; ; ; ; ; ",
"- - ; ; ; ; - - - ; = = ; ; ; ; ; ; - - ; ; ; ; ; ; ; ; ; ; ; ; ; ; ; ; ; ; ; ; ; ; 7 7 7 7 7 7 6 ; ; ; ; ; ; ; ; ; - e , , y *X*X*X_.OX).).).).). XOX X X X|.y y y y y 7 7 7 7 7 7 7 7 7 7 ; ~ ' { { { >.S W W p e W S b u ~ e b b e b b m S S J J A A m A A ~ 2...T 2.}.-.-.(.T T T -.-.-.T `.aXaXsXsXaXVXVXVXVXVXNX0XeXeXeX6.e e e e e e e e u u u u u u u e e e e e e e e c c c c b c c c c m b b b v v e e e e e e v v v b b b b m m b w q 0 e e , 0 0 0 0 0 , 0 0 0 0 0 e w.6.6.6.6.VXVXVXBXBXBXqX+X9X+X+Xz H H *.T P T Y T [ Y [ [ [ U U U ' ` ~ ` { { ` ` { { { { ` ` ` <.| ] | ] ] ~ ~ ~ M e ; , ; 7 6 ; = * * Z S S Z Z n u 0 0 y *X*X*X=X*X*X}  .` Q ` I ' ' [ ,.O 6 ; ; ; * ; ; = = * * * = = = ; ; - - - ; - ; ; ; ; ; ; ; ; ; ; ; ; ; ; ; ; ; ; ; ; ; ; ; ; ; ; ; ; ; ; ; ; ; ; ; ",
"- - - ; 7 7 - - - ; = = ; ; ; ; ; ; - - ; ; ; ; ; ; ; ; ; ; ; ; ; ; ; ; ; ; ; ; ; ; 7 7 7 7 7 7 ; ; ; = ; ; ; ; ; = > e 0 y u _._._._._.).).).).). X*X*X$X$X$Xy i y y y 7 7 7 7 7 7 7 7 7 7 * ;.,.] { { ] S W W p e S M b e ~ b b b Z Z Z Z S S S J S S Z Z A ~ ....T 2.}.(.(.(.(.(...(.(.(.[.`.pXpXpXpXsXVXVXVXVXVXNXeXeXeXeX.Xc e e e e e 0 e 0 0 0 u p p y u u e u u t p p b b b b b c b C C M C m C C C C S Z b b b b e e b e e b b b b q 0 0 0 0 9 0 0 0 0 0 0 0 0 0 0 0 e 6.6.6.6.6.BXBXBXBXBXBXqXyXyXyXyX`.2.2.2.2.>...[ [ [ [ ' ] ' I I I U ~ I ` { { { ] { ] ] ] ] ] ] <.{ ] | ] ] ~ ~ ` S u 7 7 7 7 , 5 = = = Z S S S S n p 0 y y =X=X*X=X*X*X+.~ 3.` 3.' ' ' ' ~ O 6 ; ; ; * ; ; = = * * * = = = ; ; - - - ; - ; 5 ; ; ; ; ; ; ; ; ; ; ; ; ; ; ; ; ; ; ; ; ; ; ; ; ; ; ; ; ; ; ; ; ; ",
"* - - - = = = = ; ; ; ; - ; ; ; ; ; ; ; ; ; ; ; ; ; ; ; ; ; ; ; ; ; ; ; ; ; ; ; ; ; ; ; ; ; ; ; ; ; ; ; ; ; ; - ; ; , u p p p *X*X_.*X*X_.).).). X X*X*X$X$X$Xu i i y y 0 0 0 y 7 7 7 7 7 7 ; ;.,.] { ] ] ~ W W S b , b , , p b b b n n n Z S S J J J J J J S ' [ ......[.(.........(...(.(.(.`.aXpXpXpXaXNXVXVXVXVXNX0XeXeXeX0Xv e e e e e e e e , , u u u u y e u u u p b b b b b b C C b Z Z C J J J J A C Z m m m b b b b b b b b b b b e 0 0 e e e e e e e e e 0 e 0 0 0 > 6.6.6.6.6.NXBXBXBXBXBX9X9X9X9X9X}.2.[.[.2...[ [ [ [ [ [ [ ' ~ ~ I I I K ~ ] ] { ] ] ] ] ] ] ] ] | | { ] ^ ` ` ` ~ ~ n i ; 7 7 , ; ; ; - S S S S Z Z p 0 0 y *X4X4X4X4X*X_ Q ` ,.|.{ ` ' <.;.* 6 ; ; ; ; ; ; ; ; = = ; ; ; ; = = * ; ; ; ; ; ; ; ; ; 6 ; ; 7 ; ; 7 7 7 ; ; ; ; ; ; ; ; ; ; ; ; ; ; ; ; ; ; ; ; ; ",
"* - - - = = = = ; ; ; ; - ; ; ; ; ; ; ; ; ; ; ; ; ; ; ; ; ; ; ; ; ; ; ; ; ; ; ; ; ; ; ; ; ; ; ; ; ; ; ; ; ; ; ; ; ; ; ; ; 7 y *X*X_.*X*X).).).).). XOX X$X$X Xn i i i y 0 0 0 y 7 7 7 7 7 7 ; ;.<.] { { ~ ~ ~ ~ ~ b b m p Z W b b b n n n Z Z Z J J J J J J J ~ [ ......(.(...[.............[.-.pXpXeXpXpXBXVXVXVXVXNX0XeXeXeX.Xc e q 9 9 9 q q e > > , e e 0 u u e u u p b b b b b b C C C Z Z A A K J J J J J J J ~ M m m m b b b M M M b e 0 0 q q e 9 e e 9 0 0 e e e 0 0 q 6.6.6.6.6.NXBXBXBXBXBX8X9X9XyXyX}.[.[.[.2.2.[ [ [ ' ' ' ' ~ ~ J G G G K ~ ] ] ` ] ] ] ] ] ] ] ] ] ] ] ] ] ^ ^ ` ~ ~ m i 7 7 ; , - - 7 7 S W W S S S p p 0 0 =X4X*X4X4X*X_ k G ~ 3.J G G G ~ - 6 ; ; ; ; ; ; ; ; = = ; ; ; ; ; ; ; ; ; ; ; ; ; ; ; 7 y 7 8 7 7 7 7 7 7 ; ; ; ; ; ; ; = = ; ; ; ; ; ; ; ; ; ; ; ; ",
"* = = * - - ; ; ; ; ; ; ; ; ; ; ; ; ; ; ; ; ; ; ; ; ; ; ; ; ; ; ; ; ; ; ; ; ; ; ; ; ; ; ; ; ; ; ; ; ; ; ; ; ; ; ; ; * * * * O *X*X*X*X*X X X).).). XOX X X X$Xu i i i y 0 0 7 y 7 7 7 7 7 7 ; ;.<.{ { { ~ ~ ~ ~ ~ b 0 , , u y b b b n n n M Z Z S J J S A S G J [ ,.....[.[.[...............(.-.aXpXpXpXaXBXBXVXVXVXNXeXeXeXeX-.e 9 9 9 0 0 9 9 9 6 6 6 0 0 y i t u u p p b b b b b b C C Z Z Z S J J I ~ ~ J J J ~ J S m m m b b b M M M Z p p t t t t 1 1 1 9 9 1 9 9 9 9 9 q 6.6.6.6.6.NXBXBXBXBXBX'.9XyXyXyX}.5.2.2.2.2.[ ' ' ' ^ ^ ~ ~ ~ J J G G K ~ ] { { ] ] ] ] ] ] { { { { ] ] ] ~ ~ ~ ~ ~ p i 7 7 ; 0 0 6 6 6 S W W W W S b i y q =X4X4X4X4X*XQ ~ <.] <.] ~ ~ ~ ~ , 0 0 0 y ; ; ; ; ; ; ; = = = = ; ; ; ; ; ; ; ; ; ; ; 7 8 y ; 8 7 7 7 7 7 ; ; ; ; ; ; ; ; ; ; ; ; ; ; ; ; ; ; ; ; ; ",
"- ; ; - - - ; ; ; ; ; - = = = = ; ; ; ; ; ; ; ; ; ; ; ; ; ; ; ; ; ; ; ; ; ; ; ; ; ; ; ; ; ; - n i n n , n p n n n W ~ W W S n @ & O O & & > > , , , m E Q E n 8 y ; y y 8 8 8 ; ; ; 7 ; 7 7 ; 7 ; * * * 0 m W J J e i 0 y s y i i i y y y u e e p p p u p u b n b S S M M [ [ ' [ [ [ [ [ ....Y -.-.-.F z -..X.X.X.X0X0XyXyXyXaXaXaXaXaXaXaXaXaXeXaXeXyX0X0X0XXX9 6 6 0 0 0 0 0 6 6 0 0 0 0 0 0 0 0 0 0 0 0 0 0 0 0 6 6 0 , , , 0 6 6 6 6 6 6 6 0 q q r yXaXaXaXaXaXsXsXBXBXBXNXXXXX.XXXXX%.=.=.%.z z Y Y Y Y Y T [ [ [ { G J J G J M J G G G b b b b b e e e , e e , u e b b b n S W n m e p u 0 ; * = 7 7 u ~ ~ ~ J M , > * * - W ;.W W W u , u m , i y i W y * - - - * - 6 , , , ; ; = ; ; ; ; ; = = = = ; ; ; ; ; ; ; ; ; 6 i y 7.+.O.g ; 7 7 7 7 7 7 7 ; ; ; ; ; ; ; ; ; ; = = ; ; ; ; ; ; ",
"- ; - - - - = ; ; ; - - = = ; ; ; ; - - ; ; ; ; ; ; ; ; ; ; ; ; ; ; ; ; ; ; ; ; ; ; ; * * ; ; W Z Z p 0 Z u i W n W W n p W n - , 0 , - 7 * * y i n , , & i i s s i i 8 y y y 7 7 7 7 ; ; 7 ; ; 6 6 6 7 u b ~ ~ ~ m y n Z W p i s n s - u p p u p p p p n b b n 0 n n p p ~ ~ ~ ~ ~ ' ' ' { { [ ......T T T (.(.[.(..X.X.X+X+XyXsXsXdXdXdXpXpXpXpXpXpXqXqXqXqX0Xw 0 7 0 0 0 0 0 0 0 7 0 0 0 0 0 0 y y y y y y y p y 7 7 y y y u q 5 6 6 6 6 6 6 0 0 0 t yXpXaXaXpXaXdXdXdXdXdXaX.X.X.X}..X*.,.,.2...[ [ { { [ [ [ ' ' ' ' J J S Z b S S b ~ b u s p ; p - p y - y Z 0 0 p 6 O 6 p Z 0 y - - s s s y * 7 7 7 W ~ ~ ~ ~ ~ n s * 0 * ;.W ~ u Z i y i n i i W & s y ; - - ; ; 6 6 b n p i ; 7 ; ; ; ; ; ; ; = ; ; ; - ; ; ; ; ; ; 6 7 ; 9.9.0.8 ; 7 7 7 7 7 7 7 ; ; ; = ; ; ; ; ; ; = = = ; ; ; ; ; ",
"- ; - - - - = = ; ; ; = = = - - = ; ; ; ; ; ; ; ; ; ; ; ; ; ; ; ; ; ; ; ; ; ; ; ; ; ; 7 7 ; 0 p p i 0 0 p p W n p n n n i y i - , ; & ; & & O ; , 0 , , s y s ~ ~ W W u y y y 7 7 7 7 ; ; 7 ; ; 6 6 6 7 p n ~ ~ ~ n 0 0 Z Z ; p 0 i p - u p p p e b b b S b u n 0 s u i u ~ ~ ~ ' ~ [ [ [ { [ { { ....T T T (.(.[.[.+X+X+X+X+XqXsXdXdXdXdXaXaXpXpXpXpXqXyXyXyX0Xw 0 7 7 0 0 0 0 0 0 0 0 0 0 0 0 0 p p p p p y i p y y y y u u u 0 6 6 6 6 6 6 6 0 0 0 t yXpXpXpXpXaXdXdXdXdXdXaX.X}.}.XXXX>.,.,.,.,.[ [ [ [ ' ' ' ` ' ' ' J S S S m S m b ~ e e b e , 0 - u 0 e 0 p , e u e & W u e 0 u , 0 0 y 7 7 = 7 7 7 W ~ ~ ` ~ ~ n 0 6 0 , <.0 u u W s i 8 i y y y ; 7 y 7 - - 6 ; 6 6 b b p i ; 7 ; ; ; ; ; ; ; = ; ; ; ; ; ; ; ; ; ; 6 7 ; 9.9.0.7 7 7 7 7 7 7 7 7 ; ; ; = ; ; ; ; ; ; = = ; ; ; ; ; ; ",
"* - - - - - * = * = = ; ; ; ; - = = - ; ; ; ; ; ; ; ; ; ; ; ; ; ; ; ; ; ; ; ; ; ; ; ; ; ; ; ; W u W u n Z p W W ~ ~ ~ i W y y * & * - & * & & ; y i ; 0 & y 0 7 i E W u y 8 8 y 7 7 7 7 7 ; ; ; 7 7 7 0 p n S M M p 0 ; s y ; 0 ; y u e u b Z Z n n b b S S b n p W p Z M ~ ~ ' ' ' ' ' ' [ { ..............(.(.(.(.+X].+X+X+XtXdXsXdXdXsXdXaXaXaXaXaXqXqXqXqX0X1 0 q q 7 7 7 0 0 0 0 0 0 y y y p p p b b b b b b b b b b b b p p 6 6 6 6 9 6 0 0 0 0 t yXpXaXaXaXaXaXdXdXdXdXaX}.}.}.}..X2.2.,.,...,.[ [ [ [ [ [ ' ' ' ' ~ ~ J ~ ~ >.m J S e b u 0 0 b 0 y y i 0 Z Z Z 0 0 & ; 0 p u n u y u n y 7 7 ; 7 7 W ] ~ ] ~ ~ b - Z Z , Z S S ;.i i ; y i y s Z y Z 7 * - ; ; ; 7 7 p p p p ; ; ; ; ; = = = ; = = = = ; ; ; ; ; ; ; 7 ; , 0.0.0.7 ; ; 7 ; ; ; ; ; ; ; ; = ; ; ; * * * = = ; ; ; = = = ",
"* - - - - - = = * = = ; ; ; - - = = - - ; ; = = ; ; ; ; ; ; ; ; ; ; ; ; ; ; ; ; ; ; ; ; ; 7 7 Z n n W W W u ~ u ~ n n y n W W * ; & * - - * & 7 W W ; y 7 W Z W i :.i y 8 y y y y 7 7 7 7 ; 7 7 7 7 7 , 0 p S M n 0 7 y y 0 ; i , p y 0 0 Z n p p n p p , Z e Z 0 p 0 b M ~ ` ' ~ ' ] [ [ [ [ ............[ (.(.(.T +X'.+X+X+XqXsXsXsXsXsXsXsXsXaXaXaXyXyXyXyX0X+ e 9 t q 0 0 0 0 0 0 0 0 0 y y p p p b b b b b b n n b b b b b b e e e e 6 e e e b e c aXaXaXaXaXaXsXsXdXdXdXaX.X}.}.}.XX,.,.[ ,.,.,.,.[ { [ [ ' [ ' ' ~ M S S J S Z e S S e > * , & * - O - , * y - p - Z & Z - W 0 ~ - ; * Z 7 0 ; 7 7 7 W { ~ ] ~ >.p i W W p W y S s i W , i s y & s * y s * - ; ; ; 7 7 i i i i ; ; ; ; ; = = = ; ; = = = ; ; ; ; ; ; ; 7 ; , 0.w. X; ; ; 7 ; ; ; ; ; ; ; ; = ; ; ; * * * = ; ; - ; ; = = ",
"* - - - - - - - - ; = ; ; ; = = = = = - ; ; = = ; ; ; ; ; ; ; ; ; ; ; ; ; ; ; ; ; ; ; ; ; 7 7 7 7 0 0 0 0 0 ; i W y * ; ; ; & * * ; * - - * ; ; - * ; ; ; & * 7 7 = = ; ; 7 7 7 7 7 7 7 7 ; ; ; ; ; ; = 7 0 y 0 7 = ; y y y y i s p p y , ; y y e , e ; ; W Z S u Z p n S J ~ ~ ~ ~ ] ' ~ ,.,.,.{ [ [ [ [ ' ' [ ....XX}..X+X+X9XaXaXaXNXBXBXNXaXaXyX0X.X.X.X6.6.-..X.X.XXXw , 6 6 6 6 0 0 0 0 0 0 0 0 0 0 0 q 0 0 0 0 0 - - - 0 p e e e e 9 >.<.>.~ 6.I .X.X.X.X.X0X0X0X0X0X0X6.,.,.>.,.6.~ >.>.' 3.' ] ~ ] >.] ] ] ~ ~ ;.S e b S S W p S W t 0 0 0 - O , > , , ; ; - , * 0 - 0 - 0 y y ; ; ; 8 y 0 y 7 7 7 p b n S u e Z Z i 0 - - ; e ;.i n ; ; y ; 7 * * * O 7 ; ; ; ; ; 7 ; ; ; 7 ; = ; ; ; = = = ; ; ; = = ; ; ; ; ; ; ; 7 , - - & - ; ; ; 7 ; ; ; ; ; ; ; ; = = ; ; * * * = = - - ; ; = = ",
"* - - * * - - - - ; ; = ; = = = = = = - ; ; = = ; ; ; ; ; ; ; ; ; ; ; ; ; ; ; ; ; ; ; 7 7 7 7 7 7 7 ; 7 0 i s y i 7 ; ; ; * * * * - ; ; ; ; ; ; ; ; ; ; ; ; ; ; ; ; ; ; ; ; ; 7 7 7 8 8 8 ; ; ; ; ; ; ; ; ; 7 7 7 ; ; 7 y & & * ; * 0 ; * & = ; , = = y 6 0 7 ; ; ; * 0 0 0 * ; * , * * O 9 * - 6 * C , b 9 c b > b e , e M , , 0 , > > @ - > > - - u m > ;.u e .X+X'.9X+X> , ; - - ; ; ; ; ; ; ; ; ; - ; ; 6 6 6 0 0 6 ; ; ; ; - t c c c c m >.6.~ ` M n Z b M m v v M c v S - * Z 0 Z & - 6 * W O - + 0 e @ @ O O * @ - * * O   0 O O @ * 9 - O * ; & * ; - y ; * - u - y , , 0 - u 7 = 7 y ; ; ; 7 7 7 = 7 7 * - - * * * 7 y = = * = & ; * ; * ; = = * * * * * = ; = ; ; ; ; ; ; ; ; ; = = = ; ; ; ; ; ; ; ; ; ; ; ; ; ; ; ; ; ; ; ; ; ; ; ; ; ; ; ; ; ; ; - * = ; ; * * * * * * - - ; ; ; = ",
"* - - * - - * - * = = ; ; ; = = - - = = ; ; ; ; ; ; ; ; ; ; ; ; ; ; ; ; ; ; ; ; ; ; ; 7 7 7 7 7 ; 7 7 7 7 Z y 7 0 ; ; ; = = ; - - - ; ; ; = = = ; ; ; ; ; ; ; ; ; ; ; ; ; ; ; 7 7 7 y y y 7 ; ; ; ; ; ; ; ; 7 7 7 7 7 y i ; ; i Z i 0 s W * i y 0 - 8 i W s y i i s Z ; Z - :.0 S Z - W W - ;.+ Z e > m , 0 0 0 0 S 0 e n p > - ~ - W > 1.W S p W ; u b - , e v .X+X+X+X9X$ 0 6 ; ; ; ; ; ; ; ; ; ; ; 7 7 7 7 7 6 0 0 6 6 6 7 7 6 t b A b b A ~ ~ J m J Z Z ~ , ~ ;.v ,.J ~ b y Z s 0 Z 0 p O 0 1.Z - p - p O q :.O ;.9 ;.W O W O p @ ;.e ;.e S , p 0 & i O S & Z i - ~ * W 0 Z s y n y ; ; s & i i 7 g 7 ; * ; * y ; * i * Z s 8 ; ; 8 y 8 y = ; ; ; = = = ; ; ; ; ; ; = ; ; ; ; ; ; ; ; = = = ; ; ; ; ; ; ; ; ; ; ; ; ; ; ; ; ; ; ; ; ; ; 7 7 ; ; ; ; = = ; ; ; ; * * = = = = * * ; ; ; ; ; = ",
"* - - * - - - - * = = ; ; ; = - ; - * = ; ; ; ; ; ; ; ; ; ; ; ; ; ; ; ; ; ; ; ; ; ; ; 7 7 7 7 7 ; 7 7 7 0 i i s y ; ; ; = = ; - * - ; - ; = = = ; ; ; ; ; ; ; ; ; ; ; ; ; ; ; 7 7 7 y y y y 7 ; ; ; ; ; ; ; 7 7 7 7 7 7 y y * y ; 0 , * 7 6 0 - ;.; = y i y y 7 i i i 7 u 0 Z * 0 y q 0 ;.- ;.p 0 y 6 Z e p e Z p u , Z , , n 0 0 - 9 0 p p , 0 Z - u W Z b e v .X+X+X+X9X$ 0 7 ; ; ; ; ; ; ; ; ; 7 7 6 7 7 7 7 6 0 0 6 6 6 6 7 6 t b A A b A J ~ J J b Z y 0 i Z Z q 9 - p - 0 , 0 - u - q b ;.0 Z - C O W Z - 0 0 0 O 9 <.0 :.+ * p * - O * 0 * * O * ; * 0 * i 6 - :.- p 0 u ; - ; 0 * ; ; ; 7 7 ; 7 7 8 y ; = ; 7 & * ; ; * ; ; ; ; 8 8 & ; 7 ; ; = = = ; ; ; ; ; ; = ; ; ; ; ; ; ; ; = = = ; ; ; ; ; ; ; ; ; ; ; ; ; ; ; ; ; ; ; ; ; ; 7 7 ; ; ; ; = = ; ; ; ; * * * = = = * * ; ; ; ; ; = ",
"* * * * = = - - = = = ; ; ; ; - ; ; ; ; ; = ; ; ; ; ; ; ; ; ; ; ; ; ; ; ; ; ; ; ; ; ; ; ; ; ; ; 7 7 7 ; 7 s p y y ; ; ; ; ; ; ; = = ; ; ; ; ; ; ; ; ; ; - - ; ; ; ; ; ; ; ; ; ; ; ; y y y i ; ; ; ; ; 7 7 7 7 7 7 7 7 7 7 y ; s W 7 W - - , ; s 0 - 7 y ; p 7 y p 7 * W - 6 W * i * Z 0 - S 0 e 9 Z t - - b , 0 , e 0 0 0 ; ; i ; * 0 p , t W 0 Z - , Z - @ e v .X.X.X9X9X1 7 6 0 ; ; ; ; 0 0 0 6 0 0 0 0 0 7 7 7 7 7 7 6 6 6 0 > e b A A A b S b n b W i s ;.0 ~ 0 q S 0 e ;.e p 0 p W e e Z p t p s ;.0 6 9 * O 0 p 0 0 * & * W * O q W 6 * W O p * s ; 7 * y 0 Z 0 p b n p - s y & Z * s & y y ; i ; ; ; 8 y = 7 i ; ; * 8 y ; * ; 8 ; y = = ; = = ; ; ; ; ; = = ; ; = ; ; ; ; ; ; ; ; ; ; ; ; ; ; ; ; ; ; ; ; ; ; ; ; ; ; ; ; ; ; ; ; ; ; ; ; ; ; ; ; ; = ; ; ; * * * * = = * * ; ; = = = = ",
"* * * * * * * ; = = ; ; ; ; ; ; ; ; ; ; ; = ; ; = = = ; ; ; ; ; ; ; ; ; ; ; ; ; ; ; ; ; ; ; ; ; ; ; ; ; ; ; ; - ; ; ; ; ; * * ; ; = ; ; ; ; ; ; ; ; ; ; ; - ; ; ; ; ; ; ; ; ; ; ; ; 0 0 0 7 ; ; ; ; ; ; 7 7 7 7 7 7 7 7 7 0 ; - ; 7 6 * * ; O - * 6 - 0 0 7 ; 0 7 7 * - 6 y * * y * O * O * * - , p * & * y ; y y 0 0 y y i ; 0 0 ; 0 * 0 * ; & * ; y 6 e p e , x B L >.6.> y 0 i - ; ; ; ; ; ; 6 6 6 0 0 0 7 7 7 7 7 7 ; 6 0 0 - , e Z Z b 0 Z Z s s y s y y ; ; ; 0 9 + q 9 * - 0 9 t - - * O - t + O O * 6 - 6 0 n ; y p * Z O 0 y O - ; ; *   * & ; ; * * * * O O 0 y 6 6 O * * 0 * * * ; = = = = ; ; ; * = = ; ; ; ; = = ; ; ; = = = = = = = = = ; ; ; ; ; = = ; ; ; ; ; ; ; ; ; ; ; ; ; ; ; ; ; ; ; ; ; 7 7 7 ; ; ; ; ; ; ; ; ; ; ; ; ; ; = ; ; ; ; = = ; ; ; * * * * = ; ; ; ; ; = = = = ",
"* * * * * * * = - ; ; ; = = = ; ; ; ; ; ; = = = ; ; = ; ; ; ; ; ; ; ; ; ; ; ; ; ; ; ; ; ; ; ; ; ; ; ; ; ; ; - - - ; ; ; ; * * ; ; ; ; ; ; ; ; ; ; ; ; ; ; ; ; ; ; ; ; ; ; ; ; ; ; ; ; ; ; ; ; ; ; ; ; ; 7 7 7 7 7 7 7 7 7 ; ; y 7 ; * 7 O * * * * - ; 7 & * = ; * * ; * * O 7 O - * - O 6 * * p O * O * ; - ; y ; ; ; * ; ; * ; * ; * ; * ; * * ; 6 0 - - - , 0 ; , e 9 , , u 0 , , ; ; ; ; ; ; 6 6 6 0 6 ; ; ; 7 7 7 ; 7 0 e 0 - - - > > * * * - 6 6 & ; - * ; ; * O 6 S 0 - O p * 9 + 0 * O - O * 9 * :.0 W O * O b * 6 ; * 0 - W * 0 0 * * & * y * 0 O * * y & 0 * y * O * * ; * y y ; ; i ; 7 ; ; ; ; ; = = = ; ; ; ; = = ; ; ; = = = = = = = = = ; = = = ; = = = = ; ; ; ; ; ; ; ; ; ; ; ; ; ; ; ; ; ; ; 7 7 7 ; ; ; ; ; ; ; ; ; ; ; ; ; ; - - - ; ; ; ; ; ; ; = * * * * ; ; ; ; = ; - - - ",
"O * * * * * * = - - - ; ; ; ; - - - - - - - ; ; - - * = ; ; ; ; ; ; ; ; ; ; ; ; ; ; ; ; ; ; ; ; ; ; ; ; - - - ; - - ; ; ; ; ; - - - ; ; ; ; ; ; ; ; ; = ; ; ; ; ; ; ; ; ; ; ; ; ; ; ; ; ; ; ; ; ; ; ; ; ; ; ; ; ; ; ; 7 7 ; ; s ; p 5 0 6 7 ; 0 7 ; * - * * * + :.* 0 y 7 - 6 & 0 6 0 O * - O O Z u - 0 * ; ; ; * 7 * 0 0 i 7 y 0 y i s 0 i * 0 Z - 6 p - Z W - y i y y n , e n W W ; ; ; ; ; ; ; , e , 0 ; ; ; ; ; ; ; ; <.b b > - - > e > e - > 9 - b W * ;.- 6 0 t I + - W * C O q p O p * :.O * - p - 6 * - Z - 7 * e = 6 * y * * 6 * * 7 O y 7 * W O i @ y O e 0 Z O p - y * * 6 7 ; * & ; * * * * = = = = = = = = = = = * * * * * * * = = = = = = * * = ; = = ; = ; ; ; ; ; ; ; ; ; ; ; ; ; ; ; 7 7 7 7 7 7 ; ; ; ; ; ; ; ; ; ; ; ; ; ; ; - ; - ; ; ; ; ; ; ; ; ; * * * ; ; ; - * - ; ; ; ",
"O O * * * * * - - - - * ; ; ; - - - - - - ; - - - - * ; ; ; ; ; ; ; ; ; ; ; ; ; ; ; 7 ; ; ; ; ; ; ; ; * * * * * * * - - = ; = - - - = ; ; ; ; ; = 7 7 7 ; ; ; ; ; ; ; ; ; ; ; ; ; ; ; ; ; ; ; ; ; ; ; ; ; ; ; ; ; ; 7 7 ; ; 7 7 - u ; - * * 0 y - 0 * - 6 s - * & * ; 7 ; - s 0 p y - - - 6 i ; O 0 - * * & ; 0 ; ; & - 0 * * & 0 * 7 7 y 0 y Z Z 0 y 0 0 p e - - 6 i s y , , , , - ; ; ; ; ; ; ; 0 e e 0 7 ; ; ; ; ; ; ; , e e 9 0 9 > b @ > * 0 W t 0 - t - p 0 0 O Z * * p 6 + p 9 t + - * O * * O 0 O 0 Z O O * 7 O 0 ; e 6 - - & 0 0 * y 7 i 7 7 0 * y - p y u & 0 - W p - Z 6 y - , Z ; s ; * * * = = * * * = * * = = = * * * ; * * * * * = = = * * * ; ; ; ; ; ; = = = ; ; ; ; ; ; ; ; ; ; ; ; 7 7 7 7 7 7 ; ; ; ; ; ; ; ; ; ; ; ; ; ; ; = ; = ; ; ; ; ; ; ; * * * * = ; ; ; * * - 7 ; ; ",
"O O * * * * * * * * * * - ; - * - - - - - - - - - - * = ; ; ; ; ; ; ; ; ; ; ; ; ; ; = ; ; ; - - * - ; * * * * * * * - - * ; = - - - ; ; ; ; ; ; ; ; * * - ; ; ; ; ; ; ; ; ; ; ; ; ; ; ; ; ; ; ; ; ; ; ; ; ; ; ; ; ; 7 7 ; ; 7 7 0 > - * 7 - - ; * y y - ; O 0 ; & * 6 & * * 6 * * y O 0 7 ;   - - O * * * - ; i ; * - 7 ; * i ; s ; ; 7 s p y ; 0 O 0 ; - 0 ; , ; 6 0 y , , , 7 7 ; ; ; ; ; ; ; ; , , , 0 ; ; ; ; ; ; ; 7 0 e e 0 0 0 9 > > 9 0 0 * - - 0 y 6 0 O 0 6 & q p O - + 6 - t @ - 0 * - s * > - + O 0 - - 7 * * y S Z O 6 O 6 - * 7 6 0 & y 6 * * * y 0 p * 0 0 + * - 6 6 u 0 - ; 0 i * * * = = = * * * = * * = = = * * * * * = * * * = = = * * * ; ; ; ; ; ; = = = = ; ; ; ; ; ; ; ; ; ; ; 7 7 7 7 7 7 ; ; ; ; ; ; ; ; ; ; ; ; ; ; ; = = = ; ; ; ; ; ; ; * * * * * = = = * * * * ; ; "
};
