/* XPM */
static const char *cDAx[] = {
/* columns rows colors chars-per-pixel */
"128 128 26 1 ",
"  c #000008",
". c #610A22",
"X c #6A0B26",
"o c #462F28",
"O c #800D2D",
"+ c #9C1138",
"@ c #AB123D",
"# c #AF123F",
"$ c #C61547",
"% c #DC174E",
"& c #845944",
"* c #EA4170",
"= c #C68661",
"- c #F8A878",
"; c #EF6C91",
": c #F2B586",
"> c #F394AF",
", c #F5A4BB",
"< c #DFD1A5",
"1 c #D7D4B2",
"2 c #E8C2A0",
"3 c #FFC5BF",
"4 c #FFDAB0",
"5 c #F8D1BA",
"6 c #FFDFEF",
"7 c #F8F8F8",
/* pixels */
"44444444222442224441111144411666333223334444444444422444222441111114411166633222333444444444422244422444111114441116633322233444",
"44444444222442224441111144411666333223334444444444422444222441111114411166633222333444444444422244422444111114441116633322233444",
"44444444222442224441111144411666333223334444444444422444222441111114411166633222333444444444422244422444111114441116633322233444",
"44444:::222::44466633222222441113334422244444444:::22:::44466333222224441113344422244444444::222:::44666333222224441133344422444",
"44444:::222::44466633222222441113334422244444444:::22:::44466333222224441113344422244444444::222:::44666333222224441133344422444",
"333::2222224444444422444333224442224444433333:::2222244444444222444332224442244444433333:::2222244444444222443332224422244444333",
"333::2222224444444422444333224442224444433333:::2222244444444222444332224442244444433333:::2222244444444222443332224422244444333",
"333::2222224444444422444333224442224444433333:::2222244444444222444332224442244444433333:::2222244444444222443332224422244444333",
"2222244444422222:::4444433311::::::33:::2222222244444222222::44444433111:::::333:::222222224444422222:::44444333111:::::333::222",
"2222244444422222:::4444433311::::::33:::2222222244444222222::44444433111:::::333:::222222224444422222:::44444333111:::::333::222",
"2222244444422222:::4444433311::::::33:::2222222244444222222::44444433111:::::333:::222222224444422222:::44444333111:::::333::222",
"33344222444443331114411144422333444114441113344422244444333114441114422233344111444113334442244444433111444114442223344411144111",
"33344222444443331114411144422333444114441113344422244444333114441114422233344111444113334442244444433111444114442223344411144111",
"22244444666443332223366644444333111441114442244444466444333223336664444433311444111442224444466644433222333664444443311144411444",
"22244444666443332223366644444333111441114442244444466444333223336664444433311444111442224444466644433222333664444443311144411444",
"22244444666443332223366644444333111441114442244444466444333223336664444433311444111442224444466644433222333664444443311144411444",
"444::33344422222:::44333333444442224422233344:::33344222222::444333334444442244422233444:::3344422222:::444333334444422244422333",
"444::33344422222:::44333333444442224422233344:::33344222222::444333334444442244422233444:::3344422222:::444333334444422244422333",
"444::33344422222:::44333333444442224422233344:::33344222222::444333334444442244422233444:::3344422222:::444333334444422244422333",
"22211:::22244:::33333444444::11122222:::44422111:::22444:::3333344444:::11122222:::44222111::222444::33333344444:::11222222::444",
"22211:::22244:::33333444444::11122222:::44422111:::22444:::3333344444:::11122222:::44222111::222444::33333344444:::11222222::444",
"44444333333::2224444466644444222:::444444444444433333:::2224444466644444222::4444444444444433333:::224444446644444422:::44444444",
"44444333333::2224444466644444222:::444444444444433333:::2224444466644444222::4444444444444433333:::224444446644444422:::44444444",
"44444333333::2224444466644444222:::444444444444433333:::2224444466644444222::4444444444444433333:::224444446644444422:::44444444",
"<<<44222:::::4444444444422233:::44466<<<444<<444222:::::4444444444422333:::44666<<<44<<<44422::::::4444444444222333::444666<<444",
"<<<44222:::::4444444444422233:::44466<<<444<<444222:::::4444444444422333:::44666<<<44<<<44422::::::4444444444222333::444666<<444",
"<<<44222:::::4444444444422233:::44466<<<444<<444222:::::4444444444422333:::44666<<<44<<<44422::::::4444444444222333::444666<<444",
"4442233333344333:::44444:::::222444<<444<<<4422233333444333::444444:::::22244<<<444<<4442223333344433:::44444::::::22444<<<44<<<",
"4442233333344333:::44444:::::222444<<444<<<4422233333444333::444444:::::22244<<<444<<4442223333344433:::44444::::::22444<<<44<<<",
"222::44444422111222::4443333333311144<<<44422:::4444422211122:::4443333333311444<<<44222:::4444422211222:::4433333333111444<<444",
"222::44444422111222::4443333333311144<<<44422:::4444422211122:::4443333333311444<<<44222:::4444422211222:::4433333333111444<<444",
"222::44444422111222::4443333333311144<<<44422:::4444422211122:::4443333333311444<<<44222:::4444422211222:::4433333333111444<<444",
":::3344444444<<<4444422233344444:::33222222::33344444444<<<4444422233444444::33322222:::33344444444<<4444442233344444:::33322222",
":::3344444444<<<4444422233344444:::33222222::33344444444<<<4444422233444444::33322222:::33344444444<<4444442233344444:::33322222",
":::3344444444<<<4444422233344444:::33222222::33344444444<<<4444422233444444::33322222:::33344444444<<4444442233344444:::33322222",
"33344444666<<444<<<1133344433333444441112223344444466<<<444<<11133344333333444441112233344444666<<<44<<<111334443333344444411222",
"33344444666<<444<<<1133344433333444441112223344444466<<<444<<11133344333333444441112233344444666<<<44<<<111334443333344444411222",
"22222<<<44444<<<11122444222::11144466444:::22222<<<44444OOOOOOOOOOOOOOOO11144666444::222222<<444444<<11122244222:::1144466644:::",
"22222<<<44444<<<11122444222::11144466444:::22222<<<44444OOOOOOOOOOOOOOOO11144666444::222222<<444444<<11122244222:::1144466644:::",
"22222<<<44444<<<11122444222::11144466444:::22222<<<OO+++$$$**;;;$$$#####OOOOO666444::222222<<444444<<11122244222:::1144466644:::",
"44444:::2223311122244333111444444444444433344444:::OO+++$$$**;;;$$$#####OOOOO44444433444444::22233311222444331114444444444444333",
"44444:::2223311122244333111444444444444433344444:::OO+++$$$**;;;$$$#####OOOOO44444433444444::22233311222444331114444444444444333",
"44444:::2223311122244333111444444444444433344OOOOOO+++++###$$***$$$##++++++OOOOOOOO33444444::22233311222444331114444444444444333",
"444444442224422244411111444116663332233344444OOOOOO+++++###$$***$$$##++++++OOOOOOOO444444444422244422444111114441116633322233444",
"444444442224422244411111444116663332233344444OOOOOO+++++###$$***$$$##++++++OOOOOOOO444444444422244422444111114441116633322233444",
"44444:::222::444666332222224411133344222444OO+++###$$$$$***;;,,,;;;;;;;;###++###+++OO444444::222:::44666333222224441133344422444",
"44444:::222::444666332222224411133344222444OO+++###$$$$$***;;,,,;;;;;;;;###++###+++OO444444::222:::44666333222224441133344422444",
"44444:::222::444666332222224411133344222OOO+++++###$$$$$;;;,,;;;$$$;;;;;>>>$$###+++++OOO444::222:::44666333222224441133344422444",
"333::22222244444444224443332244422244444OOO+++++###$$$$$;;;,,;;;$$$;;;;;>>>$$###+++++OOO:::2222244444444222443332224422244444333",
"333::22222244444444224443332244422244444OOO+++++###$$$$$;;;,,;;;$$$;;;;;>>>$$###+++++OOO:::2222244444444222443332224422244444333",
"333::22222244444444224443332244422244444+++##+++$$$$$;;;,,,;;$$$;;;;;>>>,,,**$$$+++##+++:::2222244444444222443332224422244444333",
"2222244444422222:::4444433311::::::33:::+++##+++$$$$$;;;,,,;;$$$;;;;;>>>,,,**$$$+++##+++2224444422222:::44444333111:::::333::222",
"2222244444422222:::4444433311::::::33:::+++##+++$$$$$;;;,,,;;$$$;;;;;>>>,,,**$$$+++##+++2224444422222:::44444333111:::::333::222",
"3334422244444333111441114442233344411OOO+++#####$$$**;;;,,,;;$$$$$$;;,,,;;;$$$$$#####+++OOO2244444433111444114442223344411144111",
"3334422244444333111441114442233344411OOO+++#####$$$**;;;,,,;;$$$$$$;;,,,;;;$$$$$#####+++OOO2244444433111444114442223344411144111",
"3334422244444333111441114442233344411OOO###$$;;;+++;;,,,;;;$$+++;;;;;;;;***++;;;$$$$$###OOO2244444433111444114442223344411144111",
"2224444466644333222336664444433311144OOO###$$;;;+++;;,,,;;;$$+++;;;;;;;;***++;;;$$$$$###OOO4466644433222333664444443311144411444",
"2224444466644333222336664444433311144OOO###$$;;;+++;;,,,;;;$$+++;;;;;;;;***++;;;$$$$$###OOO4466644433222333664444443311144411444",
"22244444666443332223366644444333111OO+++###$$$$$;;;$$******;;+++***$$***+++;;$$$$$$$$###+++OO66644433222333664444443311144411444",
"444::33344422222:::4433333344444222OO+++###$$$$$;;;$$******;;+++***$$***+++;;$$$$$$$$###+++OO44422222:::444333334444422244422333",
"444::33344422222:::4433333344444222OO+++###$$$$$;;;$$******;;+++***$$***+++;;$$$$$$$$###+++OO44422222:::444333334444422244422333",
"22211:::22244:::33333444444::111222OO+++oooooooo$$$**;;;$$$**$$$+++$$***;;;$$$$$oooooooo+++OO222444::33333344444:::11222222::444",
"22211:::22244:::33333444444::111222OO+++oooooooo$$$**;;;$$$**$$$+++$$***;;;$$$$$oooooooo+++OO222444::33333344444:::11222222::444",
"22211:::22244:::33333444444::111222OOooo---55555&&&oo$$$;;;$$;;;$$$**;;;***oo&&&55555---oooOO222444::33333344444:::11222222::444",
"44444333333::2224444466644444222:::OOooo---55555&&&oo$$$;;;$$;;;$$$**;;;***oo&&&55555---oooOO333:::224444446644444422:::44444444",
"44444333333::2224444466644444222:::OOooo---55555&&&oo$$$;;;$$;;;$$$**;;;***oo&&&55555---oooOO333:::224444446644444422:::44444444",
"44444333333::2224444466644444222:::oo===---5577777755ooo$$$;;$$$$$$$$$$$ooo5577777755---===oo333:::224444446644444422:::44444444",
"<<<44222:::::4444444444422233:::444oo===---5577777755ooo$$$;;$$$$$$$$$$$ooo5577777755---===oo::::::4444444444222333::444666<<444",
"<<<44222:::::4444444444422233:::444oo===---5577777755ooo$$$;;$$$$$$$$$$$ooo5577777755---===oo::::::4444444444222333::444666<<444",
"4442233333344333:::44444:::::222444oo===-----55577777555&&&oo;;;$$$oo&&&55577777555-----===oo33344433:::44444::::::22444<<<44<<<",
"4442233333344333:::44444:::::222444oo===-----55577777555&&&oo;;;$$$oo&&&55577777555-----===oo33344433:::44444::::::22444<<<44<<<",
"4442233333344333:::44444:::::222...OOooo===-----   77555555--oooooo--55555577   -----===oooOO...44433:::44444::::::22444<<<44<<<",
"222::44444422111222::44433333333...OOooo===-----   77555555--oooooo--55555577   -----===oooOO...22211222:::4433333333111444<<444",
"222::44444422111222::44433333333...OOooo===-----   77555555--oooooo--55555577   -----===oooOO...22211222:::4433333333111444<<444",
"222::44444422111222::44433333333...++###ooo&&======-----&&&oo;;;$$$oo&&&-----======&&ooo###++...22211222:::4433333333111444<<444",
":::3344444444<<<4444422233344444...++###ooo&&======-----&&&oo;;;$$$oo&&&-----======&&ooo###++...444<<4444442233344444:::33322222",
":::3344444444<<<4444422233344444...++###ooo&&======-----&&&oo;;;$$$oo&&&-----======&&ooo###++...444<<4444442233344444:::33322222",
"33344444666<<444<<<1133344433333XXX++###***;;ooooooooooo;;;;;******;;$$$ooooooooooo**$$$###++XXX<<<44<<<111334443333344444411222",
"33344444666<<444<<<1133344433333XXX++###***;;ooooooooooo;;;;;******;;$$$ooooooooooo**$$$###++XXX<<<44<<<111334443333344444411222",
"33344444666<<444<<<1133344433...OOO##$$$   **$$$###********$$$$$$$$**;;;;;;;;$$$***;;,,,$$$##OOO...44<<<111334443333344444411222",
"22222<<<44444<<<11122444222::...OOO##$$$   **$$$###********$$$$$$$$**;;;;;;;;$$$***;;,,,$$$##OOO...<<11122244222:::1144466644:::",
"22222<<<44444<<<11122444222::...OOO##$$$   **$$$###********$$$$$$$$**;;;;;;;;$$$***;;,,,$$$##OOO...<<11122244222:::1144466644:::",
"22222<<<44444<<<11122444222..OOO+++$$   ,,,          ,,,   ,,   ,,,$$$$$$$$$$***$$$**;;;,,,$$+++OOO..11122244222:::1144466644:::",
"44444:::2223311122244333111..OOO+++$$   ,,,          ,,,   ,,   ,,,$$$$$$$$$$***$$$**;;;,,,$$+++OOO..222444331114444444444444333",
"44444:::2223311122244333111..OOO+++$$   ,,,          ,,,   ,,   ,,,$$$$$$$$$$***$$$**;;;,,,$$+++OOO..222444331114444444444444333",
"444444442224422244411111444.....###,,        $$$;;;**   +++##$$$           $$$$$$$$$$   ;;;,,###.....444111114441116633322233444",
"444444442224422244411111444.....###,,        $$$;;;**   +++##$$$           $$$$$$$$$$   ;;;,,###.....444111114441116633322233444",
"444444442224422244411111...OO+++;;;;;   $$$**@@@***;;***.....OOO+++,,                ,,,   ;;;;;+++OO...111114441116633322233444",
"44444:::222::44466633222...OO+++;;;;;   $$$**@@@***;;***.....OOO+++,,                ,,,   ;;;;;+++OO...333222224441133344422444",
"44444:::222::44466633222...OO+++;;;;;   $$$**@@@***;;***.....OOO+++,,                ,,,   ;;;;;+++OO...333222224441133344422444",
"44444:::222::44466633...OOO++$$$,,,@@$$$%%%,,%%%@@@**;;;,,,;;***...$$   $$$$$******        ;;,,,$$$++OOO...222224441133344422444",
"333::2222224444444422...OOO++$$$,,,@@$$$%%%,,%%%@@@**;;;,,,;;***...$$   $$$$$******        ;;,,,$$$++OOO...443332224422244444333",
"333::2222224444444422...OOO++$$$,,,@@$$$%%%,,%%%@@@**;;;,,,;;***...$$   $$$$$******        ;;,,,$$$++OOO...443332224422244444333",
"2222244444422222:::44444...##;;;;;;@@%%%;;;,,***@@@$$$$$;;;,,;;;***..+++***++@@@$$$;;***   **;;;;;;##...44444333111:::::333::222",
"2222244444422222:::44444...##;;;;;;@@%%%;;;,,***@@@$$$$$;;;,,;;;***..+++***++@@@$$$;;***   **;;;;;;##...44444333111:::::333::222",
"2222244444422222:::44444333..###;;;@@%%%;;;,,***@@@$$$$$;;;,,;;;***..+++***++@@@$$$;;***   **;;;###..:::44444333111:::::333::222",
"333442224444433311144111444..###;;;@@%%%;;;,,***@@@$$$$$;;;,,;;;***..+++***++@@@$$$;;***   **;;;###..111444114442223344411144111",
"333442224444433311144111444..###;;;@@%%%;;;,,***@@@$$$$$;;;,,;;;***..+++***++@@@$$$;;***   **;;;###..111444114442223344411144111",
"333442224444433311144111...XX***OOO..;;;$$$;;***;;;$$@@@;;;$$,,,;;;..++++++@@$$$$$$++$$$;;;..OOO***XX...444114442223344411144111",
"222444446664433322233666...XX***OOO..;;;$$$;;***;;;$$@@@;;;$$,,,;;;..++++++@@$$$$$$++$$$;;;..OOO***XX...333664444443311144411444",
"222444446664433322233666...XX***OOO..;;;$$$;;***;;;$$@@@;;;$$,,,;;;..++++++@@$$$$$$++$$$;;;..OOO***XX...333664444443311144411444",
"444::33344422222:::44......++OOO...,,@@@$$$$$###,,,$$+++;;;$$;;;***..+++***$$;;;$$$**+++$$$,,...OOO++......333334444422244422333",
"444::33344422222:::44......++OOO...,,@@@$$$$$###,,,$$+++;;;$$;;;***..+++***$$;;;$$$**+++$$$,,...OOO++......333334444422244422333",
"444::33344422222:::..++++++$$...***$$+++###$$...;;;$$$$$***$$;;;...++$$$***$$;;;$$$;;***...$$***...$$++++++..3334444422244422333",
"22211:::22244:::333..++++++$$...***$$+++###$$...;;;$$$$$***$$;;;...++$$$***$$;;;$$$;;***...$$***...$$++++++..444:::11222222::444",
"22211:::22244:::333..++++++$$...***$$+++###$$...;;;$$$$$***$$;;;...++$$$***$$;;;$$$;;***...$$***...$$++++++..444:::11222222::444",
"22211:::22244:::33333........$$$$$$;;$$$###$$+++$$$$$$$$$$$++***...++;;;;;;**$$$,,,;;$$$***;;$$$$$$........44444:::11222222::444",
"44444333333::22244444........$$$$$$;;$$$###$$+++$$$$$$$$$$$++***...++;;;;;;**$$$,,,;;$$$***;;$$$$$$........6644444422:::44444444",
"44444333333::22244444666444OO***$$$+++++$$$..+++$$$$$++++++;;$$$...##,,,;;;**$$$;;;$$$$$###++$$$***..4444446644444422:::44444444",
"<<<44222:::::44444444444222OO***$$$+++++$$$..+++$$$$$++++++;;$$$...##,,,;;;**$$$;;;$$$$$###++$$$***..44444444222333::444666<<444",
"<<<44222:::::44444444444222OO***$$$+++++$$$..+++$$$$$++++++;;$$$...##,,,;;;**$$$;;;$$$$$###++$$$***..44444444222333::444666<<444",
"<<<44222:::::44444444444...;;$$$###..+++$$$..***+++##$$$+++;;$$$...##;;;,,,;;***$$$$$$$$+++..###$$$;;...44444222333::444666<<444",
"4442233333344333:::44444...;;$$$###..+++$$$..***+++##$$$+++;;$$$...##;;;,,,;;***$$$$$$$$+++..###$$$;;...44444::::::22444<<<44<<<",
"4442233333344333:::44444...;;$$$###..+++$$$..***+++##$$$+++;;$$$...##;;;,,,;;***$$$$$$$$+++..###$$$;;...44444::::::22444<<<44<<<",
"4442233333344333:::44...***$$###...++......++;;;...++$$$;;;**$$$...**;;;$$$$$;;;***++$$$###++...###$$***...44::::::22444<<<44<<<",
"222::44444422111222::...***$$###...++......++;;;...++$$$;;;**$$$...**;;;$$$$$;;;***++$$$###++...###$$***...4433333333111444<<444",
"222::44444422111222::444........+++##$$$***;;$$$+++.....***$$...###++...+++##$$$$$$##++++++##+++........:::4433333333111444<<444",
":::3344444444<<<44444222........+++##$$$***;;$$$+++.....***$$...###++...+++##$$$$$$##++++++##+++........4442233344444:::33322222",
":::3344444444<<<44444222........+++##$$$***;;$$$+++.....***$$...###++...+++##$$$$$$##++++++##+++........4442233344444:::33322222",
":::3344444444<<<4444422233344444.....###+++OOOOO###+++++.....###$$$##...........+++$$###........444<<4444442233344444:::33322222",
"33344444666<<444<<<1133344433333.....###+++OOOOO###+++++.....###$$$##...........+++$$###........<<<44<<<111334443333344444411222",
"33344444666<<444<<<1133344433333.....###+++OOOOO###+++++.....###$$$##...........+++$$###........<<<44<<<111334443333344444411222",
"33344444666<<444<<<113334443333344444......33444........444<<........33333344444........44444666<<<44<<<111334443333344444411222",
"22222<<<44444<<<11122444222::11144466......22222........<<<11........:::11144666........222<<444444<<11122244222:::1144466644:::",
"22222<<<44444<<<11122444222::11144466444:::22222<<<44444<<<1122244422:::11144666444::222222<<444444<<11122244222:::1144466644:::",
"44444:::2223311122244333111444444444444433344444:::2233311122444333114444444444444433444444::22233311222444331114444444444444333",
"44444:::2223311122244333111444444444444433344444:::2233311122444333114444444444444433444444::22233311222444331114444444444444333",
"44444:::2223311122244333111444444444444433344444:::2233311122444333114444444444444433444444::22233311222444331114444444444444333"
};
