/* XPM */
static char *_cdb35bba16045f7fc58e31ca195ad31YUNgPoQvN5ORBkz9[] = {
/* columns rows colors chars-per-pixel */
"128 128 27 1 ",
"  c #000008",
". c #610A22",
"X c #6A0B26",
"o c #462F28",
"O c #800D2D",
"+ c #9C1138",
"@ c #AB123D",
"# c #AF123F",
"$ c #C61547",
"% c #DC174E",
"& c #845944",
"* c #EA4170",
"= c #C68661",
"- c #F8A878",
"; c #EF6C91",
": c #F8AB8E",
"> c #F2B586",
", c #F394AF",
"< c #F5A4BB",
"1 c #DFD1A5",
"2 c #D7D4B2",
"3 c #E8C2A0",
"4 c #FFC5BF",
"5 c #FFDAB0",
"6 c #F8D1BA",
"7 c #FFDFEF",
"8 c #F8F8F8",
/* pixels */
"55555555333553335552222255522777444334445555555555533555333552222225522277744333444555555555533355533555222225552227744433344555",
"55555555333553335552222255522777444334445555555555533555333552222225522277744333444555555555533355533555222225552227744433344555",
"55555555333553335552222255522777444334445555555555533555333552222225522277744333444555555555533355533555222225552227744433344555",
"55555>>>333>>55577744333333552224445533355555555>>>33>>>55577444333335552224455533355555555>>333>>>55777444333335552244455533555",
"55555>>>333>>55577744333333552224445533355555555>>>33>>>55577444333335552224455533355555555>>333>>>55777444333335552244455533555",
"444>>3333335555555533555444335553335555544444>>>3333355555555333555443335553355555544444>>>3333355555555333554443335533355555444",
"444>>3333335555555533555444335553335555544444>>>3333355555555333555443335553355555544444>>>3333355555555333554443335533355555444",
"444>>3333335555555533555444335553335555544444>>>3333355555555333555443335553355555544444>>>3333355555555333554443335533355555444",
"3333355555533333>>>5555544422>>>>>>44>>>3333333355555333333>>55555544222>>>>>444>>>333333335555533333>>>55555444222>>>>>444>>333",
"3333355555533333>>>5555544422>>>>>>44>>>3333333355555333333>>55555544222>>>>>444>>>333333335555533333>>>55555444222>>>>>444>>333",
"3333355555533333>>>5555544422>>>>>>44>>>3333333355555333333>>55555544222>>>>>444>>>333333335555533333>>>55555444222>>>>>444>>333",
"44455333555554442225522255533444555225552224455533355555444225552225533344455222555224445553355555544222555225553334455522255222",
"44455333555554442225522255533444555225552224455533355555444225552225533344455222555224445553355555544222555225553334455522255222",
"33355555777554443334477755555444222552225553355555577555444334447775555544422555222553335555577755544333444775555554422255522555",
"33355555777554443334477755555444222552225553355555577555444334447775555544422555222553335555577755544333444775555554422255522555",
"33355555777554443334477755555444222552225553355555577555444334447775555544422555222553335555577755544333444775555554422255522555",
"555>>44455533333>>>55444444555553335533344455>>>44455333333>>555444445555553355533344555>>>4455533333>>>555444445555533355533444",
"555>>44455533333>>>55444444555553335533344455>>>44455333333>>555444445555553355533344555>>>4455533333>>>555444445555533355533444",
"555>>44455533333>>>55444444555553335533344455>>>44455333333>>555444445555553355533344555>>>4455533333>>>555444445555533355533444",
"33322>>>33355>>>44444555555>>22233333>>>55533222>>>33555>>>4444455555>>>22233333>>>55333222>>333555>>44444455555>>>22333333>>555",
"33322>>>33355>>>44444555555>>22233333>>>55533222>>>33555>>>4444455555>>>22233333>>>55333222>>333555>>44444455555>>>22333333>>555",
"55555444444>>3335555577755555333>>>555555555555544444>>>3335555577755555333>>5555555555555544444>>>335555557755555533>>>55555555",
"55555444444>>3335555577755555333>>>555555555555544444>>>3335555577755555333>>5555555555555544444>>>335555557755555533>>>55555555",
"55555444444>>3335555577755555333>>>555555555555544444>>>OOOOOOOOOOOOOOOO333>>5555555555555544444>>>335555557755555533>>>55555555",
"11155333>>>>>5555555555533344>>>5557711155511555333>>>>>OOOOOOOOOOOOOOOO>>>557771115511155533>>>>>>5555555555333444>>55577711555",
"11155333>>>>>5555555555533344>>>5557711155511555333>>>>>OOOOOOOOOOOOOOOO>>>557771115511155533>>>>>>5555555555333444>>55577711555",
"11155333>>>>>5555555555533344>>>5557711155511555333OO+++$$$**;;;$$$#####OOOOO7771115511155533>>>>>>5555555555333444>>55577711555",
"5553344444455444>>>55555>>>>>3335551155511155333444OO+++$$$**;;;$$$#####OOOOO111555115553334444455544>>>55555>>>>>>3355511155111",
"5553344444455444>>>55555>>>>>3335551155511155333444OO+++$$$**;;;$$$#####OOOOO111555115553334444455544>>>55555>>>>>>3355511155111",
"333>>55555533222333>>555444444442225511155533OOOOOO+++++###$$***$$$##++++++OOOOOOOO55333>>>5555533322333>>>554444444422255511555",
"333>>55555533222333>>555444444442225511155533OOOOOO+++++###$$***$$$##++++++OOOOOOOO55333>>>5555533322333>>>554444444422255511555",
"333>>55555533222333>>5554444444422255111555OO+++###$$$$$***;;<<<;;;;;;;;###++###+++OO333>>>5555533322333>>>554444444422255511555",
">>>44555555551115555533344455555>>>44333333OO+++###$$$$$***;;<<<;;;;;;;;###++###+++OO>>>44455555555115555553344455555>>>44433333",
">>>44555555551115555533344455555>>>44333333OO+++###$$$$$***;;<<<;;;;;;;;###++###+++OO>>>44455555555115555553344455555>>>44433333",
">>>44555555551115555533344455555>>>44333OOO+++++###$$$$$;;;<<;;;$$$;;;;;,,,$$###+++++OOO44455555555115555553344455555>>>44433333",
"4445555577711555111224445554444455555222OOO+++++###$$$$$;;;<<;;;$$$;;;;;,,,$$###+++++OOO5555577711155111222445554444455555522333",
"4445555577711555111224445554444455555222OOO+++++###$$$$$;;;<<;;;$$$;;;;;,,,$$###+++++OOO5555577711155111222445554444455555522333",
"333331115555511122233555333>>22255577555+++##+++$$$$$;;;<<<;;$$$;;;;;,,,<<<**$$$+++##+++333115555551122233355333>>>2255577755>>>",
"333331115555511122233555333>>22255577555+++##+++$$$$$;;;<<<;;$$$;;;;;,,,<<<**$$$+++##+++333115555551122233355333>>>2255577755>>>",
"333331115555511122233555333>>22255577OOO+++#####$$$**;;;<<<;;$$$$$$;;<<<;;;$$$$$#####+++OOO115555551122233355333>>>2255577755>>>",
"55555>>>33344222333554442225555555555OOO+++#####$$$**;;;<<<;;$$$$$$;;<<<;;;$$$$$#####+++OOO>>33344422333555442225555555555555444",
"55555>>>33344222333554442225555555555OOO+++#####$$$**;;;<<<;;$$$$$$;;<<<;;;$$$$$#####+++OOO>>33344422333555442225555555555555444",
"55555>>>33344222333554442225555555555OOO###$$;;;+++;;<<<;;;$$+++;;;;;;;;***++;;;$$$$$###OOO>>33344422333555442225555555555555444",
"5555555533355333555222225552277744433OOO###$$;;;+++;;<<<;;;$$+++;;;;;;;;***++;;;$$$$$###OOO5533355533555222225552227744433344555",
"5555555533355333555222225552277744433OOO###$$;;;+++;;<<<;;;$$+++;;;;;;;;***++;;;$$$$$###OOO5533355533555222225552227744433344555",
"55555>>>333>>5557774433333355222444OO+++###$$$$$;;;$$******;;+++***$$***+++;;$$$$$$$$###+++OO333>>>55777444333335552244455533555",
"55555>>>333>>5557774433333355222444OO+++###$$$$$;;;$$******;;+++***$$***+++;;$$$$$$$$###+++OO333>>>55777444333335552244455533555",
"55555>>>333>>5557774433333355222444OO+++oooooooo$$$**;;;$$$**$$$+++$$***;;;$$$$$oooooooo+++OO333>>>55777444333335552244455533555",
"444>>333333555555553355544433555333OO+++oooooooo$$$**;;;$$$**$$$+++$$***;;;$$$$$oooooooo+++OO33355555555333554443335533355555444",
"444>>333333555555553355544433555333OO+++oooooooo$$$**;;;$$$**$$$+++$$***;;;$$$$$oooooooo+++OO33355555555333554443335533355555444",
"444>>333333555555553355544433555333OOooo---66666&&&oo$$$;;;$$;;;$$$**;;;***oo&&&66666---oooOO33355555555333554443335533355555444",
"3333355555533333>>>5555544422>>>>>>OOooo---66666&&&oo$$$;;;$$;;;$$$**;;;***oo&&&66666---oooOO55533333>>>55555444222>>>>>444>>333",
"3333355555533333>>>5555544422>>>>>>OOooo---66666&&&oo$$$;;;$$;;;$$$**;;;***oo&&&66666---oooOO55533333>>>55555444222>>>>>444>>333",
"44455333555554442225522255533444555oo===---6688888866ooo$$$;;$$$$$$$$$$$ooo6688888866---===oo55555544222555225553334455522255222",
"44455333555554442225522255533444555oo===---6688888866ooo$$$;;$$$$$$$$$$$ooo6688888866---===oo55555544222555225553334455522255222",
"44455333555554442225522255533444555oo===-----66688888666&&&oo;;;$$$oo&&&66688888666-----===oo55555544222555225553334455522255222",
"33355555777554443334477755555444222oo===-----66688888666&&&oo;;;$$$oo&&&66688888666-----===oo77755544333444775555554422255522555",
"33355555777554443334477755555444222oo===-----66688888666&&&oo;;;$$$oo&&&66688888666-----===oo77755544333444775555554422255522555",
"33355555777554443334477755555444222..ooo===-----   88666666--oooooo--66666688   -----===ooo..77755544333444775555554422255522555",
"555>>44455533333>>>5544444455555333..ooo===-----   88666666--oooooo--66666688   -----===ooo..55533333>>>555444445555533355533444",
"555>>44455533333>>>5544444455555333..ooo===-----   88666666--oooooo--66666688   -----===ooo..55533333>>>555444445555533355533444",
"33322>>>33355>>>44444555555>>222333..###ooo&&======-----&&&oo;;;$$$oo&&&-----======&&ooo###..333555>>44444455555>>>22333333>>555",
"33322>>>33355>>>44444555555>>222333..###ooo&&======-----&&&oo;;;$$$oo&&&-----======&&ooo###..333555>>44444455555>>>22333333>>555",
"33322>>>33355>>>44444555555>>222333..###***;;ooooooooooo;;;;;******;;$$$ooooooooooo**$$$###..333555>>44444455555>>>22333333>>555",
"55555444444>>3335555577755555333>>>..###***;;ooooooooooo;;;;;******;;$$$ooooooooooo**$$$###..444>>>335555557755555533>>>55555555",
"55555444444>>3335555577755555333>>>..###***;;ooooooooooo;;;;;******;;$$$ooooooooooo**$$$###..444>>>335555557755555533>>>55555555",
"55555444444>>3335555577755555333>>>..$$$   **$$$###********$$$$$$$$**;;;;;;;;$$$***;;<<<$$$..444>>>335555557755555533>>>55555555",
"11155333>>>>>5555555555533344>>>555..$$$   **$$$###********$$$$$$$$**;;;;;;;;$$$***;;<<<$$$..>>>>>>5555555555333444>>55577711555",
"11155333>>>>>5555555555533344>>>555..$$$   **$$$###********$$$$$$$$**;;;;;;;;$$$***;;<<<$$$..>>>>>>5555555555333444>>55577711555",
"5553344444455444>>>55555>>>>>333555..                              $$$$$$$$$$***$$$**;;;<<<..44455544>>>55555>>>>>>3355511155111",
"5553344444455444>>>55555>>>>>333555..                              $$$$$$$$$$***$$$**;;;<<<..44455544>>>55555>>>>>>3355511155111",
"5553344444455444>>>55555>>>>>333555..   <<<        <<        <<<           $$$$$$$$$$   ;;;..44455544>>>55555>>>>>>3355511155111",
"333>>55555533222333>>55544444444222..   <<<        <<        <<<           $$$$$$$$$$   ;;;..55533322333>>>554444444422255511555",
"333>>55555533222333>>55544444444222..   <<<        <<        <<<           $$$$$$$$$$   ;;;..55533322333>>>554444444422255511555",
"333>>55555533222333>>55544444444222XX   :::  <<<   ::   <<<  :::        <<<          <<<   XX55533322333>>>554444444422255511555",
">>>44555555551115555533344455555>>>XX   :::  <<<   ::   <<<  :::        <<<          <<<   XX555555115555553344455555>>>44433333",
">>>44555555551115555533344455555>>>XX   :::  <<<   ::   <<<  :::        <<<          <<<   XX555555115555553344455555>>>44433333",
"44455555777115551112244455544444555          :::        :::        <<   :::  <<<     :::   OO77711155111222445554444455555522333",
"44455555777115551112244455544444555          :::        :::        <<   :::  <<<     :::   OO77711155111222445554444455555522333",
"44455555777115551112244455544444...                                ::        :::   <<      ++...11155111222445554444455555522333",
"333331115555511122233555333>>222...                                ::        :::   <<      ++...5551122233355333>>>2255577755>>>",
"333331115555511122233555333>>222...                                ::        :::   <<      ++...5551122233355333>>>2255577755>>>",
"333331115555511122233555333>>222OOO                                                ::        OOO...1122233355333>>>2255577755>>>",
"55555>>>333442223335544422255555OOO                                                ::        OOO...22333555442225555555555555444",
"55555>>>333442223335544422255555OOO                                                ::        OOO...22333555442225555555555555444",
"55555555333553335552222255522777...             :::                                          ......33555222225552227744433344555",
"55555555333553335552222255522777...             :::                                          ......33555222225552227744433344555",
"55555555333553335552222255522...+++;;      ::   <<<        ::                                +++...33555222225552227744433344555",
"55555>>>333>>5557774433333355...+++;;      ::   <<<        ::                                +++...55777444333335552244455533555",
"55555>>>333>>5557774433333355...+++;;      ::   <<<        ::                                +++...55777444333335552244455533555",
"55555>>>333>>55577744333333..OOO$$$;;      <<        :::   <<        :::        :::          $$$OOO..777444333335552244455533555",
"444>>3333335555555533555444..OOO$$$;;      <<        :::   <<        :::        :::          $$$OOO..555333554443335533355555444",
"444>>3333335555555533555444..OOO$$$;;      <<        :::   <<        :::        :::          $$$OOO..555333554443335533355555444",
"3333355555533333>>>5555544422...;;;;;@@@             <<<        :::  <<<   ::   <<<  :::   ;;;;;...33>>>55555444222>>>>>444>>333",
"3333355555533333>>>5555544422...;;;;;@@@             <<<        :::  <<<   ::   <<<  :::   ;;;;;...33>>>55555444222>>>>>444>>333",
"3333355555533333>>>5555544422...###;;@@@%%%  ***                <<<        <<        <<<   ;;###...33>>>55555444222>>>>>444>>333",
"44455333555554442225522255533...###;;@@@%%%  ***                <<<        <<        <<<   ;;###...44222555225553334455522255222",
"44455333555554442225522255533...###;;@@@%%%  ***                <<<        <<        <<<   ;;###...44222555225553334455522255222",
"44455333555554442225522255533...***OO...;;;$$;;;***$$   ;;;                     $$$     ;;;OO***XXX44222555225553334455522255222",
"33355555777554443334477755555...***OO...;;;$$;;;***$$   ;;;                     $$$     ;;;OO***XXX44333444775555554422255522555",
"33355555777554443334477755555...***OO...;;;$$;;;***$$   ;;;                     $$$     ;;;OO***XXX44333444775555554422255522555",
"555>>44455533333>>>55444444..+++OOO..<<<@@@$$$$$###<<+++;;;$$;;;   ..      $$;;;***++$$$<<<..OOO+++..>>>555444445555533355533444",
"555>>44455533333>>>55444444..+++OOO..<<<@@@$$$$$###<<+++;;;$$;;;   ..      $$;;;***++$$$<<<..OOO+++..>>>555444445555533355533444",
"555>>44455533333>>>55444...+++++...**$$$+++##$$$...;;$$$***$$;;;...++$$$***$$;;;;;;**...$$$**...$$$++...555444445555533355533444",
"33322>>>33355>>>44444555...+++++...**$$$+++##$$$...;;$$$***$$;;;...++$$$***$$;;;;;;**...$$$**...$$$++...44455555>>>22333333>>555",
"33322>>>33355>>>44444555...+++++...**$$$+++##$$$...;;$$$***$$;;;...++$$$***$$;;;;;;**...$$$**...$$$++...44455555>>>22333333>>555",
"33322>>>33355>>>44444555555.....$$$$$;;;$$$##$$$+++$$$$$$$$++***...++;;;;;;**$$$<<<$$***;;;$$$$$.....44444455555>>>22333333>>555",
"55555444444>>33355555777555.....$$$$$;;;$$$##$$$+++$$$$$$$$++***...++;;;;;;**$$$<<<$$***;;;$$$$$.....5555557755555533>>>55555555",
"55555444444>>3335555577755555333***$$++++++$$...+++$$$$$+++;;$$$...##<<<;;;**$$$$$$$$###+++$$***...335555557755555533>>>55555555",
"11155333>>>>>5555555555533344>>>***$$++++++$$...+++$$$$$+++;;$$$...##<<<;;;**$$$$$$$$###+++$$***...5555555555333444>>55577711555",
"11155333>>>>>5555555555533344>>>***$$++++++$$...+++$$$$$+++;;$$$...##<<<;;;**$$$$$$$$###+++$$***...5555555555333444>>55577711555",
"11155333>>>>>5555555555533344...$$$##...+++$$...***++###+++;;$$$...##;;;<<<;;$$$$$$$$+++...##$$$...5555555555333444>>55577711555",
"5553344444455444>>>55555>>>>>...$$$##...+++$$...***++###+++;;$$$...##;;;<<<;;$$$$$$$$+++...##$$$...44>>>55555>>>>>>3355511155111",
"5553344444455444>>>55555>>>>>...$$$##...+++$$...***++###+++;;$$$...##;;;<<<;;$$$$$$$$+++...##$$$...44>>>55555>>>>>>3355511155111",
"5553344444455444>>>55555>>>..***###..+++.....+++;;;..+++;;;**$$$...**;;;$$$$$***+++$$###+++..###***..>>>55555>>>>>>3355511155111",
"333>>55555533222333>>555444..***###..+++.....+++;;;..+++;;;**$$$...**;;;$$$$$***+++$$###+++..###***..333>>>554444444422255511555",
"333>>55555533222333>>55544444......++###$$$**;;;$$$++...***$$...###++...+++##$$$###+++++###++......22333>>>554444444422255511555",
">>>44555555551115555533344455......++###$$$**;;;$$$++...***$$...###++...+++##$$$###+++++###++......115555553344455555>>>44433333",
">>>44555555551115555533344455......++###$$$**;;;$$$++...***$$...###++...+++##$$$###+++++###++......115555553344455555>>>44433333",
">>>44555555551115555533344455555>>>.....###++OOOOOO##+++.....###$$$##........+++$$$##........555555115555553344455555>>>44433333",
"44455555777115551112244455544444555.....###++OOOOOO##+++.....###$$$##........+++$$$##........77711155111222445554444455555522333",
"44455555777115551112244455544444555.....###++OOOOOO##+++.....###$$$##........+++$$$##........77711155111222445554444455555522333",
"4445555577711555111224445554444455555222.....555555.....55511........44444455........4445555577711155111222445554444455555522333",
"333331115555511122233555333>>22255577555.....333111.....11122........>>>22255........333333115555551122233355333>>>2255577755>>>",
"333331115555511122233555333>>22255577555>>>33333111555551112233355533>>>22255777555>>333333115555551122233355333>>>2255577755>>>",
"55555>>>3334422233355444222555555555555544455555>>>3344422233555444225555555555555544555555>>33344422333555442225555555555555444",
"55555>>>3334422233355444222555555555555544455555>>>3344422233555444225555555555555544555555>>33344422333555442225555555555555444",
"55555>>>3334422233355444222555555555555544455555>>>3344422233555444225555555555555544555555>>33344422333555442225555555555555444"
};
