/* XPM */
static char *a637fbc7066144dc89db9a556d4a0b60z7DwYj5We8JWwcr5[] = {
/* columns rows colors chars-per-pixel */
"128 128 26 1 ",
"  c #000008",
". c #610A22",
"X c #6A0B26",
"o c #462F28",
"O c #800D2D",
"+ c #9C1138",
"@ c #AB123D",
"# c #AF123F",
"$ c #C61547",
"% c #DC174E",
"& c #845944",
"* c #EA4170",
"= c #C68661",
"- c #F8A878",
"; c #EF6C91",
": c #F2B586",
"> c #F394AF",
", c #F5A4BB",
"< c #DFD1A5",
"1 c #D7D4B2",
"2 c #E8C2A0",
"3 c #FFC5BF",
"4 c #FFDAB0",
"5 c #F8D1BA",
"6 c #FFDFEF",
"7 c #F8F8F8",
/* pixels */
"44444444222442224441111144411666333223334444444444422444222441111114411166633222333444444444422244422444111114441116633322233444",
"44444444222442224441111144411666333223334444444444422444222441111114411166633222333444444444422244422444111114441116633322233444",
"44444444222442224441111144411666333223334444444444422444222441111114411166633222333444444444422244422444111114441116633322233444",
"44444:::222::44466633222222441113334422244444444:::22:::44466333222224441113344422244444444::222:::44666333222224441133344422444",
"44444:::222::44466633222222441113334422244444444:::22:::44466333222224441113344422244444444::222:::44666333222224441133344422444",
"333::2222224444444422444333224442224444433333:::2222244444444222444332224442244444433333:::2222244444444222443332224422244444333",
"333::2222224444444422444333224442224444433333:::2222244444444222444332224442244444433333:::2222244444444222443332224422244444333",
"333::2222224444444422444333224442224444433333:::2222244444444222444332224442244444433333:::2222244444444222443332224422244444333",
"2222244444422222:::4444433311::::::33:::2222222244444222222::44444433111:::::333:::222222224444422222:::44444333111:::::333::222",
"2222244444422222:::4444433311::::::33:::2222222244444222222::44444433111:::::333:::222222224444422222:::44444333111:::::333::222",
"2222244444422222:::4444433311::::::33:::2222222244444222222::44444433111:::::333:::222222224444422222:::44444333111:::::333::222",
"33344222444443331114411144422333444114441113344422244444333114441114422233344111444113334442244444433111444114442223344411144111",
"33344222444443331114411144422333444114441113344422244444333114441114422233344111444113334442244444433111444114442223344411144111",
"22244444666443332223366644444333111441114442244444466444333223336664444433311444111442224444466644433222333664444443311144411444",
"22244444666443332223366644444333111441114442244444466444333223336664444433311444111442224444466644433222333664444443311144411444",
"22244444666443332223366644444333111441114442244444466444333223336664444433311444111442224444466644433222333664444443311144411444",
"444::33344422222:::44333333444442224422233344:::33344222222::444333334444442244422233444:::3344422222:::444333334444422244422333",
"444::33344422222:::44333333444442224422233344:::33344222222::444333334444442244422233444:::3344422222:::444333334444422244422333",
"444::33344422222:::44333333444442224422233344:::33344222222::444333334444442244422233444:::3344422222:::444333334444422244422333",
"22211:::22244:::33333444444::11122222:::44422111:::22444:::3333344444:::11122222:::44222111::222444::33333344444:::11222222::444",
"22211:::22244:::33333444444::11122222:::44422111:::22444:::3333344444:::11122222:::44222111::222444::33333344444:::11222222::444",
"44444333333::2224444466644444222:::444444444444433333:::2224444466644444222::4444444444444433333:::224444446644444422:::44444444",
"44444333333::2224444466644444222:::444444444444433333:::2224444466644444222::4444444444444433333:::224444446644444422:::44444444",
"44444333333::2224444466644444222:::444444444444433333:::2224444466644444222::4444444444444433333:::224444446644444422:::44444444",
"<<<44222:::::4444444444422233:::44466<<<444<<444222:::::4444444444422333:::44666<<<44<<<44422::::::4444444444222333::444666<<444",
"<<<44222:::::4444444444422233:::44466<<<444<<444222:::::4444444444422333:::44666<<<44<<<44422::::::4444444444222333::444666<<444",
"<<<44222:::::4444444444422233:::44466<<<444<<444222:::::4444444444422333:::44666<<<44<<<44422::::::4444444444222333::444666<<444",
"4442233333344333:::44444:::::222444<<444<<<4422233333444333::444444:::::22244<<<444<<4442223333344433:::44444::::::22444<<<44<<<",
"4442233333344333:::44444:::::222444<<444<<<4422233333444333::444444:::::22244<<<444<<4442223333344433:::44444::::::22444<<<44<<<",
"222::44444422111222::4443333333311144<<<44422:::4444422211122:::4443333333311444<<<44222:::4444422211222:::4433333333111444<<444",
"222::44444422111222::4443333333311144<<<44422:::4444422211122:::4443333333311444<<<44222:::4444422211222:::4433333333111444<<444",
"222::44444422111222::4443333333311144<<<44422:::4444422211122:::4443333333311444<<<44222:::4444422211222:::4433333333111444<<444",
":::3344444444<<<4444422233344444:::33222222::33344444444<<<4444422233444444::33322222:::33344444444<<4444442233344444:::33322222",
":::3344444444<<<4444422233344444:::33222222::33344444444<<<4444422233444444::33322222:::33344444444<<4444442233344444:::33322222",
":::3344444444<<<4444422233344444:::33222222::33344444444<<<4444422233444444::33322222:::33344444444<<4444442233344444:::33322222",
"33344444666<<444<<<1133344433333444441112223344444466<<<444<<11133344333333444441112233344444666<<<44<<<111334443333344444411222",
"33344444666<<444<<<1133344433333444441112223344444466<<<444<<11133344333333444441112233344444666<<<44<<<111334443333344444411222",
"22222<<<44444<<<11122444222::11144466444:::22222<<<44444<<<1122244422:::11144666444::222222<<444444<<11122244222:::1144466644:::",
"22222<<<44444<<<11122444222::11144466444:::22222<<<44444<<<1122244422:::11144666444::222222<<444444<<11122244222:::1144466644:::",
"22222<<<44444<<<11122444222::11144466444:::22222<<<44444<<<1122244422:::11144666444::222222<<444444<<11122244222:::1144466644:::",
"44444:::2223311122244333111444444444444433344444:::2233311122444333114444444444444433444444::22233311222444331114444444444444333",
"44444:::2223311122244333111444444444444433344444:::2233311122444333114444444444444433444444::22233311222444331114444444444444333",
"44444:::2223311122244333111444444444444433344444:::OOOOOOOOOOOOOOOOOOOOOOOOOO44444433444444::22233311222444331114444444444444333",
"444444442224422244411111444116663332233344444444444OOOOOOOOOOOOOOOOOOOOOOOOOO222333444444444422244422444111114441116633322233444",
"444444442224422244411111444116663332233344444444444OOOOOOOOOOOOOOOOOOOOOOOOOO222333444444444422244422444111114441116633322233444",
"44444:::222::44466633222222441113334422244444OOO+++$$***;;;;;******$$$$$#####OOOOOO44444444::222:::44666333222224441133344422444",
"44444:::222::44466633222222441113334422244444OOO+++$$***;;;;;******$$$$$#####OOOOOO44444444::222:::44666333222224441133344422444",
"44444:::222::444666332222224411133344222OOOOO++++++##$$$***,,;;;;;;$$$$$###+++++OOOOOOOO444::222:::44666333222224441133344422444",
"333::22222244444444224443332244422244444OOOOO++++++##$$$***,,;;;;;;$$$$$###+++++OOOOOOOO:::2222244444444222443332224422244444333",
"333::22222244444444224443332244422244444OOOOO++++++##$$$***,,;;;;;;$$$$$###+++++OOOOOOOO:::2222244444444222443332224422244444333",
"333::22222244444444224443332244422244OOO+++##$$$$$$**;;;,,,;;;;;;;;;;;;;;;;;;###+++##+++OOO2222244444444222443332224422244444333",
"2222244444422222:::4444433311::::::33OOO+++##$$$$$$**;;;,,,;;;;;;;;;;;;;;;;;;###+++##+++OOO4444422222:::44444333111:::::333::222",
"2222244444422222:::4444433311::::::33OOO+++##$$$$$$**;;;,,,;;;;;;;;;;;;;;;;;;###+++##+++OOO4444422222:::44444333111:::::333::222",
"33344222444443331114411144422333444OO++++++##$$$$$$;;,,,;;;$$$$$$$$*****;;;;;>>>$$$##++++++OO44444433111444114442223344411144111",
"33344222444443331114411144422333444OO++++++##$$$$$$;;,,,;;;$$$$$$$$*****;;;;;>>>$$$##++++++OO44444433111444114442223344411144111",
"33344222444443331114411144422333444++###+++$$$$$;;;,,;;;$$$**;;;;;;;;;;;;;;>>,,,***$$+++###++44444433111444114442223344411144111",
"22244444666443332223366644444333111++###+++$$$$$;;;,,;;;$$$**;;;;;;;;;;;;;;>>,,,***$$+++###++66644433222333664444443311144411444",
"22244444666443332223366644444333111++###+++$$$$$;;;,,;;;$$$**;;;;;;;;;;;;;;>>,,,***$$+++###++66644433222333664444443311144411444",
"22244444666443332223366644444333OOO++######$$***;;;,,;;;$$$@@******$$$$$;;;,,;;;$$$$$######++OOO44433222333664444443311144411444",
"444::33344422222:::4433333344444OOO++######$$***;;;,,;;;$$$@@******$$$$$;;;,,;;;$$$$$######++OOO22222:::444333334444422244422333",
"444::33344422222:::4433333344444OOO++######$$***;;;,,;;;$$$@@******$$$$$;;;,,;;;$$$$$######++OOO22222:::444333334444422244422333",
"22211:::22244:::33333444444::111OOO##$$$;;;++;;;,,,;;$$$+++**;;;;;;;;;;;;;;;;***+++;;$$$$$$##OOO444::33333344444:::11222222::444",
"22211:::22244:::33333444444::111OOO##$$$;;;++;;;,,,;;$$$+++**;;;;;;;;;;;;;;;;***+++;;$$$$$$##OOO444::33333344444:::11222222::444",
"22211:::22244:::33333444444::OOO+++##$$$$$$;;$$$*****;;;+++**;;;;;;*****$$$**+++;;;$$$$$$$$##+++OOO::33333344444:::11222222::444",
"44444333333::2224444466644444OOO+++##$$$$$$;;$$$*****;;;+++**;;;;;;*****$$$**+++;;;$$$$$$$$##+++OOO224444446644444422:::44444444",
"44444333333::2224444466644444OOO+++##$$$$$$;;$$$*****;;;+++**;;;;;;*****$$$**+++;;;$$$$$$$$##+++OOO224444446644444422:::44444444",
"44444333333::2224444466644444OOO+++oooooooo$$***;;;$$***$$$$$******+++++$$$**;;;$$$$$oooooooo+++OOO224444446644444422:::44444444",
"<<<44222:::::4444444444422233OOO+++oooooooo$$***;;;$$***$$$$$******+++++$$$**;;;$$$$$oooooooo+++OOO4444444444222333::444666<<444",
"<<<44222:::::4444444444422233OOO+++oooooooo$$***;;;$$***$$$$$******+++++$$$**;;;$$$$$oooooooo+++OOO4444444444222333::444666<<444",
"4442233333344333:::44444:::::OOOooo--555555&&ooo$$$;;$$$;;;$$******$$$$$***;;***ooo&&555555--oooOOO33:::44444::::::22444<<<44<<<",
"4442233333344333:::44444:::::OOOooo--555555&&ooo$$$;;$$$;;;$$******$$$$$***;;***ooo&&555555--oooOOO33:::44444::::::22444<<<44<<<",
"4442233333344333:::44444:::::ooo===--55577777555ooo$$;;;$$$@@$$$$$$$$$$$$$$$$ooo55577777555--===ooo33:::44444::::::22444<<<44<<<",
"222::44444422111222::44433333ooo===--55577777555ooo$$;;;$$$@@$$$$$$$$$$$$$$$$ooo55577777555--===ooo11222:::4433333333111444<<444",
"222::44444422111222::44433333ooo===--55577777555ooo$$;;;$$$@@$$$$$$$$$$$$$$$$ooo55577777555--===ooo11222:::4433333333111444<<444",
"222::44444422111222::44433333ooo===-----55577777555&&ooo;;;++$$$$$$$$$$$ooo&&55577777555-----===ooo11222:::4433333333111444<<444",
":::3344444444<<<4444422233344ooo===-----55577777555&&ooo;;;++$$$$$$$$$$$ooo&&55577777555-----===ooo<<4444442233344444:::33322222",
":::3344444444<<<4444422233344ooo===-----55577777555&&ooo;;;++$$$$$$$$$$$ooo&&55577777555-----===ooo<<4444442233344444:::33322222",
"33344444666<<444<<<11333444..OOOooo==------  77755555---ooo;;$$$$$$$$ooo---55555777  ------==oooOOO..<<<111334443333344444411222",
"33344444666<<444<<<11333444..OOOooo==------  77755555---ooo;;$$$$$$$$ooo---55555777  ------==oooOOO..<<<111334443333344444411222",
"33344444666<<444<<<11333444..+++###oo&&&=====------&&ooo;;;**$$$$$$$$$$$ooo&&------=====&&&oo###+++..<<<111334443333344444411222",
"22222<<<44444<<<11122444222..+++###oo&&&=====------&&ooo;;;**$$$$$$$$$$$ooo&&------=====&&&oo###+++..11122244222:::1144466644:::",
"22222<<<44444<<<11122444222..+++###oo&&&=====------&&ooo;;;**$$$$$$$$$$$ooo&&------=====&&&oo###+++..11122244222:::1144466644:::",
"22222<<<44444<<<11122444222XX+++###**;;;ooooooooooo;;;;;***$$$$$$$$*****;;;$$ooooooooooo***$$###+++XX11122244222:::1144466644:::",
"44444:::2223311122244333111XX+++###**;;;ooooooooooo;;;;;***$$$$$$$$*****;;;$$ooooooooooo***$$###+++XX222444331114444444444444333",
"44444:::2223311122244333111XX+++###**;;;ooooooooooo;;;;;***$$$$$$$$*****;;;$$ooooooooooo***$$###+++XX222444331114444444444444333",
"444444442224422244411111...OO###$$$  ***$$$##********$$$$$$$$$$$$$$$$$$$***;;;;;;;;$$***;;;,,$$$###OO...111114441116633322233444",
"444444442224422244411111...OO###$$$  ***$$$##********$$$$$$$$$$$$$$$$$$$***;;;;;;;;$$***;;;,,$$$###OO...111114441116633322233444",
"444444442224422244411...OOO++$$$   ,,           ,,,  ,,,        ,,,$$$$$$$$$$$$$$$$**$$$***;;,,,$$$++OOO...114441116633322233444",
"44444:::222::44466633...OOO++$$$   ,,           ,,,  ,,,        ,,,$$$$$$$$$$$$$$$$**$$$***;;,,,$$$++OOO...222224441133344422444",
"44444:::222::44466633...OOO++$$$   ,,           ,,,  ,,,        ,,,$$$$$$$$$$$$$$$$**$$$***;;,,,$$$++OOO...222224441133344422444",
"44444:::222::44466633......##,,,        $$$;;***   ++###$$$$$                   $$$$$$$$$$$  ;;;,,,##......222224441133344422444",
"333::2222224444444422......##,,,        $$$;;***   ++###$$$$$                   $$$$$$$$$$$  ;;;,,,##......443332224422244444333",
"333::2222224444444422......##,,,        $$$;;***   ++###$$$$$                   $$$$$$$$$$$  ;;;,,,##......443332224422244444333",
"2222244444422222:::..OOO+++;;;;;   $$***@@@**;;;***.....OOO++$$$$$$$$   ,,,                ,,   ;;;;;+++OOO..333111:::::333::222",
"2222244444422222:::..OOO+++;;;;;   $$***@@@**;;;***.....OOO++$$$$$$$$   ,,,                ,,   ;;;;;+++OOO..333111:::::333::222",
"2222244444422222...OO+++$$$,,@@@$$$%%,,,%%%%%@@@***;;,,,;;;.....+++$$$$$     $$$$$$*****        ;;;,,$$$+++OO...111:::::333::222",
"3334422244444333...OO+++$$$,,@@@$$$%%,,,%%%%%@@@***;;,,,;;;.....+++$$$$$     $$$$$$*****        ;;;,,$$$+++OO...2223344411144111",
"3334422244444333...OO+++$$$,,@@@$$$%%,,,%%%%%@@@***;;,,,;;;.....+++$$$$$     $$$$$$*****        ;;;,,$$$+++OO...2223344411144111",
"3334422244444333111..###;;;;;@@@%%%;;,,,*****@@@$$$$$;;;,,,;;***...++###$$$**+++@@@$$$$$;;;**   ***;;;;;###..4442223344411144111",
"2224444466644333222..###;;;;;@@@%%%;;,,,*****@@@$$$$$;;;,,,;;***...++###$$$**+++@@@$$$$$;;;**   ***;;;;;###..4444443311144411444",
"2224444466644333222..###;;;;;@@@%%%;;,,,*****@@@$$$$$;;;,,,;;***...++###$$$**+++@@@$$$$$;;;**   ***;;;;;###..4444443311144411444",
"444::33344422222.....+++OOO..,,,@@@$$$$$#####,,,$$$++;;;$$$;;***...++###$$$**$$$;;;$$$$$***++$$$,,,..OOO+++.....4444422244422333",
"444::33344422222.....+++OOO..,,,@@@$$$$$#####,,,$$$++;;;$$$;;***...++###$$$**$$$;;;$$$$$***++$$$,,,..OOO+++.....4444422244422333",
"444::33344422...+++++$$$...**$$$+++##$$$$$$..;;;$$$$$***$$$;;...+++##,,,$$$**$$$;;;$$$$$;;;**...$$$**...$$$+++++...4422244422333",
"22211:::22244...+++++$$$...**$$$+++##$$$$$$..;;;$$$$$***$$$;;...+++##,,,$$$**$$$;;;$$$$$;;;**...$$$**...$$$+++++...11222222::444",
"22211:::22244...+++++$$$...**$$$+++##$$$$$$..;;;$$$$$***$$$;;...+++##,,,$$$**$$$;;;$$$$$;;;**...$$$**...$$$+++++...11222222::444",
"22211:::22244:::........$$$$$;;;$$$##$$$+++++$$$$$$$$$$$+++**...+++$$;;;;;;;;***$$$,,;;;;;;$$***;;;$$$$$........:::11222222::444",
"44444333333::222........$$$$$;;;$$$##$$$+++++$$$$$$$$$$$+++**...+++$$;;;;;;;;***$$$,,;;;;;;$$***;;;$$$$$........44422:::44444444",
"44444333333::22244444OOO***$$++++++$$...+++$$$$$$$$+++++;;;$$...###**,,,;;;;;***$$$;;;;;$$$$$###+++$$***...6644444422:::44444444",
"<<<44222:::::44444444OOO***$$++++++$$...+++$$$$$$$$+++++;;;$$...###**,,,;;;;;***$$$;;;;;$$$$$###+++$$***...44222333::444666<<444",
"<<<44222:::::44444444OOO***$$++++++$$...+++$$$$$$$$+++++;;;$$...###**,,,;;;;;***$$$;;;;;$$$$$###+++$$***...44222333::444666<<444",
"<<<44222:::::444444..;;;$$$##...+++$$...*****+++###$$+++;;;$$...###++;;;,,,,,;;;***$$$$$$$$$$+++...##$$$;;;..222333::444666<<444",
"4442233333344333:::..;;;$$$##...+++$$...*****+++###$$+++;;;$$...###++;;;,,,,,;;;***$$$$$$$$$$+++...##$$$;;;..::::::22444<<<44<<<",
"4442233333344333:::..;;;$$$##...+++$$...*****+++###$$+++;;;$$...###++;;;,,,,,;;;***$$$$$$$$$$+++...##$$$;;;..::::::22444<<<44<<<",
"4442233333344333...**$$$###..+++.....+++;;;;;...+++$$;;;***$$...$$$++***;;;$$$$$;;;*****+++$$###+++..###$$$**...:::22444<<<44<<<",
"222::44444422111...**$$$###..+++.....+++;;;;;...+++$$;;;***$$...$$$++***;;;$$$$$;;;*****+++$$###+++..###$$$**...33333111444<<444",
"222::44444422111222........++###$$$**;;;$$$$$+++.....***$$$..+++$$$##+++...++###$$$$$$$$###+++++###++........33333333111444<<444",
":::3344444444<<<444........++###$$$**;;;$$$$$+++.....***$$$..+++$$$##+++...++###$$$$$$$$###+++++###++........33344444:::33322222",
":::3344444444<<<444........++###$$$**;;;$$$$$+++.....***$$$..+++$$$##+++...++###$$$$$$$$###+++++###++........33344444:::33322222",
":::3344444444<<<44444222333.....###++OOOOOO##++++++........++###OOO$$$$$###..........+++$$$##........4444442233344444:::33322222",
"33344444666<<444<<<11333444.....###++OOOOOO##++++++........++###OOO$$$$$###..........+++$$$##........<<<111334443333344444411222",
"33344444666<<444<<<11333444.....###++OOOOOO##++++++........++###OOO$$$$$###..........+++$$$##........<<<111334443333344444411222",
"33344444666<<444<<<1133344433333.....111222........66<<<444.....333........4444411122........666<<<44<<<111334443333344444411222",
"22222<<<44444<<<11122444222::111.....444:::........44444<<<.....444........44666444::........444444<<11122244222:::1144466644:::",
"22222<<<44444<<<11122444222::11144466444:::22222<<<44444<<<1122244422:::11144666444::222222<<444444<<11122244222:::1144466644:::",
"44444:::2223311122244333111444444444444433344444:::2233311122444333114444444444444433444444::22233311222444331114444444444444333",
"44444:::2223311122244333111444444444444433344444:::2233311122444333114444444444444433444444::22233311222444331114444444444444333",
"44444:::2223311122244333111444444444444433344444:::2233311122444333114444444444444433444444::22233311222444331114444444444444333"
};
