/* XPM */
static char *_c9578891eb5428b8879eb554f283f8cTapk1QFaBI0qLCfp[] = {
/* columns rows colors chars-per-pixel */
"128 128 26 1 ",
"  c #000008",
". c #610A22",
"X c #6A0B26",
"o c #462F28",
"O c #800D2D",
"+ c #9C1138",
"@ c #AB123D",
"# c #AF123F",
"$ c #C61547",
"% c #DC174E",
"& c #845944",
"* c #EA4170",
"= c #C68661",
"- c #F8A878",
"; c #EF6C91",
": c #F2B586",
"> c #F394AF",
", c #F5A4BB",
"< c #DFD1A5",
"1 c #D7D4B2",
"2 c #E8C2A0",
"3 c #FFC5BF",
"4 c #FFDAB0",
"5 c #F8D1BA",
"6 c #FFDFEF",
"7 c #F8F8F8",
/* pixels */
"44444444222442224441111144411666333223334444444444422444222441111114411166633222333444444444422244422444111114441116633322233444",
"44444444222442224441111144411666333223334444444444422444222441111114411166633222333444444444422244422444111114441116633322233444",
"44444444222442224441111144411666333223334444444444422444222441111114411166633222333444444444422244422444111114441116633322233444",
"44444:::222::44466633222222441113334422244444444:::22:::44466333222224441113344422244444444::222:::44666333222224441133344422444",
"44444:::222::44466633222222441113334422244444444:::22:::44466333222224441113344422244444444::222:::44666333222224441133344422444",
"333::2222224444444422444333224442224444433333:::2222244444444222444332224442244444433333:::2222244444444222443332224422244444333",
"333::2222224444444422444333224442224444433333:::2222244444444222444332224442244444433333:::2222244444444222443332224422244444333",
"333::2222224444444422444333224442224444433333:::2222244444444222444332224442244444433333:::2222244444444222443332224422244444333",
"2222244444422222:::4444433311::::::33:::2222222244444222222::44444433111:::::333:::222222224444422222:::44444333111:::::333::222",
"2222244444422222:::4444433311::::::33:::2222222244444222222::44444433111:::::333:::222222224444422222:::44444333111:::::333::222",
"2222244444422222:::4444433311::::::33:::2222222244444222222::44444433111:::::333:::222222224444422222:::44444333111:::::333::222",
"33344222444443331114411144422333444114441113344422244444333114441114422233344111444113334442244444433111444114442223344411144111",
"33344222444443331114411144422333444114441113344422244444333114441114422233344111444113334442244444433111444114442223344411144111",
"22244444666443332223366644444333111441114442244444466444333223336664444433311444111442224444466644433222333664444443311144411444",
"22244444666443332223366644444333111441114442244444466444333223336664444433311444111442224444466644433222333664444443311144411444",
"22244444666443332223366644444333111441114442244444466444333223336664444433311444111442224444466644433222333664444443311144411444",
"444::33344422222:::44333333444442224422233344:::33344222222::444333334444442244422233444:::3344422222:::444333334444422244422333",
"444::33344422222:::44333333444442224422233344:::33344222222::444333334444442244422233444:::3344422222:::444333334444422244422333",
"444::33344422222:::44333333444442224422233344:::33344222222::444333334444442244422233444:::3344422222:::444333334444422244422333",
"22211:::22244:::33333444444::11122222:::44422111:::22444:::3333344444:::11122222:::44222111::222444::33333344444:::11222222::444",
"22211:::22244:::33333444444::11122222:::44422111:::22444:::3333344444:::11122222:::44222111::222444::33333344444:::11222222::444",
"44444333333::2224444466644444222:::444444444444433333:::2224444466644444222::4444444444444433333:::224444446644444422:::44444444",
"44444333333::2224444466644444222:::444444444444433333:::2224444466644444222::4444444444444433333:::224444446644444422:::44444444",
"44444333333::2224444466644444222:::444444444444433333:::2224444466644444222::4444444444444433333:::224444446644444422:::44444444",
"<<<44222:::::4444444444422233:::44466<<<444<<444222:::::4444444444422333:::44666<<<44<<<44422::::::4444444444222333::444666<<444",
"<<<44222:::::4444444444422233:::44466<<<444<<444222:::::4444444444422333:::44666<<<44<<<44422::::::4444444444222333::444666<<444",
"<<<44222:::::4444444444422233:::44466<<<444<<444222:::::4444444444422333:::44666<<<44<<<44422::::::4444444444222333::444666<<444",
"4442233333344333:::44444:::::222444<<444<<<4422233333444333::444444:::::22244<<<444<<4442223333344433:::44444::::::22444<<<44<<<",
"4442233333344333:::44444:::::222444<<444<<<4422233333444333::444444:::::22244<<<444<<4442223333344433:::44444::::::22444<<<44<<<",
"222::44444422111222::4443333333311144<<<44422:::4444422211122:::4443333333311444<<<44222:::4444422211222:::4433333333111444<<444",
"222::44444422111222::4443333333311144<<<44422:::4444422211122:::4443333333311444<<<44222:::4444422211222:::4433333333111444<<444",
"222::44444422111222::4443333333311144<<<44422:::4444422211122:::4443333333311444<<<44222:::4444422211222:::4433333333111444<<444",
":::3344444444<<<4444422233344444:::33222222::33344444444<<<4444422233444444::33322222:::33344444444<<4444442233344444:::33322222",
":::3344444444<<<4444422233344444:::33222222::33344444444<<<4444422233444444::33322222:::33344444444<<4444442233344444:::33322222",
":::3344444444<<<4444422233344444:::33222222::33344444444<<<4444422233444444::33322222:::33344444444<<4444442233344444:::33322222",
"33344444666<<444<<<1133344433333444441112223344444466<<<444<<11133344333333444441112233344444666<<<44<<<111334443333344444411222",
"33344444666<<444<<<1133344433333444441112223344444466<<<444<<11133344333333444441112233344444666<<<44<<<111334443333344444411222",
"22222<<<44444<<<11122444222::11144466444:::22222<<<OOOOOOOOOOOOOOOOOO:::11144666444::222222<<444444<<11122244222:::1144466644:::",
"22222<<<44444<<<11122444222::11144466444:::22222<<<OOOOOOOOOOOOOOOOOO:::11144666444::222222<<444444<<11122244222:::1144466644:::",
"22222<<<44444<<<11122444222::11144466444:::22OOO+++;;;;;***$$$$$#####XXX...44666444::222222<<444444<<11122244222:::1144466644:::",
"44444:::2223311122244333111444444444444433344OOO+++;;;;;***$$$$$#####XXX...4444444433444444::22233311222444331114444444444444333",
"44444:::2223311122244333111444444444444433344OOO+++;;;;;***$$$$$#####XXX...4444444433444444::22233311222444331114444444444444333",
"44444:::22233111222443331114444444444444OOO++>>>,,,**$$$$$$#####++++++++OOOXX...44433444444::22233311222444331114444444444444333",
"4444444422244222444111114441166633322333OOO++>>>,,,**$$$$$$#####++++++++OOOXX...333444444444422244422444111114441116633322233444",
"4444444422244222444111114441166633322333OOO++>>>,,,**$$$$$$#####++++++++OOOXX...333444444444422244422444111114441116633322233444",
"44444:::222::444666332222224411133344OOO***;;,,,;;;;;;;;;;;;;;;;***$$###+++++OOO...44444444::222:::44666333222224441133344422444",
"44444:::222::444666332222224411133344OOO***;;,,,;;;;;;;;;;;;;;;;***$$###+++++OOO...44444444::222:::44666333222224441133344422444",
"44444:::222::4446663322222244111333OO$$$;;;,,;;;$$$;;;;;;;;>>;;;$$$**;;;$$$##+++OOO..444444::222:::44666333222224441133344422444",
"333::222222444444442244433322444222OO$$$;;;,,;;;$$$;;;;;;;;>>;;;$$$**;;;$$$##+++OOO..333:::2222244444444222443332224422244444333",
"333::222222444444442244433322444222OO$$$;;;,,;;;$$$;;;;;;;;>>;;;$$$**;;;$$$##+++OOO..333:::2222244444444222443332224422244444333",
"333::222222444444442244433322444222++;;;,,,;;$$$***;;;;;>>>,,***@@@;;,,,;;;$$+++OOOXX333:::2222244444444222443332224422244444333",
"2222244444422222:::4444433311::::::++;;;,,,;;$$$***;;;;;>>>,,***@@@;;,,,;;;$$+++OOOXX2222224444422222:::44444333111:::::333::222",
"2222244444422222:::4444433311::::::++;;;,,,;;$$$***;;;;;>>>,,***@@@;;,,,;;;$$+++OOOXX2222224444422222:::44444333111:::::333::222",
"33344222444443331114411144422333OOO**;;;,,,;;$$$@@@$$;;;,,,;;$$$+++;;***$$$$$###+++OO...4442244444433111444114442223344411144111",
"33344222444443331114411144422333OOO**;;;,,,;;$$$@@@$$;;;,,,;;$$$+++;;***$$$$$###+++OO...4442244444433111444114442223344411144111",
"33344222444443331114411144422333OOO;;,,,;;;$$+++***;;;;;;;;**+++;;;$$$$$***;;$$$+++OOXXX4442244444433111444114442223344411144111",
"22244444666443332223366644444333OOO;;,,,;;;$$+++***;;;;;;;;**+++;;;$$$$$***;;$$$+++OOXXX4444466644433222333664444443311144411444",
"22244444666443332223366644444333OOO;;,,,;;;$$+++***;;;;;;;;**+++;;;$$$$$***;;$$$+++OOXXX4444466644433222333664444443311144411444",
"22244444666443332223366644444OOO+++$$$$$***;;+++*****$$$***++;;;$$$$$$$$;;;,,$$$###++OOO...4466644433222333664444443311144411444",
"444::33344422222:::4433333344OOO+++$$$$$***;;+++*****$$$***++;;;$$$$$$$$;;;,,$$$###++OOO...3344422222:::444333334444422244422333",
"444::33344422222:::4433333344OOO+++$$$$$***;;+++*****$$$***++;;;$$$$$$$$;;;,,$$$###++OOO...3344422222:::444333334444422244422333",
"22211:::22244:::33333444444::OOO***$$;;;$$$**$$$$$$++$$$***;;$$$oooooooo$$$;;$$$###++OOO...::222444::33333344444:::11222222::444",
"22211:::22244:::33333444444::OOO***$$;;;$$$**$$$$$$++$$$***;;$$$oooooooo$$$;;$$$###++OOO...::222444::33333344444:::11222222::444",
"22211:::22244:::33333444444::OOO$$$ooooo;;;$$;;;$$$$$***;;;oo&&&55555---ooo$$$$$###++OOO...::222444::33333344444:::11222222::444",
"44444333333::2224444466644444OOO$$$ooooo;;;$$;;;$$$$$***;;;oo&&&55555---ooo$$$$$###++OOO...33333:::224444446644444422:::44444444",
"44444333333::2224444466644444OOO$$$ooooo;;;$$;;;$$$$$***;;;oo&&&55555---ooo$$$$$###++OOO...33333:::224444446644444422:::44444444",
"44444333333::2224444466644444222ooo55555ooo;;$$$@@@$$$$$ooo5577777755---===oo$$$###++OOO...33333:::224444446644444422:::44444444",
"<<<44222:::::4444444444422233:::ooo55555ooo;;$$$@@@$$$$$ooo5577777755---===oo$$$###++OOO...22::::::4444444444222333::444666<<444",
"<<<44222:::::4444444444422233:::ooo55555ooo;;$$$@@@$$$$$ooo5577777755---===oo$$$###++OOO...22::::::4444444444222333::444666<<444",
"4442233333344333:::44444:::::ooo55577777555oo;;;+++oo&&&55577777555-----===oo###+++OOOOOXXX3333344433:::44444::::::22444<<<44<<<",
"4442233333344333:::44444:::::ooo55577777555oo;;;+++oo&&&55577777555-----===oo###+++OOOOOXXX3333344433:::44444::::::22444<<<44<<<",
"4442233333344333:::44444:::::ooo555  555---==oooooo--555555  --------===ooo**++++++++OOOOOO..33344433:::44444::::::22444<<<44<<<",
"222::44444422111222::44433333ooo555  555---==oooooo--555555  --------===ooo**++++++++OOOOOO..44422211222:::4433333333111444<<444",
"222::44444422111222::44433333ooo555  555---==oooooo--555555  --------===ooo**++++++++OOOOOO..44422211222:::4433333333111444<<444",
"222::44444422111222::444333OO;;;ooo--===&&&oo;;;$$$oo&&&-----======&&ooo***++$$$$$$##+++OOO..44422211222:::4433333333111444<<444",
":::3344444444<<<44444222333OO;;;ooo--===&&&oo;;;$$$oo&&&-----======&&ooo***++$$$$$$##+++OOO..444444<<4444442233344444:::33322222",
":::3344444444<<<44444222333OO;;;ooo--===&&&oo;;;$$$oo&&&-----======&&ooo***++$$$$$$##+++OOO..444444<<4444442233344444:::33322222",
"33344444666<<444<<<11333444OO***;;;ooooo;;;;;***$$$**;;;ooooooooooo$$***$$$;;;;;,,,$$###+++XX666<<<44<<<111334443333344444411222",
"33344444666<<444<<<11333444OO***;;;ooooo;;;;;***$$$**;;;ooooooooooo$$***$$$;;;;;,,,$$###+++XX666<<<44<<<111334443333344444411222",
"33344444666<<444<<<1133344433+++###$$$$$$$$$$$$$$$$$$***;;;;;;;;$$$**;;;,,,,,;;;;;;**$$$+++OOXXX...44<<<111334443333344444411222",
"22222<<<44444<<<11122444222::+++###$$$$$$$$$$$$$$$$$$***;;;;;;;;$$$**;;;,,,,,;;;;;;**$$$+++OOXXX...<<11122244222:::1144466644:::",
"22222<<<44444<<<11122444222::+++###$$$$$$$$$$$$$$$$$$***;;;;;;;;$$$**;;;,,,,,;;;;;;**$$$+++OOXXX...<<11122244222:::1144466644:::",
"22222<<<44444<<<11122444222OO;;;     ,,,   ,,      ,,$$$$$$$$$$$***$$***;;;;;$$$$$$;;$$$+++++OOOOOO..11122244222:::1144466644:::",
"44444:::2223311122244333111OO;;;     ,,,   ,,      ,,$$$$$$$$$$$***$$***;;;;;$$$$$$;;$$$+++++OOOOOO..222444331114444444444444333",
"44444:::2223311122244333111OO;;;     ,,,   ,,      ,,$$$$$$$$$$$***$$***;;;;;$$$$$$;;$$$+++++OOOOOO..222444331114444444444444333",
"444444442224422244411111444++,,,;;;**   +++##$$$             $$$$$$$$$$$   ;;,,,$$$;;+++###++........444111114441116633322233444",
"444444442224422244411111444++,,,;;;**   +++##$$$             $$$$$$$$$$$   ;;,,,$$$;;+++###++........444111114441116633322233444",
"444444442224422244411111OOO,,;;;***;;***.....OOO+++  ,,,                ,,,  ;;;;;;**+++$$$##+++OOOXX...111114441116633322233444",
"44444:::222::44466633222OOO,,;;;***;;***.....OOO+++  ,,,                ,,,  ;;;;;;**+++$$$##+++OOOXX...333222224441133344422444",
"44444:::222::44466633222OOO,,;;;***;;***.....OOO+++  ,,,                ,,,  ;;;;;;**+++$$$##+++OOOXX...333222224441133344422444",
"44444:::222::44466633222OOO**;;;$$$**;;;,,,;;***...$$      $$$$$*****        ;;;,,,$$###+++++++++++OOOOO...222224441133344422444",
"333::2222224444444422444OOO**;;;$$$**;;;,,,;;***...$$      $$$$$*****        ;;;,,,$$###+++++++++++OOOOO...443332224422244444333",
"333::2222224444444422444OOO**;;;$$$**;;;,,,;;***...$$      $$$$$*****        ;;;,,,$$###+++++++++++OOOOO...443332224422244444333",
"2222244444422222:::44444OOO$$;;;%%%$$$$$;;;,,;;;***..+++$$$**+++@@@$$;;;***  ***;;;**$$$$$$XX...###.....44444333111:::::333::222",
"2222244444422222:::44444OOO$$;;;%%%$$$$$;;;,,;;;***..+++$$$**+++@@@$$;;;***  ***;;;**$$$$$$XX...###.....44444333111:::::333::222",
"2222244444422222:::44444OOO$$;;;%%%$$$$$;;;,,;;;***..++++++++@@@$$$$$$$$;;;  ***;;;;;;;;$$$++...+++..:::44444333111:::::333::222",
"333442224444433311144111OOO$$;;;%%%$$$$$;;;,,;;;***..++++++++@@@$$$$$$$$;;;  ***;;;;;;;;$$$++...+++..111444114442223344411144111",
"333442224444433311144111OOO$$;;;%%%$$$$$;;;,,;;;***..++++++++@@@$$$$$$$$;;;  ***;;;;;;;;$$$++...+++..111444114442223344411144111",
"333442224444433311144111444OO***;;;$$@@@;;;$$,,,;;;..+++###$$$$$$$$$$+++$$$;;...OOO*****;;;$$+++XXX..111444114442223344411144111",
"222444446664433322233666444OO***;;;$$@@@;;;$$,,,;;;..+++###$$$$$$$$$$+++$$$;;...OOO*****;;;$$+++XXX..222333664444443311144411444",
"222444446664433322233666444OO***;;;$$@@@;;;$$,,,;;;..+++###$$$$$$$$$$+++$$$;;...OOO*****;;;$$+++XXX..222333664444443311144411444",
"444::33344422222:::44333333..$$$@@@$$+++;;;$$;;;***..+++$$$**$$$;;;$$***+++$$,,,...OO@@@***,,***+++++...444333334444422244422333",
"444::33344422222:::44333333..$$$@@@$$+++;;;$$;;;***..+++$$$**$$$;;;$$***+++$$,,,...OO@@@***,,***+++++...444333334444422244422333",
"444::33344422222:::4433333344OOO+++$$$$$***$$;;;...++,,,$$$**$$$;;;$$;;;***..$$$***..+++$$$;;;;;;;;$$+++...333334444422244422333",
"22211:::22244:::33333444444::OOO+++$$$$$***$$;;;...++,,,$$$**$$$;;;$$;;;***..$$$***..+++$$$;;;;;;;;$$+++...44444:::11222222::444",
"22211:::22244:::33333444444::OOO+++$$$$$***$$;;;...++,,,$$$**$$$;;;$$;;;***..$$$***..+++$$$;;;;;;;;$$+++...44444:::11222222::444",
"22211:::22244:::33333444444..###$$$$$$$$$$$++***...$$;;;;;;;;***$$$,,;;;$$$**;;;$$$$$$$$$$$**XXX........33344444:::11222222::444",
"44444333333::22244444666444..###$$$$$$$$$$$++***...$$;;;;;;;;***$$$,,;;;$$$**;;;$$$$$$$$$$$**XXX........4446644444422:::44444444",
"44444333333::22244444666444..$$$+++$$++++++;;$$$...**,,,;;;;;***$$$;;$$$$$$##+++$$$$$;;;@@@$$***...224444446644444422:::44444444",
"<<<44222:::::44444444444222..$$$+++$$++++++;;$$$...**,,,;;;;;***$$$;;$$$$$$##+++$$$$$;;;@@@$$***...4444444444222333::444666<<444",
"<<<44222:::::44444444444222..$$$+++$$++++++;;$$$...**,,,;;;;;***$$$;;$$$$$$##+++$$$$$;;;@@@$$***...4444444444222333::444666<<444",
"<<<44222:::::4444444444422233...+++##$$$+++;;$$$...++;;;,,,,,;;;***$$$$$$$$++...###$$,,,+++++$$$***.....44444222333::444666<<444",
"4442233333344333:::44444:::::...+++##$$$+++;;$$$...++;;;,,,,,;;;***$$$$$$$$++...###$$,,,+++++$$$***.....44444::::::22444<<<44<<<",
"4442233333344333:::44444:::::...+++##$$$+++;;$$$...++;;;,,,,,;;;***$$$$$$$$++...###$$,,,+++++$$$***.....44444::::::22444<<<44<<<",
"4442233333344333:::44444:::::222.....+++$$$;;$$$...++***;;;$$$$$;;;**+++$$$##+++...##$$$;;;..+++$$$++OOO...44::::::22444<<<44<<<",
"222::44444422111222::44433333333.....+++$$$;;$$$...++***;;;$$$$$;;;**+++$$$##+++...##$$$;;;..+++$$$++OOO...4433333333111444<<444",
"222::44444422111222::44433333......++......**...+++##+++...++###$$$$$###+++++###+++..###$$$;;...........:::4433333333111444<<444",
":::3344444444<<<4444422233344......++......**...+++##+++...++###$$$$$###+++++###+++..###$$$;;...........4442233344444:::33322222",
":::3344444444<<<4444422233344......++......**...+++##+++...++###$$$$$###+++++###+++..###$$$;;...........4442233344444:::33322222",
":::3344444444<<<44444222333..$$$$$$##++++++..+++OOO$$###...........++$$$###........22........444444<<4444442233344444:::33322222",
"33344444666<<444<<<11333444..$$$$$$##++++++..+++OOO$$###...........++$$$###........22........666<<<44<<<111334443333344444411222",
"33344444666<<444<<<11333444..$$$$$$##++++++..+++OOO$$###...........++$$$###........22........666<<<44<<<111334443333344444411222",
"33344444666<<444<<<1133344433..............33...........444<<111333........444441112233344444666<<<44<<<111334443333344444411222",
"22222<<<44444<<<11122444222::..............22...........<<<11222444........44666444::222222<<444444<<11122244222:::1144466644:::",
"22222<<<44444<<<11122444222::11144466444:::22222<<<44444<<<1122244422:::11144666444::222222<<444444<<11122244222:::1144466644:::",
"44444:::2223311122244333111444444444444433344444:::2233311122444333114444444444444433444444::22233311222444331114444444444444333",
"44444:::2223311122244333111444444444444433344444:::2233311122444333114444444444444433444444::22233311222444331114444444444444333",
"44444:::2223311122244333111444444444444433344444:::2233311122444333114444444444444433444444::22233311222444331114444444444444333"
};
