/* XPM */
static char *_7472723ea3d45c9e699530ac82126f5JtEZgGoXeVUC9sIg[] = {
/* columns rows colors chars-per-pixel */
"128 128 26 1 ",
"  c #000008",
". c #610A22",
"X c #6A0B26",
"o c #462F28",
"O c #800D2D",
"+ c #9C1138",
"@ c #AB123D",
"# c #AF123F",
"$ c #C61547",
"% c #845944",
"& c #EA4170",
"* c #C68661",
"= c #F8A878",
"- c #EF6C91",
"; c #F8AB8E",
": c #F2B586",
"> c #F394AF",
", c #F5A4BB",
"< c #DFD1A5",
"1 c #D7D4B2",
"2 c #E8C2A0",
"3 c #FFC5BF",
"4 c #FFDAB0",
"5 c #F8D1BA",
"6 c #FFDFEF",
"7 c #F8F8F8",
/* pixels */
"44444444222442224441111144411666333223334444444444422444222441111114411166633222333444444444422244422444111114441116633322233444",
"44444444222442224441111144411666333223334444444444422444222441111114411166633222333444444444422244422444111114441116633322233444",
"44444444222442224441111144411666333223334444444444422444222441111114411166633222333444444444422244422444111114441116633322233444",
"44444:::222::44466633222222441113334422244444444:::22:::44466333222224441113344422244444444::222:::44666333222224441133344422444",
"44444:::222::44466633222222441113334422244444444:::22:::44466333222224441113344422244444444::222:::44666333222224441133344422444",
"333::2222224444444422444333224442224444433333:::2222244444444222444332224442244444433333:::2222244444444222443332224422244444333",
"333::2222224444444422444333224442224444433333:::2222244444444222444332224442244444433333:::2222244444444222443332224422244444333",
"333::2222224444444422444333224442224444433333:::2222244444444222444332224442244444433333:::2222244444444222443332224422244444333",
"2222244444422222:::4444433311::::::33:::2222222244444222222::44444433111:::::333:::222222224444422222:::44444333111:::::333::222",
"2222244444422222:::4444433311::::::33:::2222222244444222222::44444433111:::::333:::222222224444422222:::44444333111:::::333::222",
"2222244444422222:::4444433311::::::33:::2222222244444222222::44444433111:::::333:::222222224444422222:::44444333111:::::333::222",
"33344222444443331114411144422333444114441113344422244444333114441114422233344111444113334442244444433111444114442223344411144111",
"33344222444443331114411144422333444114441113344422244444333114441114422233344111444113334442244444433111444114442223344411144111",
"22244444666443332223366644444333111441114442244444466444333223336664444433311444111442224444466644433222333664444443311144411444",
"22244444666443332223366644444333111441114442244444466444333223336664444433311444111442224444466644433222333664444443311144411444",
"22244444666443332223366644444333111441114442244444466444333223336664444433311444111442224444466644433222333664444443311144411444",
"444::33344422222:::44333333444442224422233344:::33344222222::444333334444442244422233444:::3344422222:::444333334444422244422333",
"444::33344422222:::44333333444442224422233344:::33344222222::444333334444442244422233444:::3344422222:::444333334444422244422333",
"444::33344422222:::44333333444442224422233344:::33344222222::444333334444442244422233444:::3344422222:::444333334444422244422333",
"22211:::22244:::33333444444::11122222:::44422111:::22444:::3333344444:::11122222:::44222111::222444::33333344444:::11222222::444",
"22211:::22244:::33333444444::11122222:::44422111:::22444:::3333344444:::11122222:::44222111::222444::33333344444:::11222222::444",
"44444333333::2224444466644444222:::444444444444433333:::2224444466644444222::4444444444444433333:::224444446644444422:::44444444",
"44444333333::2224444466644444222:::444444444444433333:::2224444466644444222::4444444444444433333:::224444446644444422:::44444444",
"44444333333::2224444466644444222:::4444444444444OOOOOOOOOOOOOOOOOOO44444222::4444444444444433333:::224444446644444422:::44444444",
"<<<44222:::::4444444444422233:::44466<<<444<<444OOOOOOOOOOOOOOOOOOO22333:::44666<<<44<<<44422::::::4444444444222333::444666<<444",
"<<<44222:::::4444444444422233:::44466<<<444<<444OOOOOOOOOOOOOOOOOOO22333:::44666<<<44<<<44422::::::4444444444222333::444666<<444",
"<<<44222:::::4444444444422233:::44466<<<444OO+++-----&&&$$$$$######XX...:::44666<<<44<<<44422::::::4444444444222333::444666<<444",
"4442233333344333:::44444:::::222444<<444<<<OO+++-----&&&$$$$$######XX...22244<<<444<<4442223333344433:::44444::::::22444<<<44<<<",
"4442233333344333:::44444:::::222444<<444<<<OO+++-----&&&$$$$$######XX...22244<<<444<<4442223333344433:::44444::::::22444<<<44<<<",
"222::44444422111222::4443333333311144OOO+++>>,,,&&&$$$$$#####++++++++OOOXXX..444<<<44222:::4444422211222:::4433333333111444<<444",
"222::44444422111222::4443333333311144OOO+++>>,,,&&&$$$$$#####++++++++OOOXXX..444<<<44222:::4444422211222:::4433333333111444<<444",
"222::44444422111222::44433333333111OO&&&---,,----------------&&&$$$##++++++OO...<<<44222:::4444422211222:::4433333333111444<<444",
":::3344444444<<<4444422233344444:::OO&&&---,,----------------&&&$$$##++++++OO...22222:::33344444444<<4444442233344444:::33322222",
":::3344444444<<<4444422233344444:::OO&&&---,,----------------&&&$$$##++++++OO...22222:::33344444444<<4444442233344444:::33322222",
":::3344444444<<<4444422233344444OOO$$---,,,--$$$-------->>>--$$$&&&--$$$###++OOO...22:::33344444444<<4444442233344444:::33322222",
"33344444666<<444<<<1133344433333OOO$$---,,,--$$$-------->>>--$$$&&&--$$$###++OOO...2233344444666<<<44<<<111334443333344444411222",
"33344444666<<444<<<1133344433333OOO$$---,,,--$$$-------->>>--$$$&&&--$$$###++OOO...2233344444666<<<44<<<111334443333344444411222",
"22222<<<44444<<<11122444222::111+++--,,,---$$&&&----->>>,,,&&@@@---,,---$$$++OOOXXX::222222<<444444<<11122244222:::1144466644:::",
"22222<<<44444<<<11122444222::111+++--,,,---$$&&&----->>>,,,&&@@@---,,---$$$++OOOXXX::222222<<444444<<11122244222:::1144466644:::",
"22222<<<44444<<<11122444222::OOO&&&--,,,---$$@@@$$$--,,,---$$+++---&&$$$$$$##+++OOO..222222<<444444<<11122244222:::1144466644:::",
"44444:::222331112224433311144OOO&&&--,,,---$$@@@$$$--,,,---$$+++---&&$$$$$$##+++OOO..444444::22233311222444331114444444444444333",
"44444:::222331112224433311144OOO&&&--,,,---$$@@@$$$--,,,---$$+++---&&$$$$$$##+++OOO..444444::22233311222444331114444444444444333",
"44444:::222331112224433311144OOO---,,---$$$++&&&--------&&&++---$$$$$&&&---$$+++OOOXX444444::22233311222444331114444444444444333",
"44444444222442224441111144411OOO---,,---$$$++&&&--------&&&++---$$$$$&&&---$$+++OOOXX4444444422244422444111114441116633322233444",
"44444444222442224441111144411OOO---,,---$$$++&&&--------&&&++---$$$$$&&&---$$+++OOOXX4444444422244422444111114441116633322233444",
"44444:::222::44466633222222OO+++$$$$$&&&---++&&&&&&$$&&&+++--$$$$$$$$---,,,$$###+++..444444::222:::44666333222224441133344422444",
"44444:::222::44466633222222OO+++$$$$$&&&---++&&&&&&$$&&&+++--$$$$$$$$---,,,$$###+++..444444::222:::44666333222224441133344422444",
"44444:::222::44466633222222OO&&&$$$--$$$&&&$$$$$+++$$&&&---$$oooooooo$$$---$$###+++..444444::222:::44666333222224441133344422444",
"333::2222224444444422444333OO&&&$$$--$$$&&&$$$$$+++$$&&&---$$oooooooo$$$---$$###+++..333:::2222244444444222443332224422244444333",
"333::2222224444444422444333OO&&&$$$--$$$&&&$$$$$+++$$&&&---$$oooooooo$$$---$$###+++..333:::2222244444444222443332224422244444333",
"333::2222224444444422444333OO$$$ooooo---$$$--$$$$$$&&---ooo%%555555==ooo$$$$$###+++..333:::2222244444444222443332224422244444333",
"2222244444422222:::44444333OO$$$ooooo---$$$--$$$$$$&&---ooo%%555555==ooo$$$$$###+++..2222224444422222:::44444333111:::::333::222",
"2222244444422222:::44444333OO$$$ooooo---$$$--$$$$$$&&---ooo%%555555==ooo$$$$$###+++..2222224444422222:::44444333111:::::333::222",
"33344222444443331114411144422ooo55555ooo---$$@@@$$$$$ooo55577777555==***ooo$$###+++..3334442244444433111444114442223344411144111",
"33344222444443331114411144422ooo55555ooo---$$@@@$$$$$ooo55577777555==***ooo$$###+++..3334442244444433111444114442223344411144111",
"333442224444433311144111444oo55577777555ooo--+++ooo%%55577777555=====***ooo##+++OOOXX3334442244444433111444114442223344411144111",
"222444446664433322233666444oo55577777555ooo--+++ooo%%55577777555=====***ooo##+++OOOXX2224444466644433222333664444443311144411444",
"222444446664433322233666444oo55577777555ooo--+++ooo%%55577777555=====***ooo##+++OOOXX2224444466644433222333664444443311144411444",
"222444446664433322233666444oo555   55===***ooooo===55555   ========**ooo&&&++++++++OO...4444466644433222333664444443311144411444",
"444::33344422222:::44333333oo555   55===***ooooo===55555   ========**ooo&&&++++++++OO...:::3344422222:::444333334444422244422333",
"444::33344422222:::44333333oo555   55===***ooooo===55555   ========**ooo&&&++++++++OO...:::3344422222:::444333334444422244422333",
"22211:::22244:::33333444OOO--ooo===**%%%ooo--$$$ooo%%======*****%%%oo&&&+++$$$$$###OO...111::222444::33333344444:::11222222::444",
"22211:::22244:::33333444OOO--ooo===**%%%ooo--$$$ooo%%======*****%%%oo&&&+++$$$$$###OO...111::222444::33333344444:::11222222::444",
"22211:::22244:::33333444OOO&&---ooooo------&&$$$&&&--ooooooooooo$$$&&$$$-----,,,$$$++...111::222444::33333344444:::11222222::444",
"44444333333::22244444666OOO&&---ooooo------&&$$$&&&--ooooooooooo$$$&&$$$-----,,,$$$++...44433333:::224444446644444422:::44444444",
"44444333333::22244444666OOO&&---ooooo------&&$$$&&&--ooooooooooo$$$&&$$$-----,,,$$$++...44433333:::224444446644444422:::44444444",
"44444333333::22244444666444++###$$$$$$$$$$$$$$$$$$$&&--------$$$&&&--,,,,,,-----&&&++...44433333:::224444446644444422:::44444444",
"<<<44222:::::44444444444222++###$$$$$$$$$$$$$$$$$$$&&--------$$$&&&--,,,,,,-----&&&++...44422::::::4444444444222333::444666<<444",
"<<<44222:::::44444444444222++###$$$$$$$$$$$$$$$$$$$&&--------$$$&&&--,,,,,,-----&&&++...44422::::::4444444444222333::444666<<444",
"4442233333344333:::44444OOO--                      $$$$$$$$$$&&&$$$&&------$$$$$---++OOO...3333344433:::44444::::::22444<<<44<<<",
"4442233333344333:::44444OOO--                      $$$$$$$$$$&&&$$$&&------$$$$$---++OOO...3333344433:::44444::::::22444<<<44<<<",
"4442233333344333:::44444+++          ,,,        ,,,        $$$$$$$$$$   ---,,$$$---##OOO...3333344433:::44444::::::22444<<<44<<<",
"222::44444422111222::444+++          ,,,        ,,,        $$$$$$$$$$   ---,,$$$---##OOO...4444422211222:::4433333333111444<<444",
"222::44444422111222::444+++          ,,,        ,,,        $$$$$$$$$$   ---,,$$$---##OOO...4444422211222:::4433333333111444<<444",
"222::44444422111222::444OOO     ,,,  ;;;   ,,   ;;;  ,,,                   -----&&&$$+++XXX4444422211222:::4433333333111444<<444",
":::3344444444<<<44444222OOO     ,,,  ;;;   ,,   ;;;  ,,,                   -----&&&$$+++XXX44444444<<4444442233344444:::33322222",
":::3344444444<<<44444222OOO     ,,,  ;;;   ,,   ;;;  ,,,                   -----&&&$$+++XXX44444444<<4444442233344444:::33322222",
"33344444666<<444<<<11333   ,,   ;;;        ;;        ;;;   ,,        ,,,   --,,,$$$$$+++OOO44666<<<44<<<111334443333344444411222",
"33344444666<<444<<<11333   ,,   ;;;        ;;        ;;;   ,,        ,,,   --,,,$$$$$+++OOO44666<<<44<<<111334443333344444411222",
"33344444666<<444<<<11333                                   ;;   ,,,  ;;;   &&------&&$$$OOO..666<<<44<<<111334443333344444411222",
"22222<<<44444<<<11122444                                   ;;   ,,,  ;;;   &&------&&$$$OOO..444444<<11122244222:::1144466644:::",
"22222<<<44444<<<11122444                                   ;;   ,,,  ;;;   &&------&&$$$OOO..444444<<11122244222:::1144466644:::",
"22222<<<44444<<<11122444222                                     ;;;          &&&-----$$$+++OO...444<<11122244222:::1144466644:::",
"44444:::2223311122244333111                                     ;;;          &&&-----$$$+++OO...33311222444331114444444444444333",
"44444:::2223311122244333111                                     ;;;          &&&-----$$$+++OO...33311222444331114444444444444333",
"444444442224422244411111444  ,,,   ;;                                        &&&---++$$$+++.....44422444111114441116633322233444",
"444444442224422244411111444  ,,,   ;;                                        &&&---++$$$+++.....44422444111114441116633322233444",
"44444444222442224441111144411      ,,   ;;;                                  ------++$$$###OOXXX...22444111114441116633322233444",
"44444:::222::4446663322222244      ,,   ;;;                                  ------++$$$###OOXXX...44666333222224441133344422444",
"44444:::222::4446663322222244      ,,   ;;;                                  ------++$$$###OOXXX...44666333222224441133344422444",
"44444:::222::4446663322222244           ,,,        ;;        ;;;             &&&---##++++++++OOOOOO..666333222224441133344422444",
"333::222222444444442244433322           ,,,        ;;        ;;;             &&&---##++++++++OOOOOO..444222443332224422244444333",
"333::222222444444442244433322           ,,,        ;;        ;;;             &&&---##++++++++OOOOOO..444222443332224422244444333",
"2222244444422222:::4444433311OOO   $$        ;;;   ,,   ;;;  ,,,   ;;      &&&&&-----$$$XXX##......22:::44444333111:::::333::222",
"2222244444422222:::4444433311OOO   $$        ;;;   ,,   ;;;  ,,,   ;;      &&&&&-----$$$XXX##......22:::44444333111:::::333::222",
"2222244444422222:::4444433311OOO&&&--@@@---  ,,,        ,,,        ,,      --&&&-----$$$XXX++...22222:::44444333111:::::333::222",
"33344222444443331114411144422OOO&&&--@@@---  ,,,        ,,,        ,,      --&&&-----$$$XXX++...44433111444114442223344411144111",
"33344222444443331114411144422OOO&&&--@@@---  ,,,        ,,,        ,,      --&&&-----$$$XXX++...44433111444114442223344411144111",
"33344222444443331114411144422OOO&&&--@@@---$$   ---             $$$     ---..OOO&&&&&---$$$XX...44433111444114442223344411144111",
"22244444666443332223366644444OOO&&&--@@@---$$   ---             $$$     ---..OOO&&&&&---$$$XX...44433222333664444443311144411444",
"22244444666443332223366644444OOO&&&--@@@---$$   ---             $$$     ---..OOO&&&&&---$$$XX...44433222333664444443311144411444",
"444::33344422222:::4433333344...$$$@@+++---$$---&&&..+++     $$$$$$&&+++$$$,,...OOO@@&&&,,,+++++...22:::444333334444422244422333",
"444::33344422222:::4433333344...$$$@@+++---$$---&&&..+++     $$$$$$&&+++$$$,,...OOO@@&&&,,,+++++...22:::444333334444422244422333",
"444::33344422222:::4433333344444OOO++$$$&&&$$---...++,,,&&&$$---$$$--&&&...$$&&&...++$$$-----$$$+++..:::444333334444422244422333",
"22211:::22244:::33333444444::111OOO++$$$&&&$$---...++,,,&&&$$---$$$--&&&...$$&&&...++$$$-----$$$+++..33333344444:::11222222::444",
"22211:::22244:::33333444444::111OOO++$$$&&&$$---...++,,,&&&$$---$$$--&&&...$$&&&...++$$$-----$$$+++..33333344444:::11222222::444",
"22211:::22244:::33333444444::...###$$$$$$$$++&&&...$$------&&$$$,,,--$$$&&&--$$$$$$$$$$$&&&........::33333344444:::11222222::444",
"44444333333::2224444466644444...###$$$$$$$$++&&&...$$------&&$$$,,,--$$$&&&--$$$$$$$$$$$&&&........224444446644444422:::44444444",
"44444333333::2224444466644444...$$$++$$$+++--$$$...&&,,,---&&$$$---$$$$$###++$$$$$$--@@@$$$..333:::224444446644444422:::44444444",
"<<<44222:::::4444444444422233...$$$++$$$+++--$$$...&&,,,---&&$$$---$$$$$###++$$$$$$--@@@$$$..::::::4444444444222333::444666<<444",
"<<<44222:::::4444444444422233...$$$++$$$+++--$$$...&&,,,---&&$$$---$$$$$###++$$$$$$--@@@$$$..::::::4444444444222333::444666<<444",
"<<<44222:::::4444444444422233:::...++###+++--$$$...++---,,,--&&&$$$$$$$$+++..###$$$,,++++++&&......4444444444222333::444666<<444",
"4442233333344333:::44444:::::222...++###+++--$$$...++---,,,--&&&$$$$$$$$+++..###$$$,,++++++&&......33:::44444::::::22444<<<44<<<",
"4442233333344333:::44444:::::222...++###+++--$$$...++---,,,--&&&$$$$$$$$+++..###$$$,,++++++&&......33:::44444::::::22444<<<44<<<",
"4442233333344333:::44444:::::222444.....$$$--$$$...++&&&$$$$$---&&&++$$$###++...###$$---...$$+++OOO..:::44444::::::22444<<<44<<<",
"222::44444422111222::44433333333111.....$$$--$$$...++&&&$$$$$---&&&++$$$###++...###$$---...$$+++OOO..222:::4433333333111444<<444",
"222::44444422111222::44433333333111..+++...&&...+++##...+++##$$$$$$##++++++##+++...##$$$---........11222:::4433333333111444<<444",
":::3344444444<<<4444422233344444:::..+++...&&...+++##...+++##$$$$$$##++++++##+++...##$$$---........<<4444442233344444:::33322222",
":::3344444444<<<4444422233344444:::..+++...&&...+++##...+++##$$$$$$##++++++##+++...##$$$---........<<4444442233344444:::33322222",
":::3344444444<<<4444422233344444...$$###+++..+++OOO$$###........+++$$###........222........44444444<<4444442233344444:::33322222",
"33344444666<<444<<<1133344433333...$$###+++..+++OOO$$###........+++$$###........111........44666<<<44<<<111334443333344444411222",
"33344444666<<444<<<1133344433333...$$###+++..+++OOO$$###........+++$$###........111........44666<<<44<<<111334443333344444411222",
"33344444666<<444<<<1133344433333444........33...........444<<111........333444441112233344444666<<<44<<<111334443333344444411222",
"22222<<<44444<<<11122444222::111444........22...........<<<11222........11144666444::222222<<444444<<11122244222:::1144466644:::",
"22222<<<44444<<<11122444222::11144466444:::22222<<<44444<<<1122244422:::11144666444::222222<<444444<<11122244222:::1144466644:::",
"44444:::2223311122244333111444444444444433344444:::2233311122444333114444444444444433444444::22233311222444331114444444444444333",
"44444:::2223311122244333111444444444444433344444:::2233311122444333114444444444444433444444::22233311222444331114444444444444333",
"44444:::2223311122244333111444444444444433344444:::2233311122444333114444444444444433444444::22233311222444331114444444444444333"
};
