/* XPM */
static char *ed264fbfc5354ccfdf470b155e1573e8hVy21xmVRjZGFhLg[] = {
/* columns rows colors chars-per-pixel */
"128 128 19 1 ",
"  c #610A22",
". c #6A0B26",
"X c #800D2D",
"o c #9C1138",
"O c #AB123D",
"+ c #AF123F",
"@ c #C61547",
"# c #CB1649",
"$ c #EA4170",
"% c #EF6C91",
"& c #F2B586",
"* c #F394AF",
"= c #F5A4BB",
"- c #DFD1A5",
"; c #D7D4B2",
": c #E8C2A0",
"> c #FFC5BF",
", c #FFDAB0",
"< c #FFDFEF",
/* pixels */
",,,,,,,,:::,,:::,,,;;;;;,,,;;<<<>>>::>>>,,,,,,,,,,,::,,,:::,,;;;;;;,,;;;<<<>>:::>>>,,,,,,,,,,:::,,,::,,,;;;;;,,,;;;<<>>>:::>>,,,",
",,,,,,,,:::,,:::,,,;;;;;,,,;;<<<>>>::>>>,,,,,,,,,,,::,,,:::,,;;;;;;,,;;;<<<>>:::>>>,,,,,,,,,,:::,,,::,,,;;;;;,,,;;;<<>>>:::>>,,,",
",,,,,,,,:::,,:::,,,;;;;;,,,;;<<<>>>::>>>,,,,,,,,,,,::,,,:::,,;;;;;;,,;;;<<<>>:::>>>,,,,,,,,,,:::,,,::,,,;;;;;,,,;;;<<>>>:::>>,,,",
",,,,,&&&:::&&,,,<<<>>::::::,,;;;>>>,,:::,,,,,,,,&&&::&&&,,,<<>>>:::::,,,;;;>>,,,:::,,,,,,,,&&:::&&&,,<<<>>>:::::,,,;;>>>,,,::,,,",
",,,,,&&&:::&&,,,<<<>>::::::,,;;;>>>,,:::,,,,,,,,&&&::&&&,,,<<>>>:::::,,,;;;>>,,,:::,,,,,,,,&&:::&&&,,<<<>>>:::::,,,;;>>>,,,::,,,",
">>>&&::::::,,,,,,,,::,,,>>>::,,,:::,,,,,>>>>>&&&:::::,,,,,,,,:::,,,>>:::,,,::,,,,,,>>>>>&&&:::::,,,,,,,,:::,,>>>:::,,:::,,,,,>>>",
">>>&&::::::,,,,,,,,::,,,>>>::,,,:::,,,,,>>>>>&&&:::::,,,,,,,,:::,,,>>:::,,,::,,,,,,>>>>>&&&:::::,,,,,,,,:::,,>>>:::,,:::,,,,,>>>",
">>>&&::::::,,,,,,,,::,,,>>>::,,,:::,,,,,>>>>>&&&:::::,,,,,,,,:::,,,>>:::,,,::,,,,,,>>>>>&&&:::::,,,,,,,,:::,,>>>:::,,:::,,,,,>>>",
":::::,,,,,,:::::&&&,,,,,>>>;;&&&&&&>>&&&::::::::,,,,,::::::&&,,,,,,>>;;;&&&&&>>>&&&::::::::,,,,,:::::&&&,,,,,>>>;;;&&&&&>>>&&:::",
":::::,,,,,,:::::&&&,,,,,>>>;;&&&&&&>>&&&::::::::,,,,,::::::&&,,,,,,>>;;;&&&&&>>>&&&::::::::,,,,,:::::&&&,,,,,>>>;;;&&&&&>>>&&:::",
":::::,,,,,,:::::&&&,,,,,>>>;;&&&&&&>>&&&::::::::,,,,,::::::&&,,,,,,>>;;;&&&&&>>>&&&::::::::,,,,,:::::&&&,,,,,>>>;;;&&&&&>>>&&:::",
">>>,,:::,,,,,>>>;;;,,;;;,,,::>>>,,,;;,,,;;;>>,,,:::,,,,,>>>;;,,,;;;,,:::>>>,,;;;,,,;;>>>,,,::,,,,,,>>;;;,,,;;,,,:::>>,,,;;;,,;;;",
">>>,,:::,,,,,>>>;;;,,;;;,,,::>>>,,,;;,,,;;;>>,,,:::,,,,,>>>;;,,,;;;,,:::>>>,,;;;,,,;;>>>,,,::,,,,,,>>;;;,,,;;,,,:::>>,,,;;;,,;;;",
":::,,,,,<<<,,>>>:::>><<<,,,,,>>>;;;,,;;;,,,::,,,,,,<<,,,>>>::>>><<<,,,,,>>>;;,,,;;;,,:::,,,,,<<<,,,>>:::>>><<,,,,,,>>;;;,,,;;,,,",
":::,,,,,<<<,,>>>:::>><<<,,,,,>>>;;;,,;;;,,,::,,,,,,<<,,,>>>::>>><<<,,,,,>>>;;,,,;;;,,:::,,,,,<<<,,,>>:::>>><<,,,,,,>>;;;,,,;;,,,",
":::,,,,,<<<,,>>>:::>><<<,,,,,>>>;;;,,;;;,,,::,,,,,,<<,,,>>>::>>><<<,,,,,>>>;;,,,;;;,,:::,,,,,<<<,,,>>:::>>><<,,,,,,>>;;;,,,;;,,,",
",,,&&>>>,,,:::::&&&,,>>>>>>,,,,,:::,,:::>>>,,&&&>>>,,::::::&&,,,>>>>>,,,,,,::,,,:::>>,,,&&&>>,,,:::::&&&,,,>>>>>,,,,,:::,,,::>>>",
",,,&&>>>,,,:::::&&&,,>>>>>>,,,,,:::,,:::>>>,,&&&>>>,,::::::&&,,,>>>>>,,,,,,::,,,:::>>,,,&&&>>,,,:::::&&&,,,>>>>>,,,,,:::,,,::>>>",
",,,&&>>>,,,:::::&&&,,>>>>>>,,,,,:::,,:::>>>,,&&&>>>,,::::::&&,,,>>>>>,,,,,,::,,,:::>>,,,&&&>>,,,:::::&&&,,,>>>>>,,,,,:::,,,::>>>",
":::;;&&&:::,,&&&>>>>>,,,,,,&&;;;:::::&&&,,,::;;;&&&::,,,&&&>>>>>,,,,,&&&;;;:::::&&&,,:::;;;&&:::,,,&&>>>>>>,,,,,&&&;;::::::&&,,,",
":::;;&&&:::,,&&&>>>>>,,,,,,&&;;;:::::&&&,,,::;;;&&&::,,,&&&>>>>>,,,,,&&&;;;:::::&&&,,:::;;;&&:::,,,&&>>>>>>,,,,,&&&;;::::::&&,,,",
",,,,,>>>>>>&&:::,,,,,<<<,,,,,:::&&&,,,,,,,,,,,,,>>>>>&&&:::,,,,,<<<,,,,,:::&&,,,,,,,,,,,,,,>>>>>&&&::,,,,,,<<,,,,,,::&&&,,,,,,,,",
",,,,,>>>>>>&&:::,,,,,<<<,,,,,:::&&&,,,,,,,,,,,,,>>>>>&&&:::,,,,,<<<,,,,,:::&&,,,,,,,,,,,,,,>>>>>&&&::,,,,,,<<,,,,,,::&&&,,,,,,,,",
",,,,,>>>>>>&&:::,,,,,<<<,,,,,:::&&&,,,,,,,,,,,,,>>>>>&&&:::,,,,,<<<,,,,,:::&&,,,,,,,,,,,,,,>>>>>&&&::,,,,,,<<,,,,,,::&&&,,,,,,,,",
"---,,:::&&&&&,,,,,,,,,,,:::>>&&&,,,<<---,,,--,,,:::&&&&&,,,,,,,,,,,::>>>&&&,,<<<---,,---,,,::&&&&&&,,,,,,,,,,:::>>>&&,,,<<<--,,,",
"---,,:::&&&&&,,,,,,,,,,,:::>>&&&,,,<<---,,,--,,,:::&&&&&,,,,,,,,,,,::>>>&&&,,<<<---,,---,,,::&&&&&&,,,,,,,,,,:::>>>&&,,,<<<--,,,",
"---,,:::&&&&&,,,,,,,,,,,:::>>&&&,,,<<---,,,--,,,:::&&&&&,,,,,,,,,,,::>>>&&&,,<<<---,,---,,,::&&&&&&,,,,,,,,,,:::>>>&&,,,<<<--,,,",
",,,::>>>>>>,,>>>&&&,,,,,&&&&&:::,,,--,,,---,,:::>>>>>,,,>>>&&,,,,,,&&&&&:::,,---,,,--,,,:::>>>>>,,,>>&&&,,,,,&&&&&&::,,,---,,---",
",,,::>>>>>>,,>>>&&&,,,,,&&&&&:::,,,--,,,---,,:::>>>>>,,,>>>&&,,,,,,&&&&&:::,,---,,,--,,,:::>>>>>,,,>>&&&,,,,,&&&&&&::,,,---,,---",
":::&&,,,,,,::;;;:::&&,,,>>>>>>>>;;;,,---,,,::&&&,,,,,:::;;;::&&&,,,>>>>>>>>;;,,,---,,:::&&&,,,,,:::;;:::&&&,,>>>>>>>>;;;,,,--,,,",
":::&&,,,,,,::;;;:::&&,,,>>>>>>>>;;;,,---,,,::&&&,,,,,:::;;;::&&&,,,>>>>>>>>;;,,,---,,:::&&&,,,,,:::;;:::&&&,,>>>>>>>>;;;,,,--,,,",
":::&&,,,,,,::;;;:::&&,,,>>>>>>>>;;;,,---,,,::&&&,,,,,:::;;;::&&&,,,>>>>>>>>;;,,,---,,:::&&&,,,,,:::;;:::&&&,,>>>>>>>>;;;,,,--,,,",
"&&&>>,,,,,,,,---,,,,,:::>>>,,,,,&&&>>::::::&&>>>,,,,,,,,---,,,,,:::>>,,,,,,&&>>>:::::&&&>>>,,,,,,,,--,,,,,,::>>>,,,,,&&&>>>:::::",
"&&&>>,,,,,,,,---,,,,,:::>>>,,,,,&&&>>::::::&&>>>,,,,,,,,---,,,,,:::>>,,,,,,&&>>>:::::&&&>>>,,,,,,,,--,,,,,,::>>>,,,,,&&&>>>:::::",
"&&&>>,,,,,,,,---,,,,,:::>>>,,,,,&&&>>::::::&&>>>,,,,,,,,XXXXXXXXXXXXXXXX,,,&&>>>:::::&&&>>>,,,,,,,,--,,,,,,::>>>,,,,,&&&>>>:::::",
">>>,,,,,<<<--,,,---;;>>>,,,>>>>>,,,,,;;;:::>>,,,,,,<<---XXXXXXXXXXXXXXXX>>>,,,,,;;;::>>>,,,,,<<<---,,---;;;>>,,,>>>>>,,,,,,;;:::",
">>>,,,,,<<<--,,,---;;>>>,,,>>>>>,,,,,;;;:::>>,,,,,,XXXXX+++@@$$$%%%%%@@@oooXX,,,;;;::>>>,,,,,<<<---,,---;;;>>,,,>>>>>,,,,,,;;:::",
":::::---,,,,,---;;;::,,,:::&&;;;,,,<<,,,&&&:::::---XXXXX+++@@$$$%%%%%@@@oooXX<<<,,,&&::::::--,,,,,,--;;;:::,,:::&&&;;,,,<<<,,&&&",
":::::---,,,,,---;;;::,,,:::&&;;;,,,<<,,,&&&:::::---XXXXX+++@@$$$%%%%%@@@oooXX<<<,,,&&::::::--,,,,,,--;;;:::,,:::&&&;;,,,<<<,,&&&",
":::::---,,,,,---;;;::,,,:::&&;;;,,,<<,,,&&&::XXXXXXXXoooooo@@%%%===$$@@@oooooXXXXXX&&::::::--,,,,,,--;;;:::,,:::&&&;;,,,<<<,,&&&",
",,,,,&&&:::>>;;;:::,,>>>;;;,,,,,,,,,,,,,>>>,,XXXXXXXXoooooo@@%%%===$$@@@oooooXXXXXX>>,,,,,,&&:::>>>;;:::,,,>>;;;,,,,,,,,,,,,,>>>",
",,,,,&&&:::>>;;;:::,,>>>;;;,,,,,,,,,,,,,>>>,,XXXXXXXXoooooo@@%%%===$$@@@oooooXXXXXX>>,,,,,,&&:::>>>;;:::,,,>>;;;,,,,,,,,,,,,,>>>",
",,,,,&&&:::>>;;;:::,,>>>;;;,,,,,,,,,,,,,>>>XXooo+++oo+++%%%%%%%%%%%==%%%$$$@@+++oooXX,,,,,,&&:::>>>;;:::,,,>>;;;,,,,,,,,,,,,,>>>",
",,,,,,,,:::,,:::,,,;;;;;,,,;;<<<>>>::>>>,,,XXooo+++oo+++%%%%%%%%%%%==%%%$$$@@+++oooXX,,,,,,,,:::,,,::,,,;;;;;,,,;;;<<>>>:::>>,,,",
",,,,,,,,:::,,:::,,,;;;;;,,,;;<<<>>>::>>>XXXooooo+++@@***%%%$$@@@@@@%%===%%%@@+++oooooXXX,,,,,:::,,,::,,,;;;;;,,,;;;<<>>>:::>>,,,",
",,,,,&&&:::&&,,,<<<>>::::::,,;;;>>>,,:::XXXooooo+++@@***%%%$$@@@@@@%%===%%%@@+++oooooXXX,,,&&:::&&&,,<<<>>>:::::,,,;;>>>,,,::,,,",
",,,,,&&&:::&&,,,<<<>>::::::,,;;;>>>,,:::XXXooooo+++@@***%%%$$@@@@@@%%===%%%@@+++oooooXXX,,,&&:::&&&,,<<<>>>:::::,,,;;>>>,,,::,,,",
",,,,,&&&:::&&,,,<<<>>::::::,,;;;>>>,,:::ooo++ooo@@@$$===%%%%%%%%$$$@@===%%%@@@@@ooo++ooo,,,&&:::&&&,,<<<>>>:::::,,,;;>>>,,,::,,,",
">>>&&::::::,,,,,,,,::,,,>>>::,,,:::,,,,,ooo++ooo@@@$$===%%%%%%%%$$$@@===%%%@@@@@ooo++ooo&&&:::::,,,,,,,,:::,,>>>:::,,:::,,,,,>>>",
">>>&&::::::,,,,,,,,::,,,>>>::,,,:::,,,,,ooo++ooo@@@$$===%%%%%%%%$$$@@===%%%@@@@@ooo++ooo&&&:::::,,,,,,,,:::,,>>>:::,,:::,,,,,>>>",
">>>&&::::::,,,,,,,,::,,,>>>::,,,:::,,XXXooo++@@@@@@@@%%%%%%@@$$$OOO@@===%%%$$@@@+++++oooXXX:::::,,,,,,,,:::,,>>>:::,,:::,,,,,>>>",
":::::,,,,,,:::::&&&,,,,,>>>;;&&&&&&>>XXXooo++@@@@@@@@%%%%%%@@$$$OOO@@===%%%$$@@@+++++oooXXX,,,,,:::::&&&,,,,,>>>;;;&&&&&>>>&&:::",
":::::,,,,,,:::::&&&,,,,,>>>;;&&&&&&>>XXX+++@@@@@$$$oo$$$%%%%%%%%$$$oo%%%===%%ooo@@@@@+++XXX,,,,,:::::&&&,,,,,>>>;;;&&&&&>>>&&:::",
">>>,,:::,,,,,>>>;;;,,;;;,,,::>>>,,,;;XXX+++@@@@@$$$oo$$$%%%%%%%%$$$oo%%%===%%ooo@@@@@+++XXX::,,,,,,>>;;;,,,;;,,,:::>>,,,;;;,,;;;",
">>>,,:::,,,,,>>>;;;,,;;;,,,::>>>,,,;;XXX+++@@@@@$$$oo$$$%%%%%%%%$$$oo%%%===%%ooo@@@@@+++XXX::,,,,,,>>;;;,,,;;,,,:::>>,,,;;;,,;;;",
">>>,,:::,,,,,>>>;;;,,;;;,,,::>>>,,,XXooo+++@@$$$%%%$$ooo@@@$$%%%$$$oo%%%$$$@@OOO$$$@@+++oooXX,,,,,,>>;;;,,,;;,,,:::>>,,,;;;,,;;;",
":::,,,,,<<<,,>>>:::>><<<,,,,,>>>;;;XXooo+++@@$$$%%%$$ooo@@@$$%%%$$$oo%%%$$$@@OOO$$$@@+++oooXX<<<,,,>>:::>>><<,,,,,,>>;;;,,,;;,,,",
":::,,,,,<<<,,>>>:::>><<<,,,,,>>>;;;XXooo+++@@$$$%%%$$ooo@@@$$%%%$$$oo%%%$$$@@OOO$$$@@+++oooXX<<<,,,>>:::>>><<,,,,,,>>;;;,,,;;,,,",
":::,,,,,<<<,,>>>:::>><<<,,,,,>>>;;;XXooo@@@@@$$$%%%==@@@@@@oo%%%@@@@@@@@$$$OOoooOOO@@@@@oooXX<<<,,,>>:::>>><<,,,,,,>>;;;,,,;;,,,",
",,,&&>>>,,,:::::&&&,,>>>>>>,,,,,:::XXooo@@@@@$$$%%%==@@@@@@oo%%%@@@@@@@@$$$OOoooOOO@@@@@oooXX,,,:::::&&&,,,>>>>>,,,,,:::,,,::>>>",
",,,&&>>>,,,:::::&&&,,>>>>>>,,,,,:::XXooo@@@@@OOOooo%%===$$$@@$$$@@@%%@@@===$$OOO$$$@@@@@oooXX,,,:::::&&&,,,>>>>>,,,,,:::,,,::>>>",
":::;;&&&:::,,&&&>>>>>,,,,,,&&;;;:::XXooo@@@@@OOOooo%%===$$$@@$$$@@@%%@@@===$$OOO$$$@@@@@oooXX:::,,,&&>>>>>>,,,,,&&&;;::::::&&,,,",
":::;;&&&:::,,&&&>>>>>,,,,,,&&;;;:::XXooo@@@@@OOOooo%%===$$$@@$$$@@@%%@@@===$$OOO$$$@@@@@oooXX:::,,,&&>>>>>>,,,,,&&&;;::::::&&,,,",
":::;;&&&:::,,&&&>>>>>,,,,,,&&;;;:::XX+++@@@$$$$$OOO$$%%%@@@%%@@@OOO@@@@@%%%==%%%$$$$$@@@+++XX:::,,,&&>>>>>>,,,,,&&&;;::::::&&,,,",
",,,,,>>>>>>&&:::,,,,,<<<,,,,,:::&&&XX+++@@@$$$$$OOO$$%%%@@@%%@@@OOO@@@@@%%%==%%%$$$$$@@@+++XX>>>&&&::,,,,,,<<,,,,,,::&&&,,,,,,,,",
",,,,,>>>>>>&&:::,,,,,<<<,,,,,:::&&&XX+++@@@$$$$$OOO$$%%%@@@%%@@@OOO@@@@@%%%==%%%$$$$$@@@+++XX>>>&&&::,,,,,,<<,,,,,,::&&&,,,,,,,,",
",,,,,>>>>>>&&:::,,,,,<<<,,,,,:::&&&XX+++@@@@@@@@@@@$$ooo@@@==OOOooo==$$$ooo%%$$$@@@@@@@@+++XX>>>&&&::,,,,,,<<,,,,,,::&&&,,,,,,,,",
"---,,:::&&&&&,,,,,,,,,,,:::>>&&&,,,XX+++@@@@@@@@@@@$$ooo@@@==OOOooo==$$$ooo%%$$$@@@@@@@@+++XX&&&&&&,,,,,,,,,,:::>>>&&,,,<<<--,,,",
"---,,:::&&&&&,,,,,,,,,,,:::>>&&&   ..XXXooo++@@@@@@@@@@@%%%==%%%OOO==$$$@@@@@@@@@@@++oooXXX..   &&&,,,,,,,,,,:::>>>&&,,,<<<--,,,",
",,,::>>>>>>,,>>>&&&,,,,,&&&&&:::   ..XXXooo++@@@@@@@@@@@%%%==%%%OOO==$$$@@@@@@@@@@@++oooXXX..   ,,,>>&&&,,,,,&&&&&&::,,,---,,---",
",,,::>>>>>>,,>>>&&&,,,,,&&&&&:::   ..XXXooo++@@@@@@@@@@@%%%==%%%OOO==$$$@@@@@@@@@@@++oooXXX..   ,,,>>&&&,,,,,&&&&&&::,,,---,,---",
",,,::>>>>>>,,>>>&&&,,,,,&&&&&:::   XXoooXXXoo++++++@@@@@$$$%%===%%%%%%%%@@@@@++++++ooXXXoooXX   ,,,>>&&&,,,,,&&&&&&::,,,---,,---",
":::&&,,,,,,::;;;:::&&,,,>>>>>>>>   XXoooXXXoo++++++@@@@@$$$%%===%%%%%%%%@@@@@++++++ooXXXoooXX   :::;;:::&&&,,>>>>>>>>;;;,,,--,,,",
":::&&,,,,,,::;;;:::&&,,,>>>>>>>>   XXoooXXXoo++++++@@@@@$$$%%===%%%%%%%%@@@@@++++++ooXXXoooXX   :::;;:::&&&,,>>>>>>>>;;;,,,--,,,",
":::&&,,,,,,::;;;:::&&,,,>>>>>>>>...oo+++@@@ooooo+++++@@@@@@oo%%%$$$$$@@@@@@+++++ooooo@@@+++oo...:::;;:::&&&,,>>>>>>>>;;;,,,--,,,",
"&&&>>,,,,,,,,---,,,,,:::>>>,,,,,...oo+++@@@ooooo+++++@@@@@@oo%%%$$$$$@@@@@@+++++ooooo@@@+++oo...,,,--,,,,,,::>>>,,,,,&&&>>>:::::",
"&&&>>,,,,,,,,---,,,,,:::>>>,,   XXX++@@@%%%@@@@@@@@+++++@@@++@@@@@@@@@@@+++++@@@@@@@@%%%@@@++XXX   --,,,,,,::>>>,,,,,&&&>>>:::::",
">>>,,,,,<<<--,,,---;;>>>,,,>>   XXX++@@@%%%@@@@@@@@+++++@@@++@@@@@@@@@@@+++++@@@@@@@@%%%@@@++XXX   ,,---;;;>>,,,>>>>>,,,,,,;;:::",
">>>,,,,,<<<--,,,---;;>>>,,,>>   XXX++@@@%%%@@@@@@@@+++++@@@++@@@@@@@@@@@+++++@@@@@@@@%%%@@@++XXX   ,,---;;;>>,,,>>>>>,,,,,,;;:::",
">>>,,,,,<<<--,,,---;;>>>,,,  XXXooo@@@@@===%%@@@@@@@@@@@@@@@@@@@@@@@@@@@@@@@@@@@@@@%%===@@@@@oooXXX  ---;;;>>,,,>>>>>,,,,,,;;:::",
":::::---,,,,,---;;;::,,,:::  XXXooo@@@@@===%%@@@@@@@@@@@@@@@@@@@@@@@@@@@@@@@@@@@@@@%%===@@@@@oooXXX  ;;;:::,,:::&&&;;,,,<<<,,&&&",
":::::---,,,,,---;;;::,,,:::  XXXooo@@@@@===%%@@@@@@@@@@@@@@@@@@@@@@@@@@@@@@@@@@@@@@%%===@@@@@oooXXX  ;;;:::,,:::&&&;;,,,<<<,,&&&",
":::::---,,,,,---;;;::,,,:::     +++==%%%++++++++@@@@@@@@@@@@@@@@@@@@@@@@@@@@@@@@@@@@@++++++@@+++     ;;;:::,,:::&&&;;,,,<<<,,&&&",
",,,,,&&&:::>>;;;:::,,>>>;;;     +++==%%%++++++++@@@@@@@@@@@@@@@@@@@@@@@@@@@@@@@@@@@@@++++++@@+++     :::,,,>>;;;,,,,,,,,,,,,,>>>",
",,,,,&&&:::>>;;;:::,,>>>   XXooo%%%%%@@@+++@@@@@@@@==%%%+++ooooo+++oo+++@@@%%===@@@@@@@@+++%%%%%oooXX   ,,,>>;;;,,,,,,,,,,,,,>>>",
",,,,,,,,:::,,:::,,,;;;;;   XXooo%%%%%@@@+++@@@@@@@@==%%%+++ooooo+++oo+++@@@%%===@@@@@@@@+++%%%%%oooXX   ;;;;;,,,;;;<<>>>:::>>,,,",
",,,,,,,,:::,,:::,,,;;;;;   XXooo%%%%%@@@+++@@@@@@@@==%%%+++ooooo+++oo+++@@@%%===@@@@@@@@+++%%%%%oooXX   ;;;;;,,,;;;<<>>>:::>>,,,",
",,,,,,,,:::,,:::,,,;;   XXXoo@@@===%%@@@+++@@@@@@@@$$===%%%+++++@@@@@@@@$$$==$$$+++%%###oooOO===@@@ooXXX   ;;,,,;;;<<>>>:::>>,,,",
",,,,,&&&:::&&,,,<<<>>   XXXoo@@@===%%@@@+++@@@@@@@@$$===%%%+++++@@@@@@@@$$$==$$$+++%%###oooOO===@@@ooXXX   :::::,,,;;>>>,,,::,,,",
",,,,,&&&:::&&,,,<<<>>   XXXoo@@@===%%@@@+++@@@@@@@@$$===%%%+++++@@@@@@@@$$$==$$$+++%%###oooOO===@@@ooXXX   :::::,,,;;>>>,,,::,,,",
",,,,,&&&:::&&,,,<<<>>:::   oo@@@===%%ooo@@@@@$$$+++@@$$$$$$=====%%%%%===+++%%OOO+++==###oooOO===@@@oo   >>>:::::,,,;;>>>,,,::,,,",
">>>&&::::::,,,,,,,,::,,,   oo@@@===%%ooo@@@@@$$$+++@@$$$$$$=====%%%%%===+++%%OOO+++==###oooOO===@@@oo   :::,,>>>:::,,:::,,,,,>>>",
">>>&&::::::,,,,,,,,::,,,>>>  %%%%%%$$ooo$$$%%+++OOOoo+++$$$%%+++$$$%%%%%+++$$OOO+++oo%%%oooOO%%%%%%  ,,,:::,,>>>:::,,:::,,,,,>>>",
":::::,,,,,,:::::&&&,,,,,>>>  %%%%%%$$ooo$$$%%+++OOOoo+++$$$%%+++$$$%%%%%+++$$OOO+++oo%%%oooOO%%%%%%  &&&,,,,,>>>;;;&&&&&>>>&&:::",
":::::,,,,,,:::::&&&,,,,,>>>  %%%%%%$$ooo$$$%%+++OOOoo+++$$$%%+++$$$%%%%%+++$$OOO+++oo%%%oooOO%%%%%%  &&&,,,,,>>>;;;&&&&&>>>&&:::",
":::::,,,,,,:::::&&&,,,,,   ..$$$XXX  %%%@@@oo@@@@@@OO+++%%%%%+++@@@==%%%OOO@@%%%+++oo+++%%%  XXX$$$..   ,,,,,>>>;;;&&&&&>>>&&:::",
">>>,,:::,,,,,>>>;;;,,;;;   ..$$$XXX  %%%@@@oo@@@@@@OO+++%%%%%+++@@@==%%%OOO@@%%%+++oo+++%%%  XXX$$$..   ,,,;;,,,:::>>,,,;;;,,;;;",
">>>,,:::,,,,,>>>;;;,,;;;   ..$$$XXX  %%%@@@oo@@@@@@OO+++%%%%%+++@@@==%%%OOO@@%%%+++oo+++%%%  XXX$$$..   ,,,;;,,,:::>>,,,;;;,,;;;",
">>>,,:::,,,,,>>>;;;,,      ooXXX   ==@@@ooo$$@@@+++oo$$$%%%$$ooo@@@%%$$$ooo@@%%%ooo==oooOOO==   XXXoo      ;;,,,:::>>,,,;;;,,;;;",
":::,,,,,<<<,,>>>:::>>      ooXXX   ==@@@ooo$$@@@+++oo$$$%%%$$ooo@@@%%$$$ooo@@%%%ooo==oooOOO==   XXXoo      <<,,,,,,>>;;;,,,;;,,,",
":::,,,,,<<<,,>>>:::  oooooo@@   ===@@XXX   ==@@@ooo$$===%%%++ooo+++%%@@@ooo@@===ooo==   ooo@@$$$   @@oooooo  ,,,,,,>>;;;,,,;;,,,",
",,,&&>>>,,,:::::&&&  oooooo@@   ===@@XXX   ==@@@ooo$$===%%%++ooo+++%%@@@ooo@@===ooo==   ooo@@$$$   @@oooooo  >>>,,,,,:::,,,::>>>",
",,,&&>>>,,,:::::&&&  oooooo@@   ===@@XXX   ==@@@ooo$$===%%%++ooo+++%%@@@ooo@@===ooo==   ooo@@$$$   @@oooooo  >>>,,,,,:::,,,::>>>",
",,,&&>>>,,,:::::&&&,,        $$$@@@oo   %%%@@   $$$%%===@@@++oooooo$$@@@   oo===   $$$$$   oo@@@           >>>>>,,,,,:::,,,::>>>",
":::;;&&&:::,,&&&>>>>>        $$$@@@oo   %%%@@   $$$%%===@@@++oooooo$$@@@   oo===   $$$$$   oo@@@           ,,,,,&&&;;::::::&&,,,",
":::;;&&&:::,,&&&>>>>>,,,,,,  @@@oooXX   @@@oo   $$$%%@@@+++  %%%ooo@@%%%   oo%%%   oo@@@     ooo@@@  >>>>>>,,,,,&&&;;::::::&&,,,",
":::;;&&&:::,,&&&>>>>>,,,,,,  @@@oooXX   @@@oo   $$$%%@@@+++  %%%ooo@@%%%   oo%%%   oo@@@     ooo@@@  >>>>>>,,,,,&&&;;::::::&&,,,",
",,,,,>>>>>>&&:::,,,,,<<<,,,  @@@oooXX   @@@oo   $$$%%@@@+++  %%%ooo@@%%%   oo%%%   oo@@@     ooo@@@  ,,,,,,<<,,,,,,::&&&,,,,,,,,",
",,,,,>>>>>>&&:::,,,,,<<<   @@oooXXX  oooooo  $$$%%%@@+++ooo  %%%   ++$$$%%%XXooo%%%  ooo@@@  XXXooo@@   ,,,<<,,,,,,::&&&,,,,,,,,",
"---,,:::&&&&&,,,,,,,,,,,   @@oooXXX  oooooo  $$$%%%@@+++ooo  %%%   ++$$$%%%XXooo%%%  ooo@@@  XXXooo@@   ,,,,,:::>>>&&,,,<<<--,,,",
"---,,:::&&&&&,,,,,,,,,,,   @@oooXXX  oooooo  $$$%%%@@+++ooo  %%%   ++$$$%%%XXooo%%%  ooo@@@  XXXooo@@   ,,,,,:::>>>&&,,,<<<--,,,",
"---,,:::&&&&&,,,,,,,,   @@@ooXXX           $$%%%@@@++ooo   XX%%%   oo+++$$$  ooo@@@$$      oo   XXXoo@@@   ,,:::>>>&&,,,<<<--,,,",
",,,::>>>>>>,,>>>&&&,,   @@@ooXXX           $$%%%@@@++ooo   XX%%%   oo+++$$$  ooo@@@$$      oo   XXXoo@@@   ,,&&&&&&::,,,---,,---",
",,,::>>>>>>,,>>>&&&,,,,,           ++oooooo++@@@+++     XXX$$%%%XXX  ooo@@@  XXXooo++@@@@@@++           ,,,,,&&&&&&::,,,---,,---",
",,,::>>>>>>,,>>>&&&,,,,,           ++oooooo++@@@+++     XXX$$%%%XXX  ooo@@@  XXXooo++@@@@@@++           ,,,,,&&&&&&::,,,---,,---",
":::&&,,,,,,::;;;:::&&,,,           ++oooooo++@@@+++     XXX$$%%%XXX  ooo@@@  XXXooo++@@@@@@++           &&&,,>>>>>>>>;;;,,,--,,,",
":::&&,,,,,,::;;;:::&&,,,>>>>>>>>        +++@@ooo        @@@++ooo@@@     ooooo   XXXXXooo+++     :::;;:::&&&,,>>>>>>>>;;;,,,--,,,",
"&&&>>,,,,,,,,---,,,,,:::>>>,,,,,        +++@@ooo        @@@++ooo@@@     ooooo   XXXXXooo+++     ,,,--,,,,,,::>>>,,,,,&&&>>>:::::",
"&&&>>,,,,,,,,---,,,,,:::>>>,,,,,        +++@@ooo        @@@++ooo@@@     ooooo   XXXXXooo+++     ,,,--,,,,,,::>>>,,,,,&&&>>>:::::",
"&&&>>,,,,,,,,---,,,,,:::>>>,,,,,&&&>>:::        ,,,,,   +++@@XXX@@@  ,,,                   ,,,,,,,,--,,,,,,::>>>,,,,,&&&>>>:::::",
">>>,,,,,<<<--,,,---;;>>>,,,>>>>>,,,,,;;;        ,,,<<   +++@@XXX@@@  >>>                   ,,<<<---,,---;;;>>,,,>>>>>,,,,,,;;:::",
">>>,,,,,<<<--,,,---;;>>>,,,>>>>>,,,,,;;;:::>>,,,,,,<<---           ,,>>>>>>,,,,,;;;::>>>,,,,,<<<---,,---;;;>>,,,>>>>>,,,,,,;;:::",
">>>,,,,,<<<--,,,---;;>>>,,,>>>>>,,,,,;;;:::>>,,,,,,<<---           ,,>>>>>>,,,,,;;;::>>>,,,,,<<<---,,---;;;>>,,,>>>>>,,,,,,;;:::",
":::::---,,,,,---;;;::,,,:::&&;;;,,,<<,,,&&&:::::---,,,,,           ::&&&;;;,,<<<,,,&&::::::--,,,,,,--;;;:::,,:::&&&;;,,,<<<,,&&&",
":::::---,,,,,---;;;::,,,:::&&;;;,,,<<,,,&&&:::::---,,,,,---;;:::,,,::&&&;;;,,<<<,,,&&::::::--,,,,,,--;;;:::,,:::&&&;;,,,<<<,,&&&",
",,,,,&&&:::>>;;;:::,,>>>;;;,,,,,,,,,,,,,>>>,,,,,&&&::>>>;;;::,,,>>>;;,,,,,,,,,,,,,,>>,,,,,,&&:::>>>;;:::,,,>>;;;,,,,,,,,,,,,,>>>",
",,,,,&&&:::>>;;;:::,,>>>;;;,,,,,,,,,,,,,>>>,,,,,&&&::>>>;;;::,,,>>>;;,,,,,,,,,,,,,,>>,,,,,,&&:::>>>;;:::,,,>>;;;,,,,,,,,,,,,,>>>",
",,,,,&&&:::>>;;;:::,,>>>;;;,,,,,,,,,,,,,>>>,,,,,&&&::>>>;;;::,,,>>>;;,,,,,,,,,,,,,,>>,,,,,,&&:::>>>;;:::,,,>>;;;,,,,,,,,,,,,,>>>"
};
