/* XPM */
static char *result[] = {
/* columns rows colors chars-per-pixel */
"128 128 19 1 ",
"  c #610A22",
". c #6A0B26",
"X c #800D2D",
"o c #9C1138",
"O c #AB123D",
"+ c #AF123F",
"@ c #C61547",
"# c #CB1649",
"$ c #EA4170",
"% c #EF6C91",
"& c #F2B586",
"* c #F394AF",
"= c #F5A4BB",
"- c #DFD1A5",
"; c #D7D4B2",
": c #E8C2A0",
"> c #FFC5BF",
", c #FFDAB0",
"< c #FFDFEF",
/* pixels */
",,,,,,,,:::,,:::,,,;;;;;,,,;;<<<>>>::>>>,,,,,,,,,,,::,,,:::,,;;;;;;,,;;;<<<>>:::>>>,,,,,,,,,,:::,,,::,,,;;;;;,,,;;;<<>>>:::>>,,,",
",,,,,,,,:::,,:::,,,;;;;;,,,;;<<<>>>::>>>,,,,,,,,,,,::,,,:::,,;;;;;;,,;;;<<<>>:::>>>,,,,,,,,,,:::,,,::,,,;;;;;,,,;;;<<>>>:::>>,,,",
",,,,,,,,:::,,:::,,,;;;;;,,,;;<<<>>>::>>>,,,,,,,,,,,::,,,:::,,;;;;;;,,;;;<<<>>:::>>>,,,,,,,,,,:::,,,::,,,;;;;;,,,;;;<<>>>:::>>,,,",
",,,,,&&&:::&&,,,<<<>>::::::,,;;;>>>,,:::,,,,,,,,&&&::&&&,,,<<>>>:::::,,,;;;>>,,,:::,,,,,,,,&&:::&&&,,<<<>>>:::::,,,;;>>>,,,::,,,",
",,,,,&&&:::&&,,,<<<>>::::::,,;;;>>>,,:::,,,,,,,,&&&::&&&,,,<<>>>:::::,,,;;;>>,,,:::,,,,,,,,&&:::&&&,,<<<>>>:::::,,,;;>>>,,,::,,,",
">>>&&::::::,,,,,,,,::,,,>>>::,,,:::,,,,,>>>>>&&&:::::,,,,,,,,:::,,,>>:::,,,::,,,,,,>>>>>&&&:::::,,,,,,,,:::,,>>>:::,,:::,,,,,>>>",
">>>&&::::::,,,,,,,,::,,,>>>::,,,:::,,,,,>>>>>&&&:::::,,,,,,,,:::,,,>>:::,,,::,,,,,,>>>>>&&&:::::,,,,,,,,:::,,>>>:::,,:::,,,,,>>>",
">>>&&::::::,,,,,,,,::,,,>>>::,,,:::,,,,,>>>>>&&&:::::,,,,,,,,:::,,,>>:::,,,::,,,,,,>>>>>&&&:::::,,,,,,,,:::,,>>>:::,,:::,,,,,>>>",
":::::,,,,,,:::::&&&,,,,,>>>;;&&&&&&>>&&&::::::::,,,,,::::::&&,,,,,,>>;;;&&&&&>>>&&&::::::::,,,,,:::::&&&,,,,,>>>;;;&&&&&>>>&&:::",
":::::,,,,,,:::::&&&,,,,,>>>;;&&&&&&>>&&&::::::::,,,,,::::::&&,,,,,,>>;;;&&&&&>>>&&&::::::::,,,,,:::::&&&,,,,,>>>;;;&&&&&>>>&&:::",
":::::,,,,,,:::::&&&,,,,,>>>;;&&&&&&>>&&&::::::::,,,,,::::::&&,,,,,,>>;;;&&&&&>>>&&&::::::::,,,,,:::::&&&,,,,,>>>;;;&&&&&>>>&&:::",
">>>,,:::,,,,,>>>;;;,,;;;,,,::>>>,,,;;,,,;;;>>,,,:::,,,,,>>>;;,,,;;;,,:::>>>,,;;;,,,;;>>>,,,::,,,,,,>>;;;,,,;;,,,:::>>,,,;;;,,;;;",
">>>,,:::,,,,,>>>;;;,,;;;,,,::>>>,,,;;,,,;;;>>,,,:::,,,,,>>>;;,,,;;;,,:::>>>,,;;;,,,;;>>>,,,::,,,,,,>>;;;,,,;;,,,:::>>,,,;;;,,;;;",
":::,,,,,<<<,,>>>:::>><<<,,,,,>>>;;;,,;;;,,,::,,,,,,<<,,,>>>::>>><<<,,,,,>>>;;,,,;;;,,:::,,,,,<<<,,,>>:::>>><<,,,,,,>>;;;,,,;;,,,",
":::,,,,,<<<,,>>>:::>><<<,,,,,>>>;;;,,;;;,,,::,,,,,,<<,,,>>>::>>><<<,,,,,>>>;;,,,;;;,,:::,,,,,<<<,,,>>:::>>><<,,,,,,>>;;;,,,;;,,,",
":::,,,,,<<<,,>>>:::>><<<,,,,,>>>;;;,,;;;,,,::,,,,,,<<,,,>>>::>>><<<,,,,,>>>;;,,,;;;,,:::,,,,,<<<,,,>>:::>>><<,,,,,,>>;;;,,,;;,,,",
",,,&&>>>,,,:::::&&&,,>>>>>>,,,,,:::,,:::>>>,,&&&>>>,,::::::&&,,,>>>>>,,,,,,::,,,:::>>,,,&&&>>,,,:::::&&&,,,>>>>>,,,,,:::,,,::>>>",
",,,&&>>>,,,:::::&&&,,>>>>>>,,,,,:::,,:::>>>,,&&&>>>,,::::::&&,,,>>>>>,,,,,,::,,,:::>>,,,&&&>>,,,:::::&&&,,,>>>>>,,,,,:::,,,::>>>",
",,,&&>>>,,,:::::&&&,,>>>>>>,,,,,:::,,:::>>>,,&&&>>>,,::::::&&,,,>>>>>,,,,,,::,,,:::>>,,,&&&>>,,,:::::&&&,,,>>>>>,,,,,:::,,,::>>>",
":::;;&&&:::,,&&&>>>>>,,,,,,&&;;;:::::&&&,,,::;;;&&&::,,,&&&>>>>>,,,,,&&&;;;:::::&&&,,:::;;;&&:::,,,&&>>>>>>,,,,,&&&;;::::::&&,,,",
":::;;&&&:::,,&&&>>>>>,,,,,,&&;;;:::::&&&,,,::;;;&&&::,,,XXXXXXXXXXXXXXXX;;;:::::&&&,,:::;;;&&:::,,,&&>>>>>>,,,,,&&&;;::::::&&,,,",
",,,,,>>>>>>&&:::,,,,,<<<,,,,,:::&&&,,,,,,,,,,,,,>>>>>&&&XXXXXXXXXXXXXXXX:::&&,,,,,,,,,,,,,,>>>>>&&&::,,,,,,<<,,,,,,::&&&,,,,,,,,",
",,,,,>>>>>>&&:::,,,,,<<<,,,,,:::&&&,,,,,,,,,,,,,>>>>>&&&XXXXXXXXXXXXXXXX:::&&,,,,,,,,,,,,,,>>>>>&&&::,,,,,,<<,,,,,,::&&&,,,,,,,,",
",,,,,>>>>>>&&:::,,,,,<<<,,,,,:::&&&,,,,,,,,,,,,,>>>XXXXX+++@@$$$%%%%%@@@oooXX,,,,,,,,,,,,,,>>>>>&&&::,,,,,,<<,,,,,,::&&&,,,,,,,,",
"---,,:::&&&&&,,,,,,,,,,,:::>>&&&,,,<<---,,,--,,,:::XXXXX+++@@$$$%%%%%@@@oooXX<<<---,,---,,,::&&&&&&,,,,,,,,,,:::>>>&&,,,<<<--,,,",
"---,,:::&&&&&,,,,,,,,,,,:::>>&&&,,,<<---,,,--,,,:::XXXXX+++@@$$$%%%%%@@@oooXX<<<---,,---,,,::&&&&&&,,,,,,,,,,:::>>>&&,,,<<<--,,,",
"---,,:::&&&&&,,,,,,,,,,,:::>>&&&,,,<<---,,,--XXXXXXXXoooooo@@%%%===$$@@@oooooXXXXXX,,---,,,::&&&&&&,,,,,,,,,,:::>>>&&,,,<<<--,,,",
",,,::>>>>>>,,>>>&&&,,,,,&&&&&:::,,,--,,,---,,XXXXXXXXoooooo@@%%%===$$@@@oooooXXXXXX--,,,:::>>>>>,,,>>&&&,,,,,&&&&&&::,,,---,,---",
",,,::>>>>>>,,>>>&&&,,,,,&&&&&:::,,,--,,,---XXooo+++oo+++%%%%%%%%%%%==%%%$$$@@+++oooXX,,,:::>>>>>,,,>>&&&,,,,,&&&&&&::,,,---,,---",
":::&&,,,,,,::;;;:::&&,,,>>>>>>>>;;;,,---,,,XXooo+++oo+++%%%%%%%%%%%==%%%$$$@@+++oooXX:::&&&,,,,,:::;;:::&&&,,>>>>>>>>;;;,,,--,,,",
":::&&,,,,,,::;;;:::&&,,,>>>>>>>>;;;,,---,,,XXooo+++oo+++%%%%%%%%%%%==%%%$$$@@+++oooXX:::&&&,,,,,:::;;:::&&&,,>>>>>>>>;;;,,,--,,,",
":::&&,,,,,,::;;;:::&&,,,>>>>>>>>;;;,,---XXXooooo+++@@***%%%$$@@@@@@%%===%%%@@+++oooooXXX&&&,,,,,:::;;:::&&&,,>>>>>>>>;;;,,,--,,,",
"&&&>>,,,,,,,,---,,,,,:::>>>,,,,,&&&>>:::XXXooooo+++@@***%%%$$@@@@@@%%===%%%@@+++oooooXXX>>>,,,,,,,,--,,,,,,::>>>,,,,,&&&>>>:::::",
"&&&>>,,,,,,,,---,,,,,:::>>>,,,,,&&&>>:::XXXooooo+++@@***%%%$$@@@@@@%%===%%%@@+++oooooXXX>>>,,,,,,,,--,,,,,,::>>>,,,,,&&&>>>:::::",
"&&&>>,,,,,,,,---,,,,,:::>>>,,,,,&&&>>:::ooo++ooo@@@$$===%%%%%%%%$$$@@===%%%@@@@@ooo++ooo>>>,,,,,,,,--,,,,,,::>>>,,,,,&&&>>>:::::",
">>>,,,,,<<<--,,,---;;>>>,,,>>>>>,,,,,;;;ooo++ooo@@@$$===%%%%%%%%$$$@@===%%%@@@@@ooo++ooo,,,,,<<<---,,---;;;>>,,,>>>>>,,,,,,;;:::",
">>>,,,,,<<<--,,,---;;>>>,,,>>>>>,,,,,XXXooo++@@@@@@@@%%%%%%@@$$$OOO@@===%%%$$@@@+++++oooXXX,,<<<---,,---;;;>>,,,>>>>>,,,,,,;;:::",
":::::---,,,,,---;;;::,,,:::&&;;;,,,<<XXXooo++@@@@@@@@%%%%%%@@$$$OOO@@===%%%$$@@@+++++oooXXX--,,,,,,--;;;:::,,:::&&&;;,,,<<<,,&&&",
":::::---,,,,,---;;;::,,,:::&&;;;,,,<<XXXooo++@@@@@@@@%%%%%%@@$$$OOO@@===%%%$$@@@+++++oooXXX--,,,,,,--;;;:::,,:::&&&;;,,,<<<,,&&&",
":::::---,,,,,---;;;::,,,:::&&;;;,,,<<XXX+++@@@@@$$$oo$$$%%%%%%%%$$$oo%%%===%%ooo@@@@@+++XXX--,,,,,,--;;;:::,,:::&&&;;,,,<<<,,&&&",
",,,,,&&&:::>>;;;:::,,>>>;;;,,,,,,,,,,XXX+++@@@@@$$$oo$$$%%%%%%%%$$$oo%%%===%%ooo@@@@@+++XXX&&:::>>>;;:::,,,>>;;;,,,,,,,,,,,,,>>>",
",,,,,&&&:::>>;;;:::,,>>>;;;,,,,,,,,,,XXX+++@@@@@$$$oo$$$%%%%%%%%$$$oo%%%===%%ooo@@@@@+++XXX&&:::>>>;;:::,,,>>;;;,,,,,,,,,,,,,>>>",
",,,,,&&&:::>>;;;:::,,>>>;;;,,,,,,,,,,XXXooo@@$$$%%%$$ooo@@@$$%%%$$$oo%%%$$$@@OOO$$$@@+++XXX&&:::>>>;;:::,,,>>;;;,,,,,,,,,,,,,>>>",
",,,,,,,,:::,,:::,,,;;;;;,,,;;<<<>>>::XXXooo@@$$$%%%$$ooo@@@$$%%%$$$oo%%%$$$@@OOO$$$@@+++XXX,,:::,,,::,,,;;;;;,,,;;;<<>>>:::>>,,,",
",,,,,,,,:::,,:::,,,;;;;;,,,;;<<<>>>::XXXooo@@$$$%%%==@@@@@@oo%%%@@@@@@@@$$$OOoooOOO@@@@@XXX,,:::,,,::,,,;;;;;,,,;;;<<>>>:::>>,,,",
",,,,,&&&:::&&,,,<<<>>::::::,,;;;>>>,,XXXooo@@$$$%%%==@@@@@@oo%%%@@@@@@@@$$$OOoooOOO@@@@@XXX&&:::&&&,,<<<>>>:::::,,,;;>>>,,,::,,,",
",,,,,&&&:::&&,,,<<<>>::::::,,;;;>>>,,XXXooo@@$$$%%%==@@@@@@oo%%%@@@@@@@@$$$OOoooOOO@@@@@XXX&&:::&&&,,<<<>>>:::::,,,;;>>>,,,::,,,",
",,,,,&&&:::&&,,,<<<>>::::::,,;;;>>>,,XXXooo@@OOOooo%%===$$$@@$$$@@@%%@@@===$$OOO$$$@@@@@XXX&&:::&&&,,<<<>>>:::::,,,;;>>>,,,::,,,",
">>>&&::::::,,,,,,,,::,,,>>>::,,,:::,,XXXooo@@OOOooo%%===$$$@@$$$@@@%%@@@===$$OOO$$$@@@@@XXX:::::,,,,,,,,:::,,>>>:::,,:::,,,,,>>>",
">>>&&::::::,,,,,,,,::,,,>>>::,,,:::,,XXXooo@@OOOooo%%===$$$@@$$$@@@%%@@@===$$OOO$$$@@@@@XXX:::::,,,,,,,,:::,,>>>:::,,:::,,,,,>>>",
">>>&&::::::,,,,,,,,::,,,>>>::,,,:::,,XXX+++$$$$$OOO$$%%%@@@%%@@@OOO@@@@@%%%==%%%$$$$$@@@XXX:::::,,,,,,,,:::,,>>>:::,,:::,,,,,>>>",
":::::,,,,,,:::::&&&,,,,,>>>;;&&&&&&>>XXX+++$$$$$OOO$$%%%@@@%%@@@OOO@@@@@%%%==%%%$$$$$@@@XXX,,,,,:::::&&&,,,,,>>>;;;&&&&&>>>&&:::",
":::::,,,,,,:::::&&&,,,,,>>>;;&&&&&&>>XXX+++@@@@@@@@$$ooo@@@==OOOooo==$$$ooo%%$$$@@@@@@@@XXX,,,,,:::::&&&,,,,,>>>;;;&&&&&>>>&&:::",
">>>,,:::,,,,,>>>;;;,,;;;,,,::>>>,,,;;XXX+++@@@@@@@@$$ooo@@@==OOOooo==$$$ooo%%$$$@@@@@@@@XXX::,,,,,,>>;;;,,,;;,,,:::>>,,,;;;,,;;;",
">>>,,:::,,,,,>>>;;;,,;;;,,,::>>>,,,;;XXX+++@@@@@@@@$$ooo@@@==OOOooo==$$$ooo%%$$$@@@@@@@@XXX::,,,,,,>>;;;,,,;;,,,:::>>,,,;;;,,;;;",
">>>,,:::,,,,,>>>;;;,,;;;,,,::>>>,,,;;XXX+++@@@@@@@@@@@@@%%%==%%%OOO==$$$@@@@@@@@@@@@@@@@XXX::,,,,,,>>;;;,,,;;,,,:::>>,,,;;;,,;;;",
":::,,,,,<<<,,>>>:::>><<<,,,,,>>>;;;,,XXX+++@@@@@@@@@@@@@%%%==%%%OOO==$$$@@@@@@@@@@@@@@@@XXX,,<<<,,,>>:::>>><<,,,,,,>>;;;,,,;;,,,",
":::,,,,,<<<,,>>>:::>><<<,,,,,>>>;;;,,XXX+++@@@@@@@@@@@@@%%%==%%%OOO==$$$@@@@@@@@@@@@@@@@XXX,,<<<,,,>>:::>>><<,,,,,,>>;;;,,,;;,,,",
":::,,,,,<<<,,>>>:::>><<<,,,,,>>>;;;,,XXX+++@@@@@@@@@@@@@$$$%%===%%%%%%%%@@@@@@@@@@@@@@@@XXX,,<<<,,,>>:::>>><<,,,,,,>>;;;,,,;;,,,",
",,,&&>>>,,,:::::&&&,,>>>>>>,,,,,:::,,XXX+++@@@@@@@@@@@@@$$$%%===%%%%%%%%@@@@@@@@@@@@@@@@XXX>>,,,:::::&&&,,,>>>>>,,,,,:::,,,::>>>",
",,,&&>>>,,,:::::&&&,,>>>>>>,,,,,:::,,XXX+++@@@@@@@@@@@@@@@@oo%%%$$$$$@@@@@@@@@@@@@@@@@@@XXX>>,,,:::::&&&,,,>>>>>,,,,,:::,,,::>>>",
":::;;&&&:::,,&&&>>>>>,,,,,,&&;;;:::::XXX+++@@@@@@@@@@@@@@@@oo%%%$$$$$@@@@@@@@@@@@@@@@@@@XXX&&:::,,,&&>>>>>>,,,,,&&&;;::::::&&,,,",
":::;;&&&:::,,&&&>>>>>,,,,,,&&;;;:::::XXX+++@@@@@@@@@@@@@@@@oo%%%$$$$$@@@@@@@@@@@@@@@@@@@XXX&&:::,,,&&>>>>>>,,,,,&&&;;::::::&&,,,",
":::;;&&&:::,,&&&>>>>>,,,,,,&&;;;:::::XXX+++@@@@@@@@@@@@@@@@++@@@@@@@@@@@@@@@@@@@@@@@@@@@XXX&&:::,,,&&>>>>>>,,,,,&&&;;::::::&&,,,",
",,,,,>>>>>>&&:::,,,,,<<<,,,,,:::&&&,,XXX+++@@@@@@@@@@@@@@@@++@@@@@@@@@@@@@@@@@@@@@@@@@@@XXX>>>>>&&&::,,,,,,<<,,,,,,::&&&,,,,,,,,",
",,,,,>>>>>>&&:::,,,,,<<<,,,,,:::&&&,,XXX+++@@@@@@@@@@@@@@@@++@@@@@@@@@@@@@@@@@@@@@@@@@@@XXX>>>>>&&&::,,,,,,<<,,,,,,::&&&,,,,,,,,",
",,,,,>>>>>>&&:::,,,,,<<<,,,,,:::&&&,,XXX+++@@@@@@@@@@@@@@@@@@@@@@@@@@@@@@@@@@@@@@@@@@@@@XXX>>>>>&&&::,,,,,,<<,,,,,,::&&&,,,,,,,,",
"---,,:::&&&&&,,,,,,,,,,,:::>>&&&,,,<<XXX+++@@@@@@@@@@@@@@@@@@@@@@@@@@@@@@@@@@@@@@@@@@@@@XXX::&&&&&&,,,,,,,,,,:::>>>&&,,,<<<--,,,",
"---,,:::&&&&&,,,,,,,,,,,:::>>&&&,,,  ...XXXoo+++@@@@@@@@@@@@@@@@@@@@@@@@@@@@@@@@+++ooXXX...  &&&&&&,,,,,,,,,,:::>>>&&,,,<<<--,,,",
",,,::>>>>>>,,>>>&&&,,,,,&&&&&:::,,,  ...XXXoo+++@@@@@@@@@@@@@@@@@@@@@@@@@@@@@@@@+++ooXXX...  >>>,,,>>&&&,,,,,&&&&&&::,,,---,,---",
",,,::>>>>>>,,>>>&&&,,,,,&&&&&:::,,,  ...XXXoo+++@@@@@@@@@@@@@@@@@@@@@@@@@@@@@@@@+++ooXXX...  >>>,,,>>&&&,,,,,&&&&&&::,,,---,,---",
",,,::>>>>>>,,>>>&&&,,,,,&&&&&:::,,,  XXXoooXXooo+++++@@@@@@@@@@@@@@@@@@@@@@+++++oooXXoooXXX  >>>,,,>>&&&,,,,,&&&&&&::,,,---,,---",
":::&&,,,,,,::;;;:::&&,,,>>>>>>>>;;;  XXXoooXXooo+++++@@@@@@@@@@@@@@@@@@@@@@+++++oooXXoooXXX  ,,,:::;;:::&&&,,>>>>>>>>;;;,,,--,,,",
":::&&,,,,,,::;;;:::&&,,,>>>>>>>>;;;  XXXoooXXooo+++++@@@@@@@@@@@@@@@@@@@@@@+++++oooXXoooXXX  ,,,:::;;:::&&&,,>>>>>>>>;;;,,,--,,,",
":::&&,,,,,,::;;;:::&&,,,>>>>>>>>;;;..ooo+++@@oooooo+++++@@@@@@@@@@@@@@@@+++++oooooo@@+++ooo..,,,:::;;:::&&&,,>>>>>>>>;;;,,,--,,,",
"&&&>>,,,,,,,,---,,,,,:::>>>,,,,,&&&..ooo+++@@oooooo+++++@@@@@@@@@@@@@@@@+++++oooooo@@+++ooo..,,,,,,--,,,,,,::>>>,,,,,&&&>>>:::::",
"&&&>>,,,,,,,,---,,,,,:::>>>,,,,,   XX+++@@@%%@@@@@@@@++++++@@@@@@@@@@++++++@@@@@@@@%%@@@+++XX   ,,,--,,,,,,::>>>,,,,,&&&>>>:::::",
">>>,,,,,<<<--,,,---;;>>>,,,>>>>>   XX+++@@@%%@@@@@@@@++++++@@@@@@@@@@++++++@@@@@@@@%%@@@+++XX   ---,,---;;;>>,,,>>>>>,,,,,,;;:::",
">>>,,,,,<<<--,,,---;;>>>,,,>>>>>   XX+++@@@%%@@@@@@@@++++++@@@@@@@@@@++++++@@@@@@@@%%@@@+++XX   ---,,---;;;>>,,,>>>>>,,,,,,;;:::",
">>>,,,,,<<<--,,,---;;>>>,,,>>   XXXoo@@@@@@==%%%@@@@@@@@@@@@@@@@@@@@@@@@@@@@@@@@%%%==@@@@@@ooXXX   ,,---;;;>>,,,>>>>>,,,,,,;;:::",
":::::---,,,,,---;;;::,,,:::&&   XXXoo@@@@@@==%%%@@@@@@@@@@@@@@@@@@@@@@@@@@@@@@@@%%%==@@@@@@ooXXX   --;;;:::,,:::&&&;;,,,<<<,,&&&",
":::::---,,,,,---;;;::,,,:::&&   XXXoo@@@@@@==%%%@@@@@@@@@@@@@@@@@@@@@@@@@@@@@@@@%%%==@@@@@@ooXXX   --;;;:::,,:::&&&;;,,,<<<,,&&&",
":::::---,,,,,---;;;::,,,:::&&      ++===%%%++++++++@@@@@@@@@@@@@@@@@@@@@@@@@@@@@@@@+++++@@@++      --;;;:::,,:::&&&;;,,,<<<,,&&&",
",,,,,&&&:::>>;;;:::,,>>>;;;,,      ++===%%%++++++++@@@@@@@@@@@@@@@@@@@@@@@@@@@@@@@@+++++@@@++      ;;:::,,,>>;;;,,,,,,,,,,,,,>>>",
",,,,,&&&:::>>;;;:::,,>>>;;;,,   ooo%%%%%@@@++@@@@@@@@===%%%++ooo+++oo@@@%%%==@@@@@@@@+++%%%%%ooo   ;;:::,,,>>;;;,,,,,,,,,,,,,>>>",
",,,,,,,,:::,,:::,,,;;;;;,,,;;   ooo%%%%%@@@++@@@@@@@@===%%%++ooo+++oo@@@%%%==@@@@@@@@+++%%%%%ooo   ::,,,;;;;;,,,;;;<<>>>:::>>,,,",
",,,,,,,,:::,,:::,,,;;;;;,,,;;   ooo%%%%%@@@++@@@@@@@@===%%%++ooo+++oo@@@%%%==@@@@@@@@+++%%%%%ooo   ::,,,;;;;;,,,;;;<<>>>:::>>,,,",
",,,,,,,,:::,,:::,,,;;;;;,,,  XXX@@@==%%%@@@++@@@@@@@@$$$===%%+++@@@@@$$$===$$+++%%%##oooOOO==@@@XXX  ,,,;;;;;,,,;;;<<>>>:::>>,,,",
",,,,,&&&:::&&,,,<<<>>::::::  XXX@@@==%%%@@@++@@@@@@@@$$$===%%+++@@@@@$$$===$$+++%%%##oooOOO==@@@XXX  <<<>>>:::::,,,;;>>>,,,::,,,",
",,,,,&&&:::&&,,,<<<>>::::::  XXX@@@==%%%@@@++@@@@@@@@$$$===%%+++@@@@@$$$===$$+++%%%##oooOOO==@@@XXX  <<<>>>:::::,,,;;>>>,,,::,,,",
",,,,,&&&:::&&,,,<<<>>::::::,,   @@@==%%%ooo@@@@@$$$++@@@$$$$$===%%%%%+++%%%OO+++===##oooOOO==@@@   ,,<<<>>>:::::,,,;;>>>,,,::,,,",
">>>&&::::::,,,,,,,,::,,,>>>::   @@@==%%%ooo@@@@@$$$++@@@$$$$$===%%%%%+++%%%OO+++===##oooOOO==@@@   ,,,,,:::,,>>>:::,,:::,,,,,>>>",
">>>&&::::::,,,,,,,,::,,,>>>::   %%%%%$$$ooo$$%%%+++OOooo+++$$+++$$$%%+++$$$OO+++ooo%%oooOOO%%%%%   ,,,,,:::,,>>>:::,,:::,,,,,>>>",
":::::,,,,,,:::::&&&,,,,,>>>;;   %%%%%$$$ooo$$%%%+++OOooo+++$$+++$$$%%+++$$$OO+++ooo%%oooOOO%%%%%   ::&&&,,,,,>>>;;;&&&&&>>>&&:::",
":::::,,,,,,:::::&&&,,,,,>>>;;   %%%%%$$$ooo$$%%%+++OOooo+++$$+++$$$%%+++$$$OO+++ooo%%oooOOO%%%%%   ::&&&,,,,,>>>;;;&&&&&>>>&&:::",
":::::,,,,,,:::::&&&,,,,,>>>;;   $$$XX   %%%@@ooo@@@@@OOO+++%%+++@@@==OOO@@@%%+++ooo++%%%   XX$$$   ::&&&,,,,,>>>;;;&&&&&>>>&&:::",
">>>,,:::,,,,,>>>;;;,,;;;,,,::   $$$XX   %%%@@ooo@@@@@OOO+++%%+++@@@==OOO@@@%%+++ooo++%%%   XX$$$   >>;;;,,,;;,,,:::>>,,,;;;,,;;;",
">>>,,:::,,,,,>>>;;;,,;;;,,,::   $$$XX   %%%@@ooo@@@@@OOO+++%%+++@@@==OOO@@@%%+++ooo++%%%   XX$$$   >>;;;,,,;;,,,:::>>,,,;;;,,;;;",
">>>,,:::,,,,,>>>;;;,,;;;,,,     XXX  ===@@@oo$$$@@@++ooo$$$%%ooo@@@%%ooo@@@%%ooo===ooOOO===  XXX     ;;;,,,;;,,,:::>>,,,;;;,,;;;",
":::,,,,,<<<,,>>>:::>><<<,,,     XXX  ===@@@oo$$$@@@++ooo$$$%%ooo@@@%%ooo@@@%%ooo===ooOOO===  XXX     :::>>><<,,,,,,>>;;;,,,;;,,,",
":::,,,,,<<<,,>>>:::>><<<   oo@@@   ==@@@XXX  ===@@@oo$$$===%%ooo+++%%ooo@@@==ooo===  ooo@@@$$   @@@oo   >>><<,,,,,,>>;;;,,,;;,,,",
",,,&&>>>,,,:::::&&&,,>>>   oo@@@   ==@@@XXX  ===@@@oo$$$===%%ooo+++%%ooo@@@==ooo===  ooo@@@$$   @@@oo   ,,,>>>>>,,,,,:::,,,::>>>",
",,,&&>>>,,,:::::&&&,,>>>   oo@@@   ==@@@XXX  ===@@@oo$$$===%%ooo+++%%ooo@@@==ooo===  ooo@@@$$   @@@oo   ,,,>>>>>,,,,,:::,,,::>>>",
",,,&&>>>,,,:::::&&&,,>>>>>>     $$$@@ooo   %%@@@   $$%%%===@@oooooo$$   ooo==   $$$$$   ooo@@        &&&,,,>>>>>,,,,,:::,,,::>>>",
":::;;&&&:::,,&&&>>>>>,,,,,,     $$$@@ooo   %%@@@   $$%%%===@@oooooo$$   ooo==   $$$$$   ooo@@        >>>>>>,,,,,&&&;;::::::&&,,,",
":::;;&&&:::,,&&&>>>>>,,,,,,&&   @@@ooXXX   @@ooo   $$%%%@@@  %%%ooo@@   ooo%%   ooo@@      oo@@@   &&>>>>>>,,,,,&&&;;::::::&&,,,",
":::;;&&&:::,,&&&>>>>>,,,,,,&&   @@@ooXXX   @@ooo   $$%%%@@@  %%%ooo@@   ooo%%   ooo@@      oo@@@   &&>>>>>>,,,,,&&&;;::::::&&,,,",
",,,,,>>>>>>&&:::,,,,,<<<,,,,,   @@@ooXXX   @@ooo   $$%%%@@@  %%%ooo@@   ooo%%   ooo@@      oo@@@   ::,,,,,,<<,,,,,,::&&&,,,,,,,,",
",,,,,>>>>>>&&:::,,,,,<<<,,,,,   +++XX   ooooo   $$$%%@@@+++  %%%   ++%%%XXXoo%%%   oo@@@   XX+++   ::,,,,,,<<,,,,,,::&&&,,,,,,,,",
"---,,:::&&&&&,,,,,,,,,,,:::>>   +++XX   ooooo   $$$%%@@@+++  %%%   ++%%%XXXoo%%%   oo@@@   XX+++   ,,,,,,,,,,:::>>>&&,,,<<<--,,,",
"---,,:::&&&&&,,,,,,,,,,,:::>>   +++XX   ooooo   $$$%%@@@+++  %%%   ++%%%XXXoo%%%   oo@@@   XX+++   ,,,,,,,,,,:::>>>&&,,,<<<--,,,",
"---,,:::&&&&&,,,,,,,,,,,:::  @@@oooXX        $$$%%%@@+++   XX%%%   oo$$$   oo@@@$$$  ooo   XXooo@@@  ,,,,,,,,:::>>>&&,,,<<<--,,,",
",,,::>>>>>>,,>>>&&&,,,,,&&&  @@@oooXX        $$$%%%@@+++   XX%%%   oo$$$   oo@@@$$$  ooo   XXooo@@@  &&&,,,,,&&&&&&::,,,---,,---",
",,,::>>>>>>,,>>>&&&,,,,,&&&&&           +++oo+++@@@++      $$%%%     @@@   XXooo+++@@+++           >>&&&,,,,,&&&&&&::,,,---,,---",
",,,::>>>>>>,,>>>&&&,,,,,&&&&&           +++oo+++@@@++      $$%%%     @@@   XXooo+++@@+++           >>&&&,,,,,&&&&&&::,,,---,,---",
":::&&,,,,,,::;;;:::&&,,,>>>>>           +++oo+++@@@++      $$%%%     @@@   XXooo+++@@+++           ;;:::&&&,,>>>>>>>>;;;,,,--,,,",
":::&&,,,,,,::;;;:::&&,,,>>>>>>>>;;;,,        @@@ooo  :::   ++ooo     oooooo  XXXXXX++      ,,,,,:::;;:::&&&,,>>>>>>>>;;;,,,--,,,",
"&&&>>,,,,,,,,---,,,,,:::>>>,,,,,&&&>>        @@@ooo  ,,,   ++ooo     oooooo  XXXXXX++      ,,,,,,,,--,,,,,,::>>>,,,,,&&&>>>:::::",
"&&&>>,,,,,,,,---,,,,,:::>>>,,,,,&&&>>        @@@ooo  ,,,   ++ooo     oooooo  XXXXXX++      ,,,,,,,,--,,,,,,::>>>,,,,,&&&>>>:::::",
"&&&>>,,,,,,,,---,,,,,:::>>>,,,,,&&&>>::::::&&      ,,,,,   ++@@@   >>                &&&>>>,,,,,,,,--,,,,,,::>>>,,,,,&&&>>>:::::",
">>>,,,,,<<<--,,,---;;>>>,,,>>>>>,,,,,;;;:::>>      <<---   ++@@@   ,,                >>>,,,,,<<<---,,---;;;>>,,,>>>>>,,,,,,;;:::",
">>>,,,,,<<<--,,,---;;>>>,,,>>>>>,,,,,;;;:::>>,,,,,,<<---,,,     >>>,,>>>>>>,,,,,;;;::>>>,,,,,<<<---,,---;;;>>,,,>>>>>,,,,,,;;:::",
">>>,,,,,<<<--,,,---;;>>>,,,>>>>>,,,,,;;;:::>>,,,,,,<<---,,,     >>>,,>>>>>>,,,,,;;;::>>>,,,,,<<<---,,---;;;>>,,,>>>>>,,,,,,;;:::",
":::::---,,,,,---;;;::,,,:::&&;;;,,,<<,,,&&&:::::---,,,,,---     ,,,::&&&;;;,,<<<,,,&&::::::--,,,,,,--;;;:::,,:::&&&;;,,,<<<,,&&&",
":::::---,,,,,---;;;::,,,:::&&;;;,,,<<,,,&&&:::::---,,,,,---;;:::,,,::&&&;;;,,<<<,,,&&::::::--,,,,,,--;;;:::,,:::&&&;;,,,<<<,,&&&",
",,,,,&&&:::>>;;;:::,,>>>;;;,,,,,,,,,,,,,>>>,,,,,&&&::>>>;;;::,,,>>>;;,,,,,,,,,,,,,,>>,,,,,,&&:::>>>;;:::,,,>>;;;,,,,,,,,,,,,,>>>",
",,,,,&&&:::>>;;;:::,,>>>;;;,,,,,,,,,,,,,>>>,,,,,&&&::>>>;;;::,,,>>>;;,,,,,,,,,,,,,,>>,,,,,,&&:::>>>;;:::,,,>>;;;,,,,,,,,,,,,,>>>",
",,,,,&&&:::>>;;;:::,,>>>;;;,,,,,,,,,,,,,>>>,,,,,&&&::>>>;;;::,,,>>>;;,,,,,,,,,,,,,,>>,,,,,,&&:::>>>;;:::,,,>>;;;,,,,,,,,,,,,,>>>"
};
