/* XPM */
static char *result[] = {
/* columns rows colors chars-per-pixel */
"128 128 19 1 ",
"  c #610A22",
". c #6A0B26",
"X c #800D2D",
"o c #9C1138",
"O c #AB123D",
"+ c #AF123F",
"@ c #C61547",
"# c #CB1649",
"$ c #EA4170",
"% c #EF6C91",
"& c #F2B586",
"* c #F394AF",
"= c #F5A4BB",
"- c #DFD1A5",
"; c #D7D4B2",
": c #E8C2A0",
"> c #FFC5BF",
", c #FFDAB0",
"< c #FFDFEF",
/* pixels */
",,,,,,,,:::,,:::,,,;;;;;,,,;;<<<>>>::>>>,,,,,,,,,,,::,,,:::,,;;;;;;,,;;;<<<>>:::>>>,,,,,,,,,,:::,,,::,,,;;;;;,,,;;;<<>>>:::>>,,,",
",,,,,,,,:::,,:::,,,;;;;;,,,;;<<<>>>::>>>,,,,,,,,,,,::,,,:::,,;;;;;;,,;;;<<<>>:::>>>,,,,,,,,,,:::,,,::,,,;;;;;,,,;;;<<>>>:::>>,,,",
",,,,,,,,:::,,:::,,,;;;;;,,,;;<<<>>>::>>>,,,,,,,,,,,::,,,:::,,;;;;;;,,;;;<<<>>:::>>>,,,,,,,,,,:::,,,::,,,;;;;;,,,;;;<<>>>:::>>,,,",
",,,,,&&&:::&&,,,<<<>>::::::,,;;;>>>,,:::,,,,,,,,&&&::&&&,,,<<>>>:::::,,,;;;>>,,,:::,,,,,,,,&&:::&&&,,<<<>>>:::::,,,;;>>>,,,::,,,",
",,,,,&&&:::&&,,,<<<>>::::::,,;;;>>>,,:::,,,,,,,,&&&::&&&,,,<<>>>:::::,,,;;;>>,,,:::,,,,,,,,&&:::&&&,,<<<>>>:::::,,,;;>>>,,,::,,,",
">>>&&::::::,,,,,,,,::,,,>>>::,,,:::,,,,,>>>>>&&&:::::,,,,,,,,:::,,,>>:::,,,::,,,,,,>>>>>&&&:::::,,,,,,,,:::,,>>>:::,,:::,,,,,>>>",
">>>&&::::::,,,,,,,,::,,,>>>::,,,:::,,,,,>>>>>&&&:::::,,,,,,,,:::,,,>>:::,,,::,,,,,,>>>>>&&&:::::,,,,,,,,:::,,>>>:::,,:::,,,,,>>>",
">>>&&::::::,,,,,,,,::,,,>>>::,,,:::,,,,,>>>>>&&&:::::,,,,,,,,:::,,,>>:::,,,::,,,,,,>>>>>&&&:::::,,,,,,,,:::,,>>>:::,,:::,,,,,>>>",
":::::,,,,,,:::::&&&,,,,,>>>;;&&&&&&>>&&&::::::::,,,,,::::::&&,,,,,,>>;;;&&&&&>>>&&&::::::::,,,,,:::::&&&,,,,,>>>;;;&&&&&>>>&&:::",
":::::,,,,,,:::::&&&,,,,,>>>;;&&&&&&>>&&&::::::::,,,,,::::::&&,,,,,,>>;;;&&&&&>>>&&&::::::::,,,,,:::::&&&,,,,,>>>;;;&&&&&>>>&&:::",
":::::,,,,,,:::::&&&,,,,,>>>;;&&&&&&>>&&&::::::::,,,,,::::::&&,,,,,,>>;;;&&&&&>>>&&&::::::::,,,,,:::::&&&,,,,,>>>;;;&&&&&>>>&&:::",
">>>,,:::,,,,,>>>;;;,,;;;,,,::>>>,,,;;,,,;;;>>,,,:::,,,,,>>>;;,,,;;;,,:::>>>,,;;;,,,;;>>>,,,::,,,,,,>>;;;,,,;;,,,:::>>,,,;;;,,;;;",
">>>,,:::,,,,,>>>;;;,,;;;,,,::>>>,,,;;,,,;;;>>,,,:::,,,,,>>>;;,,,;;;,,:::>>>,,;;;,,,;;>>>,,,::,,,,,,>>;;;,,,;;,,,:::>>,,,;;;,,;;;",
":::,,,,,<<<,,>>>:::>><<<,,,,,>>>;;;,,;;;,,,::,,,,,,<<,,,>>>::>>><<<,,,,,>>>;;,,,;;;,,:::,,,,,<<<,,,>>:::>>><<,,,,,,>>;;;,,,;;,,,",
":::,,,,,<<<,,>>>:::>><<<,,,,,>>>;;;,,;;;,,,::,,,,,,<<,,,>>>::>>><<<,,,,,>>>;;,,,;;;,,:::,,,,,<<<,,,>>:::>>><<,,,,,,>>;;;,,,;;,,,",
":::,,,,,<<<,,>>>:::>><<<,,,,,>>>;;;,,;;;,,,::,,,,,,<<,,,>>>::>>><<<,,,,,>>>;;,,,;;;,,:::,,,,,<<<,,,>>:::>>><<,,,,,,>>;;;,,,;;,,,",
",,,&&>>>,,,:::::&&&,,>>>>>>,,,,,:::,,:::>>>,,&&&>>>,,::::::&&,,,>>>>>,,,,,,::,,,:::>>,,,&&&>>,,,:::::&&&,,,>>>>>,,,,,:::,,,::>>>",
",,,&&>>>,,,:::::&&&,,>>>>>>,,,,,:::,,:::>>>,,&&&>>>,,::::::&&,,,>>>>>,,,,,,::,,,:::>>,,,&&&>>,,,:::::&&&,,,>>>>>,,,,,:::,,,::>>>",
",,,&&>>>,,,:::::&&&,,>>>>>>,,,,,:::,,:::>>>,,&&&>>>,,::::::&&,,,>>>>>,,,,,,::,,,:::>>,,,&&&>>,,,:::::&&&,,,>>>>>,,,,,:::,,,::>>>",
":::;;&&&:::,,&&&>>>>>,,,,,,&&;;;:::::&&&,,,::;;;&&&::,,,&&&>>>>>,,,,,&&&;;;:::::&&&,,:::;;;&&:::,,,&&>>>>>>,,,,,&&&;;::::::&&,,,",
":::;;&&&:::,,&&&>>>>>,,,,,,&&;;;:::::&&&,,,::;;;&&&::,,,&&&>>>>>,,,,,&&&;;;:::::&&&,,:::;;;&&:::,,,&&>>>>>>,,,,,&&&;;::::::&&,,,",
",,,,,>>>>>>&&:::,,,,,<<<,,,,,:::&&&,,,,,,,,,,,,,>>>>>&&&:::,,,,,<<<,,,,,:::&&,,,,,,,,,,,,,,>>>>>&&&::,,,,,,<<,,,,,,::&&&,,,,,,,,",
",,,,,>>>>>>&&:::,,,,,<<<,,,,,:::&&&,,,,,,,,,,,,,>>>>>&&&:::,,,,,<<<,,,,,:::&&,,,,,,,,,,,,,,>>>>>&&&::,,,,,,<<,,,,,,::&&&,,,,,,,,",
",,,,,>>>>>>&&:::,,,,,<<<,,,,,:::&&&,,,,,,,,,,,,,>>>>>&&&:::,,,,,<<<,,,,,:::&&,,,,,,,,,,,,,,>>>>>&&&::,,,,,,<<,,,,,,::&&&,,,,,,,,",
"---,,:::&&&&&,,,,,,,,,,,:::>>&&&,,,<<---,,,--,,,:::&&&&&,,,,,,,,,,,::>>>&&&,,<<<---,,---,,,::&&&&&&,,,,,,,,,,:::>>>&&,,,<<<--,,,",
"---,,:::&&&&&,,,,,,,,,,,:::>>&&&,,,<<---,,,--,,,:::&&&&&,,,,,,,,,,,::>>>&&&,,<<<---,,---,,,::&&&&&&,,,,,,,,,,:::>>>&&,,,<<<--,,,",
"---,,:::&&&&&,,,,,,,,,,,:::>>&&&,,,<<---,,,--,,,:::&&&&&,,,,,,,,,,,::>>>&&&,,<<<---,,---,,,::&&&&&&,,,,,,,,,,:::>>>&&,,,<<<--,,,",
",,,::>>>>>>,,>>>&&&,,,,,&&&&&:::,,,--,,,---,,:::>>>>>,,,>>>&&,,,,,,&&&&&:::,,---,,,--,,,:::>>>>>,,,>>&&&,,,,,&&&&&&::,,,---,,---",
",,,::>>>>>>,,>>>&&&,,,,,&&&&&:::,,,--,,,---,,:::>>>>>,,,>>>&&,,,,,,&&&&&:::,,---,,,--,,,:::>>>>>,,,>>&&&,,,,,&&&&&&::,,,---,,---",
":::&&,,,,,,::;;;:::&&,,,>>>>>>>>;;;,,---,,,::&&&,,,,,:::;;;::&&&,,,>>>>>>>>;;,,,---,,:::&&&,,,,,:::;;:::&&&,,>>>>>>>>;;;,,,--,,,",
":::&&,,,,,,::;;;:::&&,,,>>>>>>>>;;;,,---,,,::&&&,,,,,:::;;;::&&&,,,>>>>>>>>;;,,,---,,:::&&&,,,,,:::;;:::&&&,,>>>>>>>>;;;,,,--,,,",
":::&&,,,,,,::;;;:::&&,,,>>>>>>>>;;;,,---,,,::&&&,,,,,:::;;;::&&&,,,>>>>>>>>;;,,,---,,:::&&&,,,,,:::;;:::&&&,,>>>>>>>>;;;,,,--,,,",
"&&&>>,,,,,,,,---,,,,,:::>>>,,,,,&&&>>::::::&&>>>,,,,,,,,---,,,,,:::>>,,,,,,&&>>>:::::&&&>>>,,,,,,,,--,,,,,,::>>>,,,,,&&&>>>:::::",
"&&&>>,,,,,,,,---,,,,,:::>>>,,,,,&&&>>::::::&&>>>,,,,,,,,---,,,,,:::>>,,,,,,&&>>>:::::&&&>>>,,,,,,,,--,,,,,,::>>>,,,,,&&&>>>:::::",
"&&&>>,,,,,,,,---,,,,,:::>>>,,,,,&&&>>::::::&&>>>,,,,,,,,---,,,,,:::>>,,,,,,&&>>>:::::&&&>>>,,,,,,,,--,,,,,,::>>>,,,,,&&&>>>:::::",
">>>,,,,,<<<--,,,---;;>>>,,,>>>>>,,,,,;;;:::>>,,,,,,<<---,,,--;;;>>>,,>>>>>>,,,,,;;;::>>>,,,,,<<<---,,---;;;>>,,,>>>>>,,,,,,;;:::",
">>>,,,,,<<<--,,,---;;>>>,,,>>>>>,,,,,;;;:::>>,,,,,,<<---,,,--;;;>>>,,>>>>>>,,,,,;;;::>>>,,,,,<<<---,,---;;;>>,,,>>>>>,,,,,,;;:::",
":::::---,,,,,---;;;::,,,:::&&;;;,,,<<,,,&&&:::::---,,,,,---;;:::,,,::&&&;;;,,<<<,,,&&::::::--,,,,,,--;;;:::,,:::&&&;;,,,<<<,,&&&",
":::::---,,,,,---;;;::,,,:::&&;;;,,,<<,,,&&&:::::---,,,,,---;;:::,,,::&&&;;;,,<<<,,,&&::::::--,,,,,,--;;;:::,,:::&&&;;,,,<<<,,&&&",
":::::---,,,,,---;;;::,,,:::&&;;;,,,<<,,,&&&:::::---,,XXXXXXXXXXXXXXXXXXXXXX,,<<<,,,&&::::::--,,,,,,--;;;:::,,:::&&&;;,,,<<<,,&&&",
",,,,,&&&:::>>;;;:::,,>>>;;;,,,,,,,,,,,,,>>>,,,,,&&&::XXXXXXXXXXXXXXXXXXXXXX,,,,,,,,>>,,,,,,&&:::>>>;;:::,,,>>;;;,,,,,,,,,,,,,>>>",
",,,,,&&&:::>>;;;:::,,>>>;;;,,,,,,,,,,,,,>>>,,,,,&&&::XXXXXXXXXXXXXXXXXXXXXX,,,,,,,,>>,,,,,,&&:::>>>;;:::,,,>>;;;,,,,,,,,,,,,,>>>",
",,,,,&&&:::>>;;;:::,,>>>;;;,,,,,,,,,,,,,>>>,,XXXXXXXX++++++@@$$$%%%%%$$$@@@ooXXXXXX>>,,,,,,&&:::>>>;;:::,,,>>;;;,,,,,,,,,,,,,>>>",
",,,,,,,,:::,,:::,,,;;;;;,,,;;<<<>>>::>>>,,,,,XXXXXXXX++++++@@$$$%%%%%$$$@@@ooXXXXXX,,,,,,,,,,:::,,,::,,,;;;;;,,,;;;<<>>>:::>>,,,",
",,,,,,,,:::,,:::,,,;;;;;,,,;;<<<>>>::>>>XXXXXXXXoooooooo+++@@%%%===$$@@@+++ooooooooXXXXX,,,,,:::,,,::,,,;;;;;,,,;;;<<>>>:::>>,,,",
",,,,,&&&:::&&,,,<<<>>::::::,,;;;>>>,,:::XXXXXXXXoooooooo+++@@%%%===$$@@@+++ooooooooXXXXX,,,&&:::&&&,,<<<>>>:::::,,,;;>>>,,,::,,,",
",,,,,&&&:::&&,,,<<<>>::::::,,;;;>>>,,:::XXXXXXXXoooooooo+++@@%%%===$$@@@+++ooooooooXXXXX,,,&&:::&&&,,<<<>>>:::::,,,;;>>>,,,::,,,",
",,,,,&&&:::&&,,,<<<>>::::::,,;;;>>>,,XXXooo++ooo+++++%%%%%%%%%%%%%%==%%%$$$@@@@@@@@++oooXXX&&:::&&&,,<<<>>>:::::,,,;;>>>,,,::,,,",
">>>&&::::::,,,,,,,,::,,,>>>::,,,:::,,XXXooo++ooo+++++%%%%%%%%%%%%%%==%%%$$$@@@@@@@@++oooXXX:::::,,,,,,,,:::,,>>>:::,,:::,,,,,>>>",
">>>&&::::::,,,,,,,,::,,,>>>::,,,:::,,XXXooo++ooo+++++%%%%%%%%%%%%%%==%%%$$$@@@@@@@@++oooXXX:::::,,,,,,,,:::,,>>>:::,,:::,,,,,>>>",
">>>&&::::::,,,,,,,,::,,,>>>::,,,:::XXoooooo++@@@*****%%%%%%$$@@@@@@%%===%%%@@@@@@@@++ooooooXX:::,,,,,,,,:::,,>>>:::,,:::,,,,,>>>",
":::::,,,,,,:::::&&&,,,,,>>>;;&&&&&&XXoooooo++@@@*****%%%%%%$$@@@@@@%%===%%%@@@@@@@@++ooooooXX,,,:::::&&&,,,,,>>>;;;&&&&&>>>&&:::",
":::::,,,,,,:::::&&&,,,,,>>>;;&&&&&&oo+++ooo@@$$$=====***%%%%%%%%$$$@@%%%===%%%%%@@@@@ooo+++oo,,,:::::&&&,,,,,>>>;;;&&&&&>>>&&:::",
">>>,,:::,,,,,>>>;;;,,;;;,,,::>>>,,,oo+++ooo@@$$$=====***%%%%%%%%$$$@@%%%===%%%%%@@@@@ooo+++oo,,,,,,>>;;;,,,;;,,,:::>>,,,;;;,,;;;",
">>>,,:::,,,,,>>>;;;,,;;;,,,::>>>,,,oo+++ooo@@$$$=====***%%%%%%%%$$$@@%%%===%%%%%@@@@@ooo+++oo,,,,,,>>;;;,,,;;,,,:::>>,,,;;;,,;;;",
">>>,,:::,,,,,>>>;;;,,;;;,,,::>>>XXXoo+++@@@@@@@@%%%%%===%%%@@$$$OOO@@%%%===%%%%%$$$@@++++++ooXXX,,,>>;;;,,,;;,,,:::>>,,,;;;,,;;;",
":::,,,,,<<<,,>>>:::>><<<,,,,,>>>XXXoo+++@@@@@@@@%%%%%===%%%@@$$$OOO@@%%%===%%%%%$$$@@++++++ooXXX,,,>>:::>>><<,,,,,,>>;;;,,,;;,,,",
":::,,,,,<<<,,>>>:::>><<<,,,,,>>>XXXoo+++@@@@@@@@%%%%%===%%%@@$$$OOO@@%%%===%%%%%$$$@@++++++ooXXX,,,>>:::>>><<,,,,,,>>;;;,,,;;,,,",
":::,,,,,<<<,,>>>:::>><<<,,,,,>>>XXX++@@@@@@$$ooo$$$$$%%%%%%%%%%%$$$oo@@@%%%=====%%%oo@@@@@@++XXX,,,>>:::>>><<,,,,,,>>;;;,,,;;,,,",
",,,&&>>>,,,:::::&&&,,>>>>>>,,,,,XXX++@@@@@@$$ooo$$$$$%%%%%%%%%%%$$$oo@@@%%%=====%%%oo@@@@@@++XXX:::::&&&,,,>>>>>,,,,,:::,,,::>>>",
",,,&&>>>,,,:::::&&&,,>>>>>>,,XXXooo++@@@$$$%%$$$ooo$$@@@@@@$$%%%$$$oo%%%$$$$$$$$@@@OO$$$@@@++oooXXX::&&&,,,>>>>>,,,,,:::,,,::>>>",
":::;;&&&:::,,&&&>>>>>,,,,,,&&XXXooo++@@@$$$%%$$$ooo$$@@@@@@$$%%%$$$oo%%%$$$$$$$$@@@OO$$$@@@++oooXXX&&>>>>>>,,,,,&&&;;::::::&&,,,",
":::;;&&&:::,,&&&>>>>>,,,,,,&&XXXooo++@@@$$$%%$$$ooo$$@@@@@@$$%%%$$$oo%%%$$$$$$$$@@@OO$$$@@@++oooXXX&&>>>>>>,,,,,&&&;;::::::&&,,,",
":::;;&&&:::,,&&&>>>>>,,,,,,&&XXXooo@@@@@$$$%%===@@@@@%%%@@@oo%%%@@@@@%%%@@@$$$$$OOOooOOO@@@@@oooXXX&&>>>>>>,,,,,&&&;;::::::&&,,,",
",,,,,>>>>>>&&:::,,,,,<<<,,,,,XXXooo@@@@@$$$%%===@@@@@%%%@@@oo%%%@@@@@%%%@@@$$$$$OOOooOOO@@@@@oooXXX::,,,,,,<<,,,,,,::&&&,,,,,,,,",
",,,,,>>>>>>&&:::,,,,,<<<,,,,,XXXooo@@@@@$$$%%===@@@@@%%%@@@oo%%%@@@@@%%%@@@$$$$$OOOooOOO@@@@@oooXXX::,,,,,,<<,,,,,,::&&&,,,,,,,,",
",,,,,>>>>>>&&:::,,,,,<<<,,,,,XXXooo@@@@@OOOoo%%%=====%%%$$$@@$$$@@@%%@@@@@@=====$$$OO$$$@@@@@oooXXX::,,,,,,<<,,,,,,::&&&,,,,,,,,",
"---,,:::&&&&&,,,,,,,,,,,:::>>XXXooo@@@@@OOOoo%%%=====%%%$$$@@$$$@@@%%@@@@@@=====$$$OO$$$@@@@@oooXXX,,,,,,,,,,:::>>>&&,,,<<<--,,,",
"---,,:::&&&&&,,,,,,,,,,,:::>>XXX+++@@$$$$$$OO$$$%%%%%%%%@@@%%@@@OOO@@%%%@@@%%%%%===%%$$$$$$@@+++XXX,,,,,,,,,,:::>>>&&,,,<<<--,,,",
",,,::>>>>>>,,>>>&&&,,,,,&&&&&XXX+++@@$$$$$$OO$$$%%%%%%%%@@@%%@@@OOO@@%%%@@@%%%%%===%%$$$$$$@@+++XXX>>&&&,,,,,&&&&&&::,,,---,,---",
",,,::>>>>>>,,>>>&&&,,,,,&&&&&XXX+++@@$$$$$$OO$$$%%%%%%%%@@@%%@@@OOO@@%%%@@@%%%%%===%%$$$$$$@@+++XXX>>&&&,,,,,&&&&&&::,,,---,,---",
",,,::>>>>>>,,>>>&&&,,,,,&&&&&XXX+++@@@@@@@@@@$$$ooo$$@@@@@@==OOOooo%%===$$$$$ooo%%%$$@@@@@@@@+++XXX>>&&&,,,,,&&&&&&::,,,---,,---",
":::&&,,,,,,::;;;:::&&,,,>>>>>XXX+++@@@@@@@@@@$$$ooo$$@@@@@@==OOOooo%%===$$$$$ooo%%%$$@@@@@@@@+++XXX;;:::&&&,,>>>>>>>>;;;,,,--,,,",
":::&&,,,,,,::;;;:::&&,,,>>>>>XXX+++@@@@@@@@@@$$$ooo$$@@@@@@==OOOooo%%===$$$$$ooo%%%$$@@@@@@@@+++XXX;;:::&&&,,>>>>>>>>;;;,,,--,,,",
":::&&,,,,,,::;;;:::&&,,,>>>  ...XXXoo+++@@@@@@@@@@@@@$$$%%%==%%%OOO%%===$$$@@@@@@@@@@@@@+++ooXXX...  :::&&&,,>>>>>>>>;;;,,,--,,,",
"&&&>>,,,,,,,,---,,,,,:::>>>  ...XXXoo+++@@@@@@@@@@@@@$$$%%%==%%%OOO%%===$$$@@@@@@@@@@@@@+++ooXXX...  ,,,,,,::>>>,,,,,&&&>>>:::::",
"&&&>>,,,,,,,,---,,,,,:::>>>  XXXoooXXooo+++++@@@@@@@@@@@$$$%%===%%%%%%%%@@@@@@@@@@@+++++oooXXoooXXX  ,,,,,,::>>>,,,,,&&&>>>:::::",
">>>,,,,,<<<--,,,---;;>>>,,,  XXXoooXXooo+++++@@@@@@@@@@@$$$%%===%%%%%%%%@@@@@@@@@@@+++++oooXXoooXXX  ---;;;>>,,,>>>>>,,,,,,;;:::",
">>>,,,,,<<<--,,,---;;>>>,,,  XXXoooXXooo+++++@@@@@@@@@@@$$$%%===%%%%%%%%@@@@@@@@@@@+++++oooXXoooXXX  ---;;;>>,,,>>>>>,,,,,,;;:::",
">>>,,,,,<<<--,,,---;;>>>,,,..ooo+++@@oooooo+++++@@@@@@@@@@@oo%%%$$$$$@@@@@@@@@@@+++++oooooo@@+++ooo..---;;;>>,,,>>>>>,,,,,,;;:::",
":::::---,,,,,---;;;::,,,:::..ooo+++@@oooooo+++++@@@@@@@@@@@oo%%%$$$$$@@@@@@@@@@@+++++oooooo@@+++ooo..;;;:::,,:::&&&;;,,,<<<,,&&&",
":::::---,,,,,---;;;::,,,:::..ooo+++@@oooooo+++++@@@@@@@@@@@oo%%%$$$$$@@@@@@@@@@@+++++oooooo@@+++ooo..;;;:::,,:::&&&;;,,,<<<,,&&&",
":::::---,,,,,---;;;::,,,   XX+++@@@%%@@@@@@@@++++++++@@@@@@++@@@@@@@@@@@@@@++++++++@@@@@@@@%%@@@+++XX   :::,,:::&&&;;,,,<<<,,&&&",
",,,,,&&&:::>>;;;:::,,>>>   XX+++@@@%%@@@@@@@@++++++++@@@@@@++@@@@@@@@@@@@@@++++++++@@@@@@@@%%@@@+++XX   ,,,>>;;;,,,,,,,,,,,,,>>>",
",,,,,&&&:::>>;;;:::,,   XXXoo@@@@@@==%%%@@@@@@@@@@@@@@@@@@@@@@@@@@@@@@@@@@@@@@@@@@@@@@@@%%%==@@@@@@ooXXX   >>;;;,,,,,,,,,,,,,>>>",
",,,,,,,,:::,,:::,,,;;   XXXoo@@@@@@==%%%@@@@@@@@@@@@@@@@@@@@@@@@@@@@@@@@@@@@@@@@@@@@@@@@%%%==@@@@@@ooXXX   ;;,,,;;;<<>>>:::>>,,,",
",,,,,,,,:::,,:::,,,;;   XXXoo@@@@@@==%%%@@@@@@@@@@@@@@@@@@@@@@@@@@@@@@@@@@@@@@@@@@@@@@@@%%%==@@@@@@ooXXX   ;;,,,;;;<<>>>:::>>,,,",
",,,,,,,,:::,,:::,,,;;      ++===%%%++++++++@@===%%%@@@@@+++ooooo+++ooooo+++@@@@@%%%==@@@@@@+++++@@@++      ;;,,,;;;<<>>>:::>>,,,",
",,,,,&&&:::&&,,,<<<>>      ++===%%%++++++++@@===%%%@@@@@+++ooooo+++ooooo+++@@@@@%%%==@@@@@@+++++@@@++      :::::,,,;;>>>,,,::,,,",
",,,,,&&&:::&&,,,<<<>>      ++===%%%++++++++@@===%%%@@@@@+++ooooo+++ooooo+++@@@@@%%%==@@@@@@+++++@@@++      :::::,,,;;>>>,,,::,,,",
",,,,,&&&:::&&,,,<<<  XXXooo%%%%%@@@++@@@@@@@@$$$=====%%%@@@+++++@@@@@+++@@@$$$$$===$$+++%%%@@+++%%%%%oooXXX  :::,,,;;>>>,,,::,,,",
">>>&&::::::,,,,,,,,  XXXooo%%%%%@@@++@@@@@@@@$$$=====%%%@@@+++++@@@@@+++@@@$$$$$===$$+++%%%@@+++%%%%%oooXXX  >>>:::,,:::,,,,,>>>",
">>>&&::::::,,,,,   XXooo@@@==%%%ooo@@@@@$$$++@@@$$$$$$$$========%%%%%======++@@@%%%OO+++===##oooOOO==@@@oooXX   :::,,:::,,,,,>>>",
":::::,,,,,,:::::   XXooo@@@==%%%ooo@@@@@$$$++@@@$$$$$$$$========%%%%%======++@@@%%%OO+++===##oooOOO==@@@oooXX   ;;;&&&&&>>>&&:::",
":::::,,,,,,:::::   XXooo@@@==%%%ooo@@@@@$$$++@@@$$$$$$$$========%%%%%======++@@@%%%OO+++===##oooOOO==@@@oooXX   ;;;&&&&&>>>&&:::",
":::::,,,,,,:::::&&&  ...$$$XX   %%%@@ooo@@@@@OOO+++++%%%@@@%%+++@@@==@@@%%%OO@@@@@@%%+++ooo++%%%   XX$$$...  >>>;;;&&&&&>>>&&:::",
">>>,,:::,,,,,>>>;;;  ...$$$XX   %%%@@ooo@@@@@OOO+++++%%%@@@%%+++@@@==@@@%%%OO@@@@@@%%+++ooo++%%%   XX$$$...  ,,,:::>>,,,;;;,,;;;",
">>>,,:::,,,,,>>>;;;  ...$$$XX   %%%@@ooo@@@@@OOO+++++%%%@@@%%+++@@@==@@@%%%OO@@@@@@%%+++ooo++%%%   XX$$$...  ,,,:::>>,,,;;;,,;;;",
">>>,,:::,,,,,>>>     oooXXX  ===@@@oo$$$@@@++ooo$$$$$%%%+++$$ooo@@@%%@@@$$$oo+++@@@%%ooo===ooOOO===  XXXooo     :::>>,,,;;;,,;;;",
":::,,,,,<<<,,>>>     oooXXX  ===@@@oo$$$@@@++ooo$$$$$%%%+++$$ooo@@@%%@@@$$$oo+++@@@%%ooo===ooOOO===  XXXooo     ,,,>>;;;,,,;;,,,",
":::,,,,,<<<,,   ooooo@@@   ==@@@XXX  ===@@@oo$$$=====%%%@@@++ooo+++%%@@@@@@ooOOO@@@==ooo===  ooo@@@$$   @@@ooooo   >>;;;,,,;;,,,",
",,,&&>>>,,,::   ooooo@@@   ==@@@XXX  ===@@@oo$$$=====%%%@@@++ooo+++%%@@@@@@ooOOO@@@==ooo===  ooo@@@$$   @@@ooooo   ,,:::,,,::>>>",
",,,&&>>>,,,::   ooooo@@@   ==@@@XXX  ===@@@oo$$$=====%%%@@@++ooo+++%%@@@@@@ooOOO@@@==ooo===  ooo@@@$$   @@@ooooo   ,,:::,,,::>>>",
",,,&&>>>,,,:::::        $$$@@ooo   %%@@@   $$%%%===@@@@@@@@++oooooo$$@@@@@@@@   ooo==   $$$$$   ooo@@           ,,,,,:::,,,::>>>",
":::;;&&&:::,,&&&        $$$@@ooo   %%@@@   $$%%%===@@@@@@@@++oooooo$$@@@@@@@@   ooo==   $$$$$   ooo@@           &&&;;::::::&&,,,",
":::;;&&&:::,,&&&>>>>>   @@@ooXXX   @@ooo   $$%%%@@@@@@@@+++  %%%ooo@@@@@%%%%%   ooo%%   ooo@@      oo@@@   ,,,,,&&&;;::::::&&,,,",
":::;;&&&:::,,&&&>>>>>   @@@ooXXX   @@ooo   $$%%%@@@@@@@@+++  %%%ooo@@@@@%%%%%   ooo%%   ooo@@      oo@@@   ,,,,,&&&;;::::::&&,,,",
",,,,,>>>>>>&&:::,,,,,   @@@ooXXX   @@ooo   $$%%%@@@@@@@@+++  %%%ooo@@@@@%%%%%   ooo%%   ooo@@      oo@@@   <<,,,,,,::&&&,,,,,,,,",
",,,,,>>>>>>&&:::,,,  @@@oooXX   ooooo   $$$%%@@@@@@@@+++ooo  %%%   ++@@@@@@$$%%%XXXoo%%%   oo@@@   XXooo@@@  ,,,,,,::&&&,,,,,,,,",
"---,,:::&&&&&,,,,,,  @@@oooXX   ooooo   $$$%%@@@@@@@@+++ooo  %%%   ++@@@@@@$$%%%XXXoo%%%   oo@@@   XXooo@@@  :::>>>&&,,,<<<--,,,",
"---,,:::&&&&&,,,,,,  @@@oooXX   ooooo   $$$%%@@@@@@@@+++ooo  %%%   ++@@@@@@$$%%%XXXoo%%%   oo@@@   XXooo@@@  :::>>>&&,,,<<<--,,,",
"---,,:::&&&&&,,,   @@oooXXX          $$$%%%@@@@@@@@++ooo   %%@@@$$$  ooo+++@@$$$   oo@@@$$$     ooo  XXXooo@@   >>>&&,,,<<<--,,,",
",,,::>>>>>>,,>>>   @@oooXXX          $$$%%%@@@@@@@@++ooo   %%@@@$$$  ooo+++@@$$$   oo@@@$$$     ooo  XXXooo@@   &&&::,,,---,,---",
",,,::>>>>>>,,>>>&&&          +++ooooo+++@@@++++++++     $$$@@+++@@@%%   ooooo@@@   XXooo+++@@@@@+++          &&&&&&::,,,---,,---",
",,,::>>>>>>,,>>>&&&          +++ooooo+++@@@++++++++     $$$@@+++@@@%%   ooooo@@@   XXooo+++@@@@@+++          &&&&&&::,,,---,,---",
":::&&,,,,,,::;;;:::          +++ooooo+++@@@++++++++     $$$@@+++@@@%%   ooooo@@@   XXooo+++@@@@@+++          >>>>>>>>;;;,,,--,,,",
":::&&,,,,,,::;;;:::&&,,,>>>        ++@@@ooo          $$$@@@++ooo+++@@$$$     oooooo  XXXXXXoo+++     :::&&&,,>>>>>>>>;;;,,,--,,,",
"&&&>>,,,,,,,,---,,,,,:::>>>        ++@@@ooo          $$$@@@++ooo+++@@$$$     oooooo  XXXXXXoo+++     ,,,,,,::>>>,,,,,&&&>>>:::::",
"&&&>>,,,,,,,,---,,,,,:::>>>        ++@@@ooo          $$$@@@++ooo+++@@$$$     oooooo  XXXXXXoo+++     ,,,,,,::>>>,,,,,&&&>>>:::::",
"&&&>>,,,,,,,,---,,,,,:::>>>,,,,,&&&        &&>>>   ++@@@@@@ooXXXooo++@@@   &&                   ,,,--,,,,,,::>>>,,,,,&&&>>>:::::",
">>>,,,,,<<<--,,,---;;>>>,,,>>>>>,,,        >>,,,   ++@@@@@@ooXXXooo++@@@   ,,                   ---,,---;;;>>,,,>>>>>,,,,,,;;:::",
">>>,,,,,<<<--,,,---;;>>>,,,>>>>>,,,,,;;;:::>>,,,,,,                     >>>,,,,,;;;::>>>,,,,,<<<---,,---;;;>>,,,>>>>>,,,,,,;;:::",
">>>,,,,,<<<--,,,---;;>>>,,,>>>>>,,,,,;;;:::>>,,,,,,                     >>>,,,,,;;;::>>>,,,,,<<<---,,---;;;>>,,,>>>>>,,,,,,;;:::",
":::::---,,,,,---;;;::,,,:::&&;;;,,,<<,,,&&&:::::---                     ;;;,,<<<,,,&&::::::--,,,,,,--;;;:::,,:::&&&;;,,,<<<,,&&&",
":::::---,,,,,---;;;::,,,:::&&;;;,,,<<,,,&&&:::::---,,,,,---;;:::,,,::&&&;;;,,<<<,,,&&::::::--,,,,,,--;;;:::,,:::&&&;;,,,<<<,,&&&",
",,,,,&&&:::>>;;;:::,,>>>;;;,,,,,,,,,,,,,>>>,,,,,&&&::>>>;;;::,,,>>>;;,,,,,,,,,,,,,,>>,,,,,,&&:::>>>;;:::,,,>>;;;,,,,,,,,,,,,,>>>",
",,,,,&&&:::>>;;;:::,,>>>;;;,,,,,,,,,,,,,>>>,,,,,&&&::>>>;;;::,,,>>>;;,,,,,,,,,,,,,,>>,,,,,,&&:::>>>;;:::,,,>>;;;,,,,,,,,,,,,,>>>",
",,,,,&&&:::>>;;;:::,,>>>;;;,,,,,,,,,,,,,>>>,,,,,&&&::>>>;;;::,,,>>>;;,,,,,,,,,,,,,,>>,,,,,,&&:::>>>;;:::,,,>>;;;,,,,,,,,,,,,,>>>"
};
