/* XPM */
static char *result[] = {
/* columns rows colors chars-per-pixel */
"128 128 26 1 ",
"  c #000008",
". c #610A22",
"X c #6A0B26",
"o c #462F28",
"O c #800D2D",
"+ c #9C1138",
"@ c #AB123D",
"# c #AF123F",
"$ c #C61547",
"% c #DC174E",
"& c #845944",
"* c #EA4170",
"= c #C68661",
"- c #F8A878",
"; c #EF6C91",
": c #F2B586",
"> c #F394AF",
", c #F5A4BB",
"< c #DFD1A5",
"1 c #D7D4B2",
"2 c #E8C2A0",
"3 c #FFC5BF",
"4 c #FFDAB0",
"5 c #F8D1BA",
"6 c #FFDFEF",
"7 c #F8F8F8",
/* pixels */
"44444444222442224441111144411666333223334444444444422444222441111114411166633222333444444444422244422444111114441116633322233444",
"44444444222442224441111144411666333223334444444444422444222441111114411166633222333444444444422244422444111114441116633322233444",
"44444444222442224441111144411666333223334444444444422444222441111114411166633222333444444444422244422444111114441116633322233444",
"44444:::222::44466633222222441113334422244444444:::22:::44466333222224441113344422244444444::222:::44666333222224441133344422444",
"44444:::222::44466633222222441113334422244444444:::22:::44466333222224441113344422244444444::222:::44666333222224441133344422444",
"333::2222224444444422444333224442224444433333:::2222244444444222444332224442244444433333:::2222244444444222443332224422244444333",
"333::2222224444444422444333224442224444433333:::2222244444444222444332224442244444433333:::2222244444444222443332224422244444333",
"333::2222224444444422444333224442224444433333:::2222244444444222444332224442244444433333:::2222244444444222443332224422244444333",
"2222244444422222:::4444433311::::::33:::2222222244444222222::44444433111:::::333:::222222224444422222:::44444333111:::::333::222",
"2222244444422222:::4444433311::::::33:::2222222244444222222::44444433111:::::333:::222222224444422222:::44444333111:::::333::222",
"2222244444422222:::4444433311::::::33:::2222222244444222222::44444433111:::::333:::222222224444422222:::44444333111:::::333::222",
"33344222444443331114411144422333444114441113344422244444333114441114422233344111444113334442244444433111444114442223344411144111",
"33344222444443331114411144422333444114441113344422244444333114441114422233344111444113334442244444433111444114442223344411144111",
"22244444666443332223366644444333111441114442244444466444333223336664444433311444111442224444466644433222333664444443311144411444",
"22244444666443332223366644444333111441114442244444466444333223336664444433311444111442224444466644433222333664444443311144411444",
"22244444666443332223366644444333111441114442244444466444333223336664444433311444111442224444466644433222333664444443311144411444",
"444::33344422222:::44333333444442224422233344:::33344222222::444333334444442244422233444:::3344422222:::444333334444422244422333",
"444::33344422222:::44333333444442224422233344:::33344222222::444333334444442244422233444:::3344422222:::444333334444422244422333",
"444::33344422222:::44333333444442224422233344:::33344222222::444333334444442244422233444:::3344422222:::444333334444422244422333",
"22211:::22244:::33333444444::11122222:::44422111:::22444:::3333344444:::11122222:::44222111::222444::33333344444:::11222222::444",
"22211:::22244:::33333444444::11122222:::44422111:::22444:::3333344444:::11122222:::44222111::222444::33333344444:::11222222::444",
"44444333333::2224444466644444222:::444444444444433333:::2224444466644444222::4444444444444433333:::224444446644444422:::44444444",
"44444333333::2224444466644444222:::444444444444433333:::2224444466644444222::4444444444444433333:::224444446644444422:::44444444",
"44444333333::2224444466644444222:::444444444444433333:::2224444466644444222::4444444444444433333:::224444446644444422:::44444444",
"<<<44222:::::4444444444422233:::44466<<<444<<444222:::::4444444444422333:::44666<<<44<<<44422::::::4444444444222333::444666<<444",
"<<<44222:::::4444444444422233:::44466<<<444<<444222:::::4444444444422333:::44666<<<44<<<44422::::::4444444444222333::444666<<444",
"<<<44222:::::4444444444422233:::44466<<<444<<444222:::::4444444444422333:::44666<<<44<<<44422::::::4444444444222333::444666<<444",
"4442233333344333:::44444:::::222444<<444<<<4422233333444333::444444:::::22244<<<444<<4442223333344433:::44444::::::22444<<<44<<<",
"4442233333344333:::44444:::::222444<<444<<<4422233333444333::444444:::::22244<<<444<<4442223333344433:::44444::::::22444<<<44<<<",
"222::44444422111222::4443333333311144<<<44422:::4444422211122:::4443333333311444<<<44222:::4444422211222:::4433333333111444<<444",
"222::44444422111222::4443333333311144<<<44422:::4444422211122:::4443333333311444<<<44222:::4444422211222:::4433333333111444<<444",
"222::44444422111222::4443333333311144<<<44422:::4444422211122:::4443333333311444<<<44222:::4444422211222:::4433333333111444<<444",
":::3344444444<<<4444422233344444:::33222222::33344444444<<<4444422233444444::33322222:::33344444444<<4444442233344444:::33322222",
":::3344444444<<<4444422233344444:::33222222::33344444444<<<4444422233444444::33322222:::33344444444<<4444442233344444:::33322222",
":::3344444444<<<4444422233344444:::33222222::33344444444<<<4444422233444444::33322222:::33344444444<<4444442233344444:::33322222",
"33344444666<<444<<<1133344433333444441112223344444466<<<444<<11133344333333444441112233344444666<<<44<<<111334443333344444411222",
"33344444666<<444<<<1133344433333444441112223344444466<<<444<<11133344333333444441112233344444666<<<44<<<111334443333344444411222",
"22222<<<44444<<<11122444222::11144466444:::22222<<<44444<<<OOOOOOOOOOOOOOOOOO666444::222222<<444444<<11122244222:::1144466644:::",
"22222<<<44444<<<11122444222::11144466444:::22222<<<44444<<<OOOOOOOOOOOOOOOOOO666444::222222<<444444<<11122244222:::1144466644:::",
"22222<<<44444<<<11122444222::11144466444:::22222<<<44...XXX#####$$$$$***;;;;;+++OOO::222222<<444444<<11122244222:::1144466644:::",
"44444:::2223311122244333111444444444444433344444:::22...XXX#####$$$$$***;;;;;+++OOO33444444::22233311222444331114444444444444333",
"44444:::2223311122244333111444444444444433344444:::22...XXX#####$$$$$***;;;;;+++OOO33444444::22233311222444331114444444444444333",
"44444:::2223311122244333111444444444444433344444...XXOOO++++++++#####$$$$$$**,,,>>>++OOO444::22233311222444331114444444444444333",
"444444442224422244411111444116663332233344444444...XXOOO++++++++#####$$$$$$**,,,>>>++OOO4444422244422444111114441116633322233444",
"444444442224422244411111444116663332233344444444...XXOOO++++++++#####$$$$$$**,,,>>>++OOO4444422244422444111114441116633322233444",
"44444:::222::44466633222222441113334422244444...OOO+++++###$$***;;;;;;;;;;;;;;;;,,,;;***OOO::222:::44666333222224441133344422444",
"44444:::222::44466633222222441113334422244444...OOO+++++###$$***;;;;;;;;;;;;;;;;,,,;;***OOO::222:::44666333222224441133344422444",
"44444:::222::444666332222224411133344222444..OOO+++##$$$;;;**$$$;;;>>;;;;;;;;$$$;;;,,;;;$$$OO222:::44666333222224441133344422444",
"333::22222244444444224443332244422244444333..OOO+++##$$$;;;**$$$;;;>>;;;;;;;;$$$;;;,,;;;$$$OO22244444444222443332224422244444333",
"333::22222244444444224443332244422244444333..OOO+++##$$$;;;**$$$;;;>>;;;;;;;;$$$;;;,,;;;$$$OO22244444444222443332224422244444333",
"333::22222244444444224443332244422244444333XXOOO+++$$;;;,,,;;@@@***,,>>>;;;;;***$$$;;,,,;;;++22244444444222443332224422244444333",
"2222244444422222:::4444433311::::::33:::222XXOOO+++$$;;;,,,;;@@@***,,>>>;;;;;***$$$;;,,,;;;++44422222:::44444333111:::::333::222",
"2222244444422222:::4444433311::::::33:::222XXOOO+++$$;;;,,,;;@@@***,,>>>;;;;;***$$$;;,,,;;;++44422222:::44444333111:::::333::222",
"3334422244444333111441114442233344411444...OO+++###$$$$$***;;+++$$$;;,,,;;;$$@@@$$$;;,,,;;;**OOO44433111444114442223344411144111",
"3334422244444333111441114442233344411444...OO+++###$$$$$***;;+++$$$;;,,,;;;$$@@@$$$;;,,,;;;**OOO44433111444114442223344411144111",
"3334422244444333111441114442233344411444XXXOO+++$$$;;***$$$$$;;;+++**;;;;;;;;***+++$$;;;,,,;;OOO44433111444114442223344411144111",
"2224444466644333222336664444433311144111XXXOO+++$$$;;***$$$$$;;;+++**;;;;;;;;***+++$$;;;,,,;;OOO44433222333664444443311144411444",
"2224444466644333222336664444433311144111XXXOO+++$$$;;***$$$$$;;;+++**;;;;;;;;***+++$$;;;,,,;;OOO44433222333664444443311144411444",
"2224444466644333222336664444433311144...OOO++###$$$,,;;;$$$$$$$$;;;++***$$$*****+++;;***$$$$$+++OOO33222333664444443311144411444",
"444::33344422222:::443333334444422244...OOO++###$$$,,;;;$$$$$$$$;;;++***$$$*****+++;;***$$$$$+++OOO22:::444333334444422244422333",
"444::33344422222:::443333334444422244...OOO++###$$$,,;;;$$$$$$$$;;;++***$$$*****+++;;***$$$$$+++OOO22:::444333334444422244422333",
"22211:::22244:::33333444444::11122222...OOO++###$$$;;$$$oooooooo$$$;;***$$$++$$$$$$**$$$;;;$$***OOO::33333344444:::11222222::444",
"22211:::22244:::33333444444::11122222...OOO++###$$$;;$$$oooooooo$$$;;***$$$++$$$$$$**$$$;;;$$***OOO::33333344444:::11222222::444",
"22211:::22244:::33333444444::11122222...OOO++###$$$$$ooo---55555&&&oo;;;***$$$$$;;;$$;;;ooooo$$$OOO::33333344444:::11222222::444",
"44444333333::2224444466644444222:::44...OOO++###$$$$$ooo---55555&&&oo;;;***$$$$$;;;$$;;;ooooo$$$OOO224444446644444422:::44444444",
"44444333333::2224444466644444222:::44...OOO++###$$$$$ooo---55555&&&oo;;;***$$$$$;;;$$;;;ooooo$$$OOO224444446644444422:::44444444",
"44444333333::2224444466644444222:::44...OOO++###$$$oo===---5577777755ooo$$$$$@@@$$$;;ooo55555ooo:::224444446644444422:::44444444",
"<<<44222:::::4444444444422233:::44466...OOO++###$$$oo===---5577777755ooo$$$$$@@@$$$;;ooo55555ooo:::4444444444222333::444666<<444",
"<<<44222:::::4444444444422233:::44466...OOO++###$$$oo===---5577777755ooo$$$$$@@@$$$;;ooo55555ooo:::4444444444222333::444666<<444",
"4442233333344333:::44444:::::222444<<XXXOOOOO+++###oo===-----55577777555&&&oo+++;;;oo55577777555ooo33:::44444::::::22444<<<44<<<",
"4442233333344333:::44444:::::222444<<XXXOOOOO+++###oo===-----55577777555&&&oo+++;;;oo55577777555ooo33:::44444::::::22444<<<44<<<",
"4442233333344333:::44444:::::222444..OOOOOO++++++++**ooo===--------  555555--oooooo==---555  555ooo33:::44444::::::22444<<<44<<<",
"222::44444422111222::44433333333111..OOOOOO++++++++**ooo===--------  555555--oooooo==---555  555ooo11222:::4433333333111444<<444",
"222::44444422111222::44433333333111..OOOOOO++++++++**ooo===--------  555555--oooooo==---555  555ooo11222:::4433333333111444<<444",
"222::44444422111222::44433333333111..OOO+++##$$$$$$++***ooo&&======-----&&&oo$$$;;;oo&&&===--ooo;;;OO222:::4433333333111444<<444",
":::3344444444<<<4444422233344444:::..OOO+++##$$$$$$++***ooo&&======-----&&&oo$$$;;;oo&&&===--ooo;;;OO4444442233344444:::33322222",
":::3344444444<<<4444422233344444:::..OOO+++##$$$$$$++***ooo&&======-----&&&oo$$$;;;oo&&&===--ooo;;;OO4444442233344444:::33322222",
"33344444666<<444<<<1133344433333444XX+++###$$,,,;;;;;$$$***$$ooooooooooo;;;**$$$***;;;;;ooooo;;;***OO<<<111334443333344444411222",
"33344444666<<444<<<1133344433333444XX+++###$$,,,;;;;;$$$***$$ooooooooooo;;;**$$$***;;;;;ooooo;;;***OO<<<111334443333344444411222",
"33344444666<<444<<<1133344433...XXXOO+++$$$**;;;;;;,,,,,;;;**$$$;;;;;;;;***$$$$$$$$$$$$$$$$$$###+++44<<<111334443333344444411222",
"22222<<<44444<<<11122444222::...XXXOO+++$$$**;;;;;;,,,,,;;;**$$$;;;;;;;;***$$$$$$$$$$$$$$$$$$###+++<<11122244222:::1144466644:::",
"22222<<<44444<<<11122444222::...XXXOO+++$$$**;;;;;;,,,,,;;;**$$$;;;;;;;;***$$$$$$$$$$$$$$$$$$###+++<<11122244222:::1144466644:::",
"22222<<<44444<<<11122444222..OOOOOO+++++$$$;;$$$$$$;;;;;***$$***$$$$$$$$$$$,,      ,,   ,,,     ;;;OO11122244222:::1144466644:::",
"44444:::2223311122244333111..OOOOOO+++++$$$;;$$$$$$;;;;;***$$***$$$$$$$$$$$,,      ,,   ,,,     ;;;OO222444331114444444444444333",
"44444:::2223311122244333111..OOOOOO+++++$$$;;$$$$$$;;;;;***$$***$$$$$$$$$$$,,      ,,   ,,,     ;;;OO222444331114444444444444333",
"444444442224422244411111444........++###+++;;$$$,,,;;   $$$$$$$$$$$             $$$##+++   **;;;,,,++444111114441116633322233444",
"444444442224422244411111444........++###+++;;$$$,,,;;   $$$$$$$$$$$             $$$##+++   **;;;,,,++444111114441116633322233444",
"444444442224422244411111...XXOOO+++##$$$+++**;;;;;;  ,,,                ,,,  +++OOO.....***;;***;;;,,OOO111114441116633322233444",
"44444:::222::44466633222...XXOOO+++##$$$+++**;;;;;;  ,,,                ,,,  +++OOO.....***;;***;;;,,OOO333222224441133344422444",
"44444:::222::44466633222...XXOOO+++##$$$+++**;;;;;;  ,,,                ,,,  +++OOO.....***;;***;;;,,OOO333222224441133344422444",
"44444:::222::44466633...OOOOO+++++++++++###$$,,,;;;        *****$$$$$      $$...***;;,,,;;;**$$$;;;**OOO333222224441133344422444",
"333::2222224444444422...OOOOO+++++++++++###$$,,,;;;        *****$$$$$      $$...***;;,,,;;;**$$$;;;**OOO222443332224422244444333",
"333::2222224444444422...OOOOO+++++++++++###$$,,,;;;        *****$$$$$      $$...***;;,,,;;;**$$$;;;**OOO222443332224422244444333",
"2222244444422222:::44444.....###...XX$$$$$$**;;;***  ***;;;$$@@@+++**$$$+++..***;;;,,;;;$$$$$%%%;;;$$OOO44444333111:::::333::222",
"2222244444422222:::44444.....###...XX$$$$$$**;;;***  ***;;;$$@@@+++**$$$+++..***;;;,,;;;$$$$$%%%;;;$$OOO44444333111:::::333::222",
"2222244444422222:::44444333..+++...++$$$;;;;;;;;***  ;;;$$$$$$$$@@@++++++++..***;;;,,;;;$$$$$%%%;;;$$OOO44444333111:::::333::222",
"333442224444433311144111444..+++...++$$$;;;;;;;;***  ;;;$$$$$$$$@@@++++++++..***;;;,,;;;$$$$$%%%;;;$$OOO444114442223344411144111",
"333442224444433311144111444..+++...++$$$;;;;;;;;***  ;;;$$$$$$$$@@@++++++++..***;;;,,;;;$$$$$%%%;;;$$OOO444114442223344411144111",
"333442224444433311144111444..XXX+++$$;;;*****OOO...;;$$$+++$$$$$$$$$$###+++..;;;,,,$$;;;@@@$$;;;***OO111444114442223344411144111",
"222444446664433322233666444..XXX+++$$;;;*****OOO...;;$$$+++$$$$$$$$$$###+++..;;;,,,$$;;;@@@$$;;;***OO222333664444443311144411444",
"222444446664433322233666444..XXX+++$$;;;*****OOO...;;$$$+++$$$$$$$$$$###+++..;;;,,,$$;;;@@@$$;;;***OO222333664444443311144411444",
"444::33344422222:::44333...+++++***,,***@@@OO...,,,$$+++***$$;;;$$$**$$$+++..***;;;$$;;;+++$$@@@$$$..:::444333334444422244422333",
"444::33344422222:::44333...+++++***,,***@@@OO...,,,$$+++***$$;;;$$$**$$$+++..***;;;$$;;;+++$$@@@$$$..:::444333334444422244422333",
"444::33344422222:::44...+++$$;;;;;;;;$$$+++..***$$$..***;;;$$;;;$$$**$$$,,,++...;;;$$***$$$$$+++OOO22:::444333334444422244422333",
"22211:::22244:::33333...+++$$;;;;;;;;$$$+++..***$$$..***;;;$$;;;$$$**$$$,,,++...;;;$$***$$$$$+++OOO::33333344444:::11222222::444",
"22211:::22244:::33333...+++$$;;;;;;;;$$$+++..***$$$..***;;;$$;;;$$$**$$$,,,++...;;;$$***$$$$$+++OOO::33333344444:::11222222::444",
"22211:::22244:::33333444........XXX**$$$$$$$$$$$;;;**$$$;;;,,$$$***;;;;;;;;$$...***++$$$$$$$$$$$###..33333344444:::11222222::444",
"44444333333::22244444666........XXX**$$$$$$$$$$$;;;**$$$;;;,,$$$***;;;;;;;;$$...***++$$$$$$$$$$$###..4444446644444422:::44444444",
"44444333333::2224444466644444...***$$@@@;;;$$$$$+++##$$$$$$;;$$$***;;;;;,,,**...$$$;;++++++$$+++$$$..4444446644444422:::44444444",
"<<<44222:::::4444444444422233...***$$@@@;;;$$$$$+++##$$$$$$;;$$$***;;;;;,,,**...$$$;;++++++$$+++$$$..44444444222333::444666<<444",
"<<<44222:::::4444444444422233...***$$@@@;;;$$$$$+++##$$$$$$;;$$$***;;;;;,,,**...$$$;;++++++$$+++$$$..44444444222333::444666<<444",
"<<<44222:::::44444444444.....***$$$+++++,,,$$###...++$$$$$$$$***;;;,,,,,;;;++...$$$;;+++$$$##+++...4444444444222333::444666<<444",
"4442233333344333:::44444.....***$$$+++++,,,$$###...++$$$$$$$$***;;;,,,,,;;;++...$$$;;+++$$$##+++...33:::44444::::::22444<<<44<<<",
"4442233333344333:::44444.....***$$$+++++,,,$$###...++$$$$$$$$***;;;,,,,,;;;++...$$$;;+++$$$##+++...33:::44444::::::22444<<<44<<<",
"4442233333344333:::44...OOO++$$$+++..;;;$$$##...+++##$$$+++**;;;$$$$$;;;***++...$$$;;$$$+++.....44433:::44444::::::22444<<<44<<<",
"222::44444422111222::...OOO++$$$+++..;;;$$$##...+++##$$$+++**;;;$$$$$;;;***++...$$$;;$$$+++.....22211222:::4433333333111444<<444",
"222::44444422111222::444...........;;$$$###..+++###+++++###$$$$$###++...+++##+++...**......++......11222:::4433333333111444<<444",
":::3344444444<<<44444222...........;;$$$###..+++###+++++###$$$$$###++...+++##+++...**......++......<<4444442233344444:::33322222",
":::3344444444<<<44444222...........;;$$$###..+++###+++++###$$$$$###++...+++##+++...**......++......<<4444442233344444:::33322222",
":::3344444444<<<4444422233344444:::........::........###$$$++...........###$$OOO+++..++++++##$$$$$$..4444442233344444:::33322222",
"33344444666<<444<<<1133344433333444........33........###$$$++...........###$$OOO+++..++++++##$$$$$$..<<<111334443333344444411222",
"33344444666<<444<<<1133344433333444........33........###$$$++...........###$$OOO+++..++++++##$$$$$$..<<<111334443333344444411222",
"33344444666<<444<<<1133344433333444441112223344444466........11133344333...........22..............44<<<111334443333344444411222",
"22222<<<44444<<<11122444222::11144466444:::22222<<<44........22244422:::...........::..............<<11122244222:::1144466644:::",
"22222<<<44444<<<11122444222::11144466444:::22222<<<44444<<<1122244422:::11144666444::222222<<444444<<11122244222:::1144466644:::",
"44444:::2223311122244333111444444444444433344444:::2233311122444333114444444444444433444444::22233311222444331114444444444444333",
"44444:::2223311122244333111444444444444433344444:::2233311122444333114444444444444433444444::22233311222444331114444444444444333",
"44444:::2223311122244333111444444444444433344444:::2233311122444333114444444444444433444444::22233311222444331114444444444444333"
};
