/* XPM */
static char *_2876f6221bd438287e500ca28a5b3e8F3YOY2uzRkEXkzeH[] = {
/* columns rows colors chars-per-pixel */
"128 128 26 1 ",
"  c #000008",
". c #610A22",
"X c #6A0B26",
"o c #462F28",
"O c #800D2D",
"+ c #9C1138",
"@ c #AB123D",
"# c #AF123F",
"$ c #C61547",
"% c #845944",
"& c #EA4170",
"* c #C68661",
"= c #F8A878",
"- c #EF6C91",
"; c #F8AB8E",
": c #F2B586",
"> c #F394AF",
", c #F5A4BB",
"< c #DFD1A5",
"1 c #D7D4B2",
"2 c #E8C2A0",
"3 c #FFC5BF",
"4 c #FFDAB0",
"5 c #F8D1BA",
"6 c #FFDFEF",
"7 c #F8F8F8",
/* pixels */
"44444444222442224441111144411666333223334444444444422444222441111114411166633222333444444444422244422444111114441116633322233444",
"44444444222442224441111144411666333223334444444444422444222441111114411166633222333444444444422244422444111114441116633322233444",
"44444444222442224441111144411666333223334444444444422444222441111114411166633222333444444444422244422444111114441116633322233444",
"44444:::222::44466633222222441113334422244444444:::22:::44466333222224441113344422244444444::222:::44666333222224441133344422444",
"44444:::222::44466633222222441113334422244444444:::22:::44466333222224441113344422244444444::222:::44666333222224441133344422444",
"333::2222224444444422444333224442224444433333:::2222244444444222444332224442244444433333:::2222244444444222443332224422244444333",
"333::2222224444444422444333224442224444433333:::2222244444444222444332224442244444433333:::2222244444444222443332224422244444333",
"333::2222224444444422444333224442224444433333:::2222244444444222444332224442244444433333:::2222244444444222443332224422244444333",
"2222244444422222:::4444433311::::::33:::2222222244444222222::44444433111:::::333:::222222224444422222:::44444333111:::::333::222",
"2222244444422222:::4444433311::::::33:::2222222244444222222::44444433111:::::333:::222222224444422222:::44444333111:::::333::222",
"2222244444422222:::4444433311::::::33:::2222222244444222222::44444433111:::::333:::222222224444422222:::44444333111:::::333::222",
"33344222444443331114411144422333444114441113344422244444333114441114422233344111444113334442244444433111444114442223344411144111",
"33344222444443331114411144422333444114441113344422244444333114441114422233344111444113334442244444433111444114442223344411144111",
"22244444666443332223366644444333111441114442244444466444333223336664444433311444111442224444466644433222333664444443311144411444",
"22244444666443332223366644444333111441114442244444466444333223336664444433311444111442224444466644433222333664444443311144411444",
"22244444666443332223366644444333111441114442244444466444333223336664444433311444111442224444466644433222333664444443311144411444",
"444::33344422222:::44333333444442224422233344:::33344222222::444333334444442244422233444:::3344422222:::444333334444422244422333",
"444::33344422222:::44333333444442224422233344:::33344222222::444333334444442244422233444:::3344422222:::444333334444422244422333",
"444::33344422222:::44333333444442224422233344:::33344222222::444333334444442244422233444:::3344422222:::444333334444422244422333",
"22211:::22244:::33333444444::11122222:::44422111:::22444:::3333344444:::11122222:::44222111::222444::33333344444:::11222222::444",
"22211:::22244:::33333444444::11122222:::44422111:::22444:::3333344444:::11122222:::44222111::222444::33333344444:::11222222::444",
"44444333333::2224444466644444222:::444444444444433333:::2224444466644444222::4444444444444433333:::224444446644444422:::44444444",
"44444333333::2224444466644444222:::444444444444433333:::2224444466644444222::4444444444444433333:::224444446644444422:::44444444",
"44444333333::2224444466644444222:::444444444444433333:::22244OOOOOOOOOOOOOOOOOOO4444444444433333:::224444446644444422:::44444444",
"<<<44222:::::4444444444422233:::44466<<<444<<444222:::::44444OOOOOOOOOOOOOOOOOOO<<<44<<<44422::::::4444444444222333::444666<<444",
"<<<44222:::::4444444444422233:::44466<<<444<<444222:::::44444OOOOOOOOOOOOOOOOOOO<<<44<<<44422::::::4444444444222333::444666<<444",
"<<<44222:::::4444444444422233:::44466<<<444<<444222:::::...XX######$$$$$&&&-----+++OO<<<44422::::::4444444444222333::444666<<444",
"4442233333344333:::44444:::::222444<<444<<<4422233333444...XX######$$$$$&&&-----+++OO4442223333344433:::44444::::::22444<<<44<<<",
"4442233333344333:::44444:::::222444<<444<<<4422233333444...XX######$$$$$&&&-----+++OO4442223333344433:::44444::::::22444<<<44<<<",
"222::44444422111222::4443333333311144<<<44422:::444..XXXOOO++++++++#####$$$$$&&&,,,>>+++OOO4444422211222:::4433333333111444<<444",
"222::44444422111222::4443333333311144<<<44422:::444..XXXOOO++++++++#####$$$$$&&&,,,>>+++OOO4444422211222:::4433333333111444<<444",
"222::44444422111222::4443333333311144<<<44422:::...OO++++++##$$$&&&----------------,,---&&&OO44422211222:::4433333333111444<<444",
":::3344444444<<<4444422233344444:::33222222::333...OO++++++##$$$&&&----------------,,---&&&OO444444<<4444442233344444:::33322222",
":::3344444444<<<4444422233344444:::33222222::333...OO++++++##$$$&&&----------------,,---&&&OO444444<<4444442233344444:::33322222",
":::3344444444<<<4444422233344444:::33222222::...OOO++###$$$--&&&$$$-->>>--------$$$--,,,---$$OOO444<<4444442233344444:::33322222",
"33344444666<<444<<<11333444333334444411122233...OOO++###$$$--&&&$$$-->>>--------$$$--,,,---$$OOO<<<44<<<111334443333344444411222",
"33344444666<<444<<<11333444333334444411122233...OOO++###$$$--&&&$$$-->>>--------$$$--,,,---$$OOO<<<44<<<111334443333344444411222",
"22222<<<44444<<<11122444222::11144466444:::22XXXOOO++$$$---,,---@@@&&,,,>>>-----&&&$$---,,,--+++444<<11122244222:::1144466644:::",
"22222<<<44444<<<11122444222::11144466444:::22XXXOOO++$$$---,,---@@@&&,,,>>>-----&&&$$---,,,--+++444<<11122244222:::1144466644:::",
"22222<<<44444<<<11122444222::11144466444:::..OOO+++##$$$$$$&&---+++$$---,,,--$$$@@@$$---,,,--&&&OOO<<11122244222:::1144466644:::",
"44444:::22233111222443331114444444444444333..OOO+++##$$$$$$&&---+++$$---,,,--$$$@@@$$---,,,--&&&OOO11222444331114444444444444333",
"44444:::22233111222443331114444444444444333..OOO+++##$$$$$$&&---+++$$---,,,--$$$@@@$$---,,,--&&&OOO11222444331114444444444444333",
"44444:::22233111222443331114444444444444333XXOOO+++$$---&&&$$$$$---++&&&--------&&&++$$$---,,---OOO11222444331114444444444444333",
"4444444422244222444111114441166633322333444XXOOO+++$$---&&&$$$$$---++&&&--------&&&++$$$---,,---OOO22444111114441116633322233444",
"4444444422244222444111114441166633322333444XXOOO+++$$---&&&$$$$$---++&&&--------&&&++$$$---,,---OOO22444111114441116633322233444",
"44444:::222::444666332222224411133344222444..+++###$$,,,---$$$$$$$$--+++&&&$$&&&&&&++---&&&$$$$$+++OO666333222224441133344422444",
"44444:::222::444666332222224411133344222444..+++###$$,,,---$$$$$$$$--+++&&&$$&&&&&&++---&&&$$$$$+++OO666333222224441133344422444",
"44444:::222::444666332222224411133344222444..+++###$$---$$$oooooooo$$---&&&$$+++$$$$$&&&$$$--$$$&&&OO666333222224441133344422444",
"333::22222244444444224443332244422244444333..+++###$$---$$$oooooooo$$---&&&$$+++$$$$$&&&$$$--$$$&&&OO444222443332224422244444333",
"333::22222244444444224443332244422244444333..+++###$$---$$$oooooooo$$---&&&$$+++$$$$$&&&$$$--$$$&&&OO444222443332224422244444333",
"333::22222244444444224443332244422244444333..+++###$$$$$ooo==555555%%ooo---&&$$$$$$--$$$---ooooo$$$OO444222443332224422244444333",
"2222244444422222:::4444433311::::::33:::222..+++###$$$$$ooo==555555%%ooo---&&$$$$$$--$$$---ooooo$$$OO:::44444333111:::::333::222",
"2222244444422222:::4444433311::::::33:::222..+++###$$$$$ooo==555555%%ooo---&&$$$$$$--$$$---ooooo$$$OO:::44444333111:::::333::222",
"3334422244444333111441114442233344411444111..+++###$$ooo***==55577777555ooo$$$$$@@@$$---ooo55555ooo33111444114442223344411144111",
"3334422244444333111441114442233344411444111..+++###$$ooo***==55577777555ooo$$$$$@@@$$---ooo55555ooo33111444114442223344411144111",
"3334422244444333111441114442233344411444111XXOOO+++##ooo***=====55577777555%%ooo+++--ooo55577777555oo111444114442223344411144111",
"2224444466644333222336664444433311144111444XXOOO+++##ooo***=====55577777555%%ooo+++--ooo55577777555oo222333664444443311144411444",
"2224444466644333222336664444433311144111444XXOOO+++##ooo***=====55577777555%%ooo+++--ooo55577777555oo222333664444443311144411444",
"2224444466644333222336664444433311144111...OO++++++++&&&ooo**========   55555===ooooo***===55   555oo222333664444443311144411444",
"444::33344422222:::443333334444422244222...OO++++++++&&&ooo**========   55555===ooooo***===55   555oo:::444333334444422244422333",
"444::33344422222:::443333334444422244222...OO++++++++&&&ooo**========   55555===ooooo***===55   555oo:::444333334444422244422333",
"22211:::22244:::33333444444::11122222:::...OO###$$$$$+++&&&oo%%%*****======%%ooo$$$--ooo%%%**===ooo--OOO33344444:::11222222::444",
"22211:::22244:::33333444444::11122222:::...OO###$$$$$+++&&&oo%%%*****======%%ooo$$$--ooo%%%**===ooo--OOO33344444:::11222222::444",
"22211:::22244:::33333444444::11122222:::...++$$$,,,-----$$$&&$$$ooooooooooo--&&&$$$&&------ooooo---&&OOO33344444:::11222222::444",
"44444333333::2224444466644444222:::44444...++$$$,,,-----$$$&&$$$ooooooooooo--&&&$$$&&------ooooo---&&OOO4446644444422:::44444444",
"44444333333::2224444466644444222:::44444...++$$$,,,-----$$$&&$$$ooooooooooo--&&&$$$&&------ooooo---&&OOO4446644444422:::44444444",
"44444333333::2224444466644444222:::44444...++&&&-----,,,,,,--&&&$$$--------&&$$$$$$$$$$$$$$$$$$$###++4444446644444422:::44444444",
"<<<44222:::::4444444444422233:::44466<<<...++&&&-----,,,,,,--&&&$$$--------&&$$$$$$$$$$$$$$$$$$$###++44444444222333::444666<<444",
"<<<44222:::::4444444444422233:::44466<<<...++&&&-----,,,,,,--&&&$$$--------&&$$$$$$$$$$$$$$$$$$$###++44444444222333::444666<<444",
"4442233333344333:::44444:::::222444<<...OOO++---$$$$$------&&$$$&&&$$$$$$$$$$                      --OOO44444::::::22444<<<44<<<",
"4442233333344333:::44444:::::222444<<...OOO++---$$$$$------&&$$$&&&$$$$$$$$$$                      --OOO44444::::::22444<<<44<<<",
"4442233333344333:::44444:::::222444<<...OOO##---$$$,,---   $$$$$$$$$$        ,,,        ,,,          +++44444::::::22444<<<44<<<",
"222::44444422111222::4443333333311144...OOO##---$$$,,---   $$$$$$$$$$        ,,,        ,,,          +++:::4433333333111444<<444",
"222::44444422111222::4443333333311144...OOO##---$$$,,---   $$$$$$$$$$        ,,,        ,,,          +++:::4433333333111444<<444",
"222::44444422111222::4443333333311144XXX+++$$&&&-----                   ,,,  ;;;   ,,   ;;;  ,,,     OOO:::4433333333111444<<444",
":::3344444444<<<4444422233344444:::33XXX+++$$&&&-----                   ,,,  ;;;   ,,   ;;;  ,,,     OOO4442233344444:::33322222",
":::3344444444<<<4444422233344444:::33XXX+++$$&&&-----                   ,,,  ;;;   ,,   ;;;  ,,,     OOO4442233344444:::33322222",
"33344444666<<444<<<113334443333344444OOO+++$$$$$,,,--   ,,,        ,,   ;;;        ;;        ;;;   ,,   111334443333344444411222",
"33344444666<<444<<<113334443333344444OOO+++$$$$$,,,--   ,,,        ,,   ;;;        ;;        ;;;   ,,   111334443333344444411222",
"33344444666<<444<<<1133344433333444..OOO$$$&&------&&   ;;;  ,,,   ;;                                   111334443333344444411222",
"22222<<<44444<<<11122444222::111444..OOO$$$&&------&&   ;;;  ,,,   ;;                                   22244222:::1144466644:::",
"22222<<<44444<<<11122444222::111444..OOO$$$&&------&&   ;;;  ,,,   ;;                                   22244222:::1144466644:::",
"22222<<<44444<<<11122444222::111...OO+++$$$-----&&&          ;;;                                     11122244222:::1144466644:::",
"44444:::222331112224433311144444...OO+++$$$-----&&&          ;;;                                     222444331114444444444444333",
"44444:::222331112224433311144444...OO+++$$$-----&&&          ;;;                                     222444331114444444444444333",
"44444444222442224441111144411666.....+++$$$++---&&&                                        ;;   ,,,  444111114441116633322233444",
"44444444222442224441111144411666.....+++$$$++---&&&                                        ;;   ,,,  444111114441116633322233444",
"44444444222442224441111144411...XXXOO###$$$++------                                  ;;;   ,,      22444111114441116633322233444",
"44444:::222::4446663322222244...XXXOO###$$$++------                                  ;;;   ,,      44666333222224441133344422444",
"44444:::222::4446663322222244...XXXOO###$$$++------                                  ;;;   ,,      44666333222224441133344422444",
"44444:::222::44466633222222..OOOOOO++++++++##---&&&             ;;;        ;;        ,,,           44666333222224441133344422444",
"333::2222224444444422444333..OOOOOO++++++++##---&&&             ;;;        ;;        ,,,           44444222443332224422244444333",
"333::2222224444444422444333..OOOOOO++++++++##---&&&             ;;;        ;;        ,,,           44444222443332224422244444333",
"2222244444422222:::4444433311......##XXX$$$-----&&&&&      ;;   ,,,  ;;;   ,,   ;;;        $$   OOO22:::44444333111:::::333::222",
"2222244444422222:::4444433311......##XXX$$$-----&&&&&      ;;   ,,,  ;;;   ,,   ;;;        $$   OOO22:::44444333111:::::333::222",
"2222244444422222:::4444433311:::...++XXX$$$-----&&&--      ,,        ,,,        ,,,  ---@@@--&&&OOO22:::44444333111:::::333::222",
"33344222444443331114411144422333...++XXX$$$-----&&&--      ,,        ,,,        ,,,  ---@@@--&&&OOO33111444114442223344411144111",
"33344222444443331114411144422333...++XXX$$$-----&&&--      ,,        ,,,        ,,,  ---@@@--&&&OOO33111444114442223344411144111",
"33344222444443331114411144422333...XX$$$---&&&&&OOO..---     $$$             ---   $$---@@@--&&&OOO33111444114442223344411144111",
"22244444666443332223366644444333...XX$$$---&&&&&OOO..---     $$$             ---   $$---@@@--&&&OOO33222333664444443311144411444",
"22244444666443332223366644444333...XX$$$---&&&&&OOO..---     $$$             ---   $$---@@@--&&&OOO33222333664444443311144411444",
"444::33344422222:::4433333344...+++++,,,&&&@@OOO...,,$$$+++&&$$$$$$     +++..&&&---$$---+++@@$$$...22:::444333334444422244422333",
"444::33344422222:::4433333344...+++++,,,&&&@@OOO...,,$$$+++&&$$$$$$     +++..&&&---$$---+++@@$$$...22:::444333334444422244422333",
"444::33344422222:::44333333..+++$$$-----$$$++...&&&$$...&&&--$$$---$$&&&,,,++...---$$&&&$$$++OOO22222:::444333334444422244422333",
"22211:::22244:::33333444444..+++$$$-----$$$++...&&&$$...&&&--$$$---$$&&&,,,++...---$$&&&$$$++OOO444::33333344444:::11222222::444",
"22211:::22244:::33333444444..+++$$$-----$$$++...&&&$$...&&&--$$$---$$&&&,,,++...---$$&&&$$$++OOO444::33333344444:::11222222::444",
"22211:::22244:::33333444444::........&&&$$$$$$$$$$$--&&&$$$--,,,$$$&&------$$...&&&++$$$$$$$$###...::33333344444:::11222222::444",
"44444333333::2224444466644444........&&&$$$$$$$$$$$--&&&$$$--,,,$$$&&------$$...&&&++$$$$$$$$###...224444446644444422:::44444444",
"44444333333::2224444466644444222:::..$$$@@@--$$$$$$++###$$$$$---$$$&&---,,,&&...$$$--+++$$$++$$$...224444446644444422:::44444444",
"<<<44222:::::4444444444422233:::444..$$$@@@--$$$$$$++###$$$$$---$$$&&---,,,&&...$$$--+++$$$++$$$...4444444444222333::444666<<444",
"<<<44222:::::4444444444422233:::444..$$$@@@--$$$$$$++###$$$$$---$$$&&---,,,&&...$$$--+++$$$++$$$...4444444444222333::444666<<444",
"<<<44222:::::4444444444422233......&&++++++,,$$$###..+++$$$$$$$$&&&--,,,---++...$$$--+++###++...:::4444444444222333::444666<<444",
"4442233333344333:::44444:::::......&&++++++,,$$$###..+++$$$$$$$$&&&--,,,---++...$$$--+++###++...44433:::44444::::::22444<<<44<<<",
"4442233333344333:::44444:::::......&&++++++,,$$$###..+++$$$$$$$$&&&--,,,---++...$$$--+++###++...44433:::44444::::::22444<<<44<<<",
"4442233333344333:::44444:::..OOO+++$$...---$$###...++###$$$++&&&---$$$$$&&&++...$$$--$$$.....33344433:::44444::::::22444<<<44<<<",
"222::44444422111222::444333..OOO+++$$...---$$###...++###$$$++&&&---$$$$$&&&++...$$$--$$$.....44422211222:::4433333333111444<<444",
"222::44444422111222::44433333........---$$$##...+++##++++++##$$$$$$##+++...##+++...&&...+++..44422211222:::4433333333111444<<444",
":::3344444444<<<4444422233344........---$$$##...+++##++++++##$$$$$$##+++...##+++...&&...+++..444444<<4444442233344444:::33322222",
":::3344444444<<<4444422233344........---$$$##...+++##++++++##$$$$$$##+++...##+++...&&...+++..444444<<4444442233344444:::33322222",
":::3344444444<<<4444422233344444:::33........333........###$$+++........###$$OOO+++..+++###$$...444<<4444442233344444:::33322222",
"33344444666<<444<<<113334443333344444........444........###$$+++........###$$OOO+++..+++###$$...<<<44<<<111334443333344444411222",
"33344444666<<444<<<113334443333344444........444........###$$+++........###$$OOO+++..+++###$$...<<<44<<<111334443333344444411222",
"33344444666<<444<<<1133344433333444441112223344444466<<<........33344333...........22........666<<<44<<<111334443333344444411222",
"22222<<<44444<<<11122444222::11144466444:::22222<<<44444........44422:::...........::........444444<<11122244222:::1144466644:::",
"22222<<<44444<<<11122444222::11144466444:::22222<<<44444<<<1122244422:::11144666444::222222<<444444<<11122244222:::1144466644:::",
"44444:::2223311122244333111444444444444433344444:::2233311122444333114444444444444433444444::22233311222444331114444444444444333",
"44444:::2223311122244333111444444444444433344444:::2233311122444333114444444444444433444444::22233311222444331114444444444444333",
"44444:::2223311122244333111444444444444433344444:::2233311122444333114444444444444433444444::22233311222444331114444444444444333"
};
