/* XPM */
static char *_9ca48c19fd04f2d8397a0d0f1e38a4doN6UD7jMYiWBsxSV[] = {
/* columns rows colors chars-per-pixel */
"128 128 19 1 ",
"  c #06231C",
". c #552D33",
"X c #1C5504",
"o c #734520",
"O c #2E4B4E",
"+ c #4D454A",
"@ c #9A6A2F",
"# c #4C9104",
"$ c #7FC300",
"% c #A78C06",
"& c #CDB401",
"* c #E1C800",
"= c #F2B586",
"- c #DFD1A5",
"; c #D7D4B2",
": c #E8C2A0",
"> c #FFC5BF",
", c #FFDAB0",
"< c #FFDFEF",
/* pixels */
",,,,,,,,:::,,:::,,,;;;;;,,,;;<<<>>>::>>>,,,,,,X***,::,,**X:,,;;;;;;,,;;;<<<**X::>>***X,,,,,,,:::,,,::,,,;;;;;,,,;;;<<>>>:::>>,,,",
",,,,,,,,:::,,:::,,,;;;;;,,,;;<<<>>>::>>>,,,,,,,XX**::X$***XXXX;XXX;,,;;XX<***X::>**XX,,,,,,,,:::,,,::,,,;;;;;,,,;;;<<>>>:::>>,,,",
",,,,,,,,:::,,:::,,,;;;;;,,,;;<<<>>>::>>>,,,,,,,XX**::X$***XXXX;XXX;,,;;XX<***X::>**XX,,,,,,,,:::,,,::,,,;;;;;,,,;;;<<>>>:::>>,,,",
",,,,,===:::==,,,<<<>>::::::,,;;;>>>,,:::,,,,,,,XX$***XX**$X***XXX#X::,XXX;***X,***$XX,,,,,,==:::===,,<<<>>>:::::,,,;;>>>,,,::,,,",
",,,,,===:::==,,,<<<>>::::::,,;;;>>>,,::XX****,,,=X$**#X$$$XXX**XX##  X*XX;*$$X#**$X,,,,****X=:::===,,<<<>>>:::::,,,;;>>>,,,::,,,",
">>>==::::::,,,,,,,,::,,,>>>::,,,:::,,,,,>X$***==:X$$$#X##$#XX****##  **##X*$$ #$$$X>>>***$X:::::,,,,,,,,:::,,>>>:::,,:::,,,,,>>>",
">>>==::::::,,,,,,,,::,,,>>>::,,,:::,,,,,>X$***==:X$$$#X##$#XX****##  **##X*$$ #$$$X>>>***$X:::::,,,,,,,,:::,,>>>:::,,:::,,,,,>>>",
">>>==::::::,,,,,,,,::,,,>>>::,,,:::,,,,,>>X##$*=:X#$$$X##$#XX$***XX****##X$## $$$#   $$## =:::::,,,,,,,,:::,,>>>:::,,:::,,,,,>>>",
":::::,,,,,,:::::===,,,,,>>>;;======>>===:::XX#$**XX##$***#####***X ****###$## $##  $$$#  ::,,,,,:::::===,,,,,>>>;;;=====>>>==:::",
":::::,,,,,,:::::===,,,,,>>>;;=====XX***$$#:  X#$$$X##$#****###***X#***$XX##XXO$OO #$$#   :#$****:::::===,,,,,>>>;;;=====>>>==:::",
":::::,,,,,,:::::===,,,,,>>>;;=====XX***$$#:  X#$$$X##$#****###***X#***$XX##XXO$OO #$$#   :#$****:::::===,,,,,>>>;;;=====>>>==:::",
">>>,,:::,,,,,>>>;;;,,;;;,,,::>>>,,,;XX***$### X##$XXX####****#$**X****#XX#XXXO#OOO###  ###$***  ,,,>>;;;,,,;;,,,:::>>,,,;;;,,;;;",
">>>,,:::,,,,,>>>;;;,,;;;,,,::>>>,,,;;,X$$*$$$#XXX##XX#####*$$*$**X***#XXXXXXXOOOO##XX #$$$*$   ,,,,>>;;;,,,;;,,,:::>>,,,;;;,,;;;",
":::,,,,,<<<,,>>>:::>><<<,,,,,>>>;;;,,;;   X$$$#XXX#******##$$$$$$#$**#X******OOOO#X  #$$$X    <<,,,>>:::>>><<,,,,,,>>;;;,,,;;,,,",
":::,,,,,<<<,,>>>:::>><<<,,,,,>>>;;;,,;;   X$$$#XXX#******##$$$$$$#$**#X******OOOO#X  #$$$X    <<,,,>>:::>>><<,,,,,,>>;;;,,,;;,,,",
":::,,,,,<<<,,>>>:::>><<<,,,,,>>>;;;,,$*$$##XX#$##XOOO*****#$$$#$$#$##X****O  OOOOOX##$#XX##$**$<,,,>>:::>>><<,,,,,,>>;;;,,,;;,,,",
",,,==>>>,,,:::::===,,>>>>>>,,,,,:::,******$####$$#XOOOX***$##$#$$#$XX$***OO  OOOOXO######$******:::::===,,,>>>>>,,,,,:::,,,::>>>",
",,,==>>>,,,:::::===,,>>>>>>,,,,,::**XX###$*$$#X###OOOOO###*##$#$$##$$*#  O OOOO  O###O#$$*$###XX**:::===,,,>>>>>,,,,,:::,,,::>>>",
",,,==>>>,,,:::::===,,>>>>>>,,,,,::**XX###$*$$#X###OOOOO###*##$#$$##$$*#  O OOOO  O###O#$$*$###XX**:::===,,,>>>>>,,,,,:::,,,::>>>",
":::;;===:::,,===>>>>>,,,,,,==;;;::         $$$#XXXOOOOOXX**$$#####$$$      OOO OOOOOO#$$$       XX,==>>>>>>,,,,,===;;::::::==,,,",
":::;;===:::,,===>>>>>,,,,,,==;;;::   XXXXX   #####OOOOO******$####$        OO OOOOOOO##     XXXX  ,==>>>>>>,,,,,===;;::::::==,,,",
",,,,,>>>>>>==:::,,,,,<<<,X***:::==$$$##XX#$$$$#####XX#XOO##**$###$###$$****  OO   X####$$$#   #$$$X::,,***X<<,,,,,,::===,,,,,,,,",
",,,,,>>>>>>==:::,,,,,<<<,X***:::==$$$##XX#$$$$#####XX#XOO##**$###$###$$****  OO   X####$$$#   #$$$X::,,***X<<,,,,,,::===,,,,,,,,",
",,,,,>>>>>>==:::,,,,,<<<,,XX**::X$$$#XX****$$$$$$$###XXOOOO##*$###$$$********    X###$$$$***      X::,**XX,<<,,,,,,::===,,,,,,,,",
"---,,:::=====,,,,,,,,,,,::XX$***XXOOO ***XXXXXXXX#$##XXOOOOOO#$##$***##XXXXOO OXXX#XXX     ***    X,***$XX,,,:::>>>==,,,<<<--,,,",
"---,,:::=====,,,,,XX****:::>X$**#XOOO*###XXXXX*$$$###XXXXOOXXX#$$##XX      OOOX####$$$        * ##X#**$X,,,,****XX>==,,,<<<--,,,",
"---,,:::=====,,,,,XX****:::>X$**#XOOO*###XXXXX*$$$###XXXXOOXXX#$$##XX      OOOX####$$$        * ##X#**$X,,,,****XX>==,,,<<<--,,,",
",,,::>>>>>>,,>>>===,X$***===X$$$#XOOOOX$$#XXX*****$###X##XX##$$###X    OOOOOOX###$***$$            #$$$X,,,***$X===::,,,---,,---",
",,,::>>>>>>,,>>>===,,X##$*==X#$$$XXXO X##$#****####$$$$###$###*$$*   OOOOOOOO##$$####**$$  OOOOO   $$$#   $$## ====::,,,---,,---",
":::==,,,,,,::;;;:::==,XX#$**XX##$*$$XO XX$#***#XXX*$$$#$$$*####****   OOO $$$#$$$*XXXX***#OOOOOOOO $##  $$$#  >>>>>>>;;;,,,--,,,",
":::==,,,,,,::;;;:::==,XX#$**XX##$*$$XO XX$#***#XXX*$$$#$$$*####****   OOO $$$#$$$*XXXX***#OOOOOOOO $##  $$$#  >>>>>>>;;;,,,--,,,",
":::==,,,,,,::X****$$#,  X#$$$X##$#***    #***X   $*** #$$$#XXX###**##      $$# ***$## X**$OOOO  OOO$OO #$$#   >#$$****;;,,,--,,,",
"===>>,,,,,,,,-XXX***$### X##$XXX####**   #*XX    **    ***X##XXXX#*$$ #          **##    * OOO    O#OOO###  ###$***   ==>>>:::::",
"===>>,,,,,,,,---,X$$*$$$#XXX##XX#####*$## *XXX XX*$    *** XXXXXX  ** $          $*##  XX #   O   OOOO##XX #$$$*$$  ,===>>>:::::",
"===>>,,,,,,,,---,X$$*$$$#XXX##XX#####*$## *XXX XX*$    *** XXXXXX  ** $          $*##  XX #   O   OOOO##XX #$$$*$$  ,===>>>:::::",
">>>,,,,,<<<--,,,--   X$$$#XXX#****$$##$$$ $XXXOXX*#    ***   X XX     $##  $$#   #*## XXX#      XXOOOO#X  #$$$X    >>,,,,,,;;:::",
">>>,,,,,<<<--,,,$*$$##XX#$##XOOO**$$$##$$#$XXOOXX*       *    X       ####***$#XX *   X##XX#$$$$  OOOOOX##$#XX##$$*$>,,,,,,;;:::",
":::::---,,,,,-*******$####$$#XOOOX**$$#$$##XXOXXXXOOOOO  *   $$##     #$$*****$  ##XXX###X#$$$  XXOOOOXO######$*******,,<<<,,===",
":::::---,,,,,-*******$####$$#XOOOX**$$#$$##XXOXXXXOOOOO  *   $$##     #$$*****$  ##XXX###X#$$$  XXOOOOXO######$*******,,<<<,,===",
":::::---,,,,,*XXX###$*$$#X###OOOOO###$$##$#XX#XOOOOXX         $$$$    $$$  XX    X###X#XX##$   XXXOO  O###O#$$*$###XXX*,<<<,,===",
",,,,,===:::>>         $$$#XXXOOOOO  **$##$X##X###X     ##      $$$#  XX## XXX $$$XX#######$    X  O OOOOOO#$$$        X,,,,,,>>>",
",,,,,===:::>>   XXXXX   #####OOOOO****$$$#X########    ###     ######XX##XX  $***$X######$$$$$     OOOOOOO##      XXXX ,,,,,,>>>",
",,,,,===:::>>   XXXXX   #####OOOOO****$$$#X########    ###     ######XX##XX  $***$X######$$$$$     OOOOOOO##      XXXX ,,,,,,>>>",
",,,,,,,,:::,,XXXX    *$$####X#OOOOOO##*$$##$$##$$$**** $$$###X#$$$$######X#XX*#XX#$###$####$$$*#      OOOOOO##$        >:::>>,,,",
",,,,,,,,:::,,     ##****$$###X##XOOOOO#**$###$$********$$#XXX****$$$$$$###XXX# XX#*$$#$$$$  ****XX OOOOOOOOO$$$$##  <>>>:::>>,,,",
",,,,,===:::==,,,  ***$##XXXX#XXXXXOOOOO##$#$$**###XXXXOOOO ***XXXXXXXX#$$#XXXX XX**##X#$$*$    *$$  OOOO       #$$# ;>>>,,,::,,,",
",,,,,===:::==,,,  ***$##XXXX#XXXXXOOOOO##$#$$**###XXXXOOOO ***XXXXXXXX#$$#XXXX XX**##X#$$*$    *$$  OOOO       #$$# ;>>>,,,::,,,",
",,,,,===:::==,   $**X    $$$####XXXXOOXXX#$###X       OOOO*###XXXXX**$$###XXXXXXX*XXX  XX**     $$ OOOOOOOO       #   >>,,,::,,,",
">>>==::::::,,    *      $$***$###X##XX#$$$###X    OOOOOOOOOXX$#XXX*****$$##XX#XXX##XXX    *       OOOOOO###$    OOOOOO :,,,,,>>>",
">>>==::::::,,,,,      $$**####$$#####$###*$**  OOOOOOOOXXO XX#$##****####$$$$##$$##### XX *    XXXXOOO    $$$$ OOO  +++:,,,,,>>>",
">>>==::::::,,,,,      $$**####$$#####$###*$**  OOOOOOOOXXO XX#$##****####$$$$##$$##### XX *    XXXXOOO    $$$$ OOO  +++:,,,,,>>>",
":::::,,,,,,:::::=XXX #***#   *$$$#$$$*####****   OO  $$$$XO  X$##**##XX**$$##$$$$X###$$       X### ###O    $$$     +++==>>>==:::",
":::::,,,,,,:::::XX  #$**    $***XX$$$#XXX##***#       $***    #***X   $*** ##$*##    #$##     ##   #$$#     $$    OO++==>>>==:::",
">>>,,:::,,,,,>XX     *      **XXX ***X#XXXX##*$  #     ##**   #**X    ***    **       #$$     #     $$$            OOO+,;;;,,;;;",
">>>,,:::,,,,,>XX     *      **XXX ***X#XXXX##*$  #     ##**   #**X    ***    **       #$$     #     $$$            OOO+,;;;,,;;;",
">>>,,:::,,,,,        $   X  *$XX  *** XXXXX   *  $     ###*$$# **XX  X*$$    $*        $$           $$$   OO  OOOO     ,;;;,,;;;",
":::,,,,,<<<,, >> XXX    XXXX*#    ***  XX X      $#   $$$##$$$ $$XXOOX*##    $$                       $    OOOOOOOO+  ;;,,,;;,,,",
":::,,,,,<<<,,>>>X     ###XXX*       *    X       ####**$$$###$#$$XOOOX*       $                       O OOOO    OOO >;;;,,,;;,,,",
":::,,,,,<<<,,>>>X     ###XXX*       *    X       ####**$$$###$#$$XOOOX*       $                       O OOOO    OOO >;;;,,,;;,,,",
",,,==>>>,,,:::XX     ###XX  $$$$##  *  $$$#      #$******$$##$###XOXXXXOOOOOO $       OOOOOO            OOOO          ::,,,::>>>",
",,,==>>>,,,:::      ##XXX $$$#XXX        $$$$    $$   X###$$$#$##X#XXOOOOX        OOOOOOOO     O          OOOO    ++  ::,,,::>>>",
":::;;===:::,,   #$$$$$##X$##XX    ##      $$$# XXX#  XX  **$$#$XX#X###X       O  OOOOO        OOOO  OOO    OOO      ;::::::==,,,",
":::;;===:::,,   #$$$$$##X$##XX    ##      $$$# XXX#  XX  **$$#$XX#X###X       O  OOOOO        OOOO  OOO    OOO      ;::::::==,,,",
":::;;===:::,,=##$$$$##XX####X     ###     #####XXX#XXX ****$$$#XX########    OOOOOOOO         OO    OOOO    OO        :::::==,,,",
",,,,,>>>>>>==####XXXXX   XXX     ###X        ####X#XX  **#X##$###$####$$$*#      OOOOOOOOO    O       OO    OO         =,,,,,,,,",
",,,,,>>>>>>==#   #XXX    ###XXXXX#XX      $$$$####X##  ## X##*$##$$$$  ****XX OOOOOOOOOOO##   O       OO            :===,,,,,,,,",
",,,,,>>>>>>==#   #XXX    ###XXXXX#XX      $$$$####X##  ## X##*$##$$$$  ****XX OOOOOOOOOOO##   O       OO            :===,,,,,,,,",
"---,,:::===== ,,#X   ####XXXX    #       $$##XXXXXXXX  XX X***#XX#$**$    *$$  OOOO      #$$           O            =,,,<<<--,,,",
"---,,:::=====,,,X   ##XXXX             $$#    ###XXXXX XXXX**XX   X***     $$ OOOOOOOO     $           O      OO  >   ,,<<<--,,,",
",,,::>>>>>>,,>>> =###XXX  ##XXOOO     #      $$$$$#XXXX##XX###XXX    *       OOOOOO###$                    OOOOOOO=:  ,,---,,---",
",,,::>>>>>>,,>>> =###XXX  ##XXOOO     #      $$$$$#XXXX##XX###XXX    *       OOOOOO###$                    OOOOOOO=:  ,,---,,---",
",,,::>>>>>>,,>>>==##X    ###XOOO             $$######XX###$###### X  *    XXXXOOO    $$$$                         O::,,,---,,---",
":::==,,,,,,::;;;:#XX    #X        OOOO     $$$    $### $$$$XX##$$$       X### ###O    $$$          O  O           O>>;;;,,,--,,,",
":::==,,,,,,::;;;:X    XX      ##OOOOOO     $$    #$$$ #$$*#    ##$#      ##   #$$#     $$  OOOO     OOOO       >    >;;;,,,--,,,",
":::==,,,,,,::;;;:X    XX      ##OOOOOO     $$    #$$$ #$$*#    ##$#      ##   #$$#     $$  OOOO     OOOO       >    >;;;,,,--,,,",
"===>>,,,,,,,,---, ,,,       #####OOOO            $$    ***       #$      #     $$$     OOOO   OO       O   :   >,,, ,===>>>:::::",
"===>>,,,,,,,,---,,,,,   > ####      OO OO        $#    $$*        $            $$$   OOOOOOO       O    OO ::> >,,,,,===>>>:::::",
">>>,,,,,<<<--,,,---;; >>, ##      OOO OOOO       $     $$$                       $    OOOOOOOO     OOO      >, ,>>>>>,,,,,,;;:::",
">>>,,,,,<<<--,,,---;; >>, ##      OOO OOOO       $     $$$                       $    OOOOOOOO     OOO      >, ,>>>>>,,,,,,;;:::",
">>>,,,,,<<<--,,,---;;>>>    XX   #OO   OOO               $                       O OOOO    OOO      OO      >,,,>>>>>,,,,,,;;:::",
":::::---,,,,,---;;;::,,,  :=X   ##     ##O     OOOOOO    $       OOOOOO            OOOO       O       O;    ,:::===;;,,,<<<,,===",
":::::---,,,,,---;;;::,,, ::=    #      ###    OOOO           OOOOOOOO     O          OOOO              ;  : ,:::===;;,,,<<<,,===",
":::::---,,,,,---;;;::,,, ::=    #      ###    OOOO           OOOOOOOO     O          OOOO              ;  : ,:::===;;,,,<<<,,===",
",,,,,===:::>>;;;:::,,>>>;;;, ,  #        #   O           O OOOOOO        OOOO  OOO    OOO          ;   :,,,>>;;;,,,,,,,,,,,,,>>>",
",,,,,===:::>>;;;:::,,>>>;;;,,,,,#        #             OOOOOOOO          OO    OOOO    OO          ;;: :,,,>>;;;,,,,,,,,,,,,,>>>",
",,,,,,,,:::,,:::,,,;;;;;,,,;;<<<>>   >             OOOOOOOOOOOOOOO     OOO       OO    OO         ,::,,,;;;;;,,,;;;<<>>>:::>>,,,",
",,,,,,,,:::,,:::,,,;;;;;,,,;;<<<>>   >             OOOOOOOOOOOOOOO     OOO       OO    OO         ,::,,,;;;;;,,,;;;<<>>>:::>>,,,",
",,,,,,,,:::,,:::,,,;;;;;,,,;;<<<>>  :>   , ..     OOO  OOOOOOOOOOOO    OO        OO         ++    ,::,,,;;;;;,,,;;;<<>>>:::>>,,,",
",,,,,===:::==,,,<<<>>::::::,,;;;>>>,,: :,, .. .  OO    OOO OOOO  OOOO  OO         O            :  =,,<<<>>>:::::,,,;;>>>,,,::,,,",
",,,,,===:::==,,,<<<>>::::::,,;;;>>>,,:::,XX  .   O     OOO OOOO    OO         O   O            :===,,<<<>>>:::::,,,;;>>>,,,::,,,",
",,,,,===:::==,,,<<<>>::::::,,;;;>>>,,:::,XX  .   O     OOO OOOO    OO         O   O            :===,,<<<>>>:::::,,,;;>>>,,,::,,,",
">>>==::::::,,,,,,,,::,,,>>>::,,,:::,,,XOOOO  o.   .    OO#   O#              O   .       O      ,,,,,,,,:::,,>>>:::,,:::,,,,,>>>",
">>>==::::::,,,,,,,,::,,,>>>::,,,:::,,,,  OO  oo..o.    ##O   ##..     .       ....    O  OO ::: ,,,,,,,,:::,,>>>:::,,:::,,,,,>>>",
":::::,,,,,,:::::===,,,,,>>>;;======>>==   X   o..oo..  ## .  X#...   ..   .......     OOO   OO,,:::::===,,,,,>>>;;;=====>>>==:::",
":::::,,,,,,:::::===,,,,,>>>;;======>>==   X   o..oo..  ## .  X#...   ..   .......     OOO   OO,,:::::===,,,,,>>>;;;=====>>>==:::",
":::::,,,,,,:::::===,,,,,>>>;;======>>=XXX  XX ooo@o..  ## ....#..o.  ..   .oo..  ..    OO OO   ,:::::===,,,,,>>>;;;=====>>>==:::",
">>>,,:::,,,,,>>>;;;,,;;;,,,::>>>,,,;;,X$$#X$$  @@@o...    o...ooo..   .  .ooo.o...     &&& O   ,,,,>>;;;,,,;;,,,:::>>,,,;;;,,;;;",
">>>,,:::,,,,,>>>;;;,,;;;,,,::>>>,,,;;,XXX$X$$X @@oooo.    oooooooo.   .  @oooo.oo  &&& ##& &&&  ,,,>>;;;,,,;;,,,:::>>,,,;;;,,;;;",
">>>,,:::,,,,,>>>;;;,,;;;,,,::>>>,,,;;,XXX$X$$X @@oooo.    oooooooo.   .  @oooo.oo  &&& ##& &&&  ,,,>>;;;,,,;;,,,:::>>,,,;;;,,;;;",
":::,,,,,<<<,,>>>:::>><<<,,,,,>>>;;;,X$$####OOX oo%o@@..   .@@oooo@o    ..oo@@..    ##&&XX$X$&&  ,,,>>:::>>><<,,,,,,>>;;;,,,;;,,,",
":::,,,,,<<<,,>>>:::>><<<,,,,,>>>;;;,XXX###OOO Xoo@%@@o@    ..o@oo%@    @@o@%%oO      #$##$#$XX<<,,,>>:::>>><<,,,,,,>>;;;,,,;;,,,",
",,,==>>>,,,:::::===,,>>>>>>,,,,,:::,X$$$$#####$##o%oo%.    oo@%oo%o.. o@@@@ooo    &$$##$$$$XXX,,:::::===,,,>>>>>,,,,,:::,,,::>>>",
",,,==>>>,,,:::::===,,>>>>>>,,,,,:::,X$$$$#####$##o%oo%.    oo@%oo%o.. o@@@@ooo    &$$##$$$$XXX,,:::::===,,,>>>>>,,,,,:::,,,::>>>",
",,,==>>>,,,:::::===,,>>>>>>,,,,,:::,$$###$#$$##$$o@@@@o    oo@%@@@&.. o@@%o@@@    X&&$$$$#$$$$$&:::::===,,,>>>>>,,,,,:::,,,::>>>",
":::;;===:::,,===>>>>>,,,,,,==;;;::::  X$$$ $$#XXXo@%%oo    %%o@&&@%..X oo@@@@.OOO  XX#$####$XX  ,,,==>>>>>>,,,,,===;;::::::==,,,",
":::;;===:::,,===>>>>>,,,,,,==;;;::::  $$$  $$$ oo@o@@%@    @@@&%%@%oo#$oo@%oo OOO #$$$$####$$$X:,,,==>>>>>>,,,,,===;;::::::==,,,",
":::;;===:::,,===>>>>>,,,,,,==;;;::::  $$$  $$$ oo@o@@%@    @@@&%%@%oo#$oo@%oo OOO #$$$$####$$$X:,,,==>>>>>>,,,,,===;;::::::==,,,",
",,,,,>>>>>>==:::,,,,,<<<,,,,,:::===,,,    XXX    o%@@%o..  oo@%@@&@@@$$@@o@oo#    &$$XX##$$#&&&>===::,,,,,,<<,,,,,,::===,,,,,,,,",
",,,,,>>>>>>==:::,,,,,<<<,,,,,:::===,,,   OOXX X   @oo@o###X  o@%%%@oo$ ooooOO##   X   #XX#$#  &>===::,,,,,,<<,,,,,,::===,,,,,,,,",
"---,,:::=====,,,,,,,,,,,:::>>===,,,<<--  +O  OO   oooo###X   %@&&@&oo o  .o..        #X  X&&   ====,,,,,,,,,,:::>>>==,,,<<<--,,,",
"---,,:::=====,,,,,,,,,,,:::>>===,,,<<--  +O  OO   oooo###X   %@&&@&oo o  .o..        #X  X&&   ====,,,,,,,,,,:::>>>==,,,<<<--,,,",
"---,,:::=====,,,,,,,,,,,:::>>===,,,<<--  +   OO  &.oo& ..##  @&%%@%@@ o..oO.. X$$$   #X   &&  X====,,,,,,,,,,:::>>>==,,,<<<--,,,",
",,,::>>>>>>,,>>>===,,,,,=====:::,,,--,,,-     O  &&..&XXX##  o%@@%@oo .oo.O  X###$$  X      XXXX,,,>>===,,,,,======::,,,---,,---",
",,,::>>>>>>,,>>>===,,,,,=====:::,,,--,,,--OXX&&###&XX$X  # XX@@@@%o@@ ... .   X        OOO >>>XX,,,>>===,,,,,======::,,,---,,---",
",,,::>>>>>>,,>>>===,,,,,=====:::,,,--,,,--OXX&&###&XX$X  # XX@@@@%o@@ ... .   X        OOO >>>XX,,,>>===,,,,,======::,,,---,,---",
":::==,,,,,,::;;;:::==,,,>>>>>>>>;;;,,---,,XXX &&&#$###     @@o%oo@@@@.#  o###  XX  XXX   O=,,,,,:::;;:::===,,>>>>>>>>;;;,,,--,,,",
":::==,,,,,,::;;;:::==,,,>>>>>>>>;;;,,---,X     $$$###X     @@o@%%o@  ##$$ ### XXX$   OXXX =,,,,,:::;;:::===,,>>>>>>>>;;;,,,--,,,",
"===>>,,,,,,,,---,,,,,:::>>>,,,,,===>>::::::&&&&&&$#XXX#    oo o@@oo##$$$$  XX #$$$$  OO=>>>,,,,,,,,--,,,,,,::>>>,,,,,===>>>:::::",
"===>>,,,,,,,,---,,,,,:::>>>,,,,,===>>::::::&&&&&&$#XXX#    oo o@@oo##$$$$  XX #$$$$  OO=>>>,,,,,,,,--,,,,,,::>>>,,,,,===>>>:::::",
"===>>,,,,,,,,---,,,,,:::>>>,,,,,===>>::::::  &&###$##X$##X   o oo@   $$$$XX###X##$$   O=>>>,,,,,,,,--,,,,,,::>>>,,,,,===>>>:::::",
">>>,,,,,<<<--,,,---;;>>>,,,>>>>>,,,,,;;;::#XX XXX&&$$$#$$&&  o     XXX $$X###$   X ::>>>,,,,,<<<---,,---;;;>>,,,>>>>>,,,,,,;;:::",
">>>,,,,,<<<--,,,---;;>>>,,,>>>>>,,,,,;;;:####X &&&#&&$&XX&&    ##XXXX#     $$$X  # ::>>>,,,,,<<<---,,---;;;>>,,,>>>>>,,,,,,;;:::",
">>>,,,,,<<<--,,,---;;>>>,,,>>>>>,,,,,;;;:####X &&&#&&$&XX&&    ##XXXX#     $$$X  # ::>>>,,,,,<<<---,,---;;;>>,,,>>>>>,,,,,,;;:::",
":::::---,,,,,---;;;::,,,:::==;;;,,,<<,,,=#XXX &&&X&&&#&&&  XXX#$$X###$ XXX   $XXX#X==::::::--,,,,,,--;;;:::,,:::===;;,,,<<<,,===",
":::::---,,,,,---;;;::,,,:::==;;;,,,<<,,,===:::::- &&& &&& X++#$$$ #$$$XXX#$      ,,==::::::--,,,,,,--;;;:::,,:::===;;,,,<<<,,===",
",,,,,===:::>>;;;:::,,>>>;;;,,,,,,,,,,,,,>>>,,,,,==&::>>XXX+++#$XX+X$$X+XX#$$$ ,,,,,>>,,,,,,==:::>>>;;:::,,,>>;;;,,,,,,,,,,,,,>>>",
",,,,,===:::>>;;;:::,,>>>;;;,,,,,,,,,,,,,>>>,,,,,==&::>>XXX+++#$XX+X$$X+XX#$$$ ,,,,,>>,,,,,,==:::>>>;;:::,,,>>;;;,,,,,,,,,,,,,>>>",
",,,,,===:::>>;;;:::,,>>>;;;,,,,,,,,,,,,,>>>,,,,,===::>>  +++++ ++++##++++  $$,,,,,,>>,,,,,,==:::>>>;;:::,,,>>;;;,,,,,,,,,,,,,>>>"
};
