/* XPM */
static char *_2f72c82080b4bcd962b526ed1c03ea3DYWsfh9PmxwXUOtY[] = {
/* columns rows colors chars-per-pixel */
"383 383 256 2 ",
"   c #08061A",
".  c #120513",
"X  c #2E0414",
"o  c #0A0828",
"O  c #160728",
"+  c #120B2C",
"@  c #080735",
"#  c #170935",
"$  c #0E1732",
"%  c #260837",
"&  c #300932",
"*  c #1F2E26",
"=  c #0D302E",
"-  c #082737",
";  c #073737",
":  c #5B1A23",
">  c #4E0735",
",  c #700435",
"<  c #0B5114",
"1  c #126E15",
"2  c #2A7313",
"3  c #0D4E31",
"4  c #2A502B",
"5  c #136D2F",
"6  c #2A722E",
"7  c #595F2C",
"8  c #100D4A",
"9  c #2F0A49",
"0  c #0B314A",
"q  c #2F2C4F",
"w  c #1C236B",
"e  c #4D084F",
"r  c #580347",
"t  c #680348",
"y  c #770247",
"u  c #6F0655",
"i  c #4F2F50",
"p  c #70086B",
"a  c #5E2463",
"s  c #0D4D4B",
"d  c #146F50",
"f  c #206161",
"g  c #655B64",
"h  c #A11A1F",
"j  c #8C0433",
"k  c #980239",
"l  c #B2042A",
"z  c #A80238",
"x  c #B80338",
"c  c #D30617",
"v  c #FD180A",
"b  c #F10712",
"n  c #FC0717",
"m  c #FD021B",
"M  c #FD1717",
"N  c #FD2708",
"B  c #FE3904",
"V  c #FD2616",
"C  c #F43213",
"Z  c #C80229",
"A  c #D80328",
"S  c #C70337",
"D  c #D70436",
"F  c #D21531",
"G  c #E80328",
"H  c #F70626",
"J  c #FD0123",
"K  c #FE012C",
"L  c #FC0234",
"P  c #F10E30",
"I  c #D42E23",
"U  c #F82E2B",
"Y  c #A55F2D",
"T  c #FE4802",
"R  c #FE5701",
"E  c #F64D14",
"W  c #FA690A",
"Q  c #F84F2F",
"!  c #D16327",
"~  c #F76E31",
"^  c #880247",
"/  c #970246",
"(  c #8E0555",
")  c #A70346",
"_  c #B4064C",
"`  c #8C086A",
"'  c #9F2260",
"]  c #CE0649",
"[  c #ED0848",
"{  c #DF2559",
"}  c #9C565B",
"|  c #966B55",
" . c #AE6E53",
".. c #AC735C",
"X. c #B57659",
"o. c #90586E",
"O. c #936B70",
"+. c #A66B69",
"@. c #AA7463",
"#. c #B47863",
"$. c #C77851",
"%. c #EC6356",
"&. c #318E11",
"*. c #308E2F",
"=. c #249822",
"-. c #4C930E",
";. c #52AC0B",
":. c #6DB20A",
">. c #5CA32B",
",. c #73C80C",
"<. c #69CB26",
"1. c #308D4F",
"2. c #269667",
"3. c #2FB370",
"4. c #59A161",
"5. c #2EC56B",
"6. c #65CE64",
"7. c #95AE1B",
"8. c #EB9129",
"9. c #FAB238",
"0. c #91CE09",
"q. c #ACD409",
"w. c #A4DD24",
"e. c #DBE821",
"r. c #A39663",
"t. c #CF8C52",
"y. c #F1924F",
"u. c #F6B44F",
"i. c #DD9C68",
"p. c #F3B16D",
"a. c #A1D958",
"s. c #FDC649",
"d. c #FAD24C",
"f. c #FCC956",
"g. c #FDD658",
"h. c #D1EA5D",
"j. c #F3F352",
"k. c #FDD966",
"l. c #F8CF70",
"z. c #FEE469",
"x. c #FEE878",
"c. c #F7F775",
"v. c #642090",
"b. c #0B758F",
"n. c #1A659C",
"m. c #3046AD",
"M. c #63699B",
"N. c #B5459D",
"B. c #9B6A93",
"V. c #0F8D93",
"C. c #10AD8E",
"Z. c #259BA1",
"A. c #12B0AB",
"S. c #6D8E94",
"D. c #5E9CA3",
"F. c #7090AF",
"G. c #26D69E",
"H. c #10D2B1",
"J. c #2DCEB1",
"K. c #13E4B2",
"L. c #5CD5A9",
"P. c #1A92D0",
"I. c #2B95CC",
"U. c #2999D6",
"Y. c #2E9BD4",
"T. c #329CD3",
"R. c #369DD8",
"E. c #10B5D4",
"W. c #2CA6D7",
"Q. c #37A5DB",
"!. c #2BB5DD",
"~. c #32B4DD",
"^. c #35B8DD",
"/. c #1AB8E5",
"(. c #2CABE7",
"). c #37AAE4",
"_. c #27B7E5",
"`. c #36B6E4",
"'. c #47AFD7",
"]. c #6DA3CB",
"[. c #44B1E6",
"{. c #0CD4D2",
"}. c #30CBD6",
"|. c #0CE5D3",
" X c #2EE9D1",
".X c #12CEE8",
"XX c #27C8E7",
"oX c #37C9E5",
"OX c #2AD5E9",
"+X c #37D6E9",
"@X c #2BD3F4",
"#X c #37DAF5",
"$X c #18EBEA",
"%X c #17F3ED",
"&X c #0BF0F0",
"*X c #16F5F2",
"=X c #2CEEEE",
"-X c #3AE5F7",
";X c #4DD0D3",
":X c #66E0D4",
">X c #46D7EA",
",X c #49D3ED",
"<X c #72D7ED",
"1X c #4EEAEA",
"2X c #59F4ED",
"3X c #47E7F9",
"4X c #56E9F8",
"5X c #4CF5F3",
"6X c #49F7F5",
"7X c #52F4F3",
"8X c #58F8F5",
"9X c #6EEEF0",
"0X c #66F6F5",
"qX c #A39992",
"wX c #8A96B0",
"eX c #8FABB4",
"rX c #ADB2B0",
"tX c #DCAB9C",
"yX c #A3D7AB",
"uX c #F7D38E",
"iX c #F9EB8C",
"pX c #FDF589",
"aX c #FEF797",
"sX c #D2DBA8",
"dX c #F1D2B0",
"fX c #FDFBA8",
"gX c #F5EAB1",
"hX c #FEFCB7",
"jX c #8FB2CA",
"kX c #A2AAD1",
"lX c #DDADD0",
"zX c #90CDD3",
"xX c #B1D0CF",
"cX c #A0EDD4",
"vX c #91D3EA",
"bX c #AAD8EB",
"nX c #90EDF1",
"mX c #9AE8F5",
"MX c #A6E9F6",
"NX c #B2EFF3",
"BX c #CDD4CF",
"VX c #E9D6D8",
"CX c #D1ECD3",
"ZX c #FDFAC8",
"AX c #F4EBD0",
"SX c #FCF8D8",
"DX c #CEEDED",
"FX c #C8FAFB",
"GX c #D8FBFB",
"HX c #EEF1EB",
"JX c #FBFAE8",
"KX c #E9FBFB",
"LX c #F7F8F7",
"PX c #FCFCF4",
"IX c #F4FDFC",
"UX c #FCFDFC",
/* pixels */
"I.I.I.I.I.I.I.Y.Y.Y.I.I.T.T.T.T.T.T.T.T.T.T.R.R.T.T.T.R.R.R.T.T.T.T.T.T.T.T.T.T.T.T.T.T.T.Y.T.T.T.T.T.T.T.T.R.T.T.T.R.R.T.T.T.Y.T.T.T.T.T.T.T.T.T.T.T.T.T.T.T.R.R.R.T.T.T.R.R.T.T.T.T.T.T.T.Y.Y.Y.T.T.T.T.T.Y.T.T.Y.Y.Y.Y.Y.Y.Y.T.T.Y.T.T.T.T.T.T.T.T.T.T.T.Y.Y.Y.Y.Y.Y.Y.Y.Y.Y.Y.Y.Y.Y.Y.Y.Y.Y.Y.Y.Y.T.T.T.Y.Y.Y.Y.Y.Y.I.I.I.I.Y.Y.Y.Y.Y.T.T.T.T.T.T.T.T.T.Y.Y.Y.Y.Y.Y.Y.Y.Y.Y.Y.Y.Y.Y.Y.Y.Y.Y.Y.T.T.T.T.T.T.T.T.T.T.T.T.T.T.T.T.Y.Y.Y.Y.Y.Y.T.T.T.Y.Y.Y.Y.Y.Y.T.T.T.Y.Y.Y.Y.Y.Y.Y.Y.Y.Y.Y.Y.Y.Y.Y.Y.Y.Y.Y.Y.Y.Y.Y.Y.Y.Y.Y.R.R.T.T.T.T.T.T.T.T.T.T.T.T.T.T.T.Y.Y.Y.T.T.T.T.Y.Y.Y.Y.Y.Y.Y.Y.Y.W.W.W.T.T.T.Y.Y.Y.T.T.T.T.T.T.T.T.R.R.T.T.R.Q.R.T.T.R.R.R.T.T.T.R.R.R.Y.Y.Y.T.R.R.R.Y.Y.Y.Y.Y.Y.Y.Y.R.R.R.R.R.T.T.R.R.R.T.T.Y.T.T.T.Y.Y.Y.T.T.T.Y.Y.Y.Y.Y.T.T.T.T.R.R.T.T.T.T.T.T.T.T.T.R.Q.Q.Q.",
"I.I.I.I.I.I.I.I.Y.T.Y.Y.T.T.T.T.T.T.T.T.T.R.R.R.T.T.T.R.R.R.T.T.T.R.T.T.T.T.T.T.T.T.T.T.T.Y.T.T.T.T.T.T.T.T.R.R.T.T.R.T.T.T.T.T.T.T.T.T.T.T.T.T.T.T.T.T.T.T.R.R.R.R.R.R.R.R.R.T.T.T.T.T.T.T.Y.Y.Y.T.T.T.T.T.T.T.Y.Y.T.T.Y.Y.Y.Y.T.T.Y.Y.T.T.T.T.T.T.T.T.T.T.T.T.Y.Y.Y.Y.Y.Y.Y.Y.Y.Y.Y.Y.Y.Y.Y.Y.Y.Y.Y.T.T.T.Y.Y.Y.Y.Y.Y.I.I.I.Y.Y.Y.Y.Y.Y.T.Y.Y.T.Y.Y.T.T.T.T.T.Y.Y.Y.Y.Y.Y.Y.Y.Y.Y.Y.Y.Y.Y.Y.Y.Y.T.T.T.T.T.T.T.T.T.T.T.T.T.T.T.T.T.T.T.Y.Y.Y.T.T.T.Y.Y.Y.Y.Y.Y.T.T.T.Y.Y.Y.Y.Y.Y.Y.Y.Y.Y.Y.Y.Y.Y.Y.Y.Y.Y.Y.Y.Y.Y.Y.Y.Y.Y.Y.R.R.T.R.T.T.T.T.T.T.T.T.T.T.T.T.T.T.T.T.T.T.T.T.Y.Y.Y.Y.Y.Y.Y.Y.Y.R.R.R.T.T.T.T.Y.T.T.T.T.R.T.T.T.T.R.R.R.R.T.T.T.T.T.R.R.R.T.T.R.R.R.R.Y.Y.Y.T.R.R.R.Y.Y.Y.Y.Y.Y.Y.Y.R.R.R.R.R.T.T.Q.Q.R.T.Y.Y.T.T.T.R.R.Y.T.T.T.Y.Y.Y.Y.Y.T.T.T.T.R.R.T.T.T.T.T.T.T.T.T.R.T.T.W.",
"I.I.I.I.I.I.I.I.I.T.T.Y.T.T.T.T.T.T.T.T.T.R.R.R.T.T.T.R.R.R.T.T.T.T.T.T.T.T.T.T.T.T.T.T.T.T.T.T.T.T.T.T.T.T.R.T.T.T.T.T.T.T.T.T.T.T.T.T.T.T.T.T.T.T.T.T.T.T.T.T.R.R.R.R.R.R.R.T.T.T.T.Y.T.T.T.T.T.T.T.T.T.T.T.T.Y.Y.T.T.Y.Y.Y.Y.T.T.T.T.T.T.T.T.T.T.T.Y.T.T.T.T.Y.Y.Y.Y.Y.Y.Y.Y.Y.Y.Y.Y.Y.Y.Y.Y.Y.Y.Y.T.T.T.Y.Y.Y.Y.Y.Y.Y.Y.Y.Y.Y.Y.Y.Y.Y.T.T.T.T.Y.Y.T.T.T.T.T.Y.Y.Y.Y.Y.Y.Y.Y.Y.Y.Y.Y.Y.Y.Y.Y.Y.T.T.T.T.T.T.T.T.T.T.T.T.T.T.T.T.T.Y.Y.Y.Y.Y.T.T.T.Y.Y.Y.Y.Y.Y.T.T.T.Y.Y.Y.Y.Y.Y.Y.Y.Y.Y.Y.Y.Y.Y.Y.Y.Y.Y.Y.Y.Y.Y.Y.Y.Y.Y.Y.R.R.T.T.T.T.T.T.T.T.T.T.T.T.T.T.T.T.T.T.T.T.T.T.Y.Y.Y.Y.Y.Y.Y.Y.Y.R.T.T.T.T.T.T.Y.T.T.T.T.R.R.R.T.T.R.R.R.R.T.T.T.T.T.T.R.R.T.T.T.T.R.R.R.T.T.R.R.R.R.Y.Y.Y.Y.Y.Y.Y.Y.T.R.R.R.R.R.Q.Q.Q.Q.T.T.T.T.T.T.R.R.Y.T.T.T.Y.Y.Y.Y.Y.T.T.T.T.R.T.T.T.T.T.T.T.T.T.T.W.Q.Q.W.",
"I.I.I.I.I.I.I.I.Y.Y.T.Y.Y.T.T.T.T.T.T.R.R.T.T.T.R.R.R.R.R.R.T.R.T.T.T.T.T.T.T.T.T.T.T.T.T.T.T.T.T.T.T.T.R.R.R.T.T.T.T.T.R.Y.Y.T.T.T.Y.Y.Y.T.T.T.T.T.T.T.T.T.T.T.T.T.T.T.T.T.T.T.T.T.T.T.T.T.T.T.T.T.T.T.T.T.Y.Y.Y.Y.Y.Y.Y.Y.Y.Y.Y.Y.Y.T.T.Y.T.T.Y.T.T.T.T.T.T.Y.T.Y.Y.Y.Y.Y.Y.Y.Y.Y.Y.Y.Y.Y.Y.Y.Y.Y.Y.Y.Y.Y.Y.Y.Y.Y.Y.Y.T.Y.Y.Y.Y.Y.Y.Y.Y.Y.Y.Y.T.T.T.T.T.T.T.T.T.Y.Y.Y.Y.Y.Y.Y.Y.Y.U.U.U.Y.Y.Y.Y.Y.T.T.T.T.T.T.T.T.T.T.T.T.T.T.Y.Y.Y.Y.Y.Y.Y.Y.Y.Y.T.T.T.Y.Y.Y.Y.Y.Y.Y.Y.Y.Y.Y.Y.Y.Y.Y.Y.Y.Y.Y.Y.Y.Y.Y.Y.Y.Y.Y.Y.Y.Y.Y.Y.Y.Y.Y.Y.Y.Y.Y.T.T.T.T.T.T.T.T.T.T.T.T.T.T.Y.Y.Y.Y.Y.Y.Y.Y.Y.Y.Y.Y.Y.Y.Y.Y.Y.Y.Y.T.Y.T.R.R.R.R.R.R.T.T.R.R.T.R.T.T.T.T.T.T.R.R.T.T.T.T.R.R.T.T.T.R.R.R.R.Y.Y.Y.Y.Y.Y.Y.Y.R.T.R.R.T.T.Q.Q.Q.R.T.R.T.R.R.T.T.T.T.R.R.R.R.R.Y.Y.Y.T.T.T.T.W.W.T.T.T.T.T.R.W.T.T.W.T.T.T.",
"I.I.I.I.T.I.Y.I.I.Y.Y.Y.Y.T.T.T.T.T.T.R.R.T.T.T.R.R.R.T.T.T.R.R.R.R.T.T.T.T.T.T.T.T.T.T.T.T.T.T.T.T.T.R.R.R.T.T.R.T.R.R.R.Y.Y.T.T.T.Y.Y.Y.T.T.T.T.T.T.T.T.T.T.T.T.T.T.T.T.T.T.T.R.R.T.T.T.T.T.T.T.T.T.T.T.T.Y.Y.Y.Y.Y.Y.Y.Y.Y.Y.Y.Y.T.T.T.T.T.T.T.T.T.T.T.T.Y.Y.T.T.T.T.T.T.T.Y.Y.Y.Y.Y.Y.T.T.T.T.T.T.Y.Y.Y.Y.Y.Y.Y.Y.Y.T.T.T.T.T.T.Y.Y.Y.Y.Y.Y.T.Y.Y.Y.Y.Y.Y.Y.Y.Y.Y.Y.Y.Y.Y.Y.Y.Y.U.U.U.Y.Y.Y.Y.Y.T.T.T.T.T.T.T.T.T.T.T.T.T.T.T.Y.Y.Y.Y.Y.Y.Y.Y.Y.T.T.Y.T.T.T.Y.Y.Y.Y.Y.Y.Y.Y.Y.Y.Y.Y.Y.Y.Y.Y.Y.Y.Y.Y.Y.Y.Y.Y.Y.Y.R.Y.Y.Y.Y.Y.Y.Y.Y.Y.T.T.T.T.Y.Y.T.T.T.T.R.R.R.R.R.Y.Y.Y.Y.Y.Y.Y.Y.Y.Y.Y.Y.Y.Y.Y.Y.Y.Y.R.R.R.R.R.T.T.R.R.R.R.T.T.T.R.T.T.T.T.T.T.R.T.T.R.T.Q.T.T.T.R.T.Y.Y.Y.R.Y.Y.Y.Y.Y.Y.R.R.R.T.T.R.R.Q.Q.R.R.R.T.R.R.R.R.R.R.R.T.T.T.T.T.R.R.T.T.T.T.R.T.T.T.T.T.T.R.R.R.T.T.T.T.R.R.R.",
"I.I.I.T.I.I.Y.I.I.Y.Y.Y.Y.T.T.T.T.T.T.R.R.T.T.T.R.R.R.R.R.T.R.R.R.R.T.T.T.T.T.T.T.T.T.T.T.T.T.T.T.T.T.R.T.R.T.T.R.T.T.R.R.Y.Y.T.T.T.Y.Y.Y.T.T.T.T.T.T.T.T.T.T.T.T.T.T.T.T.T.T.T.R.R.T.T.T.T.T.T.T.Y.T.T.T.T.Y.Y.Y.Y.Y.Y.Y.Y.Y.Y.Y.Y.T.T.T.T.T.T.T.T.T.T.T.T.Y.Y.T.T.T.T.T.T.T.Y.Y.Y.Y.Y.Y.T.T.T.T.T.T.Y.Y.Y.Y.Y.Y.Y.Y.Y.T.T.Y.T.T.T.Y.Y.Y.Y.Y.Y.T.Y.Y.Y.Y.Y.Y.Y.Y.Y.Y.Y.Y.Y.Y.Y.Y.Y.U.U.U.Y.Y.Y.Y.Y.T.T.T.T.T.T.T.T.T.T.T.T.T.T.T.Y.Y.Y.Y.Y.Y.Y.Y.Y.T.T.Y.T.T.T.Y.Y.Y.Y.Y.Y.Y.Y.Y.Y.Y.Y.Y.Y.Y.Y.Y.Y.Y.Y.Y.Y.Y.Y.Y.Y.R.Y.Y.Y.Y.Y.Y.Y.Y.Y.T.T.T.T.Y.Y.T.T.T.T.R.R.R.R.R.Y.Y.Y.Y.Y.Y.Y.Y.Y.Y.Y.Y.Y.Y.Y.Y.Y.Y.R.R.R.T.R.R.T.R.R.R.R.T.T.T.T.T.T.T.T.Y.Y.R.R.T.R.T.Q.T.T.T.R.T.T.T.Y.R.Y.Y.Y.Y.Y.Y.R.R.R.R.T.R.R.R.R.R.R.R.T.R.R.T.R.R.R.T.T.T.T.T.T.R.R.T.T.T.T.R.R.T.T.T.T.T.T.R.R.T.T.T.T.T.R.R.",
"T.T.I.I.T.T.T.T.T.T.T.T.T.T.T.T.T.T.T.R.R.R.R.R.R.R.R.T.R.R.R.R.R.R.R.R.T.T.T.T.T.T.T.T.T.T.Y.Y.T.T.T.R.T.T.T.R.R.R.R.Y.T.T.T.R.T.T.Y.Y.Y.T.R.T.T.T.T.T.R.R.R.T.T.T.T.T.T.T.T.T.T.T.T.T.T.T.T.T.T.T.T.T.T.T.T.T.T.T.T.T.T.T.T.T.T.T.T.T.T.T.T.T.T.T.T.T.T.T.T.T.T.T.T.T.Y.Y.Y.Y.Y.Y.Y.Y.Y.Y.T.T.T.T.T.T.T.T.T.Y.Y.T.T.T.Y.T.T.T.T.T.T.T.Y.T.T.T.Y.Y.Y.T.T.T.T.I.I.Y.Y.Y.Y.Y.Y.Y.Y.Y.Y.Y.Y.Y.Y.Y.Y.Y.T.T.T.Y.Y.Y.T.T.T.R.T.T.T.T.R.Y.T.R.R.R.Y.Y.Y.Y.T.T.T.Y.Y.Y.Y.Y.T.T.T.R.R.R.R.Y.Y.Y.Y.Y.R.R.Y.Y.R.R.Y.Y.Y.R.T.R.Y.Y.Y.Y.Y.Y.Y.Y.Y.T.T.T.T.T.T.T.T.T.T.R.R.R.R.T.R.Y.Y.Y.Y.Y.Y.Y.Y.Y.R.R.Y.R.R.R.Y.Y.Y.T.R.R.T.T.T.T.T.T.T.T.T.T.T.T.T.T.T.T.T.T.W.W.T.T.T.T.T.T.R.R.R.R.Y.Y.Y.T.T.T.T.T.T.T.T.T.T.T.R.T.T.T.W.W.W.T.T.Q.T.T.R.R.R.R.T.T.T.T.T.T.R.R.R.R.R.R.T.T.T.T.T.T.R.R.T.T.T.T.T.T.T.",
"T.I.I.T.T.I.T.T.T.T.T.T.T.T.T.T.T.T.T.R.R.T.R.R.R.R.T.T.R.R.R.R.R.R.T.T.T.T.T.T.T.T.T.Y.T.T.T.Y.T.T.R.T.R.T.R.T.T.R.R.R.T.T.T.R.R.R.Y.Y.Y.T.R.T.R.R.R.T.R.R.T.R.T.R.T.Y.T.T.T.T.T.T.T.T.T.T.T.T.T.T.T.T.R.T.T.T.T.T.T.T.T.T.T.T.T.T.T.T.T.T.T.T.T.T.T.R.R.R.T.T.T.T.T.T.T.T.I.T.T.T.Y.Y.Y.T.T.T.T.T.T.T.T.T.T.T.T.T.Y.T.T.T.T.T.T.T.T.T.T.T.T.Y.Y.I.I.T.T.T.I.T.I.Y.Y.Y.Y.Y.Y.Y.Y.Y.Y.Y.Y.Y.Y.T.Y.Y.T.Y.T.Y.Y.T.T.T.T.T.T.T.T.T.R.R.R.R.R.R.T.Y.Y.Y.R.T.T.T.T.T.R.Y.R.T.R.R.R.R.R.R.R.R.R.R.R.R.R.R.R.R.R.R.R.R.R.T.R.T.R.R.T.T.T.T.T.T.R.T.R.R.T.T.T.R.R.T.R.R.Y.T.Q.R.R.Y.Y.T.Y.Y.Y.Y.Y.R.Y.R.Y.R.R.Y.Y.Y.Y.Y.Y.Y.T.T.T.T.R.T.T.R.R.R.T.T.T.T.W.W.W.W.T.R.T.T.T.T.R.R.R.R.T.T.Y.T.R.T.R.T.T.T.T.R.R.T.R.R.R.R.R.R.T.T.T.T.T.T.T.R.R.T.T.T.T.R.R.R.R.T.T.T.T.T.T.R.T.T.T.T.R.T.T.T.R.T.T.T.T.",
"T.T.I.I.I.I.I.T.T.T.T.T.T.T.T.T.Y.T.T.R.R.T.R.R.R.T.R.R.T.T.R.R.R.R.T.R.T.T.T.T.T.T.T.T.T.T.Y.Y.T.R.R.R.R.R.R.R.Q.R.R.R.R.T.T.R.R.T.Y.R.R.R.T.R.R.Y.Y.R.R.R.R.R.T.Y.T.I.T.T.T.Y.T.T.T.T.T.T.T.T.T.T.T.T.R.T.R.T.T.T.T.T.T.T.T.T.R.R.R.T.T.T.T.T.T.T.T.R.R.R.T.T.T.T.T.T.T.R.T.T.R.T.T.T.T.T.T.T.T.T.T.T.T.T.T.T.T.R.R.T.T.T.T.R.T.T.T.T.T.T.Y.T.T.T.T.T.I.I.I.T.I.Y.Y.Y.Y.T.Y.R.Y.Y.R.Y.Y.Y.T.T.T.T.T.T.T.Y.Y.T.R.R.R.R.T.R.R.R.R.R.R.R.R.R.R.R.R.Y.R.T.T.T.T.T.R.I.R.T.R.R.Q.Q.R.R.R.R.R.R.R.R.R.R.R.R.R.R.R.R.R.R.R.R.R.R.T.R.T.R.R.T.T.R.R.R.T.T.R.T.R.R.R.R.T.T.Q.R.R.Y.R.R.Y.Y.Y.Y.R.R.R.R.Q.Q.Q.R.Y.R.R.Y.T.T.T.R.T.T.T.T.R.R.R.R.T.T.T.T.T.T.W.T.Q.Q.T.T.T.T.R.R.R.R.R.R.Q.T.T.Y.T.T.T.T.T.R.T.R.R.R.R.R.R.R.R.R.T.T.R.R.T.R.R.T.R.T.T.R.R.R.R.T.R.T.T.R.R.R.R.T.T.T.R.T.T.T.T.T.T.T.I.",
"R.Q.R.Q.Q.Q.T.Q.R.'.Q.[.Q.T.Q.T.Q.Q.R.Q.Q.Q.R.Q.'.'.Q.'.Q.R.R.T.'.Q.Q.R.Q.T.Q.R.T.'.Q.'.Q.Q.Q.T.Q.T.Q.R.Q.Q.Q.Q.[.Q.[.Q.R.R.Q.T.).R.Q.R.Q.Q.Q.Q.Q.Y.Q.).Q.Q.Q.I.R.).[.[.I.R.Q.R.R.Q.Q.R.Q.T.Q.Q.Q.'.Q.'.T.Q.T.Q.R.Q.Q.Q.T.R.Q.Q.T.Q.I.[.'.R.Q.R.Q.I.Q.Q.R.R.T.[.Q.R.R.R.T.T.R.R.R.R.T.Q.T.Q.R.R.R.Q.T.T.T.R.Q.T.R.R.R.R.R.R.R.R.Q.Q.Q.T.R.Q.Q.R.R.R.Q.T.Q.R.T.R.R.R.T.I.Y.Q.Q.R.Q.Q.R.R.Q.Q.T.Q.R.Q.Q.Q.Q.Q.Q.T.Q.R.Q.R.Q.Q.).Y.Q.R.[.R.T.R.R.Q.Q.).Q.R.Q.Y.R.Q.R.R.R.Q.Q.R.Q.Q.R.Q.R.Q.R.[.Q.[.[.R.Q.Q.R.Q.R.Q.Q.'.R.R.R.R.R.R.R.'.T.Q.Q.Q.Q.R.Q.Q.Q.R.Q.Q.[.).Q.).Q.Q.Y.Y.Q.Q.Q.Q.).Q.T.R.R.Q.Q.R.Q.Q.Q.Q.T.[.Q.Q.Q.R.Q.Q.R.Q.Q.Q.Q.Q.Q.[.Q.Q.Q.Q.Q.Q.Q.Q.[.Q.W.T.Q.[.[.Q.Q.W.T.Q.Q.Y.Y.Q.'.T.R.R.R.'.T.Q.Q.T.R.R.T.T.Q.'.T.Q.R.Q.R.Q.Q.T.R.R.R.R.T.R.R.Q.T.Q.Q.R.R.'.R.T.R.[.R.Q.T.'.'.I.'.",
"Q.[.T.Q.T.Q.[.R.T.R.[.I.R.Q.I.R.R.R.Q.).R.R.Q.Q.Q.Q.R.'.).I.R.Q.I.Q.I.R.R.T.[.I.[.T.Q.Q.T.R.).Y.).Q.).Y.I.Q.).).Y.).Q.[.Y.).).R.Q.).).Q.Q.Y.Q.Q.).Y.I.Q.R.).U.).Y.Y.Q.Q.Q.Q.Q.Y.Q.Q.Y.Q.T.Q.R.Q.Q.T.[.R.Q.R.Q.Q.Q.[.Y.R.R.Q.I.Q.Q.I.Q.T.'.R.T.T.R.R.R.Q.Q.T.R.T.Q.Q.T.R.Q.R.Q.R.Q.Q.Q.T.[.R.R.R.T.).I.T.T.Q.Q.T.Q.Q.Q.R.Q.T.Q.Q.Q.T.R.Q.R.'.Q.Q.Y.R.R.T.R.I.R.I.R.R.).Y.).R.Q.Q.Y.Q.Q.Y.Q.Y.Q.T.Q.Q.W.R.I.Q.T.Q.Q.Q.Q.Q.Q.Y.Q.Q.Q.Y.R.R.Q.).R.).R.Y.Q.Q.Q.R.Q.R.).Y.Y.Q.Y.Q.Q.Q.Q.Q.Q.T.Q.Q.[.Q.Q.Q.R.Q.Q.'.Q.'.'.'.Q.Q.'.Q.'.'.Q.Q.R.Q.Q.Q.Q.R.Q.Q.R.Q.Y.[.Q.Q.[.Q.).U.R.).Y.).Y.).Q.Q.[.Q.Y.).Q.R.R.).I.Q.R.Q.Y.Q.Q.Q.Q.Q.).Q.Q.Q.R.Q.Y.Q.T.Q.T.T.[.Q.T.Q.[.Q.T.T.T.W.Q.Y.Q.Y.[.Q.I.).Y.Q.R.Q.T.[.R.T.T.R.R.T.R.'.T.T.R.I.Q.Q.Q.[.R.Q.Q.T.T.Q.Q.R.R.Q.I.Q.Q.Q.T.Q.R.Q.T.Q.Q.Q.T.[.Q.T.'.Q.T.",
"I.T.T.R.R.I.R.R.R.Q.T.[.I.[.Y.Q.Q.Y.[.I.R.Q.Q.[.I.[.T.[.R.R.'.R.'.R.[.Q.[.I.[.T.'.Q.Q.Q.I.[.I.[.).).).I.W.Y.Q.U.W.U.).U.Q.Q.).Q.Q.[.Y.Y.).Y.U.W.).Q.Q.U.R.).Q.Q.).U.R.P.Q.Q.R.R.Y.R.Q.Y.T.R.Q.Y.Q.Y.R.R.R.Q.Y.[.Q.T.R.Q.).Q.I.I.R.Q.Q.Q.R.R.R.R.'.T.T.I.T.[.T.R.Q.R.Q.R.R.R.R.T.R.Q.I.Q.R.Q.R.T.R.Y.Q.I.T.Q.R.R.R.Q.Q.T.T.Q.Q.R.'.Q.R.Q.Q.I.[.Y.).I.Y.Q.Y.R.Y.I.Q.I.).Q.Y.Y.Y.Y.Y.Q.I.Q.T.Q.Q.R.R.R.Q.).I.Q.Q.[.Y.).).Q.).Y.).Y.Q.Y.Y.Y.Q.Q.U.Y.R.Y.Q.R.).T.Q.Q.Y.Q.Y.T.Y.Y.Q.Q.Q.Q.T.).Q.Q.Q.Q.[.R.'.'.Q.T.T.R.'.Q.Q.R.'.Q.R.Q.R.'.T.R.R.'.I.Q.I.).Q.).R.).).R.Q.Y.Q.Y.U.).Y.).U.).Y.Q.Q.).Y.).I.).R.Q.Y.R.T.).Q.Y.Q.Y.[.R.[.).Q.Q.I.[.I.).Q.Q.[.T.Q.[.Q.'.Q.Q.T.Q.Q.Q.I.Q.Y.Q.Q.Q.I.).R.[.Q.).T.T.R.[.T.T.'.Q.'.R.T.T.T.Q.Q.I.Q.R.).Y.Q.Y.Y.Y.Q.Q.T.Q.Q.T.R.R.R.R.Q.R.'.T.T.[.I.[.Q.'.R.I.Q.",
"I.R.T.I.[.I.Q.I.[.R.I.T.R.I.[.R.R.[.I.[.R.).R.T.Q.T.[.R.[.[.R.Q.I.[.I.Q.I.R.I.R.R.T.Q.R.).Y.).Q.Y.).).Q.).W.(.U.W.).Y.).U.).).I.).).Q.).).Q.Q.W.).Q.).I.).I.[.U.Q.).U.Q.R.).).R.[.R.R.Q.).Q.I.[.Y.).Y.Q.).R.).R.[.R.[.R.Y.R.I.[.I.R.T.I.R.T.Q.).I.Q.T.[.).R.Q.R.[.I.Q.T.T.R.Q.[.R.I.).Q.[.I.).Q.R.Q.T.R.R.R.I.R.Q.Q.Q.Q.Q.'.R.Q.Q.Q.Q.T.Q.Q.).I.Q.R.Q.Y.).Q.Y.Q.I.).I.I.Y.Y.).Q.Q.).R.R.[.Q.).).Q.[.Q.Y.).Y.[.Y.[.Q.Y.Q.I.).U.I.).P.).Y.).Y.).Q.U.).R.).R.Q.Y.Y.).I.Q.Q.R.R.I.Q.T.Y.[.Q.Q.R.Q.Q.R.Q.Q.Q.[.'.'.'.R.[.T.'.'.R.[.I.[.R.[.Q.[.Y.).I.).I.).I.[.).U.[.U.[.U.).).U.).U.).).Q.U.).[.).Q.Q.U.Q.P.).Y.Q.I.Q.).Y.).Y.[.Q.Q.Q.Q.[.Y.Q.Q.Q.Q.Q.Q.[.I.Q.[.[.Q.Q.R.Q.).[.Q.Y.U.Y.Q.).I.Q.I.).Q.I.).R.Q.'.'.Q.Q.I.'.Q.Q.'.T.Q.W.[.Y.Y.).Y.I.Q.T.Q.I.Q.I.'.T.'.I.Q.Q.T.T.T.'.T.I.Q.T.'.R.T.'.R.",
"R.T.I.Q.Q.Q.Q.R.T.Q.I.T.).[.I.I.).I.).I.Y.).T.[.T.[.Y.).I.R.I.[.Q.Q.Q.).Y.Q.).[.R.).Y.T.).Q.P.W.Y.Y.U.P.`.).U.).U.).).U.U.I.).Q.).U.Y.Q.Q.U.[.Y.).W.).W.).U.).U.).).).Q.I.).Y.R.Q.Q.Y.Q.R.R.Q.Y.).).R.Q.I.[.I.[.I.Q.T.).T.).R.R.T.).I.Q.T.).Q.R.Q.R.R.R.R.Q.R.Q.T.[.T.).).R.T.).R.I.Q.Q.R.).R.).Q.Q.R.I.Q.R.Q.Y.Q.Q.I.Q.Q.Q.Q.Q.Q.T.Y.Y.Y.R.Q.Q.I.).I.).I.R.Q.Y.Y.Q.Q.Q.Y.).Y.).P.).Y.Y.Y.Q.Q.I.Q.Y.Q.[.I.W.I.).Y.U.).Y.Y.Q.Q.Q.Y.).Y.Q.Q.).Y.U.).U.R.I.Q.Q.).Y.Y.Y.Q.).Q.Q.Q.I.).).T.[.Y.[.).R.[.Q.Q.Q.Q.Q.R.[.'.'.Q.Q.Q.Q.Q.R.Q.Q.Q.I.R.R.R.R.).R.Q.).Q.W.).).).).Q.W.).U.).U.).).[.Q.[.Y.).).Y.).).U.R.I.).Y.Q.I.).Q.).Q.Q.Y.U.).Q.).).I.Y.Y.[.Q.Y.Q.I.[.R.Q.Y.Q.I.).Q.[.Q.Y.Q.Q.Y.[.).[.R.[.Y.T.Q.Q.Y.T.I.Q.I.Q.Q.T.T.Y.Q.Y.I.Q.Q.I.Q.Y.Q.Q.T.[.Q.Q.Q.R.Q.'.I.'.'.Q.I.I.'.'.T.Q.T.I.'.T.R.",
"I.I.I.Q.Q.T.I.T.[.I.).T.).I.I.Q.I.Q.Y.Q.Q.R.).R.[.R.Q.[.I.R.Y.).Q.Q.I.I.T.).I.I.T.I.Q.I.R.Q.I.I.).U.Q.U.).U.).P.U.).U.P.).U.).Q.U.W.`.P.).).).Q.).I.).R.U.W.).U.Q.).P.).R.Y.Q.I.Q.).Q.Q.Q.R.T.Q.I.Y.R.Q.Q.Q.Q.R.Q.[.R.).I.I.T.Q.T.T.R.I.I.T.T.R.R.R.I.T.Q.R.T.I.Q.Q.I.I.I.Y.).Y.Q.R.R.R.).).R.Q.I.Q.I.).Q.Q.Q.Y.Q.I.Q.Q.).Q.T.Q.Q.Q.W.).Y.Q.Y.Y.Y.Q.Y.).P.Q.I.Q.Q.Y.).Y.I.Q.Q.P.).U.U.I.).).Q.Y.Q.Y.).I.Q.U.Q.W.U.).U.Q.U.Q.U.).U.Q.Y.Y.Y.Y.Q.Q.U.).U.Q.).Y.Q.Q.R.I.).I.).I.Q.Q.Q.Q.Y.).Q.Q.Y.Q.R.T.R.[.R.R.I.Q.Q.Q.I.T.'.T.Q.R.I.Q.I.Q.I.).R.[.Y.U.Q.I.).Y.).I.`.U.[.U.).W.).U.Q.U.Q.Q.U.Q.U.U.U.I.P.R.U.I.I.Q.Q.Y.Q.R.Q.P.Y.).P.Q.Q.Q.Q.Q.[.I.Q.T.Y.Q.P.[.Q.Q.I.).Q.).Q.[.Q.P.Q.U.Q.).Y.I.Y.).Y.I.Q.I.T.Q.'.R.R.Q.Q.I.Q.T.[.Y.Q.Q.I.[.Y.).I.Y.Q.Q.Q.Q.I.Q.R.'.I.'.T.'.T.Q.Q.T.R.T.R.T.T.T.T.",
"R.R.R.R.Q.Q.T.R.Y.Q.Y.Q.I.).T.Q.U.U.Q.I.).I.).).T.Q.Q.R.).Q.[.I.[.T.[.Q.Q.R.Q.Y.Q.Q.Q.Q.Y.I.).Q.Q.U.).(.W.U.Q.).P.W.U.`.U.).W.W.).U.U.).).U.).Q.).).U.W.Q.Q.U.).P.P.U.U.R.I.Q.Q.W.Q.).R.Q.I.).I.).Q.Q.I.Y.Y.Y.R.Q.I.Q.I.).Q.R.I.Q.I.I.Q.Q.I.I.R.I.I.Q.I.T.I.).R.R.I.R.).R.U.).R.I.I.R.U.R.I.Y.U.).Q.).Q.Y.Y.I.Q.Y.T.I.R.Y.I.Q.Q.I.Q.I.Q.Q.I.).Y.).Y.Q.Y.U.).P.U.).U.I.P.).U.W.Y.).U.U.).U.Q.Y.Q.I.Q.U.).U.).U.W.U.W.U.U.).P.).P.Q.U.U.Y.).U.Y.Q.).Y.Q.Q.Y.Q.Y.Q.Y.Y.Y.Q.I.Q.Q.Y.Q.I.).R.Q.Q.Q.Q.[.Q.).Q.Q.Q.R.Q.Q.R.'.'.R.R.R.Q.Q.Q.Q.I.Q.I.I.I.).U.).I.U.(.U.`.W.Q.P.`.P.).U.).R.Y.Y.).).U.I.).U.Q.Y.Q.).).Q.).I.).Q.Y.).~.Q.W.U.).I.Y.I.).Q.U.Q.T.Q.R.Q.R.Q.P.).I.~.I.Q.~.P.).Q.Y.Q.I.Q.).Y.Q.Q.[.Q.I.[.T.'.Q.Q.R.Q.T.).Q.R.Y.Q.Q.[.P.R.I.).I.Q.Q.I.[.Q.Q.Q.Q.I.'.Q.T.R.I.T.'.I.'.I.'.Q.I.'.",
"I.Q.Q.T.I.Q.Q.Y.Y.).U.P.).U.).U.).U.Y.`.W.Y.U.).Y.[.).Q.Q.Q.Y.R.Q.R.).Y.Q.T.T.Q.Q.I.Q.Y.Q.Q.Q.R.Q.).W.W.`.W.).P.).P.`.U.U.U.U.W.P.(.U.).W.U.U.).Q.).Q.).U.W.U.W.).).).R.P.Q.U.).Y.U.).Q.Q.I.Y.I.Y.U.P.Q.).I.R.).Q.Y.I.Y.I.I.Q.Q.I.Y.Q.R.Q.R.I.Q.Q.).I.Q.R.R.R.I.Y.R.I.I.R.I.I.).U.).[.I.Q.U.).U.Q.I.).U.).P.Q.Q.U.W.I.Q.I.Q.).Q.P.).W.Q.U.Q.Q.W.Y.U.Q.U.).U.Q.U.U.U.).).Q.U.W.U.W.Q.U.(.).(.U.R.Q.U.).U.(.U.).W.(.W.(.W.U.U.W.).U.W.).U.W.U.Q.U.Q.U.Q.Y.P.Y.Q.U.Y.Y.Y.Q.).I.Y.).Q.Q.Q.Q.Q.R.Q.R.Q.R.R.T.Q.Q.Q.Q.R.R.Q.R.Q.Q.Q.).Y.Q.I.Y.P.I.[.I.).P.).).).U.U.U.U.(.U.(.U.).U.U.U.).Y.Q.P.U.I.I.).I.Q.U.Y.P.U.U.U.).U.Y.Q.Y.Q.U.U.Q.I.[.Y.Y.).P.Q.[.Q.Q.Y.Y.).U.).Y.Q.I.W.).I.[.[.Q.I.Q.U.).U.).Q.I.).Q.Q.Q.Y.T.T.Q.Y.Y.Q.Q.Y.W.Y.P.P.Q.Q.P.Q.I.Q.Q.Y.R.Q.Q.W.[.Q.Q.T.'.I.Q.T.I.'.I.T.Q.Q.I.'.",
"I.I.Q.Y.R.Y.Y.Q.I.Q.U.P.).U.).W.).).).).Y.).U.Q.).R.U.).Q.).).R.R.).Y.Q.T.Y.Q.Y.T.Y.Q.Y.T.Y.Y.R.).W.W.).P.W.).P.`.R.P.U.U.W.U.P.U.W.(.).W.W.P.W.).W.P.U.U.).).P.).).P.R.I.R.U.U.U.W.U.W.).Y.W.Y.U.).W.I.U.).Q.U.I.Q.R.Q.Q.I.Q.I.I.).Y.T.I.T.R.Y.Y.R.R.I.T.T.Y.T.Y.I.U.U.Y.R.Y.I.U.Q.U.U.Q.U.U.R.Y.P.W.P.Q.I.I.W.Q.P.Q.I.Y.U.U.R.P.Y.W.U.Q.W.I.Q.Y.P.Q.P.Q.Y.Q.U.Y.U.U.).P.).Q.U.U.U.U.U.(.U.U.Q.U.).).U.).(.Q.P.P.U.P.U.U.U.U.P.U.U.U.P.).P.).U.).I.Q.Y.).I.Q.Y.Q.I.).Q.I.Q.Y.I.I.Y.Q.Y.Q.U.Q.Q.Q.R.Q.Y.Q.Q.Y.[.R.Q.I.R.R.T.R.Y.Q.Y.I.Q.Q.I.P.U.U.P.U.U.).U.(.P.U.(.W.(.P.W.U.U.U.).U.).P.I.Y.I.R.P.).U.).W.W.W.).I.W.).).Y.).Y.U.).U.Q.P.Q.).R.Q.[.T.I.I.R.Q.Q.).I.Y.Q.P.U.U.).U.Q.I.I.I.U.Y.I.Q.Q.Y.).P.[.P.Q.R.'.Q.Q.P.).P.W.).W.P.).^.P.'.P.[.I.Q.P.Q.~.Y.Q.T.I.I.T.T.Q.T.T.'.R.I.I.Q.I.T.",
"R.R.I.R.).Q.Y.).W.Y.W.W.W.U.U.).U.U.(.I.U.).Q.U.Y.).Y.).R.U.).U.I.).Q.Q.Q.Q.).T.Q.Q.I.Y.Q.Y.R.).P.Q.P.).U.W.).P.W.).P.`.W.(.(.U.).W.(.U.).Q.P.U.W.U.).U.W.U.).U.U.W.W.).).U.R.).W.P.).U.).W.U.).Y.U.U.).U.I.Y.R.R.I.Q.I.R.Y.I.R.I.I.I.I.I.Y.R.Y.R.R.I.R.T.Y.R.R.R.Y.Y.I.U.U.Y.U.U.R.U.U.R.R.P.U.).U.).).U.(.).).(.U.Y.P.Q.Q.Y.Y.Y.).I.Q.I.Q.Y.Y.R.Y.P.Q.I.R.U.R.U.U.U.I.U.U.R.W.P.P.(.P.(.(.P.(.U.U.Q.U.U.W.(.W.U.U.P.Q.U.U.W.Q.U.U.U.Q.U.U.U.U.W.I.Y.Y.I.U.Y.Y.Y.Y.I.Q.U.Y.W.U.).I.Q.W.Y.Q.Y.Q.Q.Y.Q.Q.Q.Q.Q.Q.T.Q.R.R.R.I.).R.Q.R.Q.R.Q.).U.).W.).U.).).P.(.U.W.).P.W.(.P.).U.Q.(.U.(.(.).U.).I.).R.U.I.Y.(.Y.R.).).U.W.U.).U.P.W.U.Q.W.).U.I.Q.Y.Y.).I.Q.U.U.Y.I.I.).U.P.R.).I.).I.Y.U.(.).R.I.W.P.Q.I.Q.).R.I.).P.[.I.P.W.`.P.`.(.(.`.).W.U.).U.Y.!.W.W.W.Q.T.Q.I.Q.Q.W.).W.Y.Q.Q.T.Q.'.[.",
"Q.Q.Q.Q.).).).Q.Q.).Q.).).).).).).).`.).).).).).).).).).).).).).).).[.Q.Q.[.Q.Q.Q.Q.Q.Q.Q.Q.Q.Q.Q.[.).Y.).Q.[.`.[.).I.W.W.`.W.(.Q.).W.).).Y.).`.W.W.).).).).).).).).).).(.).).).(.(.(.(.(.).).).Q.Q.Q.).).).Q.W.Q.Q.Q.Q.W.Q.Q.Q.).Q.).).Q.Q.Y.).R.R.R.R.R.R.R.R.R.R.Q.Q.Q.Q.Q.).R.).Q.U.(.R.).R.).Q.(.).U.(.(.(.).(.(.(.(.).(.`.W.).W.Q.W.).W.Y.).Y.Q.Q.R.Q.R.).).R.).).).).(.).(.P.(.(.(.(.(.(.(.(.(.(.(.(.W.(.(.W.W.W.W.).W.W.W.W.W.W.W.W.W.U.W.W.Q.W.).Y.Q.).W.Q.W.(.W.(.(.(.(.(.(.).).).).).).).Q.).Q.).).).Q.Q.Q.R.Q.Q.T.Q.R.Q.Q.).W.(.(.).(.).(.).).).).(.(.).U.(.(.U.).I.(.(.(.W.U.W.U.W.).U.U.`.R.R.[.(.(.`.).(.).).(.).(.).).).).).).).W.).).).I.I.).R.).).).).).U.).U.R.).U.R.).,X(.).).Q.).).[.Q.).).[.).(.Q.).W.).Q.U.).).).`.).).).`.).W.`.Q.W.~.W.W.Q.Q.~.W.Q.~.~.~.~.Q.~.^.`.Q.",
").).).).).R.Q.).).).).).).).).).[.[.).).).).).).).).).).).).).).).).[.Q.).[.Q.[.Q.Q.Q.Q.Q.Q.Q.Q.'.'.Q.Y.`.[.[.U.`.`.,X`.`.,X[.[.[.[.`.[.).).`.).W.).).).).).).).).).).).).).).Q.(.(.(.).(.).).).Q.Q.).^.Q.Q.W.W.Q.W.Q.Q.~.Q.Q.~.~.^.`.`.Q.).).).Q.).R.R.R.R.R.R.R.R.R.R.).Q.R.).).).R.(.).(.).(.).U.).).U.).(.(.(.(.(.(.(.).(.).W.`.).`.).).Q.).).Q.).[.Q.).).).).R.).(.U.).(.(.(.(.(.(.(.`.(.(.(.(.(.(.(.(.(.(.(.U.W.W.W.Q.W.W.W.Q.Q.W.W.~.).Q.W.Q.W.).).).).).).).`.`.).`.`.(.(.(.(.(.).).`.).).(.).).).).).).Q.Q.[.Q.Q.Q.Q.).).).Y.).W.(.(.(.(.).).).(.(.).(.(.`.(.(.`.(.).).).(.).(.(.).).).`.`.).(.`.`.`.`.`.(.).).).W.(.).(.(.).).).).).).Q.).).(.W.Q.).).).).).).).Q.).U.`.`.U.[.`.).).[.[.R.[.[.).Q.[.).[.).).).).).`.(.(.[.[.`.`.[.`.`.`.`.W.`.).W.).Q.Q.~.~.^.Q.^.'.^.~.[.[.'.^.^.[.",
").I.I.).).Q.U.).`.U.Q.`.).P.Q.`.Y.Y.[.).U.).).R.R.).Q.Y.[.).R.[.).Q.T.Q.`.Q.Q.Q.Q.Q.'.R.T.Q.Q.T.Q.[.Q.Q.).`.[.Q.`.P.Q.W.).P.I.).T.Q.).`.).).).).U.).).U.U.).).I.U.).).P.Q.).(.P.(.).P.).).).P.).`.W.I.W.W.I.T.W.T.I.T.T.T.R.T.T.T.I.T.[.T.I.).).I.).I.).Y.R.).Y.R.).Y.U.R.R.I.).).I.P.R.(.P.P.(.).P.).).P.U.(.U.U.P.(.(.P.(.(.R.W.`.Q.Q.).).I.).).I.R.).U.R.R.).U.P.).).P.(.(.(.U.(.`.P.).`.P.(.(.(.P.(.(.P.P.(.(.U.).(.U.U.).Q.U.Q.U.Q.Q.Y.W.Q.Y.Q.~.P.I.U.).P.I.).U.U.).(.U.).(.(.P.`.(.P.(.(.W.P.).).Y.Q.).).T.Q.[.R.Q.Q.Q.Q.Q.Q.Q.).U.).(.(.W.U.).).P.).`.(.U.(.).P.`._._.U.`.(.I.(.U.U.I.W.U.U.).R.).`.U.P.`.(.U.`.).U.U.(.(.U.).).).I.).(.I.).`.I.R.).).I.I.).Q.U.Q.).R.I.(.(.U.).U.R.I.[.[.R.I.[.R.P.Q.Y.Y.P.).).P.`.[.P.(.[.[.P.(.`.P.U.`.`.P.`.`.P.Q.Q.[.Y.Y.`.~.Q.[.[.I.[.`.I.U.^.'.",
").).).).).Q.).[.`.).Q.).).`.`.).`.).`.).).).^.).).).[.[.).).).[.).).`.).`.).).Q.~.~.Q.[.[.'.[.[.[.[.'.I.).W.I.Y.).I.).(.Q.Q.Q.).Q.).).Q.).Q.R.Q.I.R.).Y.).R.).R.).).).).).).).W.).).).).).).).).`.).`.`.`.I.T.T.T.I.R.R.T.R.T.'.R.R.R.R.).Q.).).).[.R.).R.).).R.).).).).).).).).).).`.(.(.).).).`.(.(.`.).).(.(.(.W.(.`.(.(.(.).).[.'.[.`.[.).).).I.Q.Q.Q.Q.R.).Q.).Q.).).(.(.(.(.(.(.(.`.@X(.(.(.(.(.(.(.(.U.(._.(.).`.).).`.`.W.`.`.`.W.W.Y.I.I.W.W.Y.Y.U.W.T.W.Q.Y.P.(.(.W.U.(.(.P.).(.).).(.).).).).).`.`.).[.[.[.T.T.T.T.R.R.T.R.T.R.W.).(.).W.`.(.(.(.`.`.).(.`.).(._.`.W._.(.(.(.W.(.).(.(.(.).).).).`.`.`.`.).(.(.).(.`.(.).`.`.).).).W.R.[.).I.R.).).R.I.).T.R.R.(.R.I.).R.R.).).Q.U.).W.).Q.).[.).).).[.).).).).).[.).(.[.[.`.`.[.).(.`.`.).`.`.`.).~.[.[.`.`.[.`.[.`.[.`.`.^.[.^.[.",
"Q.).).).).Q.).).).).Y.).`.`.`.).`.`.`.[.Q.).`.).).).).).).).).Q.Q.).`.`.Q.Q.[.[.[.Q.Q.Q.^.Q.'.'.[.'.'.[.`.W.).(.W.U.W.U.).).W.W.Q.).).).).Q.Q.Q.W.Q.(.).).).).W.W.).).).).).).).).).).).).).`.`.).).`.`.`.Y.W.W.Y.I.R.T.T.Q.W.W.W.W.~.~.~.).).).).).).).R.).).R.).).).Q.R.).).).).(.).(.(.(.).W.`.(.(.`.).(.(.(.(.W.(.(.).!._.`.Q.[.'.'.`.[.).`.).Q.).W.W.Q.).).Q.).).).).(.(.(.(.(.(.(.`.`.(.(.(.(.(.(.(.(.U.(._.).).`.).Q.`.`.W.`.`.[.W.W.W.W.W.W.W.U.U.U.W.W.W.U.W.(.(.(._._.(.(.(.(.(.).).(.(.).).).).).).).[.[.[.Q.Q.Q.Q.Q.Q.R.Q.T.W.W.).).).Q.`.(.(.(.`.`.(.W.`.`.W.`.`._._.(.(.(.W.(.(.(.(.(.(.(.(.(.(.`.`.(.(.(.(.(.(.`.).).`.).).`.`.`.Q.).Q.W.W.U.W.R.Y.~.W.W.Q.(.R.R.(.W.R.(.(.(./.(.(.!.).).).).).).[.).).).).).`.`.`.`.[.`.`.`.`.`.(.`.(.`.`.`.).`.`.`.`.`.[.`.`.`.`.`.`.~.^.~.[.",
"Q.).).Q.).).).).).`.`.`.`.`.`.`.`.`.`.).).).`.).).).).).).).`.).`.).`.).[.[.[.).[.Q.Q.Q.^.Q.^.'.'.'.[.[.)._.`.(.(.(.W.(.(.W.W.Q.W.W.W.Q.W.W.W.W.W.Q.Q.Q.Q.Q.Q.Q.Q.Q.).).).).).).).).).).).Q.~.~.~.).~.).`.I.W.W.Y.Q.Q.Q.~.~.`.~.).[.[.[.[.[.[.[.).).).).R.Q.).Q.).).).Q.).).Q.).(.).).(._.(.(.(.`.`.(.`.(.(.(._._.(._.(.(.).(.`.`.`.`.).`.'.'.Q.).).).).).Y.Q.).).).[.).(.(.(.(.(.(.(.(.(.`.(._._._.(.(.(.(.(.(._._.!.(.(.(.(.`.`.`.`.`.`.~.W.W.W.W.W.W.W.W.W.W.(.(.(.!.!.!._.[.[.(._.(.(.(.).`.).).`.`.).).).).[.[.[.R.R.Q.Q.'.'.Q.Q.Q.Q.'.'.).(.(.(.(._.(.(.`.`.`.`.`.(.`.`.(.`._.W.(.(.).(.W.Q.).W.W.W.Q.Q.).).).).(.(.(.(.(.)._.`.).).).).`.R.).).W.Q.Q.Q.).Q.).W.Q.W.Q.Q.Q.).W.W.).).).).).).).'.~.~.~.~.~.^.`.`.`.`.`.`.`.`.`.`.`.`.`.`.`.`.`.(.`.`.`.`.`.`.`.`.`.`.`.`.`.`.`.`.^.^.^.'.",
"[.[.).).).).~.^.^.^.`.`.`.`.`.`.`.`.`.`.`.`.`.`.`.`.`.`.`.`.`.`.`.`.`.`.`.`.^.).).).~.~.Q.Q.Q.^.Q.Q.[.R.0 0 0 0 0 0 0 0 0 0 0 0 w w w f f f f f f f 0 0 0 0 0 0 0 n.Q.~.).).).^.~.~.).).).Q.Q.Q.Q.~.~.!.~.f f f f 0 0 0 0 0 0 - $ $ o o o o o - Q.).).).).).Q.Q.).).).).~.(.(.(.(.(._._._._._._.`.`.(._.(.(._.(._.(.(._.(._.`.`.`.`.`.`.`.[.D.0 @ @ @ 8 $ $ $ $ @ o o 0 )._._._.(.(._.(._.`._._._._._._._.(.(._._._._.(.(.(.`.(.`.`.`.`.,X8 0 0 0 0 0 0 0 0 - - - - - $ - $ 0 0 @ _._.(.(.(.).).).`.).).).).).).).[.[.o o o o o o o   o     $ (.(.(.(.(.(._.(._.`.`._._.(.`._._._.`.@ $ o o @ $ - 0 - - - 0 0 R.(.).(.(.(.(.(.`.`.`.`.(.`.`.).).n.$ $ @ @ $ $ - 8 8 8 8 8 0 8 8 8 8 8 8 8 $ @ @ @ @ 0 T.~.~.`.`.`.`.`.`.`._.`.`.`.`.`.`.`.`.`.`.`.`.`.`.`.`.`.`.`.`.`.`.`.`.`.`.`.`.`.^.~.~.'.",
").[.).[.`.^.^.^.~.~.^.^.`.`.`.`.`.`.`.`.`.`.`.`.~.~.~.!.`.`.`.`.`.`.`.`.`.~.~.`.).).~.~.Q.^.^.^.^.'.[.Z.$ + + $ +                             o   o   . . .     o w Q.~.).).~.~.^.~.^.^.Q.Q.Q.Q.~.).~.`.`.0 o o o + o o   . . . .   . . . . . 0 ).).).).).Q.).).).(.(.(.!.`._._.(.(.(.(._._._._._._._._.(.(._._._._._._.(._.`.`.`.`.`.`.`.[.f o o o               . . $ '.(./._._.(._._._._._._._._._._._.(._.(._._._.(.(.(.~.`.`.`.`.`.,X@   $ $ $ $ $ $ + + + + + + + + o $ + @ _._.(.(.(.).).).).`.`.).).).).).[.[.o . .               . $ (.(.(.(.(.(.(.(._._._._._._._._._._.`.o                     . O I.).).(._._.`.`.`.`.`.`.(.`.`.`.`.0   + . o           O o   O O O + + + O + + o o o o 8 Q.).~.`.`.`.`.`.`._._._._.`.`.`.`.`.`.`.`.`.`.`.`.`.`.`.`.`.`.`.`.`.`.`.`.`.`.`.^.~.~.~.",
"'.[.[.[.`.^.^.^.~.~.~.^.`.`.`.~.~.~.`.`.~.~.~.~.~.~.~.!.`.`.~.`.^.^.^.^.^.^.^.~.~.~.~.Q.Q.Q.Q.Q.Q.^.`.n.q M.wXwXkXxXBXBXBXBXBXxXxXxXkXkXkXkXrXrXeXeXeXrXkXkXkXkXg q I.W.~.~.Q.~.^.^.~.~.~.Q.~.^.).`.~.I.n.w q q g M.M.M.S.wXwXwXwXeXrXxXbXDXNX0 I.).(.).).(.).(.).(.(.(.!.!.!.!._._._._._._._._._._._._._._._._._._._._._._._._._._.`._._.I.8 o kXxXBXVXBXBXBXVXHXLX* .   (./././././._././._._._._._._._._._._._._._._.(.!.!.~.`.`.`.oXoX8 0 M.F.jXjXjXkXeXwXwXF.F.S.S.S.S.M.M.8 (.(.(.(.(.).(.).).).).).~.~.~.).[.'.@ wXwXkXBXBXBXHXHXHXrX.   I.(._.(.(.(.(._._._._._._._._./._.n.q qXHXLXLXHXVXVXVXlXqXg   n.).(.).(.(.`.(.`.(.`.`.`._.~.(.`.0 * wXrXrXxXxXkXkXkXeXeXeXeXjXjXjXjXjXkXkXbXDXKXIXIXM.w n.(._.~.^.`.`.`.~.~._._.`.`.`._._._._.`._.`.`.`.`.`.`.`.`.`.`.`.`.`.~.^.^.~.^.~.~.~.~.",
"vX[.[.[.^.`.^.^.~.~.~.~.`.~.~.~.~.~.~.~.~.~.~.~.~.~.~.~.~.~.~.~.~.~.~.~.~.^.^.^.~.~.~.~.~.W.W.W.Q.Q.Z.f | UXUXUXUXUXUXUXUXUXUXUXUXUXUXUXUXUXUXUXUXUXUXIXLXLXKXHXtX> * '.W.Q.Q.~.~.~.~.~.~.~.~.~.Q.W.^.n.- w IXUXUXUXUXUXUXUXUXUXUXUXUXUXPXUXGX+ o w ).).).Q.).(.(.(.W.W.!.!.!.!.!.!._._._._._._._._._._._.!._._.!.!.!._._._._._._._._._._.n.8 o IXIXUXUXPXUXUXUXPXJXX .   (./././././._._._._._._./._._._._./._._._._._._._.!.!.!.!.`.f n.@ S.UXUXUXUXUXUXUXUXUXUXUXUXPXPXUXUXLXn.8 @ Q.(.(.W.Q.W.).Q.~.~.~.~.W.).8 o   LXPXUXUXUXUXPXPXPXPXX . 0 (._.(.!._.(._._._._.!.!._._./.W.o qXJXVXUXUXUXUXUXUXUXPXdX  n.`.(.`.(.(.(.`.`.`.`.`._._._.f n.0 g IXUXUXUXUXUXUXUXUXUXUXUXUXUXUXIXUXUXUXIXPXUXPXJXM.+ w _._._.~.~.~.~.!.~.~.~.`.`._._._.`.`._._.`.`.`.`.`.`.`.`.`.`.~.~.`.~.~.^.^.^.~.~.~.~.",
"NX[.[.[.`.^.^.^.~.~.~.~.`.~.~.~.~.~.~.~.~.~.`.`.~.~.~.~.~.~.~.~.~.~.~.~.^.^.^.^.~.~.~.~.~.W.W.W.U.b.f s ..LXUXUXUXUXUXPXPXUXPXUXUXUXUXUXUXUXUXUXPXPXPXPXJXSXSXZX%.: O I.W.Q.Q.Q.Q.Q.Q.Q.~.~.~.~.W.~.n.I.w f JXJXSXUXUXPXUXUXUXUXUXUXUXUXPXIXNX$ * ; T.).(.).).).(.(.W.W.!.~.!.!.!.!._._._._._._._._._._._._._._._.!.!._._._._._._._._._._.n.8 o KXIXLXUXPXPXJXJXSXhX: .   (././././././._._._._././._._._._./._._._._._._._.!.!.!.!.W.b.n.0 wXLXUXPXUXUXUXUXUXUXUXPXPXSXZXZXJXUXn.w $ n.U.(.W.W.Q.Q.W.~.W.!.W.W.U.8 o . UXPXPXPXPXPXPXJXSXSX. . 0 (._.(._.!._._._._._.!._._././._.@ rXPXJXUXUXPXPXJXSXhXgXtX. n.`.(.`.(.(.(.`.`.`.`.`._.!.n.- - - g PXZXJXPXUXUXUXPXUXUXUXUXUXUXPXPXJXJXJXJXSXSXZXZXM.@ 0 D.n.n.!.~.~.~.~.~.~.~._.`._._._._.`._._.`.`.`.`.`.`.`.`.`.`.~.~.~.~.~.^.^.^.~.~.~.~.",
"MX'.[.[.[.'.^.^.~.~.~.~.~.~.~.~.~.~.~.~.~.~.~.~.~.~.~.!.!.!.~.~.~.~.~.~.~.~.^.^.~.~.~.~.~.W.Q.I.U.i tXp.VXUXSXW W R R R R R R R R R R R R R R R R R R R R R R T U j . f '.W.Q.Q.Q.Q.Q.Q.Q.Q.W.'.R.(.w M.HXSXSXSX8.R T T R R R R R R R R ! bXFXIXIXBXg jX0 ).(.(.W.(.!.!.~.!.!.!.!.!._._._.!.!.!._._._._._._._._._._._._._._._._._._._._./.n.$ + LXgXR W W W R R R R h . o (././././././././._./././././._././._._._._._._./.!.).W.Z.Z.w rXi.JXPXJXR R R R R R R R R R T T E SXIXKXIXUX. n.P.U.W.W.W.W.W.W.W.W.W.).@   O LXSXR R R W W W W PXIX. M.(.(._._._._._._._._.!._./._.T.'.@ tXPX$.T T R R R R R R h o n.(.(.`.(.(.(.(.(.(.(.E.).s M.fXfXSXJXJX! T T T R R R R R R R R R R R R R R R R R R t.BX& X.&   s !._.~.~.~.~.~.~.`._.`.`._._.!.!.~.~.!.!.!.`.`.`.~.~.!.!.!.~.~.~.~.~.~.~.~.~.~.",
"GXvX<X<X'.'.`.`.`.~.~.~.~.~.~.~.~.~.~.~.~.~.~.~.~.~.~.!.!.!.~.~.~.~.~.~.~.^.^.^.~.~.~.~.~.!.w @ I.JXPXJXgXgXl.R R R R R R R R R R R R R R R R R R R R R R T T N P l . $ f W.Q.Q.Q.Q.Q.Q.W.W.W.f w I.xXBXt.pXaXaXW R R R R R R R R R R R ~ KXKXPXhXd.i.kXM.).(.(.(.(.(.(.~.!.!.!.!.!._._._.!.!.!._._._._.!.!._._._._._._._._._._._._._._./.n.8 + IXgXT R R R R R R R h . o _./._._._./././._._./././././._._./._._._._._._./.!.Z.f f s AXgXy.gXiXaXR R R R R R R R R R R R E PXPXPXuXdXrXq bXM.U.W.W.W.W.W.W.W.W.R.o   . HXSXR R W W W W 8.KXPXX q s [._.(._._._._._._.!.!./.W.@ $ o dXPXy.T T R R R R R T h o n.`.`.`.(.(.`._._._.R.n.n.= . AXJXJXPXJX8.R R R R R R R R R R R R R R R R R R R R T dXJXZXfX: o s !._._.~.~.~.~.~.`.~.~.~.~.~.~.~.~.~.~.~.!.!.!.~.~.~.!.!.!.~.~.~.~.~.~.~.~.~.^.",
"GXvXvX<X'.'.`.`.`.~.~.~.~.~.~.~.~.~.~.~.~.~.~.~.~.~.~.~.!.!.!.!.~.~.~.~.^.`.^.^.~.^.!.`.~.I.n.@ xXSXUXJXu.W W R R R R R R R R R R R R R R R R R R R R R R R T v P l O o 0 Q.Q.Q.Q.Q.W.W.Q.I.Q.w 8 jXAXZXZXW 8.8.R R R R R R R W W W R R W ! ! ! 8.8.j.o.o I.[.).!.`.`.`.~.!.!.!.!.!.!.!.!.!.!.!._._._.!.!.!._._._._._._._._._._._._._././.n.$ + LXgXR R R R R R R R h . o _./._._._./././././././././././././._._._._._._./.~.n.M.I.F.JXSXuXE W W R R R R R R R R R R R R R I ! ~ ! JXJX$   X n.I.W.Y.W.W.W.W.W.I.    . LXSXR W W W W W W y.! W uX$ 0 _.(._._._._._._.!.!./.U.o O   dXPXy.T T R R R R R T h o n.`.`.(.(.(.)._._._.U.n.n.sXgXiXu.u.y.8.R R R R R R R R R R R R R R R R R R R R R T y.dXuXp.: o s !.!.`.!.!.!.~.~.`.~.!.!.!.!.!.!.!.~.~.~.!.!.!.!.!.!.~.~.~.~.~.~.~.~.~.~.~.~.^.",
"LXNXNXbX].'.`.`.`.~.~.~.~.~.~.~.~.~.~.~.~.~.~.~.~.~.~.~.!.!.!.~.~.~.^.^.^.`.`.`.`.`.`.!.`.8 DXVXuX8.uX8.R R R R R R R R R R R R R R R R R R R R R R R R R R T v H l       '.W.Q.Q.Q.Q.T.].M.8 [.DXdXu.9.W R R R R R R R R R R R W R R R R R T R R 8.8.p.dXh t a [._.~.~.!.~.!.!.!.!.!.!.!.!.!.!.!.!.!.!.!.!./././._._._._._._._._._._././.n.$ + LXgXR W W R R R R R h . o _._._._._._._././././././././._._._._._././._._./.P.P.lXVXi JXAX8.R R R R R R R R R R R R R R R R R R T E $.uXtXUXqXY q I.W.W.W.W.W.W.I.    . PXSXR R W W W W R R T W u.X q ^.!._._._._._._.!././.(.@   o dXUXy.T T R R R R R T h + n.`._.(.(.(.(.(.).n.(.n.gXd.x.aXW R T T T R R R R R R R R R R R R R R R R R R R T T B N v n , o f !.!.`.!.~.~.!.~.~.~.`.!.~.~.~.~.`.~.!.~.!.!.~.!.~.~.~.~.~.~.~.~.~.~.~.~.~.~.~.",
"PXGXDXUXbX'.`.`.`.~.~.~.~.~.~.~.~.~.~.~.~.~.~.~.~.~.~.~.!.!.~.~.~.~.`.^.`.^.^.^.^.`.}.oXI.8 LXgXJXy.R R R R R R R R R R R R R R R R R R R R R R R R R R R R T v L x   o   '.W.Q.Q.W.Y.M.> M.M.BXLXJXR R R R R R R R R R R R R R R R R R R R R R R R R dXJXJX%.> T.(.(.~.~.~.~.`._._.!.!.!._.!.!._.!.!.!.!.!././.!._._._._.!.!.!._._._./.XXn.$ + LXuXR R R R R R R T h . @ _._._._._._._./././._././._._._._._._./././././.b.s q lXLXHX~ W R R R R R R R R R R R R R R R R R R R T R R R ~ dXLXdXj qX0 W.W.W.W.E.I.o   . PXJXR R R W R R R R R R f.> kX].T._._._._._._._././._.@     gXPXy.T T R R R T T T h + f `.`.(.(.(._.).f w <XAXaXR R R R T T T T T R R R R R R R R R R R R R R R R R R T T B N v M , @ b._._.`.`.`.~.!.!.~.!.`.`.~.~.`.`.`.`.`.~.`.^.^.^.~.~.~.~.~.~.~.~.~.~.~.~.~.~.~.",
"UXKXIXUX].[.`.`.`.`.~.~.~.~.~.~.~.~.~.~.~.~.~.~.~.~.~.!.!.!.~.~.~.~.`.^.`.^.^.^.^.oX4X[.w M.UXt.l.~ R R R R R R R R R R R R R R R R R R R R R R R R R R R R T V K x       '.~.Q.Q.W.I.M.X g HXHXgXu.R R R R R R R R R R R R R R R R R R R R R R R R R l.ZX#.BXwXn.(.(._.~.~.~.`._._.!.!.!._._._._._._.!.!.!./.!.!._.!._._.!.!.!._._._./.XXn.$ + HXdXR R R R R R R T h . o _._._./._._._./././._././._._._._./._./././.(.P.M.lXlXtXSXp.W R R R R R R R R R R R R R R R R R R R R T R R R W 8.t.JX: X : I.W.W.W.E.n.o   . PXSXR R R R R R R R R R 9.tXtX$ o )._._._._._._././._.@     gXPXy.T T T T R T T T h o w `._.(.(._.W.M.g 0 xXSXgX~ T T T T T T T T R R R R R R R R R R R R R R R R T T T T B N N v , o b._._.`.`.`.!.!.!.~.!.`.`.!.!.!.`.`.`.~.~.~.^.^.^.~.~.~.~.~.~.~.~.~.~.~.~.~.~.~.",
"IXHXUXIX<X,X[.`.^.^.~.~.~.~.~.~.!.~.!.!.~.~.~.~.~.~.~.~.~.!.~.`.~.~.^.^.`.^.^.^.[.@ w 8 # HXLXdXB R R R R R R R R R R R R R R R R R R R R R R R R R R R R R T V J S   o   '.!.~.W.U.I.q dXHXJXZXT R R R R R R R R R R R R R R R R R R R R R R R R R R T T y.SXHXw o - `.`.~.!.!.~.!._._._._.!.!.!.!.!.!.!.!.!.!.!._././././._.!._._._././.n.+   JXuXR R R R R R R T h . @ _._._._._._._./././._._._._._._././._._.`.).@ & N.LXPXdXE R R R R R R R R R R R R R R R R R R R R R R R R R R R R W l.aXfXh $ ^.!.E.E.n.O   . PXSXR R R R R R R R R R W uXI : S.s /./._._._._././.(.@     AXPX~ T T T T T T T T h o s _._.(._.[.0 X iXJXtX8.8.R T T T T T T T R R R R R R R R R R R R R R R R R T T T T B B N v j o b._._.`.`.`.`.!.!.!.!.`.`.~.~.!.~.~.~.~.~.~.~.~.~.^.^.~.~.~.~.~.~.~.~.~.~.~.~.~.",
"IXPXPXIXbXGX;X[.`.^.~.~.~.~.~.~.!.!.~.~.~.~.~.~.~.~.~.~.~.~.~.`.~.~.^.^.^.~.^.~.`.0 & JXJXI %.l.T R R R R R R R R T T T T T T T T T T T T T T T T T T T T T T V J D . o   '._.!.n.n.M.rXSXAX8.R R R R R R R R R R R R R R R R R R R R R R R R R R R R T T W iXSXg qXsXF.).(.~._.~.!._._._._.!.!.!.!.!.!.!.!.!.!.!._././././._.!./._._././.n.o   HXuXR R R R R R T T h . @ _._._._._._./././._._._._._._._._._./.W.w n.wXVXLX! ~ W R R R R R R T T R R R R R R R R R R R R R R T R R R R R R R W j.x.h | rXo !.E.n.O   . PXJXE R R R R R R R R R E ! I uX  * T.W././././././.(.o     AXPX~ T T T T T T T T h o w `._.(._.q a : s.SXAXR T T T T T T T T T T T R T T T R R T R R R R R R T T T T T B B B N v h o n._._.`.`.`.`.!.!.~.!.`.`.~.~.~.~.~.~.~.~.~.~.~.~.^.^.~.~.~.~.~.~.~.~.~.~.~.~.~.",
"HXPXPXPXIXKX[.`.^.^.~.~.~.~.~.~.~.~.~.~.~.~.~.~.~.~.~.~.~.~.~.~.~.~.^.^.^.~.~.!._.0 * HXPX! E W R R R R R R R T T T B B B B T T B B T T T T T T T T T T T T T V J D . o   '._.XX0 O qXJXAXgXW R R R R R R R R R T T T T R R R R R R R R R R R R R R R R T R s.k.SXJXgXo Q.(.!.!.~.~._._._.!.!.!.!.!.!./.!.!.!.!.!._././._._._.!._._._././.n.o   HXuXR R R R R R T T h . @ _._._._._._./._._._._._._._._._._._././.n.n.dXAXZX~ R R R R R R R T T T T T T T T T R R R R R R R R R R R R R R R R R W W hXSX.   _.E.n.O   . PXJXE R R R R R R R R R T E M p.X g s Q./._././././.(.o     AXPX~ T T T T T T T T h + w `._././.q i | s.iX! R T T T T T T T T T T T T T T T T T T T T T T T T T T T T T B B B N v h o w _._.`.`.`.`.!.!.~.!.!.~.~.~.~.~.~.~.~.~.~.~.~.~.^.^.~.~.~.~.~.~.~.~.~.~.~.~.~.",
"bXDXDXHXIXKX[.^.`.`.^.~.~.~.~.~.~.~.~.!.!.~.~.~.!.!.!.!.~.!.~.~.~.~.`.~.~.~.~.!._.0 & PXPX! R R R R R R R R R T B N M M n n n n b b n n b b b b b v v v v v N M m S .     '.XXXX[.eXtXdXgXW R R R R R T T T T T T T T T B T T T R E E R R T T T R R R R R R R R uXSXZX. I.[.!.`.`.`._._._.!.!.!.!.!.!.!././.!./././././._._./._./././././.n.    HXuXR R R R R T T T h . @ _./._._._._._._._._._._._._._._._._././.P.I.tXSX9.W R R R R R R R T T T B B B B B B B B B B T T R T T T T T T R R R R T R gXY u.* (.E.n.  . . PXSXT R R R R R R R R R T T C y.Y o g = `./././././.(.o   o AXPX~ B B T T T T T B h O 0 @X@XR.n.KXIXAX8.W T T T T T T T T T T T B N N v N v v v v M v v M v v v V N N N N N N V v x o w _._._.`.`.`.`._.`.!.!.~.~.~.!.`.~.~.~.~.!.~.~.~.~.~.~.~.~.~.~.~.~.~.~.~.~.Q.^.",
"nXMXMXDXLXGX,X^.`.`.~.~.~.~.~.~.~.~.~.~.!.!.~.~.~.!.!.!.!.~.~.~.~.~.`.~.!.~.~.!./.0 & HXPX~ R R R R R R R R T T V b P L L L P L L L L H H J J K K J J H m J m H G l   O   n.0 0 8 SXJXy.W W R R R R R T T T T T N n n m m m m n n G h E T T T T T R R R R R R R R f.hX> 8 n._.`.`.`._._._._._._.!.!.!.!.!.!././.!././././././././._._././.n.    JXuXT R R R T T T B h . o _._._._._._._._._._._._._._././._.T.n.I.D.HXSXuX8.R R R R R T T T T T B N b n m m J H H H n n M E T T T T T T R R R R T T T W f.* @ - 0 .   . UXSXT R R R R R R R R R T T B ~ I ~ uX  - /././././._.o   o AXPX~ B B T T T T T B I   0 .X(.# X LXKXZXW R R T T T T T T T T B B b H L L [ [ [ [ [ [ [ [ [ D S l l l b m m n A > l j o 8 _._._._._._._._.`.!.!.~.!.~.~.~.!.!.~.~.~.~.~.~.~.~.~.~.~.~.~.~.^.^.^.^.^.^.~.",
"nXMXMXDXIXGX,X^.`.^.~.~.~.~.~.~.~.~.!.!.!.!.~.~.~.!.!.!.~.~.~.~.~.~.~.~.!.!.~.!._.0 O HXPX~ R R R R R R R R R I P P , , , , > > > > > , , , , j k l l l l Z c Z Z l     . n.8 8 * ZXuXiXR R R R R R R T T T T B v H H L P G D A Z k : E T T T T T T T R R R R T T 8.iXY : wX[.`.`.`._._._._._._.!.!.!.!.!.!././.!././././././././._._././.n.    JXuXT R R T T T T B h . o _._._._._._._._._._._._._././././.w w M.SXSXZXu.W R R R R T T T T T B B v c G G D F F F F F x , I B B T T T T R R R R T T T l.l.X   . o   o . UXSXT R R R R R R R R R T T T N B R y.. i P././._./.(.o   o AXJX! B B T T T T T B I . 8 .X/.% & HXKXuXW T T T T T T T T T T B N G ] ] ) / j , , , , > > > & & & X , c m m n F O : > o @ _._._._._._._._.`.~.~.~.!.!.!.~.!.!.~.~.~.~.~.~.~.~.~.~.~.~.~.~.^.^.^.^.^.^.~.",
"mXmXmXGXUXGX;X'.[.`.^.~.~.~.~.~.~.~.!.!.!.~.~.~.!.!.!.~.~.!.!.~.!.~.~.~.!.!.!.!.(.0 X AXPX~ R R R R R R R R R j y _ & # + + O + + + + + + + o o o O O O O O O O O O o o   0 w $ uXgXiXW R R R R R R T T B C C N c X X O X X O O O # X I C c T T T T T T R T T T T W W W 9.u.O 0 `._._._._._._._._._._.!./././././././././././././././././.n.    SXuXT R R R T T T B h . @ _._._._._._._._._._._._._./._.`.9Xn.w i JXgX8.W R R R R T T T T T N b b m h X O   o o o o @ 8 O I V C B T T T T T T T T T B C p.I AXJXO O O   PXJXE T R R R R R R R R T T T T T T E I ! f W._././._.@     AXJXQ B T T T T T T B U . @ n.n.dXl.lXDX~ R T T T T T T T T B B B C X @ @ o @ @ o o o o o o o o o o o X l A c m F X O ].n.0 !._._.`.`._._._.`.`.~.~.!.~.~.~.!.~.~.~.~.~.~.~.~.~.~.^.~.~.~.~.~.^.^.^.Q.Q.~.",
"MXMXMXKXUXIXIXbX'.`.^.^.~.~.~.~.~.~.!.!.!.~.~.~.!.!.!.~.~.!.!.!.!.~.~.~.!.!.!.!.(.0 * AXPX~ R R R R R R R R R h # O O O O O O + + + + + + + o o o o o o o o o o o o o o   q AXsXu.x.8.W R R R T T T T B N P j l Z . O + O O O O # # X F X h B T T T T T T T T T T R R B 8.~ . o [._._._._._._._._._._.!./././././././././././././._._./.XXn.    SXuXT T T T T T T B h . o _._._._._._._._._._._._._.XX/.(.- $ VXdXdXiXW R R R R T T T T T B N l : Z , O @ @ @ @ o @ @ o   z : : B T T T T T T T T T T T B E y.tXO O +   UXJXE T R R R R R R T T T T T T T T T C E } q ,X/.E._.@     AXPXQ T T T T T T B B U . @ @ o AXgXU uX~ T T T T T B B B B C : h U : O @ o o o o o o o o o o o o o o O O X X X & 8 % n._./._._.`.`.`._._._._.`.~.!.~.~.~.~.~.~.~.~.~.~.~.~.~.~.~.^.~.~.~.~.~.^.^.^.Q.Q.~.",
"NXNXNXIXUXUXPXbX'.^.~.^.~.~.~.~.~.~.~.~.!.~.~.~.!.!.!.!.!.!.!.!.!.~.~.~.~.~.!.!.(.0 * AXPX~ R R R R R R R R R h % O O O O O O O + + + + O o o o o o o o o o o o o o o o o $ SXSXy.9.W R R R R T T T T B M L : X :   O   O O o + + + O : . c B T T T T T T T T T T T T T 8.~   o ,XXX_._._._._._._._._.!.!.!._././././././././././._./././.n.    JXuXT R T T T T T B h . o _.XX_._._._._._._._._._._.XX/.W.o   HXJXt.8.R R R R R T T T T B C P ] X & O o o @ o o o o @ o o X . X V B B T T T T T T T T T B T y.tX+ O o   PXJXE T T R R R R R R T T T T T T T T B T : @ n./.E./.@     AXJXQ B T T T T T T B C . @ @ o AXdXN E T T T B B B B B B N C : . X X   o o o o o o o o o o     o o o + O O + # @ 8 @ T.XXXX_._.`._._._._._._.!.~.~.~.~.~.~.~.~.^.^.~.~.~.~.~.~.^.^.~.~.~.^.Q.Q.Q.Q.~.^.~.",
"KXIXUXIXUXUXUXbX'.^.^.^.~.~.~.~.~.~.~.~.~.~.~.~.!.!.!.!.!.!.~.~.~.~.~.~.~.!.!.!.(.8 * VXLX~ R R R R R R R R R I X X . O O O O + @ @ @ @ @ o o o o o o o o o o o o o o o o + JXSX~ T R R R R T T T T B I j ] : . o     O O O O O O O O O . , F c B B T T T T T T T T T T ~ !   o ,X@XXX_._._._._./._./._._._./././././././././././././.XXXXn.    HXuXT R T T T T T B h . o _._._._._._._._._._._._._././.!.o   HXSX! R R R R R T T T T B B h > & O o o o o o o + o o o o   o   X P c C B T T T T T T T T T T ~ #.O o o . PXJXC T T T R R R R R T T T T T T T T T B E h r.R.P./.@   . AXJXE B B T T T T B B V X @ 8   AXuXB T T T B B B B B N N h , h .                 o o o       o o O O O + + O # @ R.XXXXXXXX_._._.`._.`.`.`._.`.`.~.~.~.~.~.~.~.^.^.~.~.~.~.~.~.~.^.~.~.~.^.Q.^.^.Q.~.~.~.",
"UXUXIXUXUXUXUXvX'.^.^.^.~.~.~.~.~.~.~.~.~.~.~.~.!.!.!.~.~.~.~.~.~.~.~.~.~.~.~.!.`.8 * HXPX! R R R R R R R R R Q uXuX& w w w n.n.n.n.n.n.n.b.n.b.n.n.w 0 0 $ $ @ @ @ @ @ o . JXSX~ T T T R T T T B B N F X % X .       o O O O o o o o o . . . X V N B T T T T T T T T T ~ h   o ,X@XXXXXXXXXXX_././././././././././././././././././.XX.X.Xf     HXuXT T T T T T B B h . o _._._._._._._._._._._._._././.`.o   HXSX! R R R R T T T B B B N l O o o o o o o @ @ @ @ o o o o o o   . X c v T R T T T T T T T T Q Y O O O . PXSXC T T T R R R R T T T T T T T T T T B B B ~ & jXP.@     AXJXE B B T T T T B B V X @ 8   SXuXB T T T B B B B N N v j o   .     @ @ @ @ $ 8 0 0 f n.n.I.Z.@ + O O O O + O 8 _..X/./._._._._._._.`.`.`.`.`.`.`.~.~.~.~.~.^.^.^.~.~.~.~.^.^.^.^.^.~.^.^.'.'.'.'.~.Q.^.",
"FXNXNXDXGXKXIXvX'.^.^.^.~.~.~.~.~.~.~.~.~.~.~.~.!.!.!.~.~.~.~.~.~.~.~.~.~.~.~.!.`.8 O HXPX! R R R R R R R R R E d.y.> w m.n.n.n.n.n.n.n.n.n.I.I.R.P.P.V.Z.V.A.I.I.I.Y.Z.o . PXJX~ T T T T T T T B I Q P X o O   .       @ o o @ @ @ o o .   . h N N B T T T T T T T T T E h   @ 4X@X@XXXXXXXXXXX/././././././././././././././..XXXXXXX.X.Xn.    JXuXT R T T T T B B h . o _._._._._._._._._._._._._././.`.@   HXSX! R R R T T T T B C : F l O o O O   o @ @ @ @ 8 8 8 @ o   o     X A c R R T T T T T T T T Q h O O O . PXSXC T T T R R R R T T T T T T T T T T T B B ! . o P.@     AXJXE B B T T T T B B C X @ 8   SXuXB T T T B B B B B M v j + o O O F.T.P.P.P.P.P.P.P.P.P.P.P.P.8 # o o o + @ # s XX.X/./._._._._._._.`.`.`.`.`.`.`.~.~.~.~.~.^.^.^.~.~.~.~.^.^.^.^.^.^.W.I.I.I.I.T.T.Q.Q.",
"nXvXvX9XnXMXKXvX'.^.^.^.^.~.~.~.~.~.~.~.~.~.~.~.!.~.~.~.`._.~.~.~.~.~.~.^.^.^.!.`.8 . JXPXE R R R R R R R R R B 8.j & & & q * * & & * O . . . .   Z.V.n.b.Z.E..X.X.X.XXX@ . PXJXy.T T T T T T B N h   : X       .   s XX.X.X/./././.E.n.O     X X X E T T T T T T T T T C h   o 4X#XoX`._.XXXX_._._._._._._._._._././._.!._._.XX@X#X,X.X.Xn.  . JXuXT T T T T T B B h .   _._._._._._._._._._._._._././.`.o   AXZXE R R T T T T T B C   o O O O O   Z.E./././././..X/.[.o   o       X . W R T T T T T T T T E h O O O . PXJXC T T R R R R T T T T T T T T T T T T T T Q . $ (.@   o dXSX~ B B T T T T B B V X @ # . ZXp.B T T T T T B B N , F k O % % M.W.`.(.`.`.).`.~.~.Q.Q.T.Y.I.I.I.T.I.I.T.I.'.,XoX`.`.^._._._._._.`.`.`.`._.^.^.^.`.`.`.~.^.^.^.^.^.^.^.~.`.^.Q.'.;X;X<XKXPXUXKXNXmXmXmX",
"mXnXnXnXnXMXKXbX'.'.^.^.^.^.~.~.~.~.~.~.~.~.!.!.!.~.~.^.`.^.~.~.~.~.~.~.^.^.^.!.`.@ . LXPXE T T T R R R R R T T dXPXUXUXUXPXUXUXUXUXUXUXPXPXUXJX} 0 $   . * '..X.X.X.XXX8 . UXJXy.T T T T T T B N F       o   O 8 o 8 /..X.XXXXX.X/./.n.o o @       y.T T T T T T T T T V h   o '.@ o o o o   o                                     o XX.Xn.    JXuXT T T T T T B N h .   _._._._._._._._._._.XX_._./.XX(.o   JXZXE T T T T T T T B V X O O O   o n.I.E..X/./././..X.XR.0 [.o     o o . ~ R B T T T T T T T C h O + + . PXJXC T R R R R T T T T T T T T T T T T T T B B I : @ o     gXSX~ B B T T T B B B V & @ 8 . AXp.T T T T T T B B N , % & O q ].Z.P.M.    o           o o             o                 n._._._.XX`.`.`.`._.^.^.^.`.`.`.`.^.`.`.`.^.`.^.'.'.T.FXIXIXIXKXIXIXKXbXnXvXvX<X",
"NXmXnXmXmXNXKXMX'.'.~.~.~.~.~.~.~.~.~.~.~.~.~.~.!.~.~.^.^.^.^.^.~.^.~.~.^.~.^.!.`.@ O PXPXT T T T T R R T T T T E ~ tXdXAXAXAXAXAXAXAXZXZXAXSXsXi g O.BXJXX f .X.X.X.XXX8   UXHXy.T T T T T B B N F o @ @ 8     XX@XXXXXXX/.XXXXXXXX.X[.[.[.'.o . . p.T T T T T T T T B V j   O s o . .   . . . . . . . . . . . . . . . . . . . . . . oX.Xn.    SXuXT T T T T T B N h .   _._._._._._._._.XXXXXX_./.XXXXW.o . SXgXE T T T T T T T B V > O + @ o @ _./..X.X/..X.X/././._.XXXX@   o   o . 8.W B T T T T T T T C I O O + . PXSXC T T R R R T T T T T T T T T T T T T T B B E h O     o dXZX~ B B T B B B B B V & @ @   dXp.T T T T T T T B B h @ # @ I./.E.R.q . . . * * * * + O . . .   . . . .           o @ O 0 _._._.`.`.`.`.`._.^.^.^.`.`.`.~.^.^.`.`.^.^.^.'.KXDXIXPXUXUXUXPXIXGXvXvXvXvX<X",
"bXvXvXvXMXNXIXNX'.'.^.~.~.~.~.~.~.~.~.~.~.~.~.~.~.~.~.~.^.^.~.~._.`.~.~.~.~.~.!.`.@ . JXJXT T T T T T T T T T T T T T T T T T E E E E E E E gXSXJXPXPXPXSXX q /..X.X.XXX0   LXSX~ T T T T B B B N F @ @ o 8     .X.XXXXXXXXXXXXXXXXX.X.X.X.X.Xw   . u.T T T T T T T B B V j     0 @ X LXUXUXUXLXLXLXLXUXLXLXLXLXUXUXUXUXUXPXPXPXAX. . '..Xw     SXp.T T T T T T T N h .   _._._._.XXXXXXXXXXXXXXXXXXXX.XW.o . SXgXE T T T T T T B B V : O @ (.I.s _./././././././././.XXXXXX@ @ 8 o   . y.R B T T T T T T B C I O O +   JXSXE T T R T T T T T T T T T B B B B B B B B B E I a o o o gXZX~ B B B B B B B N V X @ @ . dXy.T T T T T T T T B l o @ [././.E.m.X tXJXPXPXPXPXPXUXUXUXUXUXUXUXUXUXUXUXUXIXIXIXLXHX  - _.`.`.`.`.`.`.`._.^.^.^.^.^.`.`.`.`.`.`.`.9X<XvXLXUXUXUXUXUXUXUXHXDXvX<X<X<XvX",
"IXIXIXKXvXNXKXNX'.[.^.^.^.~.~.~.~.~.~.~.~.~.~.~.~.~.~.~.^.^.~.~._.^.^.^._.!.!.!.`.@ . JXSXI B T T T T T T T T T T T T T T T T T T T T T T C p.uXdXAXZXSXi.X : [..X.X.X.Xw o HXAX~ B B B B B B N v F @ @ @ w w I.XXXXXXXXXXXXXXXXXXXXXX.X.X.X.Xn.o . u.E B B T T T B B N V h .   o @   HXLXUXUXUXUXUXUXUXUXLXPXUXUXUXPXPXPXPXJXZXuX. . n.}.w   . AXp.T T T T T B B N h .   _._._._._.XXXXXXXXXXXXXXXX.X.XU.o . SXuXE T T T T T B B B V : + 0 .X.X.X/././././.XX/././././././.@XXX[.o   . y.W B T B B B B B B C I O O O . JXZXE T T T T T T T T B N N B B B B B B B N N N B ~ M . o @ gXfX~ N N B B B B B B M X + @ . uXy.B T T T T B B B B h   o .X.X.Xn.q   i.fXZXSXSXSXSXSXJXJXJXJXPXPXPXPXJXJXJXJXSXSXSXr.  $ _._.XX`.`.`.`.`._.`.`.`.^.^.`.`.`.`.`.`.[.bXKXIXIXIXUXUXUXUXUXGXGXNXvXnX<XvXvX",
"KXLXJXKXvXmXbXvX[.[.`.^.^.~.~.~.~.~.~.~.~.~.~.~.~.~.~.~.^.^.~.~._.`.^.^._.!.~.!.oX@ . .   h B B T T T T T T T T T T T T T T T T T T T T T T T T T R W W SXUXPX> M.Z..X.Xw   VXgX~ B N N N N N v b D 8 8 o @ 9X+XXXXXXXXXXXXXXXXXXXXXXXXX.X.X.Xn.@ X u.E N N N N N N N v v h .   o 8 X I I I I ! ! ! ! ! ! ! ! ! ! ! ! ! ! ! ! W I X   0 ^.8   . AXy.B B B B B B N N h .   XXXXXX_._.XXXXXXXXXXXXXXXX.X.XU.+ . SXuXT B B B B B N N N v :   0 .X.XXX/.XXXX/./.XX/./.XX/./._./././.@Xo o . y.W B B N N N N N N N I O O O . JXAXC B B B B B B B N : X U N N N N N N B N N N v c y.X o # iXpX~ v v N N N N N v n X o + . uX8.N B B B B N N B N l o   @X.X.Xw     p.d.C B N N N N C C C C C C C C C E E E Q E E h . @ XX_.XX`.`.`.`.`._.`.`.^.^.^.`.`.`.`.,X9XvXGXIXIXIXIXUXIXIXUXGXvXvXbX<XnX<XvXbX",
"DXKXGXKXbXmXMX<X[.`.^.^.^.^.^.~.~.~.~.~.~.~.~.~.~.~.~.~.^.^.~.~.^.`.^.^._.~.~.!.oX8 o @   ' V C B E T T T T T T T T T T T T T T T T T T T T T T T T T T $.LXIXX X $ XX.X0   dXuXE N v v v v v n b P @ @ @ <XP.XXXXXXXXXXXXXXXXXXXXXXXXXXXX.X.Xn.@ X u.E v v v v v v M v n h     o 8 : N N B B B B B B T T T T B B B B B B B N N I X   8 Q.8   . AX~ B N N B B N N v h .   _.XXXX_._.XXXXXXXXXXXXXXXX.X.XI.+ . AXp.N N N N N N v v v M :   0 XX/./.XX.XXX/./././._._./._._./././.XX@ o . y.E N N N N N N N N N I O O O   JXgXB B B B B B N N N > X U v N N N N N N N N N v v y.> 9 % iXx.E v v v v v v v M n X o @ . uX~ v N N N N N v v v h o o @X&X@X8   . i.l.N v v v v v v v v v v v v N v v N v N v v l . @ _._._.`.`.`.`.`.`.`.`.`.`.`.`.`.`.^.<XvXIXHXIXUXIXUXIXIXIXIXKXmXvXvX<X9XvXGXUX",
"vXmXbXGXKXFXNXvX[.[.'.~.^.^.^.~.~.~.~.~.~.~.~.~.^.^.~.^.^.^.~.~.^.^.^.^._.~.~.!.XX,X@Xw @ : I : C T T T T T T T T T T T T T T T T T T T T T T B B B B B C AXX AXSXi Z.!.8 o p.9.N v v v v v n n b P # @ 0 OX@XXXXXXXXXXXXXXXXXXXXXXXXXXXXX.X.Xn.@ X p.C v v v v v v M n n h     o 8 h N N B B B B B B T T T T B B B B B B B N v C X   8 I.8   . uXE N N B N N N v v h .   XXXXXXXX_.XXXXXXXXXXXXXXXX.X.XI.O . gXu.N v v v v v v v v n :   0 /.XXXXXXXXXX/./././.XX_._._._._./..XoX@ o . y.Q N N N v v v v V M F O O O . SXdXB B B B B B N N N > O ' c v v N N N N N N v v N I U F : uXc.E v n n M n M n n n X + + . p.~ v v v v v v v v v h o o @X$X@X8   . i.u.N v v v v v v v v v v v v v v v v v v v v l . @ _._._.`.`.`.`.`.`.`.`.`.`.`.`.`.`.[.GXGXUXIXIXIXUXUXUXUXUXKXFXvXvXvXnXvXmXDXUX",
"vXNXbXGXHXKXGXvXjX].'.^.^.^.^.^.^.^.~.~.~.~.~.~.~.~.~.^.^.^.~.~.^.^.~.~._.~.~.!.XXXXXXw @ 9 h j V B B B T T T T T B T T T T T T T T T T T B B B B B B B B C ! ZXt.. . - @ o y.8.N v v v v v n n b G O # @ OXOX@XXXXXXXXXXXXXXXXXXXXXXXXXXX.X.Xn.@ X p.C v v v v n M n n n l . o o @ I N B B B B B B B T T T T T B B B B B N N v I X   @ n.8   . l.T N N B N N N v v l .   XXXXXXXXXXXXXXXXXXXXXXXXXX.X.XI.+ . gX9.N v v v v v v v v n :   0 /././.XXXXXX/./././._.XX/._./._./..X_.@ o . y.~ N v v v v v v v M F O O O . ZXuXB B B B B B B N v X # & S M v v v v v v v v v v b C v h f.z.E M n M n n n n n n X o + X y.E v v v v v v v v v h   @ =X$X@X8 . . $.u.N v v v v v v v v v v v v v v v v v v v v l . @ _._.`.`.`._._.`.`.`.`.`.`.`.`.`.,X].KXKXPXIXIXIXIXUXUXKXbXmXvXnXnXvXbXUXIXHXPX",
"mXMXmXKXLXLXLXLXIXDX'.'.`.`.`.^.^.^.^.^.^.^.^.^.~.~.~.^.^.^.^.~.~.~.~.!._.~.~.~./.XX/.w U.w > X F I I C B B B B B B B B B B B B B B B B B B B B B B B N N N E hXh X X q @ @ y.8.N v v v v v n n n H O @ @ OXXXOXXXXXXXXXXXXXXXXXXXXXXXXXXX.X.Xw @ X f.C v v v v M n n m m j   o + @ I N N B B B B B B B T T T B B B B B B N N v V X   8 n.8   . p.B N B N N v v v v l .   XXXXXXXXXXXXXXXXXXXXXXXXXX.X.XI.O . dX8.N v v v v v v v M n :   0 /././.XXXXXXXX_._._.XXXXXXXX/._./..X_.8 o . i.~ v v v v v v v M n F O O O . AXuXB N N B B B N N v > 8 % l n v v v v v v v v v v b v M A u.j.C n n n n n n n n J X o + X ~ C n v v v v v v M n h   @ $X.X@X8 . . $.9.v v v v v v v v v v v v v v v v v v v v v l O 8 _.`._.`._._._._.`.`.`.`.`.`.`.^.<XKXUXUXIXIXIXIXIXIXUXGXbXmXnXnXvXvXzXIXUXUXUX",
"MXNXNXzXKXLXUXUXUXGXFXvX'.'.`.^.^.^.^.^.^.^.^.^.~.^.^.^.^.~.^.^.~.~.~.~.~._._.~._._.!._._.n.w o O 8 X M N N N N N N N N N N N N N N N N N N N N N N N N N N C k.c U U : @ o ~ W N v v v v n n n n H O @ o @XOXXXXXXXXXXXXXXXXXXXXXXXXXXXXX.X.Xw @ X l.E v v M n n n n m m j . o + + I N N N N B B B B B B B B B B B B B N N N v b X   8 n.8   . y.N N N N N v v v v l .   XXXXXXXXXXXXXXXXXXXX@XXXXXXX.XY.O . dX8.N v v v v v v n M n :   0 /./.XX/.XXXXXX_._.XXXXXXXXXXXXXXXX.X_.@ o . i.~ n v M v v M n n n Z O O O O dXp.N N N N N N N N v > @ # : H n v v v v v v v v v n n G P u.j.C n n m n n n n m m > o o X Q V n v M M M v v v n h o @ $X@X@X8   . $.~ v v b v v v v v v v v v v v v v v v v v v l O 8 XXXX_.XX_._.`.`._.`.`.oX`.`.XXoXnXIXUXUXIXIXIXIXIXKXUXGXbXmXvXmXGXIXIXIXUXUXUX",
"mXvXNXbXKXLXUXUXUXIXHXIX<X'.[.^.^.^.^.^.^.^.^.^.~.^.^.~.~.`.^.^.~.~.~.~.~._._._._._.!._./.P.8   8 g : b b m m m m m m m m m m b n n v v N N N N N N N v N v v v v V C X @ # ~ W v n n v n n n n n H % @ o XXXXXXXXXXXXXXXXXXXXXXXXXXXXXXXX.X.Xw @ X k.E n n n n n n m m m j . o o o I v v v N N N N N N N N N N N N N N N N v v c X   8 n.@   . y.v v N v v v v v n Z X   XXXXXXXXXXXXXXXXXXXX@XXXXXOX.XY.O . uX~ v n n v M M M n n n :   0 .X/././.XXXXXXXXXXXXXXXXXXXXXXXXXX.XXX@ o . y.y.v n n n n m m n n l O O O . uXp.N N N N N N N v v X @ # O > : n n n n n n n M M n n G H d.j.C n n m m m m m m J > o o X Q M n n n M M M n n n h o @ &X@X@X8 . . } U b b b b n n n n n n n n n n n n n v n n n l O 0 XX_._.XX_.`.`.`._.`.`.oX`.`.`.oXnXIXIXIXIXIXIXUXGXbXNXNXNXbXFXGXDXIXUXUXUXUXUX",
"nX<XFXHXLXUXUXUXUXUXLXIX<X'.[.^.^.^.^.^.^.^.^.^.^.^.^.^.^.^.^.^.^.^.^.^.^.`.~.~.`.`._._./.(.8 o @ . h A m m m m m m J J J K J m m m J c v v N N N v v N v v v v M V V X + O Q E v n n n n n n n n m & @ o XXXXXXXXXXXXXXXXXXXXXXXXXXXXXXXXXXXXw o X k.Q n n n n n m m m m ,   o o o h I b n n n n n n n n v b b v n b b v b n n G X   8 n.8   . ~ N v v v v v v n n Z X   XXXXXXXXXXXXXXXXXXXXXXXXXXXX.XY.o . uX~ v n n M n n n n n n X o 0 .XXX/./.XXXXXXXXXXXXXXXXXXXXXXXXXX.XoX8 o X i.y.b n n m m m m m m l O O O . uXy.N N N N v v v v v X # # @ O X b n n n n n n n n n m J b d.j.E m n m m m m m m J > o o X Q M m n n n n n n n m z o @ &X.X@Xw     F n n n n n n m n n n n n n n n n n n n n n n l O 0 XXXX_.`.`._.oXoXXX`.`.`.`.oXXXoXmXIXUXIXIXIXUXUXDXNXNXmXMXDXKXHXKXUXUXUXUXUXUX",
"<XbXKXIXLXUXUXUXUXUXLXIXbXGX<X`.^.^.^.^.^.^.^.^.^.^.^.^.^.^.^.^.^.^.^.^.^.`.`.`._._._._._./.(.W.8   X X , , , , , , : : : : : X X X X . : v v v v v v v v v v M M M U X + # Q T v n n n n n n n n n X +   XXXXXXXXXXXXXXXXXXXXXXXXXXXXXXXXXX#Xw + & l.Q n n n n m m m m m ,   o o o o O S H K K K K K K K K K K K K K K K K K J Z X . @ n.@   . ~ v v v v v v M M n Z X   OX.XXXXXXXXXXXXXXX@X@X@X@XXX.XI.o . uXE b n n n n n n n n n :   b.XXXXXXXXXXXXXXXXXXXXXXXXXXXXXXXXXXXX#X@   X p.9.n n n m m m m m m l O O O . p.~ v v v v v v v v n X # # @ O X : F m n n m m m m m m m T e.e.8.n m m m J J J J K > + + X U n m m n n n n m n n _   - .X.X@Xw   . x J J J J J J m m m m m m n n n n n n n n n n l O 0 XXXX`._.XX_.oXoXXXXX`.`.`.`.oXoXnXIXUXUXUXUXUXKXDXNXbXGXDXKXIXHXLXUXUXUXUXUXUX",
"KXHXIXKXIXUXIXUXUXUXIXIXLXKXzX,X[.`.^.^.^.^.^.`.`.`.^.^.^.^.^.^.^.^.^.^.^.`.`.`._._._._._._././.n.@ o o O O O O o o o O o o o o o o o . tX{ b v v v v v v v M M M M P X + O Q B v m m m m m m n n n j e w XXXXXXXXXXXXXXXXXXXXXXXXXXXXXXXX[.@ B.qX: l.~ n m m m m m m m J ,   o o o o o F H H J J H K K K K K K K K K K K H H H Z X . @ n.o   . ~ v v v v v M n n n Z X   OXXXXXXXXXXXXXXXXXXX@X@XXX.X.XI.  . uXC n m n n n m m m m n j VXBXq ~..X.XXXXXXXXXXXXXXXXXXXXXXXXXXXXXn.q dXY p.~ n m m m m m m m m l O O + . %.Q v v v v v M M n n X @ @ @ @ o O F m m m m m m m m J J m b m m m m m J J J J K L & + @ X U n m m m m m m n m m G j +.b..X@X8 .   , l z z z x _ _ _ ] ] ] c n n n n n n m n n n l O 0 XXXXoXoXXXXX_.oXXX`.`.`.oXXXoXoXnXIXIXUXIXIXDXDXKXGXGXUXUXNXNXGXLXUXUXUXUXUXUX",
"UXHXUXIXLXIXIXIXIXIXIXUXLXKXGX].[.oX`.`.`.^.`.`.^.^.^.^.^.^.^.^.^.`.^.^.^.`.^.`.XXXX_.XXXX_././.~.n.o o o @ o @ o o o o o o o o o o o . X X j n n v v v M M M n n H L X + O U C n m m m m m m m m n b k i _.XXXXXXXXXXXXXXXXXXXXXX@XXXXXXXI.O g LXSX~ V m m m m m m m m K ,   o o o o O x l l x x x x l l l l l l l l l l l l l j X   @ n.@ . . ~ v v v n n n m n n l .   OX.XXX@X@X@X@XXX@XXXXX@XXX.X.XI.. . uXN m n m m m m m m n b dXAX: X b..X.X.X.XXXXXXXXXOXXXXXXXXXXXXX#X8 i SXZXc H m m m m m m J m J l O O O O %.U v v n n n n n n n X @ @ @ @ o # L m m m m m m m J J J J J J J J J J J J J J J L & + + X U n m m m m m m m m m m H : 0 .X@X8 .     o   o o o o o o O O O j n n n n n m m m m m x O 0 XXXXoXoXXXoXXXXXXXXX`.oXXXXXoXoXnXUXIXIXIXIXIXDXIXUXDXIXDXNXmXNXIXUXUXUXUXUXUX",
"nXzXMXDXKXHXUXUXUXUXUXUXUXIXIXKX:X`.`.`.`.`.^.^.oXoX^.^.^.^.^.^.^.^.^.^.^.^.`.`.XXXXXXXXXXXXXXXX_.b.o   o o o o o o o o o o o o o o     . . F n n n n n n n n m m J L X + O U N n m m m m m m m m m m l l o.n._._.XXXXXXXXXXXXXXXXXXXXoXXXn.o q AXgX! n m m J J J J J J L j   o o       o                                             Z.XX8   X ~ v v n n n n m m n l .   OX@X@X@X@XOXOXOXXXXXXXXX.X.X.XI.o . uXb m m m m m m m m m b uXi.h > '.XXXXXXXXXXXXXXXXXXXXXXXXXXOXOXXX8 o.uXaXc m m J J J J J J J K z O O O O Q C n n n n n m m n n X @ @ @ @ @ O ] l G m m m m J J J J J J J J J J J J J K K J L & + @ X U m m m m m m m m m m m m : o #X#X@   o o o o @ @ @ @ @ @ @ @ @ , M n n m m m J m J J x % 0 XXXXXXoXXXXX_._._.`.`.`.oXoXoXoX<XUXUXIXUXUXUXUXKXUXUXbXmXmXFXDXUXUXUXUXUXUXPX",
"4X<X9XKXHXHXUXIXUXUXUXUXLXPXPXLX'.^.`.`.`.`.`.oXoX^.^.^.^.^.^.^.^.`.`.^.`.oX`.oXXXXXXXoXoXXXXXXX!.P.0 o o o o o o o o o o           . . . X h b n n n m m m m J J J L X + O U N n m m m m m m m m m m E 8.j kX]._.XXXXXXXXXXXXXXXXXX_.8 w Z.xXVXc v b m m J K K K K K K [ / . o o o o                                               o >X=X0   X ~ v n n m m m m m m l . o OX.X@X@X.X.X.X.XOX.X.X.X.X.X.XI.  . y.n m m m m m J J J H J b u.x.f.: O O W..XXXXX.XXXXXXXXXXXXXOXV.Z.S.fX8.b J m J J K K K K K K K z O O O O U V n n n m m J m m m X o @ o o @ o O O G m m m J J J J J J J J J J J J K K K K J L & + @ X P m m m m m J J J J J J m c , w n.    o o o o o @ @ @ @ @ @ o @ , U n n m m m J J J J x O 0 XXXXoXoXXXXX_._._.`.`.`.oXoXoXoX<XKXKXGXIXUXUXIXKXKXbXmXmXnXKXPXUXUXUXUXUXUXPX",
"9X9X9XGXHXIXLXIXUXUXUXUXUXUXUXIXFXFX[.,X`.`.`.`.oXoX^.^.^.^.oXoX^.`.`.`.`.`.`.`.}.oX+XoXoXoXXXXXXXE.b.0 - $ $ $ o @ @ o @ o   o o o o o . X h n n n m J J J J K K K L X + # U M n m m m m m J J J J b 9.8.j o.X Q..XXXXXXXXXXXXXXXXX`.0 8 i SXhXb n m J J K K K K L L K [ _ . @ n.[.o                                                 -X=X0 . X ~ b n n m m m m m m l .   .X.X@XOXOX.X.X.X.XXX.X.X.X.X.XI.  . %.G m m m m J J J J J J m I W 8.Y X : T..X.XXXXXXXXXXXXX.XXX<X$ . SXiXC m J J J J K K K K K K L z O O + O U V n m m m m J J m J X o o @ @ @ @ o O D m n m J J J J J J J J J J J J K K K K J L O + @ X P m m J J J J J J J J J m m P X : .   o o o o o o o @ @ o o o @ , U b m m J J J K K J x & 0 XXXXoXoXXXoX_._.XX`.`.`.oXoXoXoXoX<X9X<XKXUXUXIXGXNXmXmXMXmXIXUXUXUXUXUXUXUXPX",
"9X<X<XGXIXLXLXUXUXUXUXUXUXUXUXIXPXIXoXoX`.`.`.`.oXoX^.^.^.^.^.^.^.`.`.`.`.`.`.}.+X+X3X3X3X#X3X,XOX!.E./..X.X.X@X@X@X@XOXOX=X=X-X6X3XOXP.m.i h n n m m J J J J K K K K X O % P M n m J J J m J J J J b 8.E > X i.F././.XXXXXXXXXX.X.Xb.q BXi.~ ~ b K J K K K K K K L L J [ { . @ ,X@Xn.o                                             o =X=Xw . X ~ n n n m m m m m m l .   OX@X@X.X.X.X.X.XOXOXOXOX.X.X$X'.    . l m m m J J J J J J J J J b b h i.gX]./..X@XXXXX@X@X.X.X!.& #.#.y.%.b J J J J K K K K K K K L x O O + X U v n m m m J J J m H X + 0 9Xn.@ o o o X Z G H J J J J J J J K K K K K K K K K K L O + + X H m m J J J J J J K K J J m J p.x.X 8 w w w 0 0 w w w w 0 @ @ o : ~ b m J J K K K K J x % 0 XXXXoXoXoXoX`.oXoXoX`.oX`.oXoXoX+X,X9X9XGXUXUXIXMXmXmXmXNXGXIXUXUXUXUXUXUXPXLX",
"<X<X<X<XMXIXUXIXUXUXUXUXUXUXUXPXLXIXoX,X,X`.`.`.^.^.^.^.^.^.^.^.^.`.`.`.^.^.^.`.Q.o         o o @ 0 0 0 0 0 0 0 0 w 8 @ @ 8 8 8 8 8 8 8 g JXdXy.n m m J J K K K K K K X O % U v m J J J J J J J J J J b h ZXJXZXX o         o o o o . AXZXuXb J J J K K L L K K K K K K [ { . @ ,X@XOXXX}.XXXXXXXXXXXXoXoXoXoXoXoX`.`.`.oXoX+X@X#X#X$X$X$Xf . X ~ n n n m m m m m m l .   o o o o o o @ @ @ @ @ o o o o     o o , n n J J J J J J J J J m m b c.c.x.. @ @ o o o o o o @ @ dXAXSXc J m m J J K J K K K K K K L _ O + + X U M n m m m J J J J J X O f +Xw 8 o o o o O > G m m J J J J J K K K K K K K K K K P O + o : n n m J J J K K K K K K K J m C W I qXM.M.f f f s 0 0 0 0 8 @ @ : ~ b m J K K K K K J S O 0 XXXXoXoXoXoXoXoXoXXXoXoX'.'.,X,X<XNXNXGXIXUXUXHXMXmXnXnXNXLXIXUXUXUXUXUXPXPXLX",
"9X<X<X9XNXUXUXUXUXUXUXUXUXUXUXPXUXKX<X9X[.`.oX`.^.oXoXoXoXoX^.^.^.^.^.^.^.^.^.XXI.$ . . . . . . . . . . . . . . . . . . .       . O + . BXSXSXl.m m m J K K K K K J K X # & M M m J J J J J J J J J J m G dXgX$.. . . . . . . .     X ! dXU m J K K K K K K L L K K P ] { { O @ ,XOXOXXXXXXX.X.X.X.X.X.X.X.X.X.X.X.X.X.X.X.X.X.X.X@X$X&X&Xs . X ~ b m m m m m J m m l . . . . .                       . O   o o j n m J J J J J J J J K K K n I 8.! X . . . . . .         $.dXtXn m m m J J K K K K K K P [ [ ] O + # X P n m m m J J J J J J X o n.@XoX8 @ o o o O , b n m J J J J J K K K K K K K L K K [ O + o , H G L J K K K K K K K K K K J J J c } . . . . . . . . . . .   o : ~ U J J K K K K K J S O 0 XXXXoXoXoXoXoXoXoXoXoX`.NXGXvXNXFXKXKXIXUXLXUXIXbXvXmXMXFXUXUXUXUXUXUXPXPXPXPX",
"9X9X<X9XGXIXUXUXUXUXUXUXUXUXUXIXIXIXKX<X[.oXoX`.^.^.oXoXoXoX^.^.^.^.^.^.^.^.^.XXT.o . LXUXJXdXuXdXgXgXgXAXZXZXZXZXZXZXSXSXJXJXPXJXJXAXsXg X c c J J J J K K K K K S k X @ O X X > K m J J J J J J J K K K K m H dXuXuXuXuXuXuXuXuXuXiXc H K K K K K K K K K L L L L z   O O   @ ;XOXXXXXXXXXXXXXXXXXXXXXXXXXXXXXXXXXXXXXXXXXXXOXOXOX@X$X$X0 . X ~ m m m m m m J J m c ! i.tXdXdXAXAXAXAXAXSXSXZXZXZXSXSXJX. o o X : , K J J J K K K K K J J J K J J p.uXuXgXgXgXgXgXgXgXgX%.n H J J J J K K K K K K J J F & & & O O + X P m m m m J J J K J J X o Z.-XXXb.Y.@       X , l G m J J K K K K K K K K K L K K ] O @ o . X . , K J K K K K K K K K K K K K H Q ~ p.p.tXtXp.p.p.p.p.p.p.p.i.8.Q K K K K K K K J x O 8 XXXX`.oXoXoXoXoXoXoX<XvXNXKXIXPXIXIXLXIXIXKXGXbXMXmXDXGXKXUXUXUXUXUXUXPXHXLXHX",
"<X9X<X<XGXKXIXPXUXUXUXUXUXUXUXIXIXIXKX;X;XoXoX`.^.^.oX^.oXoX^.^.^.^.^.^.^.^.^.XX~.o X VXAXdXuXuXuXuXgXuXuXgXgXuXgXuXuXuXgXgXZXZXSXZXZXZXZXdXm J J J J K K K K K L / 8 8 8 8 8 8 o F m m J J J K K K K K J J J L uXl.l.l.l.l.l.uXl.k.z.Q K K K K K K K K K K L L L [ j + @ o o o oXXXXXXXXXXXXXXXXXXXXXXXXXXXXXXXXXXXXXXXXXXXXXOXOX@XOX$X$X0 . X Q m J m m m m J J J M Q y.p.p.p.uXuXuXuXuXuXgXiXiXpXc.c.uX. o o     O P J J J K K K K K K K J J m b l.l.l.uXuXuXuXuXiXiXiX~ m J K J J K K L K K K K L J S O + # O O + O P m m m J J J J K J J X o D.@XOX.X@Xw o o     o j A J J J K K K K K K K K K L L K D o o o o o @ & P J K K K K K K K L L K K K m E E 8.y.y.y.y.y.y.p.p.y.y.y.y.C n K K K K K K K K x O 8 XXoX`.oXoXoXoX`.,XvXDXKXIXIXIXLXPXUXUXLXGXNXNXNXMXmXKXUXUXPXUXUXUXUXUXIXHXKXbX",
"<X<X<XnXGXNXKXUXUXUXUXUXUXUXUXIXLXUXIX;X,X`.`.^.^.^.oX^.^.~.^.^.^.^.^.^.^.}.^.XX`.o X VXdXuX%.y.tXtXuXuXuXp.y.%.%.%.%.%.Q U I I Q ! ! I I c J K K K J K K K K K L ) 8 8 8 8 8 8 o ] J m m m J J K K K K K J J J n b c c c I I I Q ~ ~ P K K K K K K K K K K K L P S , + + o @ @ '.XXXXXXXXXXXXXXXXXXXXXXXXXXXXXXXXXXXXXXXXOXOXOXOX@XOX$X$X0 . X Q m J J J J J J J J n U %.%.y.y.p.p.uXuXuXuXuXuXuXuXk.k.y.O o o o o O D J J J K K K K K K K J J m m b c c I I I Q Q ~ %.%.P J J K K K K K L L K K K L G S O + @ + + + O P m m J J J J K K J K X   ].@XOX.X.X8 @ o       j l H m K J K K K K K K K K L L K D o o o o @ o & P J K K K K K L L L L L L L K J K H P G G P G P P P P P U U H K K K K K K K K K S O 8 XXXXoXoXoXoX,X[.vXDXKXUXLXIXUXUXUXPXPXLXFXNXNXmXmXmXKXUXUXIXUXUXUXPXPXUXNXbXbX",
"9X9X9X9XvXmXFXUXUXUXUXUXUXUXUXIXUXUXIX;X,X`.`.`.oX^.oXoX^.^.^.^.^.^.^.^.}.}.^.XX[.o X uXu.U K J m m m m m J J J K K K K K K K J J m n m J J K K K K K K K K K L G S o 8 8 @ @ @ o X X : J J J K K K K K K K J J m J J J J J J J J J H K K K K K K K K K K K K P G l : O   o $ 0 oXOXXXXXXXXXXXXXXXXXXXXXXXXXXXXXXXXXXXXXOXOXOXOXOXOX@X$X$X0 . X Q J K J J J J J J J J m m m m m m m m m m m m m n n n n G O o o o o o > j h H K K K K K K K K J J J J J J J J J J J J J J J K K K K K L K L L L L ] ' _ ^ O o @ @ O O O G m J J J K K K K J H X   ].@XOX.X{.E.Y.8 o     o X G P K J K K K K K K K L L L K ]   o o     o # e , G J K K K L L L L L L K K L L L L L K K K K K K K K K K L K K K K K L K K K S O 8 oXoXoXoXoXoX~.mXDXUXUXIXUXUXUXUXUXUXUXIXFXNXGXNXMXNXKXUXUXUXUXUXUXUXUXDXbXbXmX",
"9X9X9X9X<X<XNXUXUXUXUXUXUXUXUXIXUXUXIX;X,X,X`.`.oXoXoXoXoX^.^.^.^.^.^.^.^.^.^.XX`.o X p.y.J J J J J J J J J K K K K K K K K K K J J J J K K K K K K K K K K K Z X ^ O @ 8 @ o o @ o o : b m J K K K K K K K J J J J J J J J J J K K K K K K K K K K K K K K L j X j > o o $ OXOXOXOXOXXXXXXXXXXXXXXXXXXXXXXXXXXXXXXXXXOXOXOXOXOXOX@X@X$X$X0 . X Q J K K K K K J J K J J m m m m m m m J J m m J m m m m G O o o @ @ o o & , A J J K K K K K K K K K J J J J J J K K K K L L L K L L L L L L [ [ [ ' + + o 0 3X+XoXo . O P J J J K K K K K J H X   ].XXXXXX.X.XOXn.o     o . ' X A J K K K K K K K L L L K ] . f ,Xn.o o @ o o ] m J K K L L L L L K K K K K K K K K K K K K K K K K L L L L L L L L L K J S O 8 oXoXoXoXoX^.nXGXHXPXPXUXUXUXUXUXUXUXIXHXDXNXFXDXKXGXDXPXUXBXHXKXUXDXGXNXMXMXMX",
"9X9X9X<X<X<XFXUXUXUXUXUXUXUXUXUXUXUXIX:X,X,X`.`.oXoXoXoXoX^.^.^.^.^.^.oXXXXXXXXXoXo X i.%.J K J J J K K K K K K K K K K K K K K K K K K K K K K K K K K K K K H > % o o o n.b.P.U.8   , F c J J J K K K K K J K J J J K K K K K K K K K K K K K K K K K K D [ j o O X o   o +XOXOX}.OXOXOXOXOXOXOXOXOXXXXXXXXXXXXXXXXXOXOXOXOXOXOX@X@X$XOX0 . X { J K K K K K K J J K J J J J J J J J J J J J J J J J J G O o @ @ @ o o e j l H J K K K K K K K K K J J J J J J K K K K K K K K L L L L [ [ [ ' { ' o @   o =X$XXX@ O O G J J J K K K K K J H X   D.OXXXOXXXOXXX#X@ o     O X X F J J K K K L L L L L L K _ . b.#Xw # @ o o o { Z H J K K K L L L K K K K K K K K K L K K K K K L L L L L L L L L L L K J S O 8 `.XXoXoXoXNXFXKXLXUXUXUXUXUXUXUXUXPXIXKXDXNXNXDXKXIXHXIXKXGXNXDXUXGXNXNXMXMXMX",
"nXnX<X9X<X4XGXUXUXUXUXUXUXUXUXUXUXUXIX<X,X,XoX`.oX^.^.^.oXoXoX}.oXoX}.oXXXXX`.XX`.o . i.~ J K J K K K K K K K K K K K K K K K K K K K K K K K K K K K K K P l , > O o o o A.*X$X$X8 O . . : F H J K K K K K K K K K K K K K K K K K K K K K K K K K K J G , , ,   o o o @ 0 #XOX+XoXOXOXOX+XoXoX}.}.OXOXOXOXOXOXOXOXOXOXOXOXOXOXOXOXOX$X$Xs . X U J J K K K K K K K K K K K K K K K K K K K K K K J J J G O @ $ b.f 8 o o   X ' D K K K K K K K K K K K K K K K K K K K K K K K L L L L D [ [ e u t o # @ f $X$X+X# O X G J J J K K K K K J K X   I.@XXXOXOXOXXX@Xw T.o       X H J m J K K L L L L L L K x . b.#X,Xw n.      o , x A J J K K L L L L L L L L L K K K K K K K K K L L L L L L L L L L K J S O 8 oXoX,XoX>XKXPXPXPXUXUXUXUXUXUXUXUXUXIXDXKXMXNXIXKXNXNXNXbXvXMXbXUXDXMXMXMXMXmX",
"mXnX<X<X<X<XGXUXUXUXUXUXUXUXUXUXUXUXIX<X,X,XoXoXoXoXoX^.oXoXoX}.}.oX}.}.XXXX}.XX`.o . y.~ K K J K K K K K K K K K K K K K K K L K K K K K K K L L K K H K c j o o o o o o Z.*X%X$X@Xn.@   . j A F P J K K K K K K K K K K K K K K K K K K K K K K K D [ ] y O o         OX.XOXOX+X+X+X+XOX+X+X+XOXOXOXOXOX+XOXOXOXOXOXOXOX+X+X+XOXOX=X$X$Xs . X U J K K K K K K K K K K K K K K K K K K K K K K K K J J G O @ f V.V.0     o @ O x P l K K K K K K K K K K K K K K K K K K K K K L K L [ k _ ] > o o o - 9XOX.X$X+Xo O X G J J K K K K K K J H X o I.@XOXOXOXOX+XXXOX#Xo     . . h j G m K K L L L L L L K _   b.@X.XXX,Xo o o o 9 @ X A H H K K K L L L L L L L K K K K K K K K K K K L L L L L L L K K J S O @ oXoX,XMXmXGXIXIXPXUXUXUXUXUXUXUXUXIXIXDXGXDXUXPXDXMXmXmXvXvXMXvXbXNXMXMXMXMXmX",
"FXbXvXvXnX<XGXUXPXUXUXUXUXUXUXUXUXUXIX<X,X,XoXoXoXoXoXoX^.oXoXoXoX`.`.`.`.`.`.XX`.o . %.Q L K K K K K K K K K K K K K K K K K L L L L K K L L L L K L Z F j . o # # o @ 0 f =X$X$X.Xb.8   o . X X : J J J H K K K K K K K K K K K K K K K K K K K K k t > O # o o o q - +XOXOXOX+X+X+XOXOXOXOXOXOXOXOXOXOXOX+XOXOXOXOX+XOX+X+X+X#X@X@X$X$X0   X [ K L K K K K K K K K K K K K K K K K K K K K K K K J J G O o b.OX-Xw o       X : S X Z K J K K K K K K K K K K K K K K K K K L K L L [ O e ] X     0 o :XOX$X$X#X@   O G J K K K K K K K K J X o Z.XXXXXXXXXXXXOXOX#X8 o o     X : F m K L L L L L L L K _   n.#XXXXX,Xo o o o o   X [ [ h G K K L L L L K L L L L L K K K K K K L L L L L L L L L L L J D O @ @XoX;XIXUXUXIXUXUXUXUXUXUXUXUXUXIXIXUXKXIXUXPXIXNXGXNXvXmXvXmXnXbXMXMXMXMXMXMX",
"<XnXnX<XnX9XKXUXIXUXUXUXUXUXUXUXUXUXIX<X,X,XoXoXoXoXoXoXoXoXoXoXoX`.`.`.`.`.`.XX`.o X %.Q m J K K L K K L L L L K K K K L L L L L L L L L L L L K [ [ [ X > O o @ o O f -X=XOX=XOXOX3Xw @         : K ] x K K K K K K K K K K K K K K K K K K D k ] z & O O + # O   V.XXXXOXOX+XoX+X+XoXoX+XOX+X+X+X+X+X+X+X+X+X+X+X+X+X+X+X+X+X#X#X@X=X$X0 . X P K K K K K K K K K K K K K K K K K K K K K K K K K J J P O @ '.-X-XXXw M.      o o . [ L F L K K K K K K K K K K K K K K K L K L j _ [ O o &       I.A.>XOX$X=X#X@     P J K K K K K K K K J X   n.OXXXOXOXXXXXOXOXOXn.M.o       X G F K K K L L L L L K ] . n.#XXXOXoX8 w @       . X . X P K K L L L L K K L L L L L L L K L K L L L L L L L L L L L L ] # 8 XXXX;XIXUXUXIXUXUXUXUXUXUXUXUXUXIXUXPXIXLXDXLXvXvXMXbXmXvXMXMXMXMXMXMXMXMXMXMX",
"3X3X4X4XmX<XKXUXIXUXUXUXUXUXUXUXUXPXIX<X,XoXoXoXoXoXoXoXoXoX`.^.oXoXoXoXoXXX`.XX`.o . h h l K K K K K K K K K K K K K K K K K K K K K K K K K L D % a ) O o # @ o o o - 3X+X+XOXOXOX#X+Xw @       , ,   O L K K K K K K K K K K K K K K K H G k O , > O O o o @ @ $ V.@X+X}.,X>XoXoX+XoXoX+X+X+X+X+X+X+X+X+X+X+X+X+X+X+X+X+X+X+XOX+X=X$X$Xs . X L J K K K K K K K K K K K K K K K K K K K K K K K K K J H & @ Q.OX$X=X@X_.8     o     X X   _ L K K K K K K K K K K K K K K L H L 9 @ ,   o o o o @ b.-XOXOXOX=X,X@ o   G J J J K K K K K K K X o n.OXXXOXOXXXXX+XOXOXb.T.8 o o o X X . G K K K L L L L K _   b.oX_.XX!.oXW.w o o o   o   X ] ] : P L L L L L L L L L L K K K K K K L L L L L L L L ] O r y 8 8 @XXXoXKXIXIXIXUXUXUXUXUXUXUXUXUXUXIXIXDXKXvXMXvXmXnXmXMXMXNXDXDXDXDXNXMXMXMXmX",
"3X4X4X3XmXnXDXUXUXUXUXUXUXUXUXUXUXPXUX<X,X,XoXoXoXoXoXoXoXoX`.`.oXoXoX`.`.`.`.XX^.o .     X K K K K K K L L K L L K K K K K K L K L L L K L L [ [ % 8 O O o @ @ o o '.V.XXOXOXOXXXXX3XOX,XP.o           X L K K K K K K K K K K K K L L L L L ]   O O   o o   o n.,XOXOX+X>X+X>XoX>X+XoXoX+X>X>X+X+X+X+X+X+X+X+X>X+X+X+X+X>X>X+X+X+X=X$X$X0   X P J K K K K K K K K K K K K K L L K K K K K K K K K K J H & @ '.-X-X=X.X@X).o o           o { L K K K K K K L K K K K K K K K H [ % o o @ o o o I.n.+X+X+XOX$X$X,Xo o   G J J J J J K K J J J : o f OXOX+XoXoX+X@X#X#XoX,X'.@         . F J J K K K K K K _ o b.oX`.XXXXXXOX[.@ o o   o       o X P K K K K K K K K K K K K K K K K L L [ [ [ [ [ [ ] O @ 9 m.8 @X@X,XKXIXUXUXUXUXUXUXUXUXUXIXIXUXUXUXKXNXnXmXmXmXnXmXNXCXNXDXDXDXDXNXNXMXMXMX",
"9X4X4X4X9XmXIXUXUXUXUXUXUXUXUXUXPXKXGX<X,XoX`.`.oXoXoXoXoX`.`.`.`.`.`.`.`.`.`.!.^.f @     : K K L L P [ ] ] ] S S x x z z z z z x S ] ] D [ [ [ [ & o o o O O O     XX.XXXoX#XXX#X@X+X@XE.V.8 o         , D D S x x x x x x S D D D [ [ [ ] ] _ .   o o o o # o '.XXXX,XXX,XoXoXoXoXoXoX>XoX,X,X,X+X+X+X>X>X>X>X>X>X>X;X>X,X,X>X>X+X+X=X=X0 . X G H H G P P P P D D D D D D D ] ] ] [ D D P P P L L P P P & @ '.OXOX$X@XXXn.n.w o       o o { { { { [ [ [ [ [ P P P P P P P [ S / O @ @ @ o   s A.!.+X@XOX=XOX$X,Xo o . D H H H H P P P P P P , o f XXoX+X+XXX+X#X#X#X+X3XV.w o       X D P D [ [ [ [ [ D _ o n.oX`.oXXXXX#X'.8 m.o o         o X L L L [ [ [ ] ] ] _ _ _ _ _ _ _ _ _ _ ] { [ [ [ [ { , @ @ 4X-X+X+X,XKXIXPXUXUXUXUXUXUXUXUXIXIXIXDXIXKXnXnXnXnXnXMXmXNXNXDXCXDXNXDXGXg g 4.S.",
"mX9X4X4X4X9XKXIXIXUXUXUXUXUXUXPXIX<X,X~.`.oX`.oXoX`.`.oX,X`.`.`.`.`.`.`.`.`.`.^.}.!.!.f   . X & & O O O O + + o o O O O O o o o O O o       O O O o o o o O . - ,X4X!.OXXXOX+XoX+X>X+X+X}.3X1Xb.o       .     o o O O O O O O O O O O O O O O O     o o o o <XV.>XOX+X#X3X+X,X+X,XoX,XoX>X>X>X}.,X3X>XzXcXcXCXCXCXCXDXcX>X,X>X,X>X}.+X=XOX8   . X . . O O O O O O O     O     O                       o o @ @ '.OXOX.X$X=X-X/.U.0 o     o o o     o o o o o + O O O . O O . O o o o o @ o o '.oX#XoX+X+X-XOX+X=X`.o       .             O     @ @ w XXoXoXoXXXXX>X!.#X+X3X4Xb.f         o o o o o o o o o o o I.,XoX!.^.oX#X}.+Xn.8 8 o               O o o o o @ o o o o o o   o   o o   o o o   O O % o $ 4XOX+X+X;XKXIXPXUXUXUXUXUXUXUXUXUXPXIXGXGXbXnXnX9XnXMXKXDXbXMXDXCXhX,.sXsX-.>.7 7 ",
"vXmXvX4X4X4X<XvXNXUXUXUXUXUXUXPXUX<XoXoXoXoX`.,XoX`.,X`.`.,X`.,X^.^.^.'.`.,X^.^.oX~.!.n.@   o o o o o o o o o o o o o o o o o o o o o o o o o o o o o o o o   f XX}.oXoXoX+X+XoXoX>X,X,X>X+X+X@Xb.D.o o .         o o o o o o o o o o o o o o o o     O O f >XXXXXoX+X+X}.+XoX,XoXoXoXoX>X>X>X>X1X;X:X:XCXCXxXBXAXSXD.9X>X>X1XoX1X>X>X6X#X@         o o o o o o o               o o         o o o o o o o @ @ oXOXOXOX{.+X+X1X0X0X@ o       o o o o o o o o o o o o o o o o o o o o o o @ s !.,X+X,X>X4X+X=XOXOX`.o         o o o o o o o o o # @ f XXoX4X>X+XXX3XXX,XXX1X}.4X0 @     o o o o o @ o o o o @ @ P._.3XoX1X`.!.XXXX,X,X0 o o   o   o o o o o o o o o o o o o o         o o o o @ o o o @ o ].,X3X+X>X>X;XKXIXUXUXUXUXIXIXIXUXUXUXPXIXDXmXvXnX9XnXnXNXLXHXDXNXCXCXaX0.w.a.>.>.>.>.",
"LXPXUX<X4X4X9X<XNXKXUXUXUXUXUXUXUXvX,X^.,XoX^.,X,X[.,X;X,X[.;X[.[.[.[.[.^.[.;X^.oX~.W.'.M.o     o o o o o o o o o o o o o o o o o o o o o o o o o o o     $ ].`.oXoXoX}.+X,X,X>X,XoX>XW.>X!.0X+XoX,X0 o         o o o o o o O O O o o o o o o o o o   o n.V.@X3XoX,XoX>X,X,X,X>XoX>X>X4X^.oX>X1XoX1XvXCXCXCXAXZXZXSX;X>X>X>X>X1X,XoX0XOX3Xo                 o     o             o o       o o o o o o o o @ @ #X#XOX5X}.6X{.OX X0X9XMXzXo o o       o o       o o o   o     o o       f f ,XoX,XoXoX,XoX4X>X;X4X[.          o     o   o o   o 8 @ f #X>XoX#X+X3XoX4X,X>X,X3X3Xf @ 0       o o o o o o o   o o ,X3XoX,X,X,X4X,X,X,X+X0Xn.o o     o o o o o o o o o o o o o o         o o o o o o @ + @ o Z.oX+X>X>X,X;XKXIXIXUXUXUXIXIXIXUXIXUXKXNXNXnXvXnXnXvXMXFXDXDXDXCXsXh.h.<.5 5 3 3 3 f ",
"UXUXUX<X9X9X9X9X<XDXUXUXUXUXUX;XvX<X,X,X4X,X^.,X;X,X;X,X,X'.,X^.,X^.,X[.[.;X'.'.~.,XoX'.Z.].0 o o o o o o o o o o o o o o o o o o o o o o   o o o o o 0 n.'.`.`.oXoXoX>XoX;X,X,XoX,XoX4X3XXXXX+X}.}.^.0 o o o o o o o o o o o o o o o o o o o o o [.n.b.3X>X2X>X}.oX>XoX,X>X,X,X,X,X>X>X,X,X>XoX4X1X:XD.D.].;XD.cXFX;X;X;X,X,X>XoX1X>X>X+X9XnX8                       o                   o o o o     o o @ 8 3X#X5X1X4X1X>XOX+X1X{.=XT.q o                                       - 0 oXXXoXoXoX>X,XXX>X+X,X1X1X'.o zXo     o o         o   o ,X>X+X#X+X>X+X>X>XoX,X+X>XE.4X3X2X2X'.            o o       Z.#X>X,X>X4X1X,X1X;X;X;X}.}.'.D.].<Xo o       o   o o o o o o o o         o o o o o o o o f f ^.XX+X>X>X,X;XKXIXIXIXIXUXIXIXHXIXIXIXGXmXnXnXnXnXnXbXKXHXLXLXAXiXe.e.<.*.3 s s s s f ",
"UXIXIXnXmXnX9X9X<XKXUXIXUXUXUX;X[.'.[.,X,X;X,X,X,X,X[.,X,X^.,X^.^.,X,X,X^.,X[.;X;X^.;X!.!.<X0   o o o o o o o o o o o o o o o o o o o o o o o o o o o D.oXoX^.oXoX,X4X>XoX,X,XoX>X,X,X,X}.>X,XoX,X}.0Xf 8 8 o o $ o o o o o o o o o o o o o o o o ,X@X+XXX-XXX@X3XoXoX3X,X,X>X,X,X,XoX,X,XoX,X,X<X>X<X<X:X'.,X;X<X^.>X+X}.oX4X>X>X;X9X>X}.8X9X8 o o o o                 o o           o o o o       o o o o @ #X3X+X1X7X>X1X}.0X+X3X>X;X:X].q o o o o o o   o o                 o 4X,X+X@XoXoXoX,X,X>X4X>X4X>X>X,X9XnXo o o o o o o o   o o o ;X>X>X,XoX>X>X,XoX>X}.4XoX+X3XP.0X3X<Xo   o o o o o o       f #X,X3X}.oX,XoX}.}.}.OXoX!.oXoXXXoX0 o o o o o o o o o o o o o         o o o o o o @ o $ D.:X}.@XoX,X>X>X;XKXIXIXIXUXUXIXIXHXHXLXKXGXmXnXmXnXnXMXFXDXPXJXJXhXw.q.w.>.a.< 3 s s s S.",
"KXUXIXIXUXHXNX9X9XKXUXIXUXUXUX<X[.[.4X^.,X,X,X^.[.,X,X[.,X,X^.,X,X[.;X[.;X;X[.;X,XoX;X>X3X<X- s b.Z.Z.T.T.Z.Z.V.b.f f s s 0 0 0 0 0 0 0 0 0 0 0 0 0 0 Z.oXoX;X,X,X,X;X,X,X,X,X,X,X,X,X,X}.4X,X1X}.4XE.4X4X4X>X,X;X;X'.Z.Z.b.f s s s s s s s s s s ,XXXOX@XXXE.XXXX1X,X,X>XoX>X>X,X,X,X,X,X,X4XoX<X,X,XjX].<XT.<XI.<X>X}.>X>XoX>X4X;X9X4X}.8XV.b.b.b.b.f f s s s s 0 0 0 0 0 0 0 s s s 0 0 0 - $ @ @ @ @ @ o $ 3X>X1X8X1X4X1X+X>X2X}.+X>X>X;Xf b.Z.Z.Z.Z.Z.Z.V.b.b.b.f f f f f s 0 +X+X+XoX,X,X,X<X,X,X,X,X,X>X,X,X1X1X0 n.Z.Z.V.b.V.Z.Z.T.'.Z.;X>X,X>X,X,X,X>X,X4X,X4X2X9X4X4X#X-Xb.Z.Z.Z.Z.b.Z.Z.Z.Z.I.Z.T.,X>X>X,X,X,X,X0X>X;XoX,XoXoXoXOXoXs 0 s s s s s s s 0 0 0 0 - - - - - - 0 0 0 0 0 s n.;X,X<XMX9X<X<X,X,X>XKXUXUXIXIXIXIXIXIXPXLXKXKXbXnXmXmXMXDXHXJXAXgXh.e.e.w.w.1 < 3 3 3 yXS.cX",
"NXUXUXUXLXUXGX9X<XIXUXUXPXIXIX:X4X<X`.oX,X,X;X4X,X,X[.,X,X^.,X[.,X,X,X,X,X,X,X,X,X,X>XoX}.;X>X,XoXoXoX,XoXoX>X,XoXoX>X>X,X,X,X,X>X>X>X>X>XoX>XoX,XoXoXoX,XoX;X,X,X[.;X;X,X;X,X,X>X>X>X>X>XoXoXoXoX+X+XOX+X+X+X+X+X+X+X+X+X+X+X+X+X+X+X+X+XOX@X+X+XOXOXoXoXoXoXoXoXoXoX>X>XoXoX>X>X>X,X,XoX,X,X,X,X,X,X;X;X,X,X,X,X,X>XoX+X+X>X>X>X>X>X>X+X+X+X+X=X+X-X-X-X-X-X-X-X-X-X-X-X-X=X=X=X=X-X-X-X6X1X1X1X>X1X1X1X>X>X-X3X-X3X1X3X3X>X>X+X>X+X+X+X+X+XOX=X#X#X#X+X+X#X#X+X+X#X+X#X@X#X#X#X+X+X+X>X>X,X,X,X>X,X,X,X,XoX,X,X+X+X#X+X+XOX+XOXOX+X+X+X+X+X+X#X>X,X,X>X>X>X,X>X>X>X,XoX}.}.oX+X}.+X+X+XOX+X+X+X+X+X+X#XoX,X,X>X,X,X,X,X>X>X>XoXoXoXoXoXOXoXoXoX+X+X+XoXoXoX+X+XoX+X+XoX+X+X+X+X+X+X+X+XoXoXoXoXoX`.oXoX>XoX;X,X>XoXKXUXUXUXIXIXIXIXIXIXUXGXMXmXnXmXmXbXBXHXAXx.j.q.q.>.=.<.1 ; s ; 3 NXzX;X",
"mXUXKXIXPXUXKXMXmXLXPXIXPXKXMX,X}.oX,X,X,X,X,X,XoX^.,X^.,X^.,X;X[.^.,X^.;X,X,X^.oX^.oX>X>X>XoXoXoXoXoX,X,X,X,X,XoX,X,X,X,X,X,XoX,X,XoXoXoXoX,X,X,X,X,X,XoXoXoX,X,X,X;X;X,X,X>X>X>X;X>X>X,XoXoXoXoXoXoXoXoXoX+X+X+X+X+X+X+X+X+X+X+X+X+X+X@X+X+X+X+X+XoXoXoXoXoXoXoXoXoXoXoX,XoXoX,XoX>X>X>X,X,X>X,X,X,X,X,X,X,X,X>X>X>XoXoXoX>X>X>X>X+X+X+X+X+X+X+X#X#X#X-X-X-X-X-X3X3X3X-X-X-X-X-X-X-X-X-X-X-X-X-X-X-X-X-X-X-X3X3X3X-X-X3X3X3X3X3X>X+X+X+X+X+X+X+X#X+X+X+X+X+X+X+X+X+X+X#X#X+X+X+X+X+X+X+X+X+X>X>X>X>X,X>XoX>X>X>X+X+X+X+X+XOXOXOX+X+X+X+X+X+X+X+X+X+X,X>X>X>X,X>X>X>X>X>XoXoXoXoXOX+X+X+XoX+XoXoXoXoXoXoX+X+X+X#X,X,X,X>X+XoXoXoXoXoXoXoXoXoXoX+X+XoXoXoXoXoXoXoXoXoXoXoXoXoXoXoXoXoXoXoXoXoXoXoXoXoXoXoXoXoXoX>X>X}.KXUXUXUXUXUXIXIXIXIXIXDXMXmXnXnXnXNXCXSXgXe.e.7.7.7.=.>.1 3 s 3 ; :XcX].",
"9XnX<XGXUXUXPXUXIXIXIXIXIXzX;X;X;X;X,X!.^.,X,X^.,X,X^.^.^.oX,X^.;X>X;XoX;X>XoX}.}.;X;X;XoX>XoXoXoXoXoXoX,X,XoX,XoXoX,X,X,X,X,XoX>X>XoXoXoXoXoXoX,X,X,X,XoXoXoXoXoXoXoX,XoX>XoXoXoXoXoXoX>XoXoXoXoXoXoXoXoXoXoXoXoX+XoXoXoXoXoX+X+X+XoX+XOX@XoXoX+X+XoXoXoXoXoXoXoXoXoXoXoXoXoXoXoXoXoX>X>X>X>X,X>X,X,X,X,X,X,XoX>X,XoXoXoXoX>X+X+X+X+X+X+X+X+X+X+X+X+X#X-X#X#X-X-X-X-X-X-X-X-X-X-X-X-X-X-X-X3X-X-X-X-X3X3X3X3X3X3X3X3X3X3X3X3X3X>X+X+X+X+X+X+X+X+X+X+X+X+X+X+X+X+X+X+X+X+X+X+X+XoXoX+X+X+X+X+X+XoXoXoXoX+X+XoXoX+X+X+X+XoX+XOX+XOXOX+XOX+X+X+X+X+X+X+X+X+X+X+X>X>X>XoXoX>XoXoXoXoXOXOX+X+XoXoXoXoXoXoXoXoXoX+X+X+X>X>X,X+X+X+XoXoXoXoXoXoXoXoXoX@XoXoXoXoXoXoXoXoXoXoXoXoXoXoXoXoXoXoXoXoXoXoXoXoXoXoXoXoXoXoXoXoXoX}.IXIXIXUXUXUXIXIXIXUXIXDXMXmXmXmXmXDXAXZXiXe.q.7.7.7.5 =.1 3 s 3 0 s Z.mX",
"9X9X9XGXLXIXUXUXUXIXIXIXPXGXbXKXmXFXNXNX1X>XoX^.^.;XoX^.;X;X,X^.;X;X}.;X;X;X;XL.;X;X;X;X;XoXoXoXoXoXoXoX,X,XoXoXoXoXoXoXoXoXoXoX,X,XoXoXoXoXoXoX,XoXoXoXoXoXoXoXoXoXoXoXoXoXoXoXoXoXoXoXoXoXoXoXoXoXoXoXoXoXoXoXoXoXoXoXoXoX+X+X+X+XOXOXOX+X+XoXoXoXoXoXoXoXoXoXoXoXoXoXoXoXoXoXoXoX+X>XoXoX>X>X,X,X>X,X>X>X>X>X>XoXoXoXoXoXoX+X+X+X+X+X+X+X+X+X+X+X+X#X#X#X#X#X-X-X-X-X-X3X-X-X3X3X3X3X3X3X-X3X3X3X3X3X3X3X3X3X3X3X3X3X3X3X3X3X3X>X+X+X+X+X+X+X+X+X+X+X+X+X+X+X+X+X+XoX+X+X+X+X+X+X+X+X+X+XoXoX+XoX+X+X+X+X+X+X+X+X+XoX+XoXOXOXOXOX+X+X+XOX+X+X+X+X+X+X+X+X+X+XoXoXoXoX>XoX+X+XoXoXoXoX+XOXOXXXoXoXoXoXoXoXoX+XoXoXoXoX+X+X+X+XoXoX+XOXoXoXoXoXoXoXoXoXoXoXoXoXoXoXoXoXoXoXoXoXoXoXoXoXoXoXoXoXoXoXoXoXoXoXoXoXoXoX}.IXIXUXUXUXUXIXIXIXIXIXDXMXmXmXmXbXDXJXSXc.q.7.7.7.>.5 5 5 3 3 ; 0 f n.I.",
"<X4X<XKXLXUXPXUXUXUXIXIXUXKXKXLXUXIXUXFX:X9X<X,XoXoXoX^.;X}.;XoXoX;X;X,XL.L.L.6.L.yXyXyX:X;XoXoXoXoXoXoXoXoXoXoXoXoXoXoXoXoXoXoXoXoXoXoXoXoXoXoXoXoX`.`.oXoXoXoXoXoXoXoXoXoXoXoXoXoXoXoXoXoXoXoXoXoXoXoXoXoXoXoXoXoXoXoXoXoXoX+X+X+XOXOXOXXXoXoXoXoXoXoXoXoXoXoXoXoXoXoXoXoXoXoXoXoXoXoXoXoXoXoXoXoX,X,X,XoXoX,X,XoXoXoXoXoXoX+X+X+X+X+X+X+X+X+X+X+X+X+X#X#X+X+X#X#X-X-X-X-X-X-X3X1X1X>X>X>X>X>X>X>X1X1X1X4X2X<X4X4X1X1X3X3X3X3X3X>X+X+X+X+X+X+X+X+X+X+X+X+X+X+X+X+X+XoX+X+X+X+X+X+X+XoX+X+X+XoX+X+X+X+X+X+X+X+X+X+X+XoX+XXXOXOXOXOXOXOXOXOXOXOXOX+X+X+X+X+X+XoXoXoXoXoXoXoXoX+XoXoXoXOXOXOXXXXXoXoXXXXXoXoXoX+XoXoXoXoX+X+XoX+XoXoXoXoXXXXXoXoXXXXXoXoXoXoXoXoXoXoXoXoXoXoXoXoXoXoXoXoXoXoXoXoXoXoXoXoXoX^.oXoXoXoX^.GXKXPXIXIXUXUXUXUXUXIXDXMXbXbXbXDXHXSXhXj.7.7.:.-.>.5 3 ; - s s 0 nXNXmX",
"<X<X<XvXDXIXUXUXUXUXUXPXUXIXIXIXIXIXLXNXFXDXmX^.<X}.}.}.}.J.^.^.J.yXyXL.6.w.w.w.w.h.h.sXyX;XoXoXoXoXoXoXoXoXoXoXoXoXoXoXoXoXoXoXoXoXoXoXoXoXoXoXoXoXoXoXoXoXoXoXoXoXoXoXoXoXoXoXoXoXoXoXoXoXoXoXoXoXoXoXoXoXXXXXXXoXoXoXoX+X+X+X+X+XOXOXOXoXoXoXoXoXoXoXoXoXoXoXoXoXoXoXoXoXoXoXoXoXoXoXoXoXoXoXoXoXoXoXoXoXoXoXoXoXoXoXoXoXoXoX+X+X+X+X+X+X+X+X+X+X+X+X+X+X+X+X+X#X#X-X-X-X-X-XNXKXFXNXGXGXGXKXKXFXGXGXKXGXKXIXNXNXKX4X3X4X1X>X>X1X>X+X+X+X+X+X+X+X+X+X+X+X+X+X+X+XoXoXoXoXoX+X+X+XOXOX+XXXOXOXOXOXOXOX+X+X+XOX+X+X+X+X+XOXOXOXOXOXOXOXOXOXOXOXOXOX+X+X+XoXoXoXoXoXoXoXoXoX+X+XoXOXOXoXOXOXOXXXXXXXXXXXXXoXoXXXoXoXoXoXoXoXoXoXoXoXoXXXXXoXXXoXXXXXXXoXoXoXXXoXoXoXoXoXoXXXoXoXoXoXoXoXoXoXoX^.oX^.^.^.^.^.oXoX}.}.!.XX`.KXIXIXUXUXUXUXIXIXKXDXKXDXVXJXAXgXh.q.q.7.-.>.>.< 3 = - 3 ; ; MXNXNX",
"nXnX9X9XMXKXUXUXIXUXUXUXUXUXUXUXLXLXIXLXUXLXGXcXbX<X;X;X}.J.J.D.3.>.yXsXw.0.q.q.q.q.w.w.a.}.oXoXoXoXoXoXoXoXoXoXoXoXoXoXoXoXoXoXoXoX,XoXoXoXoXoXoXoXoXoXoXoXoXoXoXoXoX}.oXoXoXoXoXoXoXoXoXoXoXoXoXoXoXoXoXoXXXXXOXoXoXoXoXoX+XoXoXoXOX+XOXoXoXoXoXoXoXoXoXXXoXoXoXoXoXoXoXoXoXoXoXoXoXoXoXoXoXoXoXoXoXoXoXoXoXoXoXoXoXoXoXoXoX+X+X+X+X+X+X+X+X+X+X+X+X+X+X+X+X+X+X+X1X4X9X<XFX9X9X1XNX9XNX0X8X9XnX>XMX;X:X9X;X:X:X1XNX1X9XGXGX<X,X>X>X>X>X+X+X+X+X+X+X+X+X+X+X+X+X+XoXoXoXoX+X+X+X+X+X+XoXXXOXOXOXOXOXOX+XOX+XOXOXoX+XOXOX+XOXOXOXOXOXOXOXOXOXOXOXOX+X+X+XoXoXoXoXoXoXoXoXoXoXoX+XOXOXOXOXoXXXXXoXXXXXOXoXoXoXXXoXoXoXoXoXoXoXoXoXoXoXoXXXoXOXXXoXXXXXXXXXoXoXoXoXXXoXoXXXoXoXoXoXoXoXoXoXoXoXoXoX^.^.}.^.^.^.oX}.oX!.@XXXIXIXIXIXUXUXUXIXUXIXIXGXDXVXSXZXc.q.q.q.7.-.>.< 3 3 = = s D.Z.NXmXvX",
"mXnX9XmXNXIXPXUXUXUXIXIXUXUXUXPXUXLXUXUXUXUXLXHXHXbXzXeXL.L.6.&.2 &.2 &.;.:.e.e.e.e.w.a.yXoX+XoX>X4XoXoX,X3X}.,X+X}.>X+X3X+XoX4X,X,X4XoX,XoX>XoX,XoXoXoXoX>XoX>XoXoX+X+X,XOX+X,XoX+X>X>X+X>X+X>X#X>X#X@X>X>X+X+X3X+X+X+X>X>X+X+X3X#XoX3XoX4XoXXX3X,X4X>X}.4X@X+X1X+X4X>X#X#X+X>X>X+XoX+X+XoX>X+X+X+X+X3X!.3XOX3X>X+X+X3XOX>X1X3X+X+X3X3X4X,X,X4X+X>X4X,X3X3X#X>X3X+X0X9X,XnXnXGX:XNX:X:X9X<XGXNXGXNXFXKXGXKXGXKXIXGXKX4XnX:XnX9X4XNX:X>X>X>X3X3X+X+X3X3X#X>X+X3X+X+X3X+X+X>X+X+X+X+X#X-X+X+X-X#X@X3X3XOX-X@X3X@XOX+X4X@X@X-X-X.X5X4X.X8XOX@X-XXX3X#X3X3XXX4X3X4X3XoX4XoXoXoX4XE.4XOXXX3X#X#X-X+X3XOX3XOX-X-X#X3XOXXX4XOXXX3X#XXX0X}.@X3X+X3XXX3XOX3X+X3XXX3XoX3X3XE.0X>XXX1XXX4X!.,X,XoXoX,XoXoX,X,XoXoX,X}.4X!.0X4X2X/.`.UXUXUXUXUXUXUXUXUXIXUXIXNXDXSXuXe.7.q.7.7.-.>.= = 6 *.f CXCXyXNXNXFX",
"mXmXnXKXIXIXUXUXUXUXIXIXUXUXUXHXIXIXUXUXUXUXLXLXHXCXxXyXa.6.>.&.< -.2 2 =.;.e.e.e.e.a.a.L.}.+XoX4XoXoX,X,X>X}.4XXXXX3XXX3XXX3XoX>XXX3XoX>X>X3X#X3XoXoXoX>X4XoX>X+XXX3XXX3XXX,X4X+X4XoX4X+X4X3X3XXX1X#XXX-X+XXXXX+XXX+X#X3XOX3X#X+X+X#X>XXX+XoX+X/.3XXX>X3XXX/.3XOX+X#X#X+X-X}.4X}.3XOX3X3X+X4X#X4X3X#X4X>XXXOXXX3X>XXX@XOX3X+XXX3X+X4XXX4X>XoX4X>X+X>X4X>X#X-XnX<X0XnX,X9X<XmX<XmXGXFXGXGXKXKXKXbXGXFX:X].MXnXmX:X;XNXGXFXGX:XNX9XGXNX>X3X3X1X3X>X>X+X+X+X+XoX>X3X+X3X+X+X3X+X3X#X#X3X+XOX5XXX3XOX-X3X=X@X.X-XOX4X-X8X@X4X7X=XXX-X4X.X-X4XOX3X=X-X@X.X3XXX-XXX-X3XXX+XoXoX3X>XXX#X3X/.OX-X-XE.#X3XOX#XOX#X@XOX#X-XXX4XOXXX3X4X.X0X3XXX3X+X#X+X3XXX3X/.>X!.3XoX3XXXXX3X>XXX+X3X>XoX}.,X1X!.4X^.>X,X,X+XoXoXXXoX!.3X}._.-X;XKXIXIXUXUXUXUXUXUXIXPXIXbXBXAXz.e.7.q.7.:.>.>.= $ *.1.4.CXcXcXL.D.FX",
"mX9X9XMXNXvXKXUXUXUXIXIXUXUXUXKXNXIXPXPXPXUXLXLXLXBXsX2 1 *.< 2 1 -.w.7.e.e.e.e.j.a.9X}.;X}.4XoX4XXXoX>XoX3X_.XX3X3X+XOX/.3XXX3X+X3X@X>XXX#X#XE.3XXX3XoX+XoXoX3XoX3X/.OX3X#XoX4X#X#X/.4X+X3X!.3X@X>X#X,X@X@X-X-XOX-X3XXX@XOX+XXX3XOXXX-XOX3XXX#X3X#X3X#X_.3X3X#X.X5X#X#X#XXX3XOX+X.X3XXX+X#X3XE.4X/.#X3XOX3X3XXX3X@XXXXX-XXXXX-X3XOX3XXX#X3X#X3X+X3X+X+X3X>X3X}.NX,XNXNXFXFXGXMX<XnXnX<XNXMX9XMXNXFXNXNXNXcXNXKXFXNXGXnX4X9XMXNX0XnX<XnX1X3X1X1X3X-X-X3X3X3X3X+XXX#X#X+X#X+X3XXX8XOX6XOX-X5XXX#X-X-X.X-X.X-X-X3XOX.X.X-X.XE.5XE..X4X=X.X.X6X.X.X3X.X-X3X-X#X3X-X3X#X3XXX3X@X3XXX.X+X-X@X#X5X@X-X-XOX-X.XOX.X4X/.XX@X#X#XOX#X4XE.oX#X#X#X@X3X/.3XOX3X@XXX-X/.3XE.3X/.3X#X#X_.#X3X3XoX3X#X4XE.3X>XoXXX,X+XXX3XXX3X_.3X#X#XOX>XIXUXIXUXUXIXUXIXLXUXIXbXBXSXaXe.7.0.7.-.-.7 3 - d 1.< 3 s s d d FX",
"mX3X4X0X9XvXIXPXPXUXUXUXUXUXUXKXbXbXPXPXPXUXLXIXCX* 7 < s 5 ;.q.0.e.e.7.h.a.a.L.L.;X!.+XoX3X>X!.+X,X#X>X!.,XXX3X/.#X+X3X#XoX3X!.#X3XOX+X3XXX#X#XXX3XE.3XoX3X-X/.3XXXXX-X.X3X#XXX#X@X3X+X4X/.3X/.3X>X3XOX-X#X#X-XOX.X.X3X.X3X#X3XOX#X#X/.3X.X3XE.#XXX+X-X3XOXXX#X3X/.#X#X4X3X.X1X3X#X3X-X#X/.#X3XXX3X-X>X#X@X@X3X-X.X0X3X.X4X>XXX3X=X+X0X#X4X-X3X3X>X-X>X0X4XFX<XnXFX}.,XNXGXGXFXNXIXIXIXIXUXUXIXUXUXUXUXUXUXUXIXKXIXKXFXNXKX,XNXMX<X;XNXnX9X1X1X>X>X+X+X3X#X3X3X3X3X+X-XOX#XOX-X-X-XOX6X-X-XXX3X/.#X3XE.6X.X@X3X=X6X-X6X@X=XE.5X3XE.6X3X3X/.6X@X@X3XE.5X.X3X/.#X3X#X.X3XXX3XE.-XOX-XE.-X-XOX3XOX3X.X.X6X3X-X.X-X3XXX3X.X8X.XE.7X@X.XOX-X@X#X#XE.3X/.3X+X-X3X.X#XE.3XOXE.3X3XoX,XoX3X@X,XE.3XoXXX3X3X#X@X3X_.3X>X>XE.3XE.-XoXDXPXUXUXUXUXIXKXGXFXDXDXyX7.q.q.0.0.7.2 2 >.6 3 3 < = s s 0 f s FX",
"MX0X0X9X4XnXKXUXUXUXIXUXUXUXUXKXvXvXKXUXPXLXLXPXyX< 6 < 3 2 q.q.:.e.e.7.L.L.J.}.>X}.,X+X0X3X>XoX3X,XXX3X!.4X4X/.>XoX3X{.#X+XoX+X3X#X3X3XXX>X3XXX3X+X+X!.3XXX+X3X3X+X+X>X+X3X@XXX#XXXoX#XOX4XXXXX3X4XE.+XOX-X#X@X3X+X3X.X3XXX3XXX/.3X3X3X#X#X@X>X#X3XXX3X3X+X@X3X3X4X4XOX@X#X1X#X3XOX@X-X}.#X4XXX3X3X3X#X@X4X#X3X.X,X#X@X-X3XXX3XOX0X+X7XOX4X#X9X>X0X3X4XNX:XNXnXNX9XGXvXMXMXGXzXKXUXUXUXUXUXUXUXUXUXUXUXUXUXUXUXUXUXUXNXnXbX9XNX:XNXGX].FXNXnX9X>X3X+X-X+X+X>X3X#XXX3XXXOX4XOX3X-X.X-X3X.XXX-X-X3X#X@X-X-X3X-X#X=X6X-X@XOX3X3X-X@X-X8X3X@X3X-X@X#X.X3XOXOXOX3X4X#X3X#X3XXX3X#X3X3X/.4X3X@X3X-X3X-X-X@X3XXX.X3X#X3X-XOX-X#X-X4X-X+XXX3XXX#XOXOX-X#X#X/.3X#X#XXX#X>XXXoX3X3XXXoX3X#X4XXXoX#X,XoX#X4XXX3X>X#X,XXX4X+X}.0X+X#X.XNXIXIXUXUXUXUXKXNXNXDXPXCXa.e.e.q.0.7.-.*.*.4 3 = ; = s 0 0 n.s FX",
"FXFXnX9X4X4X<XDXIXIXUXUXUXUXUXKXvXvXNXIXPXBXrXJX7 4 5 2 >.:.-.0.;.q.q.>.J.}.}.}.1X>X+X3XE.4X}.}.,X!.3X!.4XXX,X+X+X#X@X-X+X3XoX3X#XXX3X@X#X+XXX@X@XXX#X3XXX3X#X3XXX#X3XE.3XXX3X#X#X#X3XOX3X#X3X3XOXXX8XOX+X3XOX+X@X-X#X3X+X3XXX3X3XXX#XXX3X3X#XOX3X@X4XXX.X1X#X+XXX+X+X8XOX3X+X3X3X3XOXXX1X4XE.-X4X3XXX#X#X3X#XXX4X0XXX+X5X@XOX+X+X3X4X#X3X@X3X3X-X3X4X9XMXMXnXNXFXNX;XGXIXUXIXUXUXUXUXIXUXUXUXUXUXUXUXUXUXUXUXUXUXUXUXIXIXPXKXKXGXnX:XFXmX<XnX:X,X1X3X3X+X#X#X>X+X1X+X7X7X#X3X>X3X-X7XOX6X3X3XE.#X3X-X-X@X3X-X@X6XE.-X-X3X.XOX3X-X7XE.-X6X-X@XXX-X@X.X3X#X3X.X@X4X#X4XOX0X.X3X-XXX7X.XXX4X3XOX8X#X1X3XOX3X4XOX7X3X3XOX3X3X-X8X@X3X8X@X-X3X-XXX-X#X-X3XXX3X-X4X.X+X#X#X4X/.>X3XE.3XXX3X#X3X+X+X3X/.3X3X>X!.3X4X_.3X0X/.0X4XE.nXNXKXUXUXUXUXKXNXDXLXJXJXaXe.e.q.7.7.2 5 4 4 ; ; ; ; s s s bXMXFX",
"MXKXFX4XvX<X<XvXFXIXUXUXUXUXUXPXDXMXzXKXUXS.s f 4 3 4 &.-.;.;.,.;.,.<.6.A.,X4X+X}.!.4X>XoX,X>X>XoX#XoX,XoX3X@X>X>XXX#X3XOX#X3XXX3X3XXX3XE.3X#X3X3X3XOXXX3XXX#XOX3XXXOX3X/.#X/.#X+X3X+X3X3X3X#X#X-X3XXX@X3XOX#X3XOX-XOX-X#X+X3X.X3X-X/.3X-X.X#X3XXX3XXX3X3XXX3X4X-X3X3X+X+X-X3X3X@X.X6X3X#XOX3X#X+X3X3XOX-XXX3X3XOXXX8X3X.X8X3XXX3X+X#X#X3X#X4X#X3X9X<XnXmXNXFXnXmXKXGXKXIXUXUXUXUXUXUXUXUXUXUXUXUXUXUXUXUXUXUXUXUXUXUXUXUXIXIXIXKXGXKXMXFXNXNX;XMXFX1X3X-X-X#X#X3X>X3XOX+X#XOX1X-XXX@X-X3XXX@X3X-X3X-X@X6X@X3X-XOX5X-X#X.X5X-X-X3XXX6X@X-X#X5X-X3XOX3X.X6X@X3X5X3X+X3X4XXX6XOX3X3X@X-X-X3X-X3X.X4X-XOX3X#XXX3X3X.X3X3XXX3XOX/.3X-X/.-X#X#XOX6X@X-X#X@X3X3X@XXX3X+X3X#XE.3X!.E.3X+X#X!.+XXX3X,XoX,X3XXX+X3X!.E.4X!.oX3X!._.4X.X1XIXPXIXUXUXIXGXDXPXAXPXZXj.j.0.:.<.5 5 3 3 = ; 3 ; ; ; f KXDXGX",
"nXKXGXNXKXvX<XvXNXIXUXPXPXPXPXPXDXbXvXKXLXxXf 3 3 = 4 &.:.:.,.,.;.0.<.G.;X,X>X1X+X3X,X>X3X,X}.3XE.>XoXoX>X!.3X#X!.+XoXoX+X3XXX3X+X!.#X#XXX#X3XE.E.3X/.#X3XXX#X3XXX3X+X+X3X_.3XoX+X+XXX3XXX3X#XXX3XXX#X#XXX@X3X@X.X-X3XXX3X6X#X3X#X-X#X3XXX3X3X@X3X@X@XXX#XXX#X+X/.#X3X+X4XoX#X3XOX-X-X3XXX@X4X#XOX3X/.-X/.3X@X3XXXXX3X.X6XoXXX3XXX#X+X3X#X4X3X3X0XFXzXGXnX9XzXFXvXIXIXIXUXUXUXUXUXUXUXUXUXUXUXUXUXUXUXIXPXUXUXUXUXUXUXUXUXIXIXIXIXKXKXNXNXzX].NXNXGX>X>X3X-X#XOX+X+X#XOX-X+X6X#X#X/.-X3XXX3X#X-X-X-XOX3X@X-X3X#X#X-X-XOX3X.X-XOXOX-X.X=X=X3X3X.X6X-X@X3X3X@X3X3XXX#X3X#X#XXX3X-X3XXX3X6X.X#X4X-X3XE.-X3X@X3X-XOX3X-X@X4XXX#X3X-XOXXX3X#XOX-X#X#X-X#X#X#X+X/.3X_.3XoX#X#X_.3X#X@X!.oX#XXX3XXX+X_.4X3X!.3XE.3X3XXX3X0XE.3X4X3XXX!.IXKXLXUXUXIXKXDXLXAXPXJX<.:.:.;.>.5 5 3 3 = ; 3 ; 0 s b.KXHXKX",
"nXFXIXIXLXzX<X<XvXDXHXUXUXUXPXPXKXbXbXKXIXGXf s 6 2 2 &.:.0.0.:.:.a.cXnX<X}.4X>XE.oX4X>X3XXX#XW.3XoX}.>XoX,XoXOX3XE.3XE.+X+X#X+XXX3XXX+X3X#X+X3X>XE.4XoXXX3X-XE.3X+X#X#X@X3XXXXX3X#X4X/.3X3X!.3XXX-X#X#X-X#X@X@X3XXX@X-X3X#X#X3X-X#X#X.X3X-X.X3XXX#X3X-X#X3X#X#X3X3X.X#X+X3X3XXX4XXX@XOX3X-XE.-X3XE.3X.X-XOX#X/.3X-X.X-X-X@X3XXX8X3XOX-XOX3X,X;XNX<XnX<XFXFXzXUXIXIXIXIXUXUXUXUXUXUXUXUXUXUXUXUXUXPXUXSXy.SXUXUXUXUXUXUXUXIXIXIXIXIXIXKXNXGXzXNXnX<XNX;XnX3X-X+X-XOX+X3X+X+X+XOX-XOX3XE.#X-X-X-X#X@X3X.XOX-X.X-X#X-X#X3XE.-X.X-X3X.X4X3X-X@X@X3X.X@X3X-X@X-X#X-X3X#XXX#XXX6X.X#XXX-X-X/.-X.X-X3XE.-X-XOX#X3X#X@X3X/.@X#X-X-XOX#X@X3X3XOX3X.X-X-X#X#X-X#X>X3X!.3XXX3XoX!.3X!.3X>X3X>XW.>X!.3X,X>X+XoX>XE.#X@XOXOX#XE.4XXX#X!.0XoXnX>XKXUXUXUXKXDXZXhXZXSX-.:.:.;.-.5 3 3 3 = 3 s - UXLXFXKXKXKX",
"nXmXKXUXUXKXvX<X<XvXNXDXUXUXUXPXLXDXbXeX3 s f s 4 -.>.<.q.e.e.w.a.yX'./.nX>XoX}.1X{.3XoXoX,X}.3X_.oX4X+X>X!.XX#X3X#XE.3XoX#XoXoX3X/.-X3XOX3XOX#X3X3XXX/.4XE.XX+XXX+X3X3X#X#X3XoX3XXXE.3X_.XX3X#X+X#X#XOX3XOX#X-X.X4X-X/.-X+X-X+X3X#XXX3XE.-X-X-X#X#X#XOX3X#XXX3XXX@X3X3X3X3X3X@X/.+X3X#XE.3X3XOX+X-XXXOX-X@X+X3XXX.X3XXXOX-X@X#X,XOX5X-X8X3X0XFXQ.GXbXGX].FXIXIXUXIXUXUXUXUXUXUXUXUXUXUXUXUXUXUXJXuXdXuXE dXUXIXUXUXUXUXUXUXIXIXIXIXIXIXKXKXGXNX].NX;XFXmX3X3X3X+X+X3X}.+X+X+X1X+XXX-X+X#XOXXX-X@X3X/.3X#X.X3X#X-X.X#XXX3X.X-X.X#X3X.X-X.X3X-X/.-X-X@X3X6XXX3X4X/.3XOXOX3X3X#X@X6X@X=X@XOX3X-X.X3X#X#X3X-XOXOX#XE.-X@XE.3X-X@XXX3XOX@X#XE.-X#X+X+X3X#X#X+XE.3X#X+XoX3X#X}.3X3X3X}.oX>X!.>XoX>X3X3XXX>X+X3X+X+X-X,X0XXX#X4XXX,X4X,X9XNXUXIXIXIXCXj.e.e.hX-.;.:.;.>.= - s f 3 3 3 0 KXIXHXLXLXLX",
"nXvXFXIXUXUXvX<X<X<XvXbXDXLXPXUXPXDXxXD.0 s f s 4 -.;.;.0.e.e.h.CXDXnX0XFX;X;X3X1X+X}.4X3XoXoX+XoX+X>X,X,X,X+X+X+XoX3X!.+X+X+X#X3X#XOX3XXXXX3XXXOX>X3XXX@X3X+XOX#X+X#XXX>X#X3X#X#X#X>X#X3X+X3XXX3X#XXX3X@X-X-X@X-X-X#X-X#X3XE.3X#X-X-X#X-X#X-XXX3X3X@X3X3X#XOX3X3X#X#XXX4X3XXX3X#X3X#X+X3X+X3X@X+X3X-X-X+XOX5X#X3XOX4X=X+X3XXX-X3X4X3X3X3X4X;XNXNXnXNXbXKXKXIXIXUXUXUXUXUXUXUXUXUXUXUXUXUXUXUXIXJX~ I C U dXPXUXUXUXUXUXUXUXIXIXIXIXIXIXIXIXKXMXNXnXNXMXvX9X4X3X+X>X3X3X3X3X3X3X1X3XOX1XXX#X3X#X3X@X-X@X#X#X3X-X#X3X-X-X-X@X3X3X@X@X3X#X3X@X@X-X@X3XXX3X6X-X-X@X3XXX-X-XXXXX#X#X/.@X@X.X-X-X.XOX@X-XXX3XXXXX3X@X#XXX-X4X3X.X-X3X#XXX#X3X#X#X#XXX3XXX3X3X#X>X,X!.3X3XXX3X+X-X+X!.3X>X3X>X+X+X+XoXE.3X+X#X+X3X3XoXoX+X!.4X4X+XoX4X4X,XMXIXIXIXIXCXc.e.j.fX:.;.:.;.>.= - = f 4 4 g 4.KXIXUXPXUXKX",
"vXvXnXGXDXDXmXnX<X9X<X<XbXHXJXPXPXPXJXD.0 0 s s 3 -.;.,.,.0.e.SXIXKXDXNXGXKXFX0X4X+X,X3X,X,X,X+XoX3X!.,X^.3X>X>X3XoXoX3X+X>X}.+XoX3X3XXX3XXX+X3X4X#X+X-X-X3X#X#XXX#X@X3X+X3X#X3X#X3X3X3X3X3X!.3X#X@X3X#X#X3X-XOX3XE.OX3X-X.X3X.XOX-X#X-X-X3X3X-X@X@X3XXXXX3X3X+XXX3X3X3XOX+X3XXX3X>X3X#XOX3X#X3X#X+X@X-X-X+X@X-XOX3X.X-X3XXX-X3X+X=X4X>X9XnXGXFXFXnXGXKXKXIXUXUXUXUXUXUXUXUXUXUXUXUXUXUXUXUXUXJXJXE U U U dXPXUXUXUXUXUXUXUXIXIXIXIXIXIXIXIXKXHXGXGXzXFXGXFX;X4X>X1X>X1X#X3X3X#X3X+X3X+X4X3X+X@X#X3X3X@X#X3X.X@X-X.XE.-X3X#X=X.X3X-X+X-X-X3X#X@X-XOX3X@X.X3X#XXX3X3X3XOX-X-X3X=X-X4X3X3X-X#X-X3X-X#X#XXX3X3XE.@XOX-X#X#X/.3X3X@X3X3X-X@X-X3X+X#X#X3X+X+X#X>X3X+X3XoX3X>X#X3X3X3X3X>X+XoX+X#X3X+X+X>X#X3X+X3X}.1X>X3X3X4XE.4X3X+X2X+X,X>XUXIXIXSXc.j.aXfX0.;.:.;.*.4 - * CXBXCXVXCXKXIXIXKXDXNX",
"nXnXnXMXIXPXIXmXvXvXvXnXvXS.*.*.6 6 *.f ; 3 3 3 1 -.,.,.,.q.e.CXCXHXIXKXKXIXKX<XmX9X,XoX,X,XoX3XoX,X3X^.3XoX}.3X!.>X3X4XoX>X4X}.3X!.oX4XE.>X4XXX+X#X-X-X3X@X+X3X3X@X#X}.,X>X3X+X3X#XXX3XXX#X3X+XOX3X-XOX-X-X#X3X-X@X3X@XXX3XOX-X3X=X3X3X@X-X-X#X3X3X#X3X#X3XXX>X3X@X3X3XXX3XXX3X3X3XXX#X3X3X-X#X-X+X3XOX1X-X-X-X-X#X+XXX-X4X-X#X#X-X4XNX<XNXzX:XFXzXGXIXIXUXUXUXUXUXUXUXUXUXUXUXUXUXUXUXUXUXPXJXSXI U U U dXPXUXUXUXUXUXUXUXUXUXUXUXUXIXIXIXIXKXIXbXNX].nXvXGX;X3X3X3X>X3X+X3X#X3X1X+X3X#XXXOX-X#X@X@X-X#X#X-X@X@X3X-X@X@X-X@X#X-X#X3X3X-X@X3X#X3X3XXX3X3X.X4X4X.X3X3X3X-X@X-X3X3XXX@X3X-X#X3XXX-X-X3X3X/.@X3X3X-X@X#X3X3X#X-X#X-X-X3X@X+X#X-X#X1X3X>X>X3X}.1X3X+X+X3X3X4X>X>X3X}.4X>X1X4X+XE.4X>XoX>X3X,X3X4X1X3XXX1X3X8XXX4X+X0X0X9X,XUXUXUXJXc.e.e.e.q.:.:.;.&.5 ; = xXyXD.D.D.DXKXDXNXbXmX",
"nXnXnXvXIXUXGXGXGXvXnXnXvXD.3 5 5 5 1 d 3 =.=.1 &.;.,.,.0.q.e.j.j.ZXSXKXKXUXUXKXKXnX^.0X4X^.4XoX,X,X,X,X,X>X>X>XoX>X4XoX3X>X3X4XoX3X3X3X+X3X4X#XXX3X3XOX#X#X+X3X#XXX3X3X+X4X+X3X3X#X3XXX,X3X3X#X#X3XXX3X-X3X3XOX@X3X@X-X-X3X-X3X4XXX-XOX-X3X-X-X3X#XOX3X3XXX3X3X#X3X3X3X3X3X3X3X3XXX3X3X3XXX#X-XXX3X+X#X7X+X3X-X-X=X-X4X-X0X3XOX3X3X1XnXNXNXNXGXbXKXKXIXIXUXUXUXUXUXUXUXUXUXUXUXUXUXUXUXUXUXJXSXSXI M Q U tXPXUXUXUXUXUXUXUXUXUXUXUXUXUXIXIXIXIXIXKXbXGXNXnX;XnX3X>X0X>X3X3XoX#X4X4X3X4X1X4X3X#XOX@X-XXXXX3X-X@X.X3X-X#X@X.X-X4X-X#X3X+X3X3X#X-X-X#X-X3X-X-X3X3X-X-X#X3X3XXX3X4XOX-X-X-X-X-X-XOX-X-X@X3X-XXX3XXXOX+X-X#X@X@X@X4X3X@X-X#X#X#X+X3X3X+X3X+X+X>X+X1X+X4X>X1X1X;X1X1X1X4X1X4X1X-X1X9X9X1X4X4X4X{.#X4X4X4X4X#XXX8XoX9X,X4X9X<XIXPXPXPXSXq.q.e.0.:.:.;.=.5 0 ; = = 3 3 s zXDXDXNXbXvX",
"nXnXnXvXmXFXKXUXUXbXMXNXbXeX4 4 3 3 3 d 3 =.&.1 2 -.,.,.0.0.,.,.q.e.h.sXKXUXUXIXIXGXnX;X^.4XoX4X>XoXoX,X>X>X>XoX3X}.>X!.4X}.+X3XoX3X3XoX3X3XE.5X3XOX#X-X@X3X+X#X3X3X}.oX,X,XoX3XoX,X3X#X3X-X@X#X-XXX-X3XXX@X-X-XOX3X-X@X3X.XOX-X#X-X-X#X-X-X-X#X@X3X3X/..X3X@XXX3X/.3X4XXX3X3X3X@X@X3XOX#X3X#XOX>X+X=X1X;X2X}.3X4X+X8X+XOX-X-X3X-X+XNX,X,XMXvX:XKXKXIXIXUXUXUXUXUXUXUXUXUXUXUXUXUXUXUXUXUXUXJXI ! I G U U tXPXUXUXUXUXUXUXUXUXUXUXUXUXUXIXIXIXIXIXIXKXFXNX:XFXD.1X0X,X+X3X3X>X0X+XOX#X+X}.>X3X1X2X-XE.4X3X.X-X3X-XE..X-X-X-X@X#X.X3X-X3X#X-X-X-X-XXX-X3X-X4X@XOX3X-XOXXX-X-X3X@X#X-X-X.X-X-X@X3X@X#X-X3X@X-X3X3X3X3X-X3X3X3X3XOX@X3X.X#X>X-X}.1X+X+X>X3X+X1X}.1X1X1X1XcXsXsXsXsXsXyXyXsXyXcXcXyXcXL.L.:X1X4X4X{.>X9XE.0X3XOX3X3X+X4X}.9XvXmXDXPXJXe.0.w.q.:.:.-.=.5 0 ; 3 s s s f ].DXDXFXNXMX",
"nXnXnXnXnXMXKXUXUXKXKXKXGXrX4 * = = ; 3 3 5 1 5 2 -.,.0.0.0.,.,.,.e.pXSXUXUXUXIXIXIXIXNX9X>X4X+X>X,X3X}.3X}.1X+X1X9XoX,X}.9X}.>X4XoX>X8X+X4X3XOXE.3X+XOX3X+X1X4X+X3X4X>X>X#X4X3X4X3X#X4X1XOX3X3X+X#X-X#X5X#X-X-X-X-X-X3X3X-X3X3X-X3X3X4XOX-X5X-X@X4X1X-X3X3X-X#X}.6XOXOX3X3X@XOX-X+X-X-X-X-X@X3X#X4X;XxXKXKXMX3X1X2X-X=X3X1X3X+X<XmX'.FXFXzXNXKXKXUXIXIXUXUXUXUXUXUXUXUXUXUXUXUXUXUXUXUXUXJXSXC U U G A D %.PXPXUXUXUXUXUXUXUXUXUXUXUXUXUXUXIXIXIXIXKXGXbXGXQ.GXDXnX4X4X3X3X+X+X1XOX+X+X1X1XbXHXzX4X-X-X-X-X=XOX3X3X3X.X4X4XOX3X3X4X#X3X3X-X6X3X+X3X-X-X-X3X4X3X@X-X8X-X6X=XOX3X3X.X-X8X#X@X@X3X@X4X#X#X-X-X-X-X=XOX-X@XOX#X-X1X4X1X1X-X1X1X+X>X1X>X1X1X X;X:X2X:XcXcXh.e.j.j.j.j.h.iXiXaXw.w.0.0.0.0.:.6.L.J.1X>X9X0X>X3X1X>X0X4X4X9X:XbXmXvXPXSXq.0.0.q.:.;.2 3 3 0 ; ; s 0 0 f D.FXNXMXmXvX",
"nXnXvXvXnXmXKXGXKXIXKXHXDXxXf * = * = ; 3 3 3 5 &.-.,.,.0.0.0.0.0.e.fXJXIXIXIXIXIXIXIXGX<X,X0X}.,X4X+X,X+X>X4X+X1X>X+X4X>X9X}.2X,X4X9X+X+XOX5X{.OX=X+X-X-X4X4X>X>X4X4X>X1X,X1X4X4X4X4X4X1X4X4X4X3X4X5X3X5X5X8X4X3X7X3X3X4X4X4X4X4X4X4X4X3X4X3X4X0X0X3X8X8X7X4X8X1X8X4X3X4X4X3X3X4X4X1X3X>X3X@X4X3X9X'.tXPXPXFX1X1XnX1X-X1X1X1X+XNXmXNXFX'.GXbXKXIXUXIXUXUXUXUXUXUXUXUXUXUXUXUXUXUXUXUXUXJXZXZXN M M G D [ { AXZXUXUXUXUXUXUXUXUXUXUXUXUXUXUXUXIXIXIXIXIXNXFXFX;XNX;X0X3X-X4X1X4X>X1X9X>X>X:XHXZXzX<X4X@X-X3X-X3X4X4X3X4X0X4X+X4X4X1X4X4X4X4X1X4X4X4X4X4X3X4X4X#X0X4X9X0X2X8X4X7X8X=X4X4X4X3X6X3X4X3X3X3X4X4X3X>X4X4X3X3X3X3X#X4X1X1X1X>X1X1XoX>X<X>X4X:X:XL.:XcXyXCXCXh.e.q.q.e.e.h.ZXSXZXw.0.0.0.0.0.;.<.<.6.!.9X9XXX}.+X9X}.,X1X+X9X;XbXmXbXLXSXq.0.0.w.-.;.2 = - 0 = ; ; ].].f ].FXbXbXbXbX",
"nXnXvXnXnXnXNXbXGXIXIXKXKXDXDXxXjX- = - s s d 3 2 2 ;.:.0.q.h.w.q.j.ZXLXIXIXIXIXUXUXIXKXMXnXoX>X9X1X2X9X<X<XnX:X:X:X}.yXsXyXyXcXyXcXcXcXCXDXCXcX2X1X1X1X-X4X1X4X4X4X1X4X4X4X9X>X4X4X4X4X4X4X3X3X+X3X3X-X-X3X4X-X4X3X-X-X4X3X3X4X#X3X4X3X3X0X#X4X4X3X4X3X4X4X3X0X4X3X4X4X9X4X4X8X4X4X8X2X1X9X0X=X4XvXzX} UXIXGX1X>X-X3X1X-X1X3X8X1XnXvXNXGXzXLXUXUXIXUXUXUXUXUXUXUXUXUXUXUXUXUXUXUXUXUXUXJX8.iXN M M P D ] [ [ tXUXUXUXUXUXUXUXUXUXUXUXUXUXUXUXIXIXIXIXIXKXKXNXFXZ.vXmX4X4X3X4X1X+X+X}.1X>X1XPXJXrXlXlX,X-X3X3X3X,X4X3X3X,X4X>X4X4X-X4X4X9X3X3X4X4X3X4X0X4X9X4X-X0X4X9X#X3X0X3X3X4X3X4X4X4X-X3X4X3X3X4X4X#X4X4X3X4X4X4X4X3X4X4X1X1X1X<X1X1X1X;X:X:X;X<XyXiXsXa.c.c.e.c.aXpXj.j.j.e.j.c.fXaXc.q.q.q.q.q.;.,.0.<.J.GXGXnXMX4X}.9X<XnX9XnXmXbXmXvXLXZXq.0.0.:.2 -.2 ; 0 0 = ; 0 f ].Z.].NXbXFXDXxX",
"nXnXnXnXnXnXmXIXUXIXGXGXUXIXIXHX].= = 0 s ; s 3 &.-.:.0.0.w.AXAXAXSXPXPXLXIXIXIXUXUXIXIXIXFX1X2X;X1X;X1XL.6.a.a.6.yXL.a.e.j.j.j.j.c.c.j.c.c.j.aXGX1X1X1X3X+XoX,X,X4X,XoX,XoX>XoX3X#XOX4X}.3XXX4XXX-X6X-XOX6X6X=X-X-X-X$X-X-X.X6X-X.X4X4X.X3X4XOXOX-X6X.X=X3X3X+X3X@XOX7X4X=X.X7X4XE.8X8XE.8X3X-XeX%.Q n PXIXKX+X>X1X1X>X>X1X>X}.GXzX<XFXGXKXIXIXUXUXUXUXUXUXUXUXUXUXUXUXUXUXUXUXUXUXUXPXJXQ E V v V P D ] [ [ VXUXUXUXUXUXUXUXUXUXUXUXUXUXUXUXUXUXUXIXIXIXIXKXNXnXFXFX9X,X9X>X1X1X1X1X1X1X;XPXJXc G P jX3X-X5X#X@X3X3X-X@X3X3X4X4X-X4X3X5X3X-X4X8X=X=X8X#X-X4X@XOXOX7X$X.X8X-X.X-X8X.X.X8X-X-X8X=X.X5X0X.X@X4X.X.X4X.X/.-X-XXXXX4X+X,X+X1X;X;X:X:X;X:XsXj.j.e.j.j.e.e.e.e.q.q.q.0.0.0.0.q.q.q.q.0.q.q.;.;.,.<.1.<XD.6 4.<XDXDXDXDXbXbXBXbXbXNXHXaXq.w.7.-.:.:.-.; 0 0 = - - D.FXbXbXmXvXNXCXCX",
"nXnXnXnXnXnXmXKXIXHXKXIXLXIXLXDXD.= - s s ; s 3 &.-.2 r.7.w.JXHXHXPXPXPXUXIXIXIXUXUXUXIXLXDX:X9X1X1XJ.;XL.<.w.w.a.a.6.w.e.q.q.q.q.e.e.e.e.e.q.pXGX X=X1X>X4X9X4X9X9X4X4X4X4X4X0X4X8X0X4X2X0X9X9X0X0X0X9X9X9X9X9X0X8X0X0X8X4X8X0X8X8X4X8X4X8X0X8X0X0X0X0X0X0XnXnX0X0X9X9XnXnX9X0X9X3X0X8XOX8X-X3XF.H M n JXUXKX+X-X1X1X1X>X1X9XFXnXFXNXNXNXIXIXUXUXUXUXUXUXUXUXUXUXUXUXUXUXUXUXUXUXUXUXPXPXQ Q V M n L D ] [ [ VXUXUXUXUXUXUXUXUXUXUXUXUXUXUXUXUXUXUXUXUXIXIXIXGX:XFXGX].<X4X>X1X>X1X1X1X1X;XPXJXb J L kX3X-X5X5X3X3X8X2X4X0X0X9X9X0X9X0X9X9X0X0X9X0X0X0X4X8X8X5X8X8X0X0X0X0X8X0X0X0X0X0X0X9X0X0X0X0X0X0X+X-X9X#X@X4XoXXX3X>X+X>X4X+X>X>X>X:X}.<XnX:XcXSXZXaXe.e.e.q.q.q.q.q.q.0.0.0.0.:.0.0.0.0.0.0.0.:.;.;.:.*.1.4.>.*.D.AXrXDXDXbXbXbXbXbXDXHXpX0.e.:.< -.-.2 ; 0 - 0 0 s ].NXNXbXbXzXsXh.h.",
"nXnXnXnXnXnXmXKXIXUXIXbXDXIXHXHXGXGXKXKXeX3 3 3 -.:.:.AXh.w.iXgXSXLXUXPXUXUXIXIXIXIXIXUXIXKXNX9X}.L.L.6.<.0.0.0.q.h.w.e.e.e.e.q.e.e.e.e.e.e.e.c.IXnXNXFXFX<X<X4X9X9X9X9X9X9X4X2X2X2X0X4X0X2X>X0X3XOX0X0X4X0X9X0X0X0X9X8X8X0X0X0X8X8X8X0X0X0X0X0X0X0X0X0X0X0X2X6X0X9X6X-X0X0X4X0X0X7X8X0X8X0X8X=X].n M M JXUXKX+X=X1X-X-X-X4X9XGXNXbXFXFXNXUXUXUXUXUXUXUXUXUXUXUXUXUXUXUXUXUXUXUXUXUXUXPXJXQ E B C v L D ] [ [ VXUXUXUXUXUXUXUXUXUXUXUXUXUXUXUXUXUXUXUXUXIXIXIXDX].GXFXKXNX4X1X>X1X1X1X1X1X;XPXJXI K L B.<X8X8X8X8X2X0XnX3X8X0X>X-X0X0X3X0X0X0X0X0X0X0X0X0X0X0X0X0X9X0X9X0X0X0X0X0X0X0X8X0X0XOX0X0X0X0X0X0X0X9X9X9X0X0X4X9X0X4X0X9X9XvX<X;XxXL.cXHXHXZXZXZXpXq.e.e.q.q.q.q.q.q.:.7.0.:.:.7.7.7.0.:.:.0.:.:.,.:.;.>.>.&.*.1.4.4.CXHXDXDXbXbXbXHXAXc.j.j.2 -.-.-.3 ; 0 D.zXzXzXbXDXMXbXbXyXw.q.0.",
"mXnXnXnXnXnXmXGXIXLXKXvXNXIXIXKXLXLXDXCXS.; 3 3 -.:.:.7.q.q.q.e.gXJXPXUXUXUXIXUXIXUXIXIXLXKX:XL.L.<.,.,.0.0.0.q.e.j.j.e.e.e.e.e.e.q.e.e.e.e.e.c.JXJXLXLXLXmXnXvXvX<X1X;X;X4X4X4X4X>X,X,X4X>X,X8X3XXX7X6XOX7X0X-X-X8X0XE.3X0X/.XX7XXX/.4X5XXX@X8XE.XX8XOX.X8X7X.X8X0X6X-X8X9X.X0X0X4XI.4X6X0X+X-XeXM n v JXUXIX+X>X>X-X1X>X9X<XMXmXFXNXPXIXIXUXUXUXUXUXUXUXUXUXUXUXUXUXUXUXUXUXUXUXUXPXJXJX~ C N V n L D ] [ [ dXUXUXUXUXUXUXUXUXUXUXUXUXUXUXUXUXUXUXUXIXUXUXIXIXGXKXnXNXvX0X,X>X>X>X1X1X-X;XPXJXI L K [ N.zX1X=X=X=X=X2X+X3X7XOX@X0X8X@X0X0X6X-X0X1X+X8X0X+X#X0X_./.4X3X.X3X8XE.#X8X+X.X0X0XXX8X0X/./.4X#XE.4X0XP.oX4X/.~.7X3XP.4X9XL.xXzXAXAXSXSXSXSXh.q.q.q.q.q.0.:.:.;.:.:.&.-.&.-.:.-.-.:.-.>.-.;.>.>.>.>.;.;.&.-.;.;.&.4.yXyXDXDXbXbXDXHXSXaXc.h.-.;.;.-.< 0 - ].NXMXvXzXNXMXNXCXCXh.w.7.",
"nXnXnXnXnXnXmXNXKXHXGXvXbXKXGXcXyXyXyXyXeXs s s >.:.:.:.q.q.e.e.gXJXPXUXUXUXUXUXPXPXUXPXLXSX6.6.6.;.:.0.0.q.q.q.q.q.q.q.q.0.0.q.q.0.q.e.q.q.e.e.h.h.iXsXBXsXxXxXcXvX1X1X2X1X>X4X,X1X}.3X3X>X4X5X4X+X5X6X=X7X0X7X5X7X0X4X6X8X3X3X7X3X-X3X8X3X3X7X+X3X8X3X3X8X8X5X8X8X5X4X7X0X3X0X0X0X,X8X5X9Xf ].B.M v v SXUXKX+X+X1X-X-X1XGXnXNX'.FX;XIXIXIXUXUXUXUXUXUXUXUXUXUXUXUXUXUXUXUXUXUXUXUXPXPXSX~ C N V n L D ] ] [ dXUXUXUXUXUXUXUXUXUXUXUXUXUXUXUXUXUXUXUXUXUXIXUXUXUXFX9XKX<X0X:X1X>X>X1X1X3X;XPXJXc L K [ { #.9X5X1X=X1X2X>X3X2X+X-X8X8X-X0X0X4X4X0X4X3X4X4X+X>X4X>X>X8X3X+X6X8X+X3X8X3X3X8X8X#X7X8X#X@X4X3XOX7X8X@X>X8X>X,X8X3X,X4X<X:XbXxXgXZXZXh.fXhXj.q.q.q.q.q.0.0.0.;.;.>.6 5 2 -.-.-.2 2 1 5 3 3 3 s s 5 :.:.;.;.;.-.-.=.=.*.xXDXbXbXDXKXCXhXhXhX<.;.;.-.3 s - - 0 0 w D.NXMXcXsXa.:.-.a.",
"vXvXvXvXnXnXnXvXbXKXDXvXvXFXzX5 5 5 3 3 3 4 = 3 -.:.:.:.q.q.j.j.gXJXPXUXUXUXUXUXPXUXPXHXJXa.,.,.:.,.0.0.0.0.0.0.0.0.0.0.0.0.,.,.,.;.0.q.q.q.q.q.q.q.q.w.ZXgXgXgXdXxX9X9X9X2X2X2X7X5X5X5X5X5X5X5X7X6X6X6X7X8X7X6X6X7X7X7X6X5X4X3X5X5X6X6X5X5X6X5X6X6X6X6X6X6X5X6X8X7X8X7X7X8X5X8X7X4X4X7X7X<X' F A H U v SXPXIX>X1X1X1X-X-XKXvXzXFXKXKXIXIXIXUXUXUXUXUXUXUXUXUXUXUXUXUXUXUXUXUXUXUXUXPXdXuXy.C N C b H D ] ] ] tXPXUXUXUXUXUXUXUXUXUXUXUXUXUXUXUXUXUXUXUXUXUXUXIXUXKXNXvXnXGX:X4X>X>X1X1X>X;XJXJXI L L L L [ mX8X2X7X2X2X7X5X5X5X6X8X8X7X8X8X8X8X4X8X4X4X7X5X5X5X1X5X5X5X5X6X6X6X6X6X6X6X6X6X5X6X6X3X6X5X3X6X5X4X4X7X7X5X7X7X4X2X9X9XnXNXCXsXc.c.w.a.w.w.-.2 1 ;.;.;.;.&.5 3 3 = = 4 2 2 1 2 1 < 5 5 3 3 4 s 6 >.:.;.>.>.-.;.2 *.6 S.GXDXCXxXbXCXSXJXZXa.;.-.-.3 s - - @ $ n.D.FXcX:.,.q.2 -.a.",
"vXvXvXmXnXnXmXvXmXbXNXvXvXNXzX6 3 3 < 3 = 3 5 =.&.:.;.:.q.q.c.k.uXHXHXLXLXLXLXLXUXPXJX7.w.,.,.,.,.0.0.,.0.0.,.,.,.,.<.<.;.;.;.=.&.&.-.;.;.:.7.7.7.0.0.0.h.gXZXhXsXxXCXcX9X0X2X2X2X5X5X5X5X5X6X6X6X6X6X7X7X7X6X6X6X7X6X6X5X5X5X5X5X5X6X6X6X6X6X6X6X6X6X6X6X6X6X6X7X6X7X7X8X8X8X8X7X7X7X5X7X<X^ A b n b M AXPXIX1X1X1X+X-X=X9XGXmXGXCXPXIXIXUXUXUXUXUXUXUXUXUXUXUXUXUXUXUXUXUXUXUXUXPXLXgXC C N N V m G S ] ] ] { PXUXUXUXUXUXUXUXUXUXUXUXUXUXUXUXUXUXUXUXUXUXUXUXIXGX9XDXnXbX<X9X1X1X1X1X+X;XJXJXc P L L L L bX0X2X6X6X6X6X6X6X5X6X7X7X7X8X8X7X7X7X7X5X5X5X5X5X6X5X5X6X6X6X6X6X6X6X6X5X6X5X5X5X5X5X5X5X5X5X6X5X3X4X3X5X5X7X7X7X2XcXCXCXgXhXh.e.e.0.;.;.<.. = < :.;.;.&.5 s 0 0 5 2 2 2 1 3 3 < ;.;.-.-.&.&.&.*.= 3 3 ; 3 *.>.< 6 3 6 1.6 KXBXxXCXpXa.a.>.;.&.2 3 s ; $ o $ F.D.cXa.:.-.0.< 6 < ",
"vXvXvXvXvXnXmXvXbXbXbXmXbXNXbX6 3 < < 3 = 5 =.=.&.:.;.:.q.q.c.iXsXCXBXHXLXLXUXLXIXyXsX;.;.,.,.,.;.:.:.,.&.&.&.1 1 2 5 1 &.&.=.=.*.< 1 2 < 2 :.:.:.:.:.:.w.w.w.h.h.SXSXsXcX0X2X2X2X5X5X5X5X6X6X6X5X6X5X7X7X5X5X5X5X5X6X6X5X5X5X5X6X6X6X5X6X6X6X6X6X6X6X6X6X6X6X5X6X6X7X7X7X7X7X7X7X7X7X5X5X<X^ A c n n M AXPXUX1X1X1X1X9XnX,XKXmXNXKXUXIXIXIXUXUXUXUXUXUXUXUXUXUXUXUXUXUXUXUXUXUXUXPXPXgXC V N N v H G S _ _ ] { PXUXUXUXUXUXUXUXUXUXUXUXUXUXUXUXUXUXUXUXUXUXUXUXIXKXFXGXGX].<X9X1X4X4X1X+X;XJXJXI P L L L L xX0X2X6X6X6X6X6X6X6X5X7X7X7X7X7X7X7X7X7X5X5X5X5X5X6X5X5X6X6X6X6X6X6X6X5X5X5X5X5X5X5X5X5X5X5X5X6X5X5X3X3X5X5X5X7X8X9XCXSXJXsXc.e.e.e.0.<.&.<.. = 1 ;.;.,.6 3 s 0 0 6 2 2 2 < = 3 < -.&.&.&.&.&.&.1.3 3 ; 0 3 >.;.2 6 1 1 2 < KXBXBXCXh.7 4.-.-.2 < ; s 0 $ o - ].D.cX;.7.-.:.< 6 < ",
"vXyXcXxXbXbXbXvXbXvXbXbXbXDXNXf 6 3 3 = = 5 =.=.=.;.;.:.q.q.pXgXCXGXGXKXLXPXHXHXCX>.w.;.,.,.w.0.,.;.;.<.*.3 6 5 3 ; 3 *.>.*.;.;.*.6 6 2 2 -.-.-.:.-.:.:.q.w.e.q.w.c.fXaXyX:X2X2X7X5X5X5X5X6X6X6X5X5X5X5X5X5X5X5X5X5X6X6X5X5X5X6X5X6X5X6X6X6X6X6X6X6X6X6X6X6X6X5X6X6X7X7X7X6X7X7X7X7X7X5X5X<Xk c c m n v dXPXPX1X1X1X=X=X<XMXvXGX9XKXUXIXIXIXIXUXUXUXUXUXUXUXUXUXUXUXUXUXUXUXUXUXUXPXPXdXv v N W U G G ] _ ] _ _ UXUXUXUXUXUXUXUXUXUXUXUXUXUXUXUXUXUXUXUXUXUXUXUXUXIXNXFXzXvX<XnX>X>X1X1X+X;XJXSXC P H L L L BX0X8X6X6X6X6X6X6X6X5X6X6X6X7X7X7X5X5X5X5X5X5X6X6X6X5X6X6X6X6X6X6X6X6X5X5X5X5X5X5X5X5X5X6X6X6X6X6X5X5X6X5X5X5X7X:XCXL.h.c.e.e.w.0.0.7.2 6 6 = = 1 <.,.>.< 3 0 ; 0 = 3 5 1 3 ; < 2 &.&.&.&.&.-.6 1.3 4 3 4 5 < < < 5 6 < 6 5 3 f d < c.7 4.&.&.1 3 ; 0 0 $ $ o eXa.w.;.:.,.>.< 5 3 ",
"ZXa.h.sXbXbXbXvXbXbXbXbXbXDXDXNXNX= ; = - ; = ; < ;.-.:.q.q.h.fXHXIXKXLXKXLXKXCX>.&.1 =.&.&.&.,.,.&.5 d s 1.a.a.4 ; < 1 < 3 =.;.*.3 ; = 4 4 3 3 3 3 < < =.1 1 1 &.w.e.ZXJXZXcX9X2X7X5X5X5X5X5X5X5X5X5X6X6X6X5X6X6X5X5X5X6X6X6X6X6X6X6X6X6X6X6X6X6X5X5X6X6X6X5X5X5X6X6X6X6X5X5X7X5X5X5X6X5XzXz A c n n M uXJXJX:X;X=X=X=X<XNX}.KXKXIXUXUXIXIXUXUXUXUXUXUXUXUXUXUXUXUXUXUXUXUXUXUXUXPXPXdXN M v E M m H D _ _ ] _ UXUXUXUXUXUXUXUXUXUXUXUXUXUXUXUXUXUXUXUXUXUXUXUXIXPX:XKXmX;X<XNX-X+X1X1X1X:XSXSXC M H H G L lX9X8X8X5X6X6X6X6X6X6X6X6X6X6X6X6X6X5X5X5X5X5X6X6X6X6X6X6X6X6X6X6X6X6X6X6X6X6X6X6X5X5X6X6X6X6X6X6X6X6X6X6X6X5X2XCXJXZXc.e.q.q.2 <.>.>.= ; ; = 4.6 >.:.>.3 s 0 0 0 - 0 d 5 3 < -.;.;.;.;.-.-.-.*.>.*.1 1 1 5 ; ; ; ; 3 3 1.3 3 3 ; 3 < >.1.6 1 1 3 - 0 - - 0 ; ; >.;.< *.1 = 6 6 = ",
"a.a.a.pXcXbXcXbXbXbXbXmXbXNXDXbXGXs ; = - = = ; 5 ;.&.;.q.q.q.h.AXUXKXLXHXLXHXa.&.&.< ;.;.;.&.;.&.5 s s s 6 2 2 3 0 6 >.>.5 *.>.*.2.f f s s s f f s f 3 *.1 1.*.&.w.e.ZXJXfXyX9X2X5X5X5X5X5X5X5X5X5X5X5X5X5X6X5X5X5X5X5X5X5X6X6X6X6X6X6X6X6X6X6X6X6X5X5X5X5X5X5X5X5X5X5X5X5X5X7X7X7X5X6X5XbXl A c M b v dXPXSXHXGX-X=X=XnXFXoXKXIXIXUXUXUXUXUXUXUXUXUXUXUXUXUXUXUXUXUXUXUXUXUXUXPXJXuXuXV M M C C M m A ] ] _ _ lXlXPXUXUXUXUXUXUXUXUXUXUXUXUXUXUXUXUXUXUXUXUXUXIXUXKXNX'.<XvXNX=X1X+X;XbXcXJXZXC M J K L L lX9X7X7X5X6X6X6X6X6X6X6X6X6X6X6X5X5X5X5X5X5X5X6X6X6X6X6X6X6X6X6X6X6X6X6X6X6X5X5X6X6X6X6X6X6X6X6X6X6X6X6X6X5X4XNXZXpXh.e.q.0.0.-.<.>.>.3 ; ; 3 eXa.*.2 6 s s s s 0 - 0 f s 5 2 ;.;.;.;.;.-.-.-.5 1.6 1 5 5 3 = = = = 3 ; 3 = 3 = = = = < < = 5 1 3 - ; - - s s s -.-.1 -.2 0 6 6 3 ",
"1 < &.w.D.zXcXbXbXbXbXbXvXNXDXbXKXwXs 0 0 ; = ; 1 &.&.e.e.e.j.hXHXIXHXLXHXBXCX>.&.&.< -.&.1 3 3 s s 6 *.< 6 5 *.s s 1.6 3 3 *.>.>.1.1.f f f f s 0 3 4 1 *.5 1.6 &.a.,.w.h.h.CXHXcX2X5X5X5X5X5X5X5X5X5X5X5X5X6X5X5X5X5X5X5X5X6X6X6X6X6X6X6X6X6X6X6X6X5X5X5X5X6X6X5X5X5X5X5X5X5X7X7X7X5X6X1XN.S Z c m n E E ! ZXPXSX;X=X*XnXNX;XGXIXUXUXUXUXUXUXUXUXUXUXUXUXUXUXUXUXUXUXUXUXUXUXUXPXJXI U V M M E W T n A ] ] _ _ ] ] PXUXUXUXUXUXUXUXUXUXUXUXUXUXUXUXUXUXUXUXUXUXUXUXUXnXvXzXvXNX=X=X1XGXIXUXZXC v M G D D L N.9X7X7X5X6X6X6X6X6X6X6X6X6X6X6X5X5X5X5X5X5X5X6X6X6X6X6X6X6X6X6X6X6X6X6X6X6X5X5X6X6X6X6X6X6X6X6X6X6X6X6X5XnXcXSXZXj.w.w.w.7.7.< 3 3 3 s s 3 = 4.>.2 6 s 0 0 s f J.Z.Z.n.Z.*.;.;.;.;.;.;.;.;.-.6 1.5 3 3 3 5 5 6 5 3 3 3 3 4 4 4 = ; ; = 3 3 4 4 3 - - - - 3 3 < *.-.1 1 < 0 < = s ",
"<.*.&.e.h.h.h.sXCXbXbXbXvXNXDXbXKXDXzXxXGX3 3 3 2 0.q.e.e.e.sXPXLXHXHXLXyX< =.< 1 1 1 ; d 5 3 5 =.*.-.-.< 6 2 2 6 5 1 5 5 s *.>.=.*.*.2.J.:X:X:X:X3 5 *.=.=.=.1 =.1 =.&.w.j.fXgXsX2X7X7X5X5X5X5X6X5X5X5X5X5X5X5X5X5X5X5X5X5X5X5X6X6X6X6X6X6X5X5X6X5X5X5X5X5X5X5X5X5X5X5X7X7X5X7X7X7X5X6X5XB.S A c m m v v Q ZXSXl.:X-X=XnXGX;XNXPXUXUXUXUXUXUXUXPXPXPXUXUXUXUXUXUXUXUXUXUXUXUXUXJXZXU V V V M V E E m G ] ] ] ] ] _ JXJXUXIXUXUXUXUXUXUXUXUXUXUXUXUXUXUXUXUXUXUXUXUXPX9XvXNX<XNX-X=X=XzXPXUXiXE v M G ] ] [ N.9X4X7X7X6X5X5X5X6X6X5X6X6X6X6X5X5X5X5X5X5X5X5X6X6X5X5X6X5X5X5X6X6X5X5X5X6X6X6X6X6X6X6X6X6X5X6X6X6X=X=X5XNXZXZXc.<.=.;.<.6 5 3 s s s s s s 2.L.>.&.6 s 0 0 q s ;X>X4X4X:X*.-.;.:.:.:.:.-.&.&.1 3 3 s s 3 6 1 1 5 = - = = = = ; = = = qXsXrXi.r.= - - - - ; 3 3 *.*.- 0 s 5 < ; 0 ",
":.&.&.0.,.:.7.fXZXsXBXbXvXNXNXvXKXNXzXzXGX3 3 3 2 ;.&.-.0.q.sXPXLXKXHXUXsX< 6.< < 1 &.= d 1 < 2 &.&.&.-.< 6 2 2 7 6 1 3 3 s *.*.=.*.5 2.Z.L.;X:X:Xs 6 *.=.*.*.*.1.d 1.*.<.e.c.iXsX9X2X2X7X7X7X7X6X5X6X5X5X5X5X5X5X5X5X5X5X5X5X5X6X6X5X6X6X5X5X5X5X5X5X5X5X5X5X5X5X5X5X5X7X7X7X7X7X7X5X6X5XB.] A c m m n M C uXAXgXKX0X=XnXGX'.FXPXUXUXUXUXUXHXJXPXPXPXUXUXUXUXUXUXUXUXUXUXUXUXPXgXl.I U U Q V b b b J G ] _ _ _ S ] h tXUXIXUXUXUXUXUXUXUXUXUXUXUXUXUXUXUXUXUXUXUXUXPX9X<X:X<XNX+X+X;XzXAXJX8.T M M G ] ] [ N.9X8X8X7X5X5X5X5X6X6X6X6X6X6X6X5X5X5X5X5X5X5X5X6X6X5X5X5X5X5X5X5X5X5X5X5X6X5X5X5X6X6X6X6X6X6X6X6X6X6X:X9XzXSXw.e.,.<.&.*.5 s s s s s s s s L.cX*.&.6 ; 0 0 s s ,X>X>X>X:X1.-.;.;.-.-.-.&.2 1 d f ; ; ; < *.*.6 1 3 = $ $ - = = * sXrXJXfXpX8.p.7 * - - - - - ; 3 < 3 5 5 3 < 3 0 ",
"&.< < 2 :.>.:.:.:.:.7.yXvXbXNXvXDXs 3 d 2.; 3 3 5 =.1 -.q.q.h.PXLX4.f 4.>.< 1 2 1 < 3 ; 3 &.2 2 &.&.-.-.2 -.7.AXdXrX5 5 5 d 5 1.1.6 6 Z.L.:X;X;X:XZ.D.'.Z.2.Z.s f d 3 5 1 q.e.j.aXcX2X2X7X7X7X7X5X5X5X5X5X5X5X5X5X5X5X5X5X5X5X5X5X5X5X5X5X5X5X5X5X5X5X5X5X5X5X5X5X5X5X5X7X7X7X7X7X7X5X6X5XB.] Z Z m m n M C ~ dXdXUXIX:XnXKX:XmXPXUXUXUXUXUXAXSXSXSXSXPXUXUXUXUXUXUXUXUXUXUXUXUXuXt.uXuXy.y.Q n m J J L ] ] ] ] ] ] VXAXUXUXUXUXUXUXUXUXUXUXUXUXPXJXJXJXUXUXUXUXUXUXPXNXNX'.:XNXOXJ.KXPXuX8.W T b n G ] ] ] ' 9X8X4X7X5X5X6X6X6X6X5X5X5X6X6X5X5X5X5X5X5X5X5X5X5X7X7X7X5X5X5X5X5X5X5X5X6X5X5X5X6X6X6X6X6X6X6X6X6X5XCXSXJXc.q.q.;.<.;.>.3 3 s s s s d d L.:X:X&.2 4 s ;X>X}.;X>X>X>X>X>X2.*.*.*.6 d d s s 3 4 0 F.f >.-.&.&.2 &.*.1 3 = ; ; 0 7 j.w.h.e.8.8.Y u.* $ $ - - - $ - - s 3 ; 0 < 3 0 ",
"*.= = 6 *.< >.q.0.7.q.w.vXMXbXzXzX= = = ; ; 3 3 1 1 1 :.q.e.h.SXPXd 3.yX&.6 6 &.< - 0 f 3 *.2 2 -.-.-.-.2 :.7.hXsXrX4.1.1.1.4.4.6 1.2.J.:X:X:X:X2X4X4X1X1X7X7X8X8X8X}.d 1.<.:.e.j.sX0X7X7X7X7X7X5X5X5X7X7X7X5X5X5X5X5X5X5X5X5X5X5X:X:X2X1X5X5X5X5X5X5X5X5X5X5X5X5X6X5X5X5X7X7X5X5X7X5X6X6XB.] Z l n n m M C Q Q dXUXdXKXGXIXcXmXUXUXUXUXUXUXJXi.! dXt.SXSXJXPXUXPXPXUXUXPXPXUXUXSXdXSXy.~ ~ ~ n J m n H ] ] S _ N.{ VXdXJXUXUXUXPXUXPXUXUXPXPXJXJXf.I ! JXUXUXUXUXUXUXnXnX;X].GXmXDXIXgXu.C N N n n n x ] ] ' 9X4X4X7X6X6X6X5X6X6X6X6X6X6X6X5X5X5X5X6X6X6X5X5X8X8X7X7X7X7X7X5X5X5X5X5X6X5X5X5X6X6X6X6X6X6X6X6X6X-XCXJXpX0.,.;.5 5 5 5 3 3 s s s f d d :X:X:X2 6 6 Z.3X3X3X1X1X1X1X1X1X1X1X;X;X:X;XD.s f s 4.f JXyX>.-.&.2 2 2 2 1 3 = = = - f u.u.>.Y : t.7.t.7 $ $ - - = = ; = 3 3 3 3 4 3 0 ",
"2 6 *.6 3 3 2 7.;.-.0.7.a.bXbXvXzX= = = ; ; 3 3 < 2 &.:.7.7.>.>.SX6 5 1.6 *.1 1 = $ ; f 3 5 &.2 -.-.-.-.-.;.7.7.h.JXJXsXsX6.L.6.d 2.D.:X2X9X2X2X2X2X5X6X5X7X1X5X5X5X+XC.2.-.7.q.e.sX0X8X7X7X7X7X5X5X5X7X7X7X7X7X7X7X7X5X5X5X5X6X8XFXKXGX1X1X5X5X5X5X5X5X5X5X5X5X5X6X6X5X5X5X5X5X7X7X5X6X6XwX] S l n m n y.9.~ U i.i.i.UXPXPXDXMXIXUXUXUXUXUXAXY h uXp.SXZXgXSXJXPXUXUXPXPXPXPXPXgXdXSX~ Q ~ ~ m J J m G ] ] ] ( N.{ i.tXZXSXJXPXPXUXUXPXPXPXJXSXhXz.I I JXUXUXUXUXUXUXnXNX'.DXUXIXsXl.u.8.E N v m n b x ] ] ' 9X4X7X5X7X7X5X5X6X6X6X6X6X6X6X6X6X6X6X6X6X6X7XnXcXnX0X0X7X7X7X7X5X5X5X5X6X5X5X5X6X6X6X5X5X6X6X6X6X-XcXZXh.0.0.-.d d d d 3 s D.;X;XZ.f 2.:X1X:X2 *.4.:X3X1X1X1X1X2X2X2X1X1X1X3X-X1XNXIXD.s = NXf rX4.>.-.&.&.2 6 4 3 = = -   4.CXt.i.h.e.Y r.: 7 i i i q = - = 5 5 < 1 < 3 0 0 0 ",
"< 1 < = 3 ; *.-.>.:.:.;.;.sXxXbXcX3 = - 0 ; 3 ; 2 >.:.-.:.w.2 5 >.=.=.5 6 5 ; 3 5 3 3 6 = 0 6 2 -.-.-.-.-.;.:.:.7.SXUXLXKX:X:X:X1X:X2X2X2X2X2X2X2X7X5X5X5X5X5X5X5X5X X6X2XL.6.7.q.cX2X8X7X7X7X7X5X5X7X7X7X7X7X7X7X7X7X7X5X5X7X2X7XcXPXJX4X1X5X5X5X5X5X5X5X5X5X5X5X6X5X5X5X5X5X5X7X7X5X6X6XwX] x l m n b E 8.Q Q u.p.~ dXJXUXHXCXPXUXPXPXUXPXLXVXVXI U ! dXZXAXgXZXJXJXSXPXSXuXJXJXJXSX~ Q C M M M M G D ] ] { ` ` ] lXtXhXuXdXJXPXJXJXSXZXJXhX%.G I AXJXUXPXUXUXUXUXUXCXHXBXUXUXHXsXZX8.~ b v v H n b x ] ] ' 9X4X7X5X5X7X5X6X6X6X6X6X6X6X6X6X6X6X6X6X6X6X1XUXPXAXDX9X7X7X7X7X7X5X5X5X6X5X5X5X6X6X6X5X5X6X6X6X6X9XCXc.w.&.=.*.d s d d b.Z.;X1X1X1X1X1X1X1X1XL.;X1X>X1X1X1X1X2X2X4X4X9X2X2X1X1X:XFXIXKXKXIXPXIXS.*.>.-.&.&.1 5 3 = - $ $ . r.7.t.: 7 c.r.7 i a * } } : - - - 3 < 1 < 3 0 0 0 0 ",
"3 ; ; 3 3 0 ; ; 3 *.1 1 0.-.CXM.yX4.= = 0 = 3 ; 3 1 < < 1 >.< < < 1 1 *.3 = = s d ; 3 6 3 0 3 6 6 2 &.-.-.;.;.:.:.4.PXPXUX:X2X2X2X2X2X2X2X2X2X2X2X7X7X7X5X5X5X5X5X5X6X-X=X-X:XyXa.:X2X8X7X7X7X7X7X7X7X7X7X7X1X7X7X7X7X7X5X5X2X9XnXqXPXUX9X1X5X5X7X7X7X5X5X5X5X5X5X5X5X5X5X5X5X5X7X7X5X6X5XkX_ S j k h b n v V P U U V Q gXPXJXJXUXPXPXPXUXPXUXPXPXc c U Q ZXgXgXJXSXJXPXPXJXAXUXSXI I Q V v v V M v V M P [ { _ S Z l SXZXdXJXJXJXi.AXJXZXJXp.%.H P AXPXPXPXPXUXPXPXPXPXPXdXUXPXuX! gXE W b n v c l j ^ ` _ ' 9X7X7X7X7X7X5X6X6X6X6X6X6X5X5X5X5X5X7X6X6X6X1XPXPXI { bX8X8X7X7X7X5X5X5X6X6X6X6X5X5X5X5X6X6X6X6X6X:Xc.0.<.d b.f :Xs '.0X>X>X2X1X1X1X1X1X1X1X1X1X5X5X1X7X7X7X2X9X0X4X4X4X4X2X1X1X1XzXKXHXHXIXKXCXS.>.-.*.&.&.6 5 3 ; - - $ * r.Y I j > Y Y g a e % q & q 0 - - 0 0 ; 3 0 0 0 0 ; ",
"3 ; ; 3 3 0 0 0 0 4 2 1 ,.2 a.qXrX3.= = = ; 3 3 d 5 < 1 < 6 = = < 1 < < < 3 ; - 3 4 6 2 6 s - f q 3 5 *.-.>.:.:.,.a.PXUXPXnX2X2X2X2X2X2X2X2X7X7X2X7X7X5X7X7X5X5X5X6X6X-X=X-X5X:XyX:X8X8X7X7X7X7X7X7X7X7X7X5X7X7X7X7X4X1X5X9XbXVXdX%.JXUX9X4X1X1X7X7X7X5X5X5X5X5X5X5X5X5X5X5X7X7X7X7X5X6X5XjX' x , , j c n B M P U E M U Q dXdXJXPXLXPXPXPXPXUXUXLXZ l Q I AXgXJXPXJXPXPXZXdXdXdXdXQ %.C V M v V M v N V H G G D c G A tXtXdXtX%.JXuXAXJXSXJXuX%.H G AXPXPXPXPXPXPXPXPXPXUXuXAXgXU U C V y.N H v c k t u ` _ B.0X7X8X7X7X7X5X6X6X6X6X6X6X5X5X5X5X5X7X6X6X6X1XPXPXc G tX9X0X0X7X7X5X5X5X5X5X5X6X5X5X5X5X6X6X6X6X6X:Xh.:.0.1.d Z.9X2X2X2X1X5X1X4X4X4X4X1X1X1X1X5X5X1X1X2X2X2X4X4X4X0X0X0X4X4X2X1X1X:XKXHXIXIXHXDXD.*.*.*.&.*.5 5 3 - ; - $ = 7 h I h :  .} a a i q q % q = - - ; 0 ; 3 ; = s s 3 ",
"3 ; - ; d d 3 ; ; d < < <.-.>.4.yX1 < = - ; ; = qX4.>.6 4 4 = < < 2 1.3 o s s 6 1 1 2 2 -.-.4.D.0 s f 6 >.sXsX>.<.sXPXIXIXnX2X2X2X2X2X2X2X2X2X7X7X7X7X7X7X7X5X5X5X6X6X-X=X=X6X6X6X7X8X8X5X5X5X5X7X7X7X7X5X5X7X7X7X7X4X1X5XzXP P U Q SXUX1X4X4X4X7X7X7X5X7X5X5X5X5X5X5X5X5X7X7X7X7X7X7X5X5XvXtXx j , j n v E G K V V M V V Q %.dXPXPXJXJXPXUXUXUXJXuXp.M c dXdXAXPXUXPXPXuX%.M v M v M v v M n M M M v V n K H G b m G b m A %.$.JXSXJXJXSXSX%.P H U AXPXPXPXUXPXPXPXPXPXSX~ u.y.b v M M v M n n c k t u ` ` B.0X7X7X7X7X5X5X6X6X6X6X6X6X5X5X5X5X5X7X6X6X6X<XUXJXb M { VXbX9X7X7X5X5X5X5X5X5X6X5X5X5X5X6X6X6X6X6X:Xh.<.*.6 2X1X6X5X5X5X6X5X1X4X4X4X7X5X1X1X1X1X5X5X7X2X2X2X0X0X9X0X0X0X0X9X0X2X7X1XNXIXHXHXKXGXHXJXUXSX&.2 < < 3 = ; - $ = 7 h I h > ' ' a a e & q q q = = = = ; 3 ; = BXCXVXsX",
"= ; - = 3 3 3 ; ; 3 3 < 2 2 < 4.a.h.a.- - = ; = r.r.h.gXZXJX= 6 4.= 8 0 0 4 < 1 2 1 1 2 -.-.>.4.4.a.a.>.>.LXIXIXIXUXUXIXIXnX2X2X2X2X2X2X2X2X7X7X7X7X7X7X5X5X5X5X6X6X6X6X6X6X6X6X5X6X6X6X5X5X5X5X5X5X5X7X7X7X7X7X7X4X4X5X6XzXL H M C SXUX2X4X7X7X7X7X7X7X7X7X7X5X5X5X5X5X7X7X7X7X7X7X7X5X6XNX{ S ' , , l c c G K M M H M V x.fX! JXJXgXAXUXJXAXPXJXZXy.C U M M v %.PXSXSXAXgXC V v V v v V M U Q V V N N n K M G G H G m J { SXSXdXZXAXi.%.P A c G U AXPXPXPXPXPXUXJXt.p.y.U T E b M v n n G Z Z S j y p ` ` kX0X7X7X7X5X5X5X5X5X7X5X5X5X5X5X5X7X5X7X5X6X6X9XUXJXb M U { lX9X7X7X5X5X5X5X6X6X6X6X6X6X6X6X6X6X6X6X:Xa.>.4.d 8X6X6X5X5X5X5X7X5X4X1X4X7X7X7X7X7X7X7X7X2X2X2X0X0X9XNXNXFXFXFXFXNXMXnXnX9XNXNXLXHXHXLXJXUXZX>.>.4.1.s - ; - $ - * > : : & a a a a i e q * 4 >.<.0.w.0.0.0.0.<.>.< 2 ",
"= 0 ; ; 6 6 5 ; ; 3 3 = < < < 5 >.>.= = - = * $ @.7 7 t.dXSXrX= 4 $ 0 0 - 3 3 < 1 1 1 2 &.-.=.1.a.a.e.0.>.KXIXIXIXIXIXIXIXnX2X2X2X2X2X0X2X2X2X2X7X7X7X7X7X7X5X5X5X6X6X6X6X6X6X6X5X5X5X5X5X5X5X5X5X5X5X7X7X7X7X7X1X1X1X5X5XzXH H M C ZXPX2X4X7X7X7X5X5X5X5X5X7X5X5X5X5X5X5X5X7X7X7X7X5X5X6XnX' ] B.r u / Z l m n V M H n M d.x.I Q ~ gXJXPXPXPXPXLXJXiXE U M V V Q ZX! C ~ y.C N N N V V N V M V V V N N M H V A G G m b b F %.Q C gXZXQ m m G G G U dXSXZXJXSXZXPXZXy.y.~ C 8.~ M V v M m G z / / u r B.v._ bX0X7X7X7X7X7X7X5X5X5X5X5X5X5X5X5X7X5X5X5X6X6X9XUXSXb P U [ lX9X4X7X5X6X5X5X6X6X6X6X6X6X6X6X6X6X6X6X:X6.3.:X0X5X1X5X4X1X5X5X5X5X4X7X7X7X7X7X7X7X7X7X7X0X0X9X9X9XnXKXKXKXIXIXKXKXKXGXGXFXnXMXKXJXLXJXPXUXgX>.6 5 3 0 0 = = $ - - $ q 9 8 > e i i q q * a.w.q.q.e.q.q.0.0.0.,.0.:.:.",
"s ; ; ; 3 < 3 0 ; ; 3 3 3 3 3 6 ; f 6.- - $ > X >  .~ u.t.i.uXsXr.$ - - ; 3 4 3 < 3 1 4 2 >.=.1.a.<.L.cXCXIXIXUXUXUXUXUXIXnX2X2X2X2X2X0X2X2X2X2X7X7X7X7X7X7X5X5X5X6X6X6X6X6X6X6X5X5X5X5X5X5X5X5X5X5X5X7X7X7X7X7X1X5X1X1X2XrXG P M C ZXPX2X4X7X7X7X7X5X5X5X5X7X5X5X5X5X5X5X5X7X7X7X7X5X5X6X1XNXlX].u _ ) x , z G n M H H M N V V T u.p.ZXPXdXJXJXJXy.8.Q hXI V U I JXgXV ~ E Q ~ E N N N N V V V V V M M n H M G J b %.M M M U P M p.l.~ m m G H K H i.SXPXJXgXi.JXuXE U n M E E v M v b b G ) ( p p u ].].N.bX0X5X7X7X7X7X7X5X5X5X5X5X5X5X5X5X7X5X5X5X6X6X9XUXSXN U Q { lXbXvX4X5X6X5X5X6X6X6X6X6X6X6X6X6X6X6X6X6X5X6X6X5X5X1X4X4X4X7X5X5X5X4X7X7X7X7X7X7X7X7X7X9XvXNXNXGXNXMXIXIXIXIXIXPXPXPXLXHXHXGXCXSXJXJXhXa.JXsX*.2 2 6 3 = = = $ $ $ 9 9 9 % % q q q * >.. < ,.e.e.q.:.;.:.,.,.:.:.:.,.",
"xXf = 3 d 5 3 - ; ; d 3 ; 0 ; 3 0 0 = - - $ i 9 v.Y Y Y Y $.u.9.u.* $ - = = 3 3 3 3 4 3 5 >.*.1.CXyXxXDXKXPXIXUXIXUXUXUXIXmX2X2X2X2X2X0X2X2X2X2X2X7X7X7X7X7X5X5X5X6X6X6X6X6X6X6X5X5X5X5X5X5X5X5X5X5X5X5X7X7X5X4X4X1X1X:XrX%.A G M U ZXLX1X4X7X7X7X7X7X7X5X5X5X5X5X7X7X7X5X5X5X5X7X7X7X5X5X-X6XNXFXa ` t ) ^ ( A H M n H M n n V N C C p.uX~ uXuXfXb V C y.c M M V p.I v V N C V V v V V N V v M V M M M M M M n n n b n n n n n n %.%.Q m A P U m J U dXuXdXp.SXAXdXuXU n M v N v v v n G Z / ( p p u ].4X<X9X8X7X7X7X7X7X5X5X5X5X7X5X5X5X5X5X7X5X7X5X6X6X4XPXSXC V U H D ] { 9X5X6X6X6X6X6X6X6X6X6X6X6X6X6X6X6X5X6X6X6X5X1X5X5X1X1X1X5X5X5X7X7X7X7X7X7X7X2X7X5XnXKXKXIXIXIXIXIXIXUXUXUXUXUXUXPXSXZXpXc.c.c.c.j.q.SXLXSXZXfXpXc.7 4 ; $ $ $ 9 & & % % 9 q s < 0.0.0.0.,.;.,.,.,.,.,.,.0.,.,.,.",
"bXNXZ.f s 3 3 0 - ; 3 = ; 0 ; 5 - - = - - $ > & i Y Y Y Y Y ! 8.8.* $ - ; ; = 4 4 3 4 4 5 a.yXyXBXxXxXDXGXKXKXLXLXPXUXUXIXnX2X2X2X2X0X0X2X2X2X2X2X2X7X7X7X7X7X7X5X5X6X6X6X6X6X5X5X5X5X5X5X5X5X5X5X5X5X5X5X7X5X4X4X1X1X<X%.P D G M C ZXPX1X7X7X7X7X7X7X7X5X5X7X5X5X7X5X5X5X5X5X5X7X7X7X5X7X6X=X9XFXa ` t y u u S A n n m M M M V V N V C C C ~ ~ 8.E ~ T ~ V U M M Q C v V v C N v v N N v V v M v M M M M M M n n n n n n n n n n n n n J G V Q b J H P P b M %.I b P U n n v v v n n b l k y u p ` ( vX7X7X8X8X7X7X7X7X7X7X6X7X5X5X5X5X7X7X7X7X5X5X5X6X6X2XPXZXC V U G L [ [ 9X5X6X6X6X6X6X6X6X6X6X6X6X6X6X6X6X6X6X6X5X5X5X5X5X1X1X1X5X5X5X5X1X1X7X5X2X2X2XnX9XNXKXIXUXUXPXPXUXUXUXUXUXUXUXUXSXj.c.e.e.e.e.e.q.q.w.7.7.:.:.7.7.4 4 = $ * $ * O & & q q = < 1 w.0.0.,.,.,.,.,.,.,.;.;.;.;.;.;.",
"'.'.D.D.s - 3 - - ; ; 4 2 = 3 *.= = $ $ $ $ > & i u y Y Y Y ! ! ! * - ; = * 4 4 4 4 4 4 6 sXsXsXsXsXsXsXCXsXsXhXhXiXfXhXZXcX9X9X9X9X2X2X2X2X2X2X2X2X2X2X7X7X7X7X5X5X5X5X6X6X6X5X5X5X5X5X5X5X5X5X5X5X5X5X5X7X1X4X7X5X5X<X{ P D P M Q ZXJX1X4X4X7X7X7X7X7X7X5X5X5X5X7X5X5X5X5X5X5X7X7X7X5X7X6X=X6XGXp ' ( ) ) ( _ S H n n v v N C N N C B B V C B B B T B C v Q Q U ~ v v v v ~ N N N N N N V v v v M M M M M M H M n n M n n n n n M n M M b c Q %.m n M M M M M V M n V b m n n b n n c j ^ u u ` ` ( vX7X7X8X8X8X7X7X7X7X7X7X7X5X5X5X5X5X5X5X5X5X5X5X6X6X1XJXZXT V U G P [ ] 9X5X6X6X6X6X6X6X6X6X6X6X6X6X6X6X6X6X6X6X5X5X5X5X5X5X5X5X5X5X5X5X5X1X7X7X2X9XNXKXKXKXIXLXIXUXUXUXUXUXUXUXUXUXUXUXSXc.j.e.e.e.e.e.q.q.q.:.:.:.-.-.-.4 4 4 r.r.r.Y 7 4 * q $ 4 <.<.,.;.;.;.,.,.,.,.,.,.:.:.:.:.:.:.",
"'.'.;XeXzXb.s ; - ; s = < = = *.= = $ $ $ $ > & # 9 a } 7 Y ! ! Y X 0 0 ; = * 3 4 4 7 r.r.a.fXhXZXhXfXhXZXhXhXZXZXpXe.e.e.h.cXcX:X:X9X9X9X9X9X0X0X2X2X2X7X7X7X7X7X7X5X5X5X5X5X5X5X5X5X5X5X5X5X5X5X5X5X5X5X5X5X1X1X5X5X<X] G S G M U ZXJX2X7X4X7X7X7X7X7X7X7X7X5X7X5X5X5X7X7X7X7X7X7X7X7X5X5X5X6XbXw ].p / j u ( ) S A G b v v N N N N N N v N V V N V V M M V V V E C N N B Q N N N N N V V V C C C C C U V V H n n n n H n n n n M v n n H c H H J n M n n H M n J b V M J m b m Z l k , y p p p kXr jX8X7X8X8X2X8X8X8X8X7X7X7X7X5X5X5X5X5X5X5X5X5X7X6X6X4XPXhXT M H L D [ ] 9X5X6X6X6X6X6X6X6X6X6X5X5X5X6X6X6X6X6X6X5X5X5X5X5X5X5X5X5X5X5X5X5X7X2X2X9XmXFXIXLXIXIXUXUXUXUXUXPXPXUXUXPXUXUXPXPXJXhXe.e.e.e.e.q.0.7.2 2 2 2 2 2 4 4 7 fXaXfXc.e.-.q q - =.<.w.,.;.:.:.:.:.:.,.,.,.:.:.:.:.:.:.",
"I.^.;Xg xX].s = ; ; 3 = 2 < 3 6 3 3 ; - - $ > & $ 8 i } Y h ! ! ! X 0 q q 4 4 4 4 7 r.r.>.:.j.j.j.j.j.j.j.j.j.j.j.e.e.e.e.h.yXCX:X:X9X9X9X9X9X0X0X0X2X2X7X7X7X7X7X7X7X7X5X5X5X5X5X5X5X5X5X5X5X5X5X5X5X5X5X5X5X1X5X5X5X<X] G S G M U ZXSX:X7X7X5X7X7X7X7X7X7X7X5X5X5X5X5X7X7X7X7X7X7X7X7X7X5X7X7XMXvX9Xr _ ( u ( _ D m n n v M b v v M N V v v v M M v M b b V v v C C V v N v C N N N N dXSXSXSXJXJXSXSXSXuXC U M M n n n n n n n M n n n m c H J m n M n b G H m H c b J J m c H z k j , y p p u xXD.].8X2X2X2X8X7X8X8X7X7X7X7X7X7X7X5X7X7X7X5X7X5X7X6X6X0XKXhXT M P L D [ [ 9X5X6X6X6X6X6X6X6X6X6X5X5X5X6X6X6X6X6X5X5X5X5X5X5X5X5X5X5X5X5X5X5X7X8XnXDXGXKXIXPXUXIXIXUXUXUXUXPXPXPXJXZXSXJXh.SXhXpXe.j.w.,.,.,.;.<.*.2 &.&.&.2 4 4 JXZXl.sXa.h.7.i q - =.6.<.;.;.;.:.:.:.:.;.;.;.:.:.:.:.:.:.",
"'.;X;Xf eXxXf xXD.= ; 3 < = = = = 3 = $ $ $ & * $ # # > : : Y : X + $ g } g O.O.@.r.7 6 *.2 q.q.q.q.q.q.q.q.q.q.q.q.e.e.e.j.sXsXyXsXCXcXcXcX9X0X0X0X2X2X2X7X7X7X7X7X7X7X5X5X5X5X5X5X5X5X5X5X5X5X5X5X5X5X5X5X1X1X1X5X5X<XS A x P P U ZXSXzXFXnX4X7X7X7X7X7X7X5X5X5X5X5X5X7X7X7X7X7X7X7X7X7X5X5X5X9XnX9Xp ` ( u ( ( k c b v b b m H n n n M n M M M V V C V c H M v v v v v v v N B C ~ I VXLXUXUXUXUXPXPXJXhXi.y.Q U M n M M M M M v v M M n M M V b n b b n m M H J m J K m H H n l ) , , y u v.p M.2X1X7X8X8X2X2X2X8X8X7X7X7X7X7X7X7X5X7X7X7X7X7X7X5X9XDXKXAXhXy.M H G D ] [ nX6X6X5X5X6X6X6X6X6X6X5X5X5X6X6X6X6X6X5X5X5X5X5X5X5X5X5X5X5X5X5X5X7X9XnXIXPXUXUXPXUXIXIXUXUXUXUXPXPXPXZXj.hXSXj.j.q.0.-.w.,.&.&.&.&.=.< 3 3 3 = = g rXUXSXt.t.r.r.| a a i $ - g =.;.;.;.;.;.;.;.:.;.;.;.;.:.:.:.",
"L.zXzXzXNXvX; S.4.= ; ; = = = = = ; $ $ $ $ & % & t y / j j h & $ q : $.! uXgXAXAXdX7 6 *.2 q.q.q.q.q.q.q.q.q.q.q.e.e.e.j.c.aXhXhXZXSXZXaXsX:X9X9X2X9X0X2X2X2X2X7X2X7X7X7X7X7X7X5X5X5X5X5X5X5X5X5X5X5X5X5X5X1X1X1X5X5X<XS D x G M V l.uXJXJXcX2X7X7X7X7X7X7X7X5X7X7X7X7X1X5X5X7X7X1X7X7X7X7X7X5X1XMXP.p v.v.( / ) ) Z c G H m n n n n n b n V V M V B B C M M M V v v v v M v N E AXPXPXSXuXl.l.l.l.p.p.p.t.JXPXSXy.U H M n n H H M M v v v M V V v v C y.b b G G K J J J b G A l j k y , y p m.p v.:X2X8X0X0X0X2X8X8X8X7X7X7X8X7X7X7X7X7X7X7X7X7X7X6X<XLXSX~ iX8.n K G ] ] ] nX6X6X6X6X5X5X6X6X6X6X6X6X6X5X5X6X5X5X5X5X5X5X5X5X5X5X5X7X5X5X7X7X9XGXKXIXIXIXIXUXUXUXUXUXUXUXPXPXZXhXpXj.pXpXe.e.q.,.2 w.;.&.=.<.=.>.< 3 3 ; = = gXVXIXSXt.7.8.Y Y t t e $ $ = =.;.;.;.;.;.;.;.;.;.;.;.:.:.:.:.",
"zXzXzXxXMXf s = = - - - ; = * = = = $ $ $ $ * * & a a a i : : $ + * : Y ! Y Y l.r.tX@.4 5 2 0.:.-.-.-.-.-.-.-.-.:.q.q.q.q.q.q.e.q.q.e.e.c.pXsXSXCX9X0X0X2X2X2X2X2X2X7X7X7X7X7X7X7X7X5X5X5X5X5X5X5X5X5X5X5X5X7X1X5X5X5X<XS D x [ M V U C SXSXcX9X9X4X2X7X7X7X7X5X7X7X7X7X7X7X5X7X7X7X7X7X7X7X7X7X-X=XP.N.kXM.( ^ ( ( / / _ S G m n n n M M V ~ W Q E C C C N M N V V M v M v V AX! uXAXSXgXE T T T C C C B C ! W W Q U uXuXM n P A M M v v v M v V v v ~ t.b b G Z G K J m b Z z j y t r > , e I.` v.9X9X9X0X0X0X0X8X8X8X7X7X7X8X7X7X7X7X7X7X7X7X7X7X9X:XKXSXv N N H K D ] ] ] nX5X6X6X6X5X6X6X6X6X6X6X6X6X5X5X5X5X5X5X5X5X5X5X5X5X5X5X5X5X7X4X8X0XIXUXUXIXIXUXUXUXUXUXUXUXPXPXJXc.c.j.j.q.w.0.q.:.:.&.&.&.1 = ; ; = ; = = = = $ x.t.7 t.Y Y 7 7 : i r e $ $ = *.5   < >.=.*.*.&.&.&.2 1 2 1 2 ",
"zXzXzXxXzX- - - - - - - = = = = = = = $ = = * * * q q q 0 - $ - $ * :  .! ! ! 8.ZXdXJX4 = = -.&.&.&.;.;.-.;.;.-.:.0.0.q.q.q.q.e.q.e.e.q.j.c.j.JXHX9X9X9X0X2X2X2X2X2X7X7X7X7X7X7X7X7X5X5X5X5X5X5X5X5X5X5X5X5X7X1X5X5X6X<X] D S [ M V V M i.AXCXCX9X2X2X7X7X7X7X7X7X7X7X7X7X7X7X7X7X7X7X2X2X2X2X7X;X3XI.N.rXB.( / ( ( ( ( ` x G J n n n M M V E E T B N V V N V N V M M M v v C JXSXl.u.W C C B B B B B B B C C E R E ~ aXiXy.G c A c M M N v v v M M N C y.C n L Z G J J J G l k ^ t t r > > e F.a M.nXMX9X9X9X9X0X8X8X8X2X7X2X8X7X7X7X2X2X2X2X2X2X2XHXKXPXSXC E B m K D ] ] ] nX5X6X6X6X6X6X5X6X6X6X6X6X6X5X5X5X5X5X5X5X5X5X5X5X5X5X5X5X7X8X0X9XnXKXPXIXIXIXUXUXUXUXUXUXPXPXJXSXSXZXj.e.q.w.:.0.-.&.&.< ;.=.= ; ; ; 3 ; ; = = = i.8.t.t.Y Y i i q q r e $ $ $ = - - 3 1 =.5 6 =.&.=.6 d 6 *.6 ",
":X; f zXf   - = - - = - - h.h.h.h.h.h.h.h.a.a.a.a.4.5 s ; ; - - = i : $.8.Y Y 8.t.SXSX= $ = &.&.&.&.;.;.-.;.;.-.:.7.:.7.0.0.0.w.w.q.e.q.e.e.e.pXJXcXZXfX9X9X0X2X2X2X2X2X2X7X2X7X7X7X7X7X7X5X5X5X5X7X7X1X7X7X7X7X5X5X6X<X] ] S [ P M V M U JXZXgXcX9X2X2X2X2X2X2X7X7X7X7X7X7X2X2X7X7X7X<XIXLXLX:XIXKXJXB.N.N.` ( ( ( ^ y ( S L G H H M N n N V V V V M M M v v M v n n M C gXuXuXhXu.N v V b M M M M M M V M M v N v N E u.p.I tXD Z Z G M M v M n n v C c V c c D G G S G A k y u t y y r t p N.v.wXUXLXNXnXDXCXcX0X2X0X2X2X2X2X2X2X2X2X2X2X2X2X7X2XVXJXSXgXs.B B n K D _ ] ] nX5X5X6X6X6X5X6X5X5X5X6X6X6X6X6X6X5X5X5X5X5X5X5X5X5X7X7X7X7X8X9XGXKXKXUXPXUXUXUXUXUXPXPXUXJXfXZXZXZXZXh.w.:.:.-.:.2 1 1 1 1 1 = d 5 5 < ; ; = - = 8.8.8.Y Y 7 q i q i r i % $ $ $ $ $ d 1.1.d 5 =.&.=.5 - - 1 =.",
"cX= s f 0 - 0 = 4 6 = = = w.q.0.0.q.j.j.j.j.j.j.e.;.< 4 < = = $ $ * : Y Y $.X t.r.tXuX  = $ < < = - 3 < 1 < < 1 &.1 1 2 ;.&.1 1 :.:.:.0.e.e.e.e.fXsXhXc.cX9XnX9X0X4X2X2X2X2X2X2X7X7X7X7X7X7X1X1X7X5X5X7X7X7X7X7X7X5X6X<X_ ] ] D H v M M U AXJXgXgXCX9X9X2X2X2X2X2X7X7X7X2X2X2X9XmXnX9X].IXPXJXNXUXUXSX~ U { ` / z Z A A D L L K K H N E m P M M M M M M M n n n n M b C y.hXaX8.R N M M H D [ [ ] ] D D D P G m m m b b v Q uXZXl A G H n M v M n b b E b c G D S D S ( D A k k / ^ ^ ^ u u ` ` u B.LXLXHXxXZXZXCXnXnX9X0X0X2X2X2X2X2X2X2X2X2X2X9XnXBXJXy.M U b v m J D _ _ ] vX7X6X6X6X5X6X6X6X6X6X6X6X6X6X6X6X5X5X5X5X5X5X5X5X5X7X7X7X7X7X2XGXUXPXUXUXUXUXUXUXUXPXPXJXhXpXfXpXq.e.q.q.q.w.-.-.1 1 < 5 = < 3 3 3 3 = = = = = . 9.8.9.Y Y } i i i i > > $ $ $ $ $ - 0 0 0 0 < 1 =.=.5 0 0 2 2 ",
"L.; 0 0 0 0 0 = <.;.2 4.6.w.0.,.;.&.:.:.:.:.;.;.:.,.>.-.>.-.* $ $ * , h 7  .: i : h gX. - $ >.>.< 3 < &.1 1 =.=.=.5 5 &.;.1 < &.;.-.7.q.e.e.e.e.j.j.c.j.sXCXCXnX9X0X0X0X2X2X2X2X7X7X7X7X7X7X1X1X7X5X5X7X7X7X7X7X7X5X6X<X_ ] ] D H M M M b uXVXdXgXgXcX9X9X2X2X2X2X7X7X7X2X2X2XNXPXxXUXdXUXPXPXHXPXPXZXu.y.%.) _ S A G H K J m m m m v v b L b b P M M M M n n n M n E u.iXy.u.N V M A D D _ ( y , > > > > , S G G K H J m b ! iXc G G G b M M v n b c Q b c F D S ] D l G G D S z / / / ( u ` ` ` ' _ VXIXBXSXSXSXxXHXCX9X9X2X2X2X2X2X2X2X2X2X9XxXHXJXSX! U V v V m K D ) _ ] vX7X6X6X6X5X6X6X6X6X6X6X6X6X6X6X6X5X5X5X5X5X5X5X5X5X7X7X7X7X7X0XGXIXPXUXUXUXUXUXUXUXPXPXSXhXfXc.j.q.e.w.0.:.>.2 2 < = 3 3 ; 3 ; 3 3 = = = = = = . 8.8.8.Y h h a y t i > > $ $ $ $ $ $ 0 0 0 0 3 5 1 5 5 - 3 2 1 ",
"$ - = ; s = ; = a.:.0.0.0.q.0.:.;.-.,.,.,.,.;.;.,.,.;.;.;.,.< * * + > & q o.i o.^ , } = = = 2 1 < 3 3 1 3 < *.5 *.5 5 2 &.3 3 1 1 1 -.-.*.2 q.q.,.q.c.c.pXhXSXcX9X9X9X2X2X2X2X2X7X7X7X7X7X7X5X5X7X7X7X7X7X7X7X7X7X6X6X<X_ ] ] S H n n n b AXHXSXSXgXhXcX9X9X9X9X2X2X2X7X2X2X2XHXZXSXPXZXgXPXUXSXJXiXiXy.~ Q x _ S A G b m m m n M M M n n M M M Z U E E v M M n n M ~ aXfXE V n c l & 8 8 # @ @ # + + + + # O & & > j m G K H b G L z ` z G n M U ~ A S k j k D D G K L G G G A l l l j u u ` p ( ( ( LXHXsXJXJXJXJXJXgXzX9X2X2X2X2X2X2X2X2X2X0XUXJXdX! v b V N M G A S _ _ _ mX7X5X5X6X6X6X6X6X6X6X6X6X6X6X6X6X6X6X6X5X5X5X5X5X7X7X7X7X7X7X8XFXUXIXUXUXUXUXUXUXPXJXSXZXj.j.e.e.0.e.:.;.-.6 5 2 = - - g 6 3 Z.f - = = = = = =   Y h Y } h j i i i i e > $ $ % > & $ - - - 0 3 3 3 < 5 0 5 =.1 ",
"@ >.-.;.;.1 =.-.:.;.;.;.;.;.0.,.,.,.,.,.,.,.:.:.:.:.;.;.;.:.< = $ * * $ q ' u a ^ y g - - - 3 0 ; s 3 *.1.6 6 7 6 6 2 2 2 *.3 5 3 5 -.-.6 2 e.q.-.e.e.e.e.IXUXCXFXFX9X9X2X2X2X2X7X7X2X7X7X7X5X7X7X7X7X7X7X7X7X7X7X6X6X<X_ ] _ _ G n n M M M I %.AXJXSXAXxXcXNXmX9X9X9X2X2X2X2XBX$.p.p.p.y.p.SXJXgXU P M P G A A A G n b n m n n M M M n n M v v M V E V n n n M M n C y.E b n G P F % 8 8 @ @ @ # # + + O + + + O O z G h L L L L [ j e ' [ n n E 8.S _ / , j D l l L H G G G G iXaXfXuXj , u u ( ^ ^ tXJX} ) { i.t.%.tXcX9X9X9X9X9X0X9XMXFXFX:XGXUXJXl.B N V N M A S ) ) _ _ nX8X7X5X5X6X6X6X6X6X6X6X6X6X6X6X6X6X6X5X5X5X5X5X5X7X7X7X7X7X7X4XNXUXUXUXUXUXUXUXPXSXaXfXSXc.j.e.w.:.:.-.&.*.3 3 3 = - - 3 3 ; NXvX0 ; = = = = = $ $ ' y ' ' ( i i i i % $ $ $ & : & & > & * 0 ; 3 3 3 1.3 6 &.6 ",
"0 <.;.&.&.-.;.;.:.0.,.,.;.&.,.:.:.:.:.:.:.:.,.:.:.:.;.;.;.:.< = $ q * = q a a a a a q 0 - - 0 0 ; 0 = *.*.2 1 < 2 5 6 &.&.*.5 5 = 1 >.>.>.&.w.-.&.e.q.q.q.ZXJXsXKXcX2X9X2X2X2X2X2X2X2X7X7X7X7X7X7X7X7X7X7X7X7X7X7X6X6X9X_ _ _ _ S m n n n v Q p.p.JXJXJXAXPXSXCXnX9X9X9X9X9X9XMXtXy.! E ~ Q ! i.p.U U U U P G G b m M v v M M M M M M n H M M M v M V M M M M b Q M M Q b b D j , , 8 8 8 @ @ @ + + + + O + + + o o y ' , [ L L L L D ' ` ) c n E C [ ] ] z z D k x K H H G G G x.l.l.p.I %.j ^ ( ( / ' ' / / _ AXtXlXBXzX<X9X9X9X9X9XnXKXLXLXJXJXPXhXE v v b V M A S ) ( _ _ vX8X7X7X6X6X6X6X6X6X6X6X6X6X6X6X6X6X6X6X5X5X5X5X5X7X5X7X7X7X7X8XNXUXUXUXUXIXUXUXPXPXaXaXSXpXe.q.0.:.>.*.6 6 = 3 3 = - ; = - ; NX<Xw ; = = = - = $ - $ & ' ' ( i i i i % $ $ $ & : > & : : q 0 - ; ; ; 3 f 4 *.D.",
"o <.-.&.;.&.&.1 2 &.;.0.,.:.:.:.:.:.:.:.:.:.;.;.;.;.&.&.&.1 < ; = * * * * 0 0 0 0 0 s - - - 0 0 0 - = 3 5 3 5 3 1.5 &.2 &.&.5 5 = 3 5 3 =.1.d d 2.a.&.0.q.q.j.j.hXKXcX9X9X2X2X2X2X2X2X7X7X7X7X7X7X7X7X7X7X7X7X7X7X5X6X9X' ] ) ) ) A G H m n M V U c i.JXqXLXJXSXCXxXvXNXnXnXcXGXPX%.Q p.uXV U U U V M M n H b v b b v N N N N N v M M H H M M M M M M M v v V I ZXI U l.U Z , & 8 8 8 8 8 8 @ @ @ o + + # + + + + o o @ 8 _ S S L [ G [ / , A J H P [ [ [ _ _ A S D K J K K H G Z Z Z l c U l ^ ( u ( u u ` / { ^ _ { sXcX9X9XnXNXKXKXIXUXPXPXi.dXuXI v v M G A A S ) / ( _ _ mX8X7X7X7X6X6X6X6X6X6X6X6X6X6X6X6X6X6X6X5X5X5X5X5X5X5X7X7X7X7X7XnXUXUXUXUXUXPXPXZXSXc.e.h.q.q.0.0.>.2 < 6 6 4 3 *.6 - - ; 0 - FXvXn.s f 3 ; 6 < = = - - 7 i i i i i q $ $ $ $ % : > > > > & - - = ; ; ; S.4 f ].",
"6 <.;.;.;.;.&.;.;.;.;.:.:.:.;.;.;.;.;.;.-.;.;.:.:.*.*.&.1.3 0 q * : 7 7 * $ $ 0 0 0 s = = = = = - - - 3 d s 5 s d 3 2 2 &.2 5 5 3 3 1.*.1.*.5 5 6 >.2 &.0.q.q.e.aXgXJXcXnX9X2X2X2X2X2X7X7X7X7X7X7X7X7X7X7X7X7X7X7X6X6X<X' _ _ ( ) Z L G n v N E V V U dXZXgXp.SXSXJXJXHXHXJXPXUXJXb n C y.M M V V b b U U M U T E N C B B B B N M M M H J n M N 8.M M M M v M Q gXU c A z > > 8 8 8 8 ].GXIXKXIXIX# # + + + + + + @ @ @ 8 > ) , S [ Z [ ) / Z L L [ [ ] ] / z G A c G U Q U U P x ] D Z A G j y u u y ( ( ` k tX` ' ] JXUXUXPXJXJXHXUXPXZXJXJXb U Q C M M M H G S _ ) ( ( ` _ vX8X8X7X6X6X6X6X6X6X6X6X6X6X6X6X6X6X6X6X5X5X5X5X5X5X5X7X7X4X4X4X>XGXIXUXUXUXIXSXj.pXfXj.j.q.0.0.-.>.-.2 5 2 4 3 3 3 ; 0 ; 0 - FXNXMXf 4 ; 3 >.w.<.= < < ; - - - - $ $ $ $ $ $ & > > > : > & - - - 0 f f wX4.2.].",
">.>.-.:.;.&.=.:.:.:.:.:.:.;.;.;.;.;.;.;.;.;.:.;.;.5 1.*.6 = 0 * * Y 7.aXeXwX$ 0 0 - 5 < 3 < < 5 = = - 3 s s 3 0 s ; 5 1 2 2 5 d 3 6 *.=.5 5 = = 3 3 5 5 w.0.q.q.e.h.SX:XnX9X2X2X2X2X2X7X7X7X7X7X7X7X7X7X7X7X7X7X7X6X6X9X` ( ( / / x c G n v N N B v M dXaXh h AXJXPXPXPXPXPXPXJXSXb n M V n n V Q %.U M P G c C B T N N E B N N M n H H H M M v N M M M M v M U p.U c l > 8 w 8 8 n.w vXIXIXUXUXPX8 + + + + + + + @ @ @ @ 9 ( ' k D x [ ) ) S G G L G A G z _ L H c y.f.x.U U F , j l l j k > u u y / ] ] ` ^ _ ` ' _ JXPXUXUXUXPXLXUXSXI %.uXM H b M M b M m A z ) ( ( ( ` _ bX8X8X7X6X6X6X6X6X6X6X6X6X6X6X6X6X6X6X6X5X5X5X5X5X5X5X7X8X0X9X9X4XGXUXUXUXUXIXSXpXZXaXj.e.q.:.;.&.1 &.1 5 6 6 s 3 3 3 ; ; 0 - GXNXNX].f f f *.w.w.<.>.*.; ; ; ; - - - - - $ $ > : : : : > & $ 0 F.jXjXzXxX- f ].",
"1 f d ;.;.=.=.,.:.;.:.:.:.;.:.;.-.-.;.-.;.;.;.;.>.= s 5 3 - q 7 Y ! Y aXsXsX8 0 - ; 6 2 < >.:.;.= < < 3 *.< 3 s s s 5 1 &.2 5 5 < 5 =.5 5 3 s 3 *.*.1.< :.7.>.w.0.e.aXLXIXcX9X9X2X2X2X7X2X7X7X7X7X7X7X7X7X7X7X7X7X6X6X8XMXmXp / / x G G n v v T E M M v C M Q gXp.p.p.uXp.p.y.! ! Q b M v n m M N U M m G c V R R W R R T V V M n n H H M M V E V M M M v M M M P A D S & 8 w 8 8 /.*XGXIXIXIXIXPXg # + + + + + @ @ @ @ @ o O # r D L x G L G m K L H n M G D K H Q s.9.p.[ L F 9 p p r p p y ^ ( / D ] / ` ( _ ( ] D c I Q %.y.p.uXdXgXC Q ~ v M V v n n n n A ) ( ( ^ ( ` ' 9X8X7X7X6X6X6X6X6X6X6X5X5X5X6X6X6X5X5X5X5X5X5X7X7X5X7X4XNXGXGXKXGXIXUXUXUXUXUXJXJXZXe.;.0.:.>.2 5 6 &.2 5 6 6 ; 3 3 ; = = - S.KXGXDXDXKXDXJXJXw.q.0.*.6 1 = ; ; - - - = $ $ & , : : & > > > q q ].kXxXbXbXkX].D.",
"*.5 1 -.:.<.:.:.:.;.:.:.>.;.-.&.-.&.&.&.&.=.5 1 1 = 0 8 w 8 : Y h ! 8.pX7 sXB.- s d 1 >.a.2 ,.,.>.pXj.yX< c.< s s ; s 5 6 6 < 1 < 3 3 s f 3 3 3 6 2 6 3 1 6.< 0.0.q.e.aXc.JXnX0X0X2X2X2X7X7X7X7X7X7X7X7X7X7X7X7X8X7X7X6X8X0Xu / / ) Z c n n M M v v M N N N N N N N V E E E T E E E Q V C M n M V v M n M M C R T T E v b n n n n J J n V N B R E M M M M M V P G x > > X 8 @ 8 w 6X0XIXUXIXIXUXLXqX+ + + + + @ @ @ o @ + o + + r { y ) H J G G G K m n M H L K C u.c.d.x.{ [ { 9 w v.e y { [ y ( ^ / ( u u ( D [ H v M v N N N N N N N V N N V v v v M A Z S ) ) ( u ^ ( ` N.0X6X7X6X6X6X6X6X6X6X6X5X5X5X6X6X6X5X5X5X5X5X5X5X5X7X0X9XFXIXUXUXIXUXUXUXUXJXZXaXfXaXe.w.<.2 6 2 3 1 2 2 4 1 6 3 4 3 ; s ; F.DXGXGXGXKXGXAXgXhXw.w.q.7.< *.< ; 3 ; - - - $ 0 9 & > r % 9 > > 9 q F.bXbXxXbXkXbXzX",
"&.-.;.;.:.:.:.:.:.:.>.< s *.&.1 -.&.&.&.&.*.5 d ; - $ 8 8 9 : : h Y ! q.a.aXi.X 0 s = 1 =.< :.:.;.e.w.CX4.fX6 s s f f 6 6 6 3 6 < = s '.'.s 3 3 6 2 5 s 3 >.1 >.0.w.w.h.c.SXcX0X0X2X2X2X7X7X7X7X7X7X7X7X7X7X7X7X8X8X8X6X8X9X` / k _ l Z n m b H M N N N N N N v N N N E E E T E E ~ C N C v n M v M v n n M N B N B V b n n H H n n J M V C N B N M M M v M M P A l & o # w w M.n.-X0XIXIXUXIXUXLXB.+ + + + + @ o o @ @ @ o @ # % ` 9 y H J H Z Z K J H H H L J ~ x.pXp.iXQ U { 9 9 e z F U D t y t y p p ^ / x G v C v N V N N N v N V V N N V N N v M G D z ) / y p y y ` N.0X6X7X7X7X6X6X6X6X6X6X5X5X5X6X6X6X5X5X5X5X5X5X5X5X5XnXvXKXIXUXUXUXUXUXUXUXSXfXc.h.h.e.a.<.2 6 2 < 2 2 2 2 1 6 < = 3 f 2.f eXeXGXGXMXbXbXZXh.a.7.<.;.:.< = = = ; ; - - $ $ q q q e r % % 9 9 & @ M.vXbXbXbXkXvXf ",
"-.;.;.;.;.;.;.:.,.:.>.3 0 5 =.1 =.=.=.1 *.< < = ; $ $ $ > & : : h h Y 8.8.! ! : ; 0 ; -.>.w.0.:.;.:.w.ZXsXJXCXD.xX0 kX5 6 g F.d 3 3 s }.].; = ; 5 6 3 3 *.-.6 3 &.w.<.e.c.pXsXCXcX2X2X2X7X7X7X7X7X7X7X7X7X7X7X7X8X7X7X7X7XnX` ( / _ ) z l A J b M N N N N N N N N N V B B B N N N v v n b n n n n M M v M v v v v v v n n M n n n n n V B B N V N M M M v M M H Z l % + @ w w f 6X8XnXIXUXUXUXUXO.% + + + o o o o o b.8 0 0 n.@ @ 8 9 _ K K H l l L H H M n H P y.fXfXh Z [ P L ^ k j D H H ] y z D j u y x S x G v N v M M N N N M v V V V N N N N N v n m x / ( p v.p p ` N.0X6X7X7X7X5X5X6X6X7X7X5X5X5X5X5X7X7X7X7X7X5X5X5X7X3X1XKXIXUXUXIXUXUXUXPXSXfXZXfXe.e.e.2 < 2 2 2 1 4 4 4 4 = ; = = M.GXMXGXzX<XnXnXnXnXcXh.h.a.7.:.:.;.-.; - - - - - - - - w M.g | Y : > > & % 9 M.bXDXDXbXbXbXvX",
"-.-.;.-.;.:.:.:.1 < *.; s 6 &.=.&.&.=.< 3 = 3 ; - $ 8 $ > & i : : h I Y h h h i - - - = 5 < < ;.;.&.0.c.a.ZXsXsXyXsXDX4.1.D.bXT.D.Z.d +X<X0 = = 3 5 3 s < *.= f d <.w.w.q.e.aXfXCX0X8X8X2X8X8X8X8X7X7X7X7X7X7X7X8X7X7X7X6XI.M.M.e B.` ( k G m c b b b b b M v N N v v B B N N v v M V V V v n m b V V V M v M v v M n m M V n n n m J V V N V v M V V V M M V P Z k & O 8 n.n.b.0XnXNXIXUXUXUXUXg # @ + + o o o o o P.b.b.n.m.8 # 8 9 _ K K J K L L K H M n H G c I f.{ ] L L L _ , , z j l x u y j y ` ( S G Z G b m n v N N N N v M N V b b b b c n A l x z / ( p v.v.F.vXjX4X6X7X7X7X7X6X7X6X5X5X5X5X6X6X6X6X7X7X7X7X5X5X7X7XNXNXKXUXUXUXUXUXUXUXZXh.j.pXe.q.0.7.>.3 6.< 2 < 6 5 3 3 = = * = M.KXKXNXnXnXzXMXmXNXhXfXh.a.<.:.:.*.6 3 - - - - - - - 0 bXDXxXr.7.Y > & & & 9 w F.NXKXbXbXvX<X",
"&.2 -.-.&.&.-.-.< 5 6 = 0 6 *.*.2 =.=.3 3 ; - - - 8 8 8 > > i : : h h Y h h h i - - - = 1.5 < >.;.-.q.e.e.h.pXiXfXsXCXCXCXDXFXMXbXzXV.OX:Xs = s ; ; 3 1.5 1 < f f 4.:.,.,.q.h.fXCX0X8X8X8X8X8X8X8X7X7X7X7X7X7X7X8X7X8X7X6X8X0XvXo M.N.p , l c n b b n n m b n v N M M C C N N M M M n M n b n n M C C C v n n v b n n n U V b P M n J n n M M M M M V M M M M P l l & # 8 P.P.b.%X=XnXGXIXIXIXUXi # @ + + o o o o @ P.n.n.n.n.8 # 8 9 ) J J K H K G K H M n J G F I 8.U S G A A x > e e e / ] ( ) [ ) ` ( S A l z D J n v N N N N v v V V b m m H c m A j j k ^ ( p v.a 9X2X4X4X8X7X6X7X7X6X7X6X5X7X5X5X6X6X6X6X7X7X7X7X7X7X5X1XGXIXKXPXUXUXUXUXUXUXHXh.e.c.q.q.0.:.>.3 3 2 2 1 2 < 3 ; * = * = M.KXKXNXnXMXzXMXbXbXfXPXgXa.:.7.>.s 0 - - - - - - - - 0 zXDXCX4 e.Y > e e & & % 8 NXCXbXbXbXvX",
"-.2 &.-.2 =.=.6 = d < - 0 < < 5 = 3 5 = = $ $ $ $ 8 8 8 & & i : : h h h h h h a $ - = = = 3 4.*.&.2 w.0.0.e.e.fXgXgXAXHXHXHXKXKXDXmXA.1X9XZ.f V.Z.; ; 5 1 1 3 ; 3 s 2 ,.,.q.h.hXCX0X0X8X8X8X8X8X7X7X7X8X7X7X7X8X8X8X8X7X6X6X0XvX@ N.w v.` j k A b m b m m m m m n J H M M M n n H H D c V b b V v Q ~ E M n n n n n n U V U b M M M M M v M M M n M V M n n M G l j % # @ P.E.E.&X&X&XV.0 *   O + # + @ + + @ o @ @ P.n.n.n.m.8 # 8 9 x J K K K K K J H n n n A S S Z ] S ] l l z ^ t r r ) D ) S P S ` ( A G x , A m m M n n m H H n M M J m m H c m A j ( / ( p v.kX` nX5X5X5X8X7X7X7X6X7X7X6X6X6X7X7X7X7X7X7X7X7X7X7X7X2X9X1XGXIXIXUXUXUXUXUXUXUXLXJXc.e.q.0.7.-.:.< s s 6 1 < < 3 ; = = = = M.FXNXNXmXmX9XMXHXCXh.h.w.w.<.>.-.; 3 3 3 - - - 0 0 0 - vXDXGX4.j.7.t > r & & & 8 NXBXbXbXvXvX",
"-.&.&.-.2 5 5 4 3 ; = 0 0 5 5 =.= ; ; ; = & > & $ 8 8 # & 9 : i : : : : : : : i $ - - = d - 0 ; < &.w.:.w.q.e.c.sXsXCXCXCXCXKXUXKXNX:X9X1X:X1X1X+Xs = 3 5 3 0 0 0 3 -.,.,.q.w.aXaXLXHX9X0X8X8X8X2X7X7X8X8X8X7X8X8X8X7X7X7X5X0XS.M.u lXlX` ( ( / l A c m m m m m m J H A b b c Z S x l Z Q B N N N V V N M M n n n n n M n n b n b b b U E v M v M M V V M H M D , r 8 # @ P.E.E.&X&X&XP.0 q # # # + + + + + @ o @ 0 &X.X.XP.P.8 # 8 9 k Z S ] D L J J m n n n G Z l k y t e e e e 9 9 9 ^ z z ^ , , y p u / ) / z G H A G H H G A G G H G K m n H l l z ^ ` p p kXv.N.' nX7X7X7X8X7X7X7X7X7X7X7X7X6X7X5X7X7X7X7X7X7X8X7X8X9XGXKXIXIXIXUXUXUXUXUXUXUXZXiXj.q.0.0.-.&.-.2 f s 4 4 3 4 3 ; ; ; f f F.FXNXzXnXnXnXFXHXhXe.q.q.w.2 3 4 4 4 < < ; 0 - f D.f 0 vXDXDXHXhXr., , , > > % 8 zXF.DXbXvXvX",
"-.&.&.&.2 3 3 ; D.M.$ $ 0 5 5 5 3 - - - $ > > & $ 8 8 8 % % 9 9 9 q 9 i i i q % $ - - - = - ; ; 2 >.-.&.q.q.e.j.c.c.ZXhXhXCXKXKXIXKXFX9X:X1X1X1X}.s = 3 3 s ; = 0 3 &.<.w.0.w.j.j.JXLX9X0X8X8X8X7X7X7X8X8X8X8X8X7X8X7X8X8X8X5X9XMXv.{ B.p ` ( ) z z l b b b b n n m J G m b b c A A G b V N N N N V C V M n n n n n m n H b n b c c b Q E v v M M M M M A A A l , e 8 @ @ E./..X&X&X&X.X0 % + + + @ + + @ @ @ @ @ 0 &X.X.XP.P.8 @ 8 8 / x ) ( x G J J m n n n n c l / u e e 9 9 9 9 9 9 ) S _ u p p u p u y ( u ^ x x Z H H G A G m J J G K J H D z k ^ ` v.p e NXp B.a 9X7X7X7X7X7X7X7X7X7X7X6X7X6X7X7X7X7X7X7X7X7X7X8X8X9XGXLXIXUXIXUXUXUXUXUXUXUXZXaXc.q.0.7.2 = 2 *.f f qX0 d 6 3 3 3 ; NXGXKXKXKXKXGXFXNXHXZXaXq.0.0.0.*.s s = = = 3 3 ; ; f s 0 0 zXDXHXJXCXr.! $.j , > & 9 @ w bXbXbXvX",
"-.;.-.&.1 3 s f ].S.$ $ 0 ; ; ; 3 - $ $ - & > & % 8 8 8 8 8 q q q q q i i = = $ - - - = 6 4.3 0 = 3 s 1.w.0.,.q.q.e.SXj.j.hXLXLXHXUXIX9X:X1X1X1X1X^.Z.f s = = ; 0 3 1 < 1 0.q.e.e.JXKX9X0X0X2X8X8X8X8X8X8X8X7X7X7X8X7X7X8X8X7X7XnXm.{ B.B.` ( / / / z S l F A m n m m J m m m n m m n n v v V B N V V M n n n m n n m m H c n n m m n M E U M U M M M P l S A Z j r 8 @ @ E./.&X&X&X&X=X,X$ @ @ + + @ @ @ @ 8 _.w w .XP.P.P.P.8 O 8 8 k D _ ` ) G J K K K m m M n c k t e e e e 9 9 9 9 y x S t p u t z x z z z z x x A m m m m m m m m Z ] S z ^ , y p ` v.p wXa a nX0X8X7X8X8X7X7X8X7X7X7X7X6X7X7X7X7X7X7X7X7X7X7X8X8X7X0XKXIXIXUXUXUXUXUXUXUXUXUXSXhXaX0.0.:.2 3 3 < 5 3 4.D.; s 0 3 s s KXLXLXHXUXUXUXKXFXsXe.e.0.0.0.0.>.s s = = 0 5 5 4 s d f 0 w vXKXHXZXCXhXj.e.! k k , e q 8 DXbXbXvX",
"< < 1 &.5 s s n.].F.- - - s ; 0 f 0 $ $ $ : : : % 8 # # $ $ * * * q * - - $ $ * = = - = - - 0 - ; s 3 3 -.0.,.q.q.w.SXsXpXsXsXAXIXPXUXnX:X:X1X2X2X;XZ.V.Z.Z.0 0 f 2.5 3 5 0.q.e.e.JXKXnX0X0X8X8X8X8X8X8X8X8X7X7X7X7X7X7X8X8X8X8X0X9XN./ VXa ( ( ^ ^ ^ / / Z A G G J m m m m n n n v M M M v v C Q n n n n n m n n n n M M M n n H H J n n c U %.U n n M A A m H l r 8 8 8 /./.&X&X*X&X&X/.n.@ @ + @ @ @ @ 8 w W.&X*X&X.X.X/.P.w O 8 8 k K G ] G K J J J J J J m n G D S x x x x z ) ) / k S S z ) / j S D A A Z D D D G m m G G A A Z x j / / y u u u p v.m.v.v.u B.0X6X7X8X8X8X7X7X8X7X7X7X6X6X7X7X7X7X6X7X7X7X7X7X8X8X8X0XKXUXUXUXUXUXUXUXUXUXUXUXZXhXhXw.0.0.>.< 5 3 3 d f PXDXjXM.GXn.0 IXUXIXUXIXIXIXIXJXSXhXc.q.0.0.:.>.3 s = $ $ < 3 = = - 0 0 0 vXNXNXzXzXcXj.j.y.F z , u u % f bXbXvX",
"5 s 5 &.5 s s M.].F.0 0 - f f 0 f f $ $ $ & : : & $ $ # $ $ $ $ $ $ $ $ $ $ * * = = = 3 ; 0 0 ; 3 f s 3 &.,.;.q.0.w.fXh.sXcXsXAXLXPXUXmX9X:X:X1X:X;X1X1X1XV.s 0 D.1.5 s < 0.0.e.e.JXKX9X0X0X0X8X8X8X8X8X2X2X7X7X7X7X8X2X8X8X8X8X8X8XHX' ' M.B.lX( / / ^ y k k z Z G H H H m m b M M M M M M v C Q b J m n n m n n n n M n n n n n J J m H Z Q y.U n M V m H m H l r 8 8 8 E..X=X&X&X&X&X*X8X@ @ + + + @ @ n.U.n.&X&X*X.X/./.P.8 # 8 8 ) K J K K J J n n J J J J K K L L D ] [ ] ] ] ] ] z x S ] _ ) ) S D A D D S S D A A A A S S x x ) y ( / / p p p p a vXe kXw f 0X7X7X8X8X8X8X8X8X7X7X7X6X6X6X7X7X7X6X7X7X7X7X7X8X8X7X0XKXUXUXUXUXUXUXUXUXUXUXPXZXaXhXe.0.0.;.3 5 3 3 3 3 GXIXIXIXPXGXDXIXUXIXIXIXGXDXKXAXpXc.j.0.0.0.>.>.3 0 = = * < 5 3 3 s bXmXMXMXMXmXvXmXbXj.aXdXh ) , t e 9 8 FXcXvX",
"6 2 2 &.5 s s D.].].$ = - wXFXDXHXHXo $ $ & > > * $ * $ $ $ $ $ $ - $ * < = = = f xX0 0 0 = ; ; 3 f 0 3 < -.&.w.<.q.q.e.fXSXaXhXPXLXUXNX9X:X9X:X:X1X1X1X>Xf n.D.Z.1.3 s 5 :.0.e.e.JXGX9X0X0X0X8X8X8X8X8X8X2X7X8X8X8X8X8X8X8X8X8X8X8X].a u lXHXu u p ( ( ( j u t / S S z S A b G m Z D D l P H M ~ ~ b J m n n n n n n n n M M M M M M n n b M U n H M V m m m H l , 9 8 @ P.&X&X&X&X&X&X&X8X8 @ + + @ @ @ V.0X0X-X*X=X&X&X$Xn.w # % 9 ) J m m H M M U M K K J n n n n H G D ] ] ] ] ] _ / / ( ^ ( j z x S x x z ^ z l x x x x x x z ) / y u ( p p p p p w kX, , <X8X6X8X8X8X8X8X7X7X7X7X7X7X7X5X7X7X7X7X7X7X7X7X7X7X7X7X7X4XKXUXUXUXUXUXUXUXUXPXgXSXaXq.w.0.0.:.>.= 5 5 3 3 = 3 ; eXKXHXHXKXHXLXUXUXIXKXcXiXc.j.w.q.0.0.0.2 >.6 s 3 3 3 < 3 = ; 0 n.bXnXmXmXmXmXbXmXsXAXHXr.' t t u 9 w GXxXzX",
"2 2 &.&.3 s s ].].].S.S.F.xXbXjXjXo * $ + * & & * i i # $ $ $ 3 6 2 < 2 -.* = = xXDX0 - - - 3 = = q 0 0 s =.;.a.&.:.,.e.q.aXiXfXgXSXJXKX9X9X9X9X1X1X1X1X1X9XvX9XJ.2.< s 5 -.0.e.e.JXKX9X0X0X0X0X8X8X8X8X2X2X7X7X2X8X8X8X8X8X8X8X8X8X9X].DX' LXB.HXa ` p ` / _ _ ) ] _ ^ z S Z A H l S S l n M M U b b n m m n n n n n n M V V E E E C V V M M M M M V ~ b n m m c A , % # P..X&X&X&X&X&X&XP.8 @ @ @ @ @ 8 b.*X&X&X&X&X&X.X.Xn.8 & z z l n n n n n J J J K H m M v v v v v H H L G D ] _ / / ( ^ k Z m K D _ ] ) r / k z ) k k ^ ^ y u p p p p p ` p v.wXxXw kXa 9X-X6X8X8X8X8X8X8X7X8X7X7X7X7X7X7X7X7X7X7X7X7X7X7X7X8X7X7X2XGXIXIXUXUXUXUXUXUXPXfXfXc.q.0.0.,.&.1 3 3 < 3 ; 3 ; - DXHXKXHXHXHXLXLXUXUXIXxXsXh.e.c.j.0.0.0.2 5 4 4.6 = ; ; s $ $ - 0 bXvXmXMXMXvXbXvXyXqXIXsXa e 9 e 9 8 FXNXFX",
"2 < 2 &.3 s s ].zXzXzX:XzXbXzXzXF.o + $ $ $ & & * * * # $ $ - < =.&.;.:.;.< 2 4.xXGXw - = ; f 4 f s 0 0 s *.&.< >.&.,.q.q.fXiXfXpXhXJXIXnX9X9X9X:X2X:X1X1X:X;XJ.<XD.4 3 5 -.0.e.e.JXKX9X0X0X0X0X8X8X8X2X2X2X2X7X2X8X8X8X8X8X8X8X8X8X0XnXf ' ` B.DXM.a ` p ` ( ) ) z j ^ k x j z Z l _ S l b V Q Q U b m n n n n n M b v V C E ~ E B C V V V V v M M V V n b m m m J , % 8 n.P.b.&X&X&X&X*XE.b.f f s f f b.A.&X=X&X&X&XP.n.n.m.8 & S G H m m m m n H J J n M M M M M v v M M M M H L ] ) / / ) / l G m J A _ l z , ^ / ^ ^ y u t t t u p p p p p p e bXM., B.9X0X5X8X8X8X8X8X8X8X8X8X8X7X7X7X7X7X7X7X7X7X7X7X7X7X7X7X8X7X7X4XGXIXUXUXUXUXUXUXUXPXaXaXj.0.0.:.,.>.< = 3 < 3 = 3 ; - DXIXHXKXHXHXLXLXIXUXGXzXyXh.e.pXj.0.0.0.2 3 0 4 f ; D.].n.$ $ - 0 mXvXvXvXmXvXbXvXcXr.KXr.* : : , i # 0 - 0 ",
"*.3 *.&.3 s s zXzXzXzXzXzXzXbXDXNXo % O $ $ * * $ $ 0 - - - - 5 3 = :.:.;.:.h.iXyXbX<X=   $ @ @ 0 0 3 6 1 5 3 3 a.a.w.0.q.j.c.gXhXpXhXLXxXcXnX9X9X9X2X2X2X2X1X1X1X:Xf f 0 1 :.q.e.JXGX0X0X0X0X0X8X8X8X2X2X2X2X2X2X8X8X8X8X8X8X8X8X8X8X8X8X<XF.F.g xXDXi a v.p ` u y y ^ y , , , , k z l l b M %.Q Q V J J H v p.gXQ pXz.W l.iXp.E U V M V M M M M U n n m m m m m J , 9 % 8 q w &X&X&X&X&X&X*X*X*X*X*X*X*X*X*X=X&X&X&XE.P.w w 8 9 k G m n n n n M M n n M V V V V V V V v M M M M J U %.) ( ^ ) x A m G D x x k y t t u r r r r r u u p p p u p ].].M.].kXo.0X6X6X8X8X8X8X8X8X8X8X8X8X8X8X8X7X7X7X7X7X7X7X7X7X7X8X8X8X7X7X4XGXIXIXUXUXUXUXUXPXPXaXpXj.0.0.:.:.>.< = * 3 3 ; 3 = - DXLXIXIXKXKXHXKXDXNXNXcXa.w.j.c.j.q.0.w.6 5 ; 0 0 ; f I.I.s 0 - n.mXmXMXmXmXvXbXbXjXrXrXj.j.Y h ' i % $ $ ].",
"2 < 5 &.3 f b.zXxX].vXvXGXCXKX0 f q q i i & O & $ $ - - - - $ - - = :.:.;.0.h.CXL.L.F.].].-   4.yX= 5 =.< ; s 0 4.5 1 w.,.;.h.aXuXj.pXJXIXKX:X9X9X9X2X2X2X2X1X1X1X1X;Xb.- 4 ;.q.e.JXKX9X0X0X0X0X8X2X2X2X8X8X2X2X2X8X8X8X8X8X8X8X8X8X8X8X8X8X8X0Xi B.F.CXM.B.a a p p a a a p > , Z A x k x P n b H V M J J M M uXSXQ u.8.E 8.E E C V V M V M M M M U M n J m m m m J k > > # # w P.-X*X&X&X&X&X&X&X&X*X*X&X&X*X=X&X&X*X/.P.8 e , , l G n M M M M M n M M V N N V V V N V v M M M n H H Q S ) / / z Z G G Z x z , > ^ ^ t % & y y y ^ ` ` p p p g mXg / xX0X8X6X7X7X8X8X8X8X8X8X8X8X7X7X7X7X7X7X7X7X7X7X7X7X7X7X7X8X7X8X7X7X8XGXUXUXIXUXIXUXUXPXPXiXc.j.0.0.:.:.>.< = = = 3 ; 3 ; $ GXLXIXHXIXGXGXDXNXbXNXcXa.w.e.e.q.0.0.w.2 6 3 s s = CXnX:X:XZ.$ n.mXvXmXmXMXmXzXeXwXwXqXj.j.t.%.u a 8 8 - L.",
"*.5 1 =.3 f b.mXbXzX<X<XBXHXIX# $ # # O * q i i % $ - - - - 0 - - = :.:.:.0.h.sXyXxXxXxX<X-   4.yX; 3 3 3 s s 0 1.5 &.,.0.;.0.w.fXj.c.JXIXKX9X9X9X9X9X2X2X2X2X1X1X1XA.I.0 f -.q.e.JXKX9X0X0X0X0X8X2X8X2X8X8X2X2X2X8X8X8X8X8X8X8X8X8X8X8X8X6X6X8XS.jXF.BXM.a qXB.a ' B.g v.` > , j l Z G Z P U n P M P J J U M p.gXQ Q E Q ~ Q Q V V V V V M V V M V M n n m m m m J Z j ) # # 8 P.w @X&X&X&X&X&X&X&X*X*X*X&X*X*X&X&X*Xn.w 9 > l P G H M M M M M M n M M V N N V V V V V V M M n n K L H D D _ k k l G G S x z , , ^ ^ t & & ( / ( ) ` v.v.wXv.kXjXB.B.kX0X6X6X7X7X8X8X8X8X8X8X8X8X8X7X7X7X7X7X7X7X7X7X7X7X7X7X7X7X7X8X7X7X8XGXUXIXIXUXIXUXUXPXPXaXc.j.0.0.:.>.<.< = = = ; ; 3 ; - GXLXLXIXGXDXNXNXNXNXNXcXpXc.w.q.0.:.&.-.2 6 3 s s ; = s NX<XZ.- D.MXmXmXmXMXbXbXkXwXwXqXj.c.t.: a a 8 0 - L.",
"6 5 6 5 ].MXNXNXIXPXIXKXIXCXDXf & > q # % i i i q - - - - 0 0 - - = >.:.:.0.h.fXgXAXxXxXvXb.f L.bX; 3 < < ; 0 ; < < =.<.0.0.w.j.hXhXaXSXHXJXKXFX9X9X9X2X2X2X9X2X1X1X1XnX0 s 2 7.q.ZXKX9X0X0X0X8X0X2X8X8X8X2X2X2X2X8X8X8X2X8X8X8X8X8X8X8X8X8X8X6X=X=X0X' _ z JXrX, , , > > > > > > , [ H P G P Z S l Z K H Q C C V P U U P M U U M V M M M M M M M n n n m m m m m J A h D & 9 & m.8 4X-X.X&X&X&X&X&X&X&X&X&X&X=X*X*XW.w 9 > j Z m m n M M M n M M M M M V V V V N V M M P P P P P L [ [ L P S _ k z S D S _ x x / r e 9 % % > > > , u M.jXkXp u 9X3X3X6X6X6X8X8X8X8X8X8X8X8X8X8X8X7X7X7X7X7X7X7X7X7X7X7X7X7X7X7X7X7X8X7X7X7XGXUXIXUXIXIXUXUXUXPXaXc.j.0.0.:.2 1.6 3 = ; ; ; 3 ; - KXIXLXIXDXNXNXNXNXNXNXcXaXhXe.0.0.&.&.2 2 6 3 s s s 0 s FXvXMXNXNXMXMXMXMXDXDXxXkXrXwXqXpXaXiX%.h ' 9 8 $ D.",
"1.5 < = MXvXnXbXKXLXUXBXUXPXUXq & 9 & O % i i 7 i $ - 0 0 0 - - - = >.:.:.0.h.aXiXgXsXCXbXzXzXzXNX= 3 < < ; = ; < 3 1 ;.:.:.,.0.e.ZXJXZXZXSXLXGX9X9X9X9X2X9X9X2X1X1X5X9X0 3 1 ,.q.ZXKX9X0X0X0X0X0X8X8X8X8X8X2X2X2X8X8X8X2X8X8X8X8X8X8X8X8X8X8X8X8X7X5XkXB./ VXqX^ , , , , t > h A P P L [ D A z Z l A J L P P P G Z z ( ( j z x D P M V M V M M n M v V M m H J H H J K L k , u 8 8 8 8 8 .X&X&X&X&X&X&X&X{.|.3X8 8 8 8 & l G G n m m n n n n V V V M M V V V V V M M P D / ^ ^ ^ ^ ) ] D D S ] x k , ) ] _ D L S , > & & % % 9 9 r u v.M.` ( ( 9X-X=X6X8X7X8X8X8X8X8X8X8X8X8X8X7X7X7X7X7X7X7X7X7X7X7X7X7X7X7X8X8X8X8X7X7X5XMXzXUXUXIXIXUXUXUXPXfXj.j.0.:.:.4 f g S.; ; 0 s s 0 - KXIXIXIXKXDXNXNXNXNXbXyXaXhXe.0.0.-.&.2 6 2 3 s s 0 0 s NXmXmXMXMXNXNXbXbXDXAXBXrXwXwXqXpXaXZXi i i i 8 0 0 ",
"1.5 = - MXnXnXMXbXKXKXDXIXBXrX> % 9 i & i g 7 7 i - - - - - - - = = >.:.0.0.q.e.h.gXyXcX<X<X;X:XzX; 3 3 3 3 s ; 3 3 3 1 < :.:.0.q.aXSXc.pXZXPXGX9X9X9X9X2X2X9X2X2X4X1X2XT.;X< :.q.hXKX9X0X0X2X2X0X0X8X2X2X2X8X8X8X8X8X8X8X8X8X8X8X8X8X8X8X8X8X8X2X7X7X9X<XB.B.qX( , , > r r > F m L P L D Z Z l A c G J K L G Z l , r p e r y ` ] L H M M M M M M V C E V M H J m J m J G D D k y u a a F.@XOXOX$X=X=X-X-XOX{.}.w w w 8 & l c b n m n n M M M V V V M V V V V V M M P x ) y y ^ / y ^ ] ] _ x ] S ) r / ] _ D H L x x j & % % 9 9 r p a M.M.M.M.7X6X6X6X8X7X8X8X8X8X8X8X8X8X8X8X7X7X8X7X7X7X7X7X7X7X7X7X7X7X7X8X8X8X8X7X7X7X7XnXUXUXUXUXUXIXUXPXfXj.j.0.0.:.4 5 g g = 3 ].GXDXjXn.KXLXIXPXUXKXGXDXDXNXvXyXaXfXe.0.0.-.2 6 6 2 3 0 0 0 - = - bXvXMXNXNXNXbXbXDXAXVXBXrXeXqXaXZXtX .Y Y : 9 0 f ",
"f D.nXvXnX<XnXmXbXKXKXKXIXo i > % q : : Y Y o.g S.f f 0 ; 3 ; ; 3 1 6 < <.0.q.q.h.ZXHXNX:X}.V.'.].= s ; ; s s ; 5 5 3 3 d 7.;.0.q.e.aXh.c.ZXUXKXnX9X9X0X0X0X0X2X2X2X1X1X7X>X< :.q.pXCX9X0X0X0X0X0X0X8X2X2X2X8X2X2X8X8X8X8X8X8X8X8X8X8X8X8X8X8X8X8X8X7X7X6X2XtXa j , , , , , j Z G J P P F z x Z A G m P G L x z j > > e e > 9 % x G H H M M M M V E E E V M M M H H J m H l D l j j , > & # @ 8 8 8 8 8 8 8 8 w w 9 r z l Z G m m m J M v M M M V V v M M M M n H H P , > > > > > r y / / ^ _ [ D ] j k _ _ Z b G G c x > & & & & > r e M.nX2X5X6X6X6X6X6X7X7X7X7X8X8X8X8X8X8X8X8X8X8X2X7X7X7X7X7X7X8X8X8X8X8X8X8X8X8X7X8X8X7XNXIXIXIXIXIXKXGXHXsXe.e.0.0.7.2 3 3 L.s D.f GXKXDXDXIXIXIXUXUXUXUXKXDXDXcXa.j.j.0.:.>.5 2 2 6 6 = * - - $ - - MXvXnXMXMXMXBXbXBXgXsXrXrXwXwXS.M.BXj.Y Y Y q q 4 ",
"4 Z.<X<X<X<XmXGXKXHXHXIXUX$ 9 > # q : t.Y ! CXcXNXDXCX4.6.3 ; = < < 3 3 <.0.q.q.c.ZXJXNX9XnXmXzXzX= = - - 0 0 = 1 < 3 3 < :.:.0.q.q.j.pXZXPXUXIXFXNX9X9X0X0X0X0X0X2X2X7X5X1X< :.h.sXcX9X0X0X0X0X0X0X0X2X2X2X2X2X2X2X8X8X8X8X8X8X8X8X8X8X8X8X8X8X8X8X2X2X8X2XHX, S z z Z l Z A P P Z ) ) z l Z A G m M P G D / ( ^ , t t r r e % k x S G H M M M V V N N M v M M V H J J H H H G A c l , X & > > > > e e e q q > j j l c b m J J m n n M V V M U M M M n n b G G l z l > > > > > > > > > t , ] ] x ] x ) _ z S x k x Z Z k j j , , > u p v.nX9X6X6X8X7X7X7X7X7X7X7X7X8X8X8X8X8X8X8X8X8X2X2X2X8X7X7X8X8X8X8X8X8X8X8X8X8X8X8X8X6X8X9XKXIXIXIXKXGXGXsXe.e.q.0.:.6 s s HXyXcXF.GXIXIXLXIXIXIXUXUXUXUXGXNXhXfXj.0.,.:.;.>.s 2 2 2 6 = - $ $ $ - - MXvXvXmXmXvXCXBXBXsXsXsXrXwXF.F.S.sXj.! ! Y q q 4 ",
"s D.<X<X<X<XvXFXKXDXIXIXUXo 9 i $ q 7 u.7 Y HXCXCX6 4.6 < 3 ; = < ; s 3 <.0.q.q.pXSXPXzX:X9XnX:XzX= = = - 0 0 ; *.=.5 3 3 :.0.0.0.q.e.j.hXPXJXSXIXUXNX9X0X0X0X0X2X2X2X2X5X1X4 7.sXcX9X0X0X0X0X0X0X0X2X2X2X2X2X2X2X2X8X8X8X8X8X8X8X8X8X8X8X8X8X8X8X8X2X9X0X9XIX, z j h Z l l l G P j p p j Z G G m m U P D D > % % e a g a a a % > > z A G n V M V b M v M C C E Q J J J H M n m b b c l j j h j h h l z k j t j G G c c m J J m m n n V C Q U U M P H J H G A Z , > > X O O & O O O O O O t ] ] S D ] ^ ) x ) r 8 ( S Z Z l j , , , e e v.bXnX2X8X8X8X7X6X7X7X7X7X7X8X8X8X8X8X8X8X8X8X2X2X2X2X2X2X8X8X8X8X8X8X8X8X8X8X8X8X8X7X8X9XKXIXIXLXIXGXDXsXe.e.0.:.:.6 0 s 6 4.cXKXKXUXIXUXIXLXIXUXUXUXIXDXNXCXhXc.0.,.;.;.>.3 2 2 2 6 = - $ $ $ - - bXvXmXbXvXvXVXCXBXsXsXBXeXwXF.F.M.sXj.! ! ! q q q ",
"f ].<X<X<X<X<XbXKXUXKXzX+ 9 e y # % : i.tXi.AXDXCX1.5 3 3 ; 3 = 3 s s 3 :.0.0.q.pXZXzX:X9X9XnXL.zX- = - - - 0 ; 5 5 < s < >.2 :.0.q.q.q.fXJXc.UXUXUXNX9X0X9X0X0X2X2X2X2X5X:Xa.a.cX2X0X2X0X0X0XcXGXGXnX2X8X8X2X2X2X2X8X8X8X8X8X8X8X8X8X8X8X8X8X8X8X8X0X9XNXKXLXUXPXJXhXc Z x S H H j u u ^ Z G n N n J G S _ > # # i O.qXO.O.O.M.9 # j l Z A c c G l P M M y.W E Q H J J H M M M M M n n n n b n m b n m c c Z A n m n n m m m m m J n C E E V V U P A G A l l l r 8 @ q a g M.M.M.M.% + # > ] [ S ] ] _ _ x ( 9 w ( S x k k , , , > kXI.wXlXbXnXnX0X8X8X8X7X7X7X7X7X8X7X8X8X8X8X8X8X8X8X7X7X2X7XzXcXnX9X0X0X8X8X8X8X8X8X8X8X7X5X<XKXKXIXIXKXzXbXsXe.e.0.,.,.*.; ; s f D.GXUXUXIXLXIXIXUXPXUXIXIXNXcXgXfXj.0.0.-.;.;.3 6 6 5 6 = - $ $ - $ - MXvXvXmXvXbXAXAXsXsXsXxXF.wXF.F.F.qXc.! ! I : 0 0 ",
"T.<X<X<X<X<X<XvXmXNXBXIXa e t ) & , $.tXAXdXVXDXxXf 3 = 3 ; 0 - 3 3 3 < <.0.0.j.c.fX:XMXnXnXnXcXnX].D.D.].- - 3 5 1 5 d s ; = <.q.q.q.q.pXfXj.UXUXUXcXnX9X9X0X0X2X2X2X2X2X;X4.L.2X2X2X2X2X0XFXAXAXPXFX0X2X2X8X8X2X2X0X0X8X8X8X8X8X8X8X8X8X8X8X8X8X8X0XGXUXPXB.JX: h I H G G J m m G z j k A H M N m K D _ _ t % # : r.r.r.r.qXwX8 # , l x l x l P Z P U b ~ W ~ U P n n M M M M v M n n n n n n n n n n n n n n n n n n n n H J m J n Q C V P P F _ k Z l k j j , 9 % B.O.qXO.O.M.B.9 # # , D D _ _ D _ ] x / 9 8 ( ] / ^ j k k k , wXn.m.v.lXCXKX9X8X8X7X7X7X7X7X7X7X7X8X8X8X8X8X8X8X8X2X2X8X0XKXSXHXDXcX9X8X8X8X8X8X8X8X8X8X8X0XNX9XKXPXKXzXbXsXe.e.0.,.,.*.; 0 0 f D.KXLXPXIXIXIXIXLXUXIXIXKXNXcXsXhXc.q.0.:.;.;.3 s = 4 3 ; 0 - f f n.f mXmXbXbXxXDXAXsXBXsXsXxX].wXF.F.F.rXc.8.y.! q 0 0 ",
"mXvX<X<X<X<X<XvX<XvXw xXe % e z : I 8.tXJXdXxXNXcXd 3 = 4 - 0 - 3 3 3 < >.0.:.c.c.aXzXNXmXmXNXnX<X:X:X:X<X0 0 3 =.1 5 d s 0 3 >.:.q.q.q.e.j.c.UXUXUXKXGXMX9X0X2X2X2X2X2X2X2X9X0X8X2X2X2X2X0XB.A F JXFX2X2X2X2X2X2X2X0X8X8X8X8X8X8X8X8X8X8X8X8X8X8X7X9XIXUXJX} tXl U P K K J n H n U P l x G K m J K K L ) ) t # % : hXZXJXSXJXqXi i > z z k x j z k l P b m M U M M M M M M M M M M n n n n n n n b b b n n n n n n n n n n H n n H M U M H l z z / , l l j > & r a % g o.tXr.i.v.B.% # 8 t [ L ] _ D ] ] ) / t r _ _ ) x l x l z j 9 e 9 > LXrXKX1X0X8X8X7X7X7X7X7X8X8X8X8X8X8X8X7X8X8X2X2X2XnXKXdXtXi.qX9X8X8X8X8X8X8X8X8X8X8X8X8X0XGXIXIXbXbXsXe.e.q.,.,.*.= = 0 0 S.KXUXUXIXUXLXIXUXIXKXDXDXcXcXCXZXpX0.0.:.;.>.3 3 * s s 0 0 f f ].'.].mXMXMXDXHXAXCXBXBXrXrXrXwXwXF.F.F.qXj.9.u.: q 0 0 ",
"bXvXvXvX<X<X<X<X<XvXa g 9 8 i h : Y p.qXAXdXBXCXsX6 5 3 = - - = 3 3 ; < ,.,.:.w.j.aXeXFXFXNXFXmXvX<X9X9XvX0 ; 3 =.1 1 5 3 = 1.2.s 0.0.0.q.e.SXfXh.UXIXUXNX9X0X0X2X2X2X2X2X2X2X2X2X2X2X2X2X2Xo.G D JXJXcX9X2X2X2X0X0X0X8X8X8X8X8X8X8X8X8X8X0X8X9XnXNXxXAXJXtXl l x j l H K K J n m b H G D G K J J J J P z ) , + % : iXuXJXPXJXqXg M.9 & & > > > r e , [ G G M v n M H H M M M M n n n n n M n M M M n n n M M M M M n n n H H H n H J m m m l z z ^ & X X e 8 8 O g M.B.g SXSXAXM.B.9 # # & ^ ] _ ) D z _ / t t ^ ) ) x ) k j / / , 9 u u > VXIXIXzXNX9X0X8X8X8X8X8X8X8X8X8X8X8X7X7X2X2X2X8X9XKXPX%.P L lX9X8X8X8X8X8X8X8X8X8X8X8X8X0XGXIXUXIXDXsXe.e.q.,.,.>.= ; 0 0 M.DXIXIXUXUXIXUXUXKXbXMXNXNXcXsXSXaX0.0.<.< 5 d d 3 f F.zXf Z.f <XvXvXbXNXNXDXAXBXCXxXrXrXrXrXeXeXS.M.M.4.h.7 gX$.: # q ",
"DXyXvXvXvXvX<XvXvXvXi B.t e r I I iXgXS.zXbXVXCX:X< 3 3 3 - ; ; 3 s 3 =   <.:.q.q.h.ZXPXUXPXKXNXbXvXnX9XMX- ; 3 1 5 5 5 3 3 a.6 3 0.0.0.0.e.h.q.h.PXUXPXKX9X0X0X0X0X2X2X2X2X2X2X2X2X2X2X2X0XB.G D AXi.SXHXcX2X2X0X0X0X8X8X8X8X8X8X8X8X8X2X8XnXHXPXHXLXJXSXtXH { F F Z L K L G G A G A A D G K J J K K L ) ) t # # X x.l.JXPXJXrXwXwX9 % % # # # % & , ] D D c H H M n J n M M M n M n M M v v v M M M M M M M M M M n n n n H H m n n G H P x t 9 8 8 o # 8 8 8 O B.B.B.o.SXAXAXM.B.9 9 9 p _ [ _ ) D ] ) ( u e y ( / x z z / ) z j 9 e e t ' _ N.KXIXNX0X8X8X8X8X8X2X7X2X2X2X2X2X2X2X8X0XnXMXVXSXI L L kX<X8X0X8X8X8X8X8X8X8X8X8X8X8XnXzXIXUXIXhXe.e.q.,.<.>.; ; 0 0 S.HXIXLXUXKXDXKXKXGXMXMXNXNXCXa.ZXpX0.,.<.d s 6 6 5 s $ KXxXNXMXMXNXNXbXDXHXxXHXBXBXrXeXeXqXeXeXwXS.M.M.M.M.g ZXt.' a q ",
"xXBXzXvXvX<X<XvXvXmX+ i > e > I h x.gXjXvXbXVXxXL.= = = ; ; s d d d 3 - = <.;.q.q.w.fXSXUXLXPXPXUXGXNXnXNX- 0 3 5 5 5 5 3 3 4.5 1 0.0.0.0.q.q.q.c.PXUXPXKXnX9X0X0X0X0X2X2X2X2X2X2X2X2X2X2X0XB.A G G P JXJXcX2X2X0X0X0X8X8X2X2X8X8X8X8X8X8X8X9XLXLXHXPXJXSXi.G l F H P H H K c D Z Z S S D A L K L L H P / , r # # X x.uXJXPXJXrXqXqXq % & # # # # 9 9 , j ) Z A A P M n n M M n M M M M M M M M M M v M M M M M M M n n n H P M m n G z ^ , e 8 8 8 8 o # 8 8 X X qXBXqXO.SXAXAXM.B.e 9 9 ( x P x ) ] _ / ^ r e r u y / S S x S S z u ` e u ^ lXtXUXLXDX9X9X0X8X8X8X8X2X2X2X2X2X2X2X2X8XnXHXSXtXQ U L L rX9X4X2X0X8X8X8X8X8X8X8X8X8X0X2XNXUXUXUXZXe.e.q.,.,.>.; - 0 0 D.HXIXLXIXDXbXNXNXDXNXNXNXNXZXw.a.j.0.:.<.d 3 < 5 d 0 $ GXDXDXbXNXDXNXbXDXAXSXBXxXxXrXeXeXwXwXS.M.M.F.M.F.S.4.SXt.' i i ",
"eXsXzXvXvX<X<XvXvXvX$ 9 9 8 # ' h Y rXKXUXUXUXUXcX  = = = s 5 3 1.1.5 s 3 >.>.q.0.0.j.sXCXLXUXPXUXLXKXNXDXq 0 s 3 3 ; 3 3 3 3 6 2 0.0.0.q.q.q.q.pXPXIXIXUXDXNX9X0X0X0X8X2X2X2X2X2X2X2X2X2X8XB.A L P F JXJXsXcX9X0X0X0X0X0X2X8X8X8X0X2X9XNXnX:XKXPXtXVXPXZX%.G A U b K J J m Z k k S Z S S Z G L G G H H ^ y r # # X z.iXJXJXJXtXtXsXqXO.O.O # # & 9 % % & e y y , P J m n M U b U C V M M M M M M M M M M M M M M M M M M n P n G A S 9 a 9 9 a g i M.9 8 8 # r.Y tXPXHXAXJXdXAXM.B.e # 9 e , [ [ [ [ ) ] / r e r ^ y u y z D ) k Z j ^ e u u j dXj UXIXzXZXcX0X8X8X8X2X8X8X2X2X7X8X2X0XBXSXJXI K H K P rX9X8X0X2X8X8X8X8X8X8X8X8X7X0X4XNXIXUXUXSXj.e.q.w.,.>.; - 8 0 Z.KXLXUXIXFXNXbXNXNXDXNXNXDXZXc.0.q.0.,.<.3 s 3 d d ; ; S.- KXxXNXDXNXbXDXVXAXBXkXkXrXwXF.wXF.F.F.F.F.M.S.S.qXJXp.Y Y : ",
"zXsXrXzXzX<X<X<XbXjX# q 9 % & Y $.%.dXUXUXIXIXUXIXeX4.= = f L.s d 3 ; 6 -.;.;.q.0.0.e.iXCXHXHXBXUXPXUXUXUXqXs 3 3 3 ; 4 4.g ; 3 2 ;.&.,.0.q.q.q.aXPXUXUXUXIXDXmX0X0X0X0X0X0X2X2X2X2X2X2X2X2XqXD G P  .I uXZXUXSXcX9X9X9X0X0X0X8X8X0X2XNXJXJXUXKXAXc %.! ! Q G A Q E M H H G x ^ / S D Z Z S D G G J m m j y r + + X pXiXSXSXJXAXgXdXqX+.B.O # O O.B.o.qXB.B.t u y D c H n M U b U V U V V V V M M v M M M M M M M M n n n n m n l P S e a a g g O.g B.q 8 8 8 #.$.uXPXLXLXLXdXlXv.B.& % 9 p y P K K [ / ^ y u u r y _ u u / Z x k l z ) u p u , %.x lXHXCXAXCX9X0X0X0X2X2X2X2X0X0X0X9XNXDXhX! uXG L L [ xX9X8X4X0X0X0X0X0X0X0X0X0X8X9XnXFXUXUXUXZXh.j.q.0.,.>.3 = g 0 M.DXDXGXDXMXMXMXNXDXPXDXNXDXZXaX0.0.0.:.,.3 3 0 3 5 3 3 3 = IXBXDXDXNXNXDXVXgXBXBXrXrXrXeXwXF.S.S.F.F.S.S.S.qXSXl.8.! g ",
"zXsXyXvXzX<X:XzXxXq % & > : : $.AXAXHXUXPXPXUXUXIXxXS.4.3 cXFXf s - = *.&.< < w.0.0.e.iXsXCXIXIXLXPXLXLXHXxXf g f 3 s 4.qX* ; 3 5 =.=.,.0.q.q.e.aXPXPXUXUXIXGXNX0X0X0X0X2X2X2X2X2X2X2X2X2X0XB.D G L VXF tXJXSXsXBXzXcXcX9X0X0X8X8X8X2XMXUXVXHXCXdXc ~ n P P P G P m H H J G x / z S Z Z A Z S G K J m m j y r # O X dXuXSXAXJXAXgXsXqXB.B.O % # O.+.o.tXqXB.e 9 > S Z P G P P c P M U V V C C V M M M M M M M M M M n n n m m n l z _ 9 9 i O.O.O.g wXq # 8 # #.X.tXPXJXLXJXdXlXv.B.9 # 8 u y G J K L ^ u u u ` e u _ u u / A S _ ] x S ( ( u > j _ B.PXHXrXHXcX9X0X0X0X0X0X2X9XNX9XbXLXUXgXI iXG G D ] kX9X8X0X2X0X0X8X0X0X0X0X0X9XnXKXIXIXUXUXHXZXhXe.0.,.>.3 0 f KXGXKXFXMXMXmXMXmXNXIXPXDXNXNXZXaXq.0.0.:.,.3 s 0 0 ; 3 3 3 3 wXKXDXNXNXCXDXVXgXBXBXrXrXrXeXwXF.F.F.F.F.S.S.S.qXSXx.8.t.} ",
"sXsXsXeXzXzXvXxXrXq i 7 : Y ! t.KXKXKXBXHXUXUXUXUXUXIXKXKXKXxXD.s 5 3 < 3 3 < 0.0.q.e.pXsXCXKXDXUXUXLXLXLXLXCXqXrXrXrXyX4.= ; ; < 1 =.,.0.q.q.e.fXUXUXUXUXIXIXGX9X0X0X2X0X2X2X2X2X2X0X0X0X0XN.] G D D L H gX! SXPXSXJXJXzX9XnXcXNXNXNXDXPXAXdXtX%.M Q M P P P P U n A D G A l k z z z Z G Z z L m m H G y u e 9 9 O & g AXAXJXSXAXdXqXB.B.O % % O.tXtXdXsXrXi % e t , A l G H l M U E C U E E V M M M M M V V v v n n m m b m b l a v.w % i qXtXtXtXrXi # 8 % i.t.tXJXJXJXJXdXlXa a 9 O 9 e , P L G L / u ( ( p p e r p u / D k ^ x G G x S x x D D k , k y JXsXCXCXCXcXcXcXcXCXUXLXUXAXdX%.G n G G ] ] rX<X8X0X0X0X0X0X0X0X0X0XMXFXKXIXUXUXIXIXUXPXJXe.w.,.>.= q - KXIXIXNXMXMXNXMXmXDXIXPXDXNXNXZXaXq.0.0.:.,.; s ; 0 ; 3 3 3 = - NXMX].MXHXAXBXBXsXBXrXrXeXF.F.F.S.S.S.S.F.S.S.qXSXx.8.! } ",
"eXrXrXsXsXtXrX].$ $ > h Y ! 8.8.HXHXKXxXGXHXBXLXUXLXUXLXPXIXf ; 3 1 =.3 s 3 1 0.0.q.e.pXyXyXcXnXFXUXPXLXLXIXLXLXHXDXD.f = ; ; 0 3 1 1 ,.0.q.q.j.ZXUXUXIXUXIXIXKXnX9X0X0X0X0X0X0X0X0X0X0X0X2XbXlXx Z Z L K U U { SXZXSXSXJXSXSXSXSXZXZXJXJX~ C y.%.V C M P M M G b G D S S S _ z z z z A H P z L H D z u ^ u a i i & X qXZXdXSXSXAXdXtXB.B.O % % O.dXdXZXgXtXVXqXg r , l l A A c M v v b M N V v V v v v v v v M M n n m m l Z A j e w % tXdXAXZXhXgXrXi # 8 % i.i.dXJXJXJXPXdXtXi 8 # % % 9 & , , , [ ^ u ( u _ ` 9 e u _ ] Z S z x H H D S ] z L G / _ D ] JXgXgXgXZXZXSXSXJXSXSXPXAXF U U m m A S j bXvX9X0X0X0X0X0X0X0X0X0X0XNXKXIXUXUXUXIXIXUXPXPXe.w.,.>.3 = 0 NXGXKXNXmXbXIXIXKXGXKXDXNXNXNXhXfXq.0.0.:.,.3 0 ; s 3 3 ; = = - NXmX<XbXVXBXBXxXxXBXeXF.F.F.F.F.qXqXwXF.F.F.S.qXSXx.8.Y } ",
"D.D.F.rXuXuXgXf # 8 & h Y W 8.u.DXDXKXbXNXDXDXDXHXxXHXDXs s s s 3 =.=.< 3 3 1 0.0.q.e.hXJXJXcXnXmXIXPXUXLXLXLXLXLXKXs = ; - ; 3 < 1 =.,.0.0.e.aXSXPXPXIXIXUXPXKXNX9X9X0X0X0X0X0X0X0X0X0X2X2X4X^.^ S x G H M M P c y.y.p.hXfXaXfXfXfXp.y.JX! V V M M V M H M M G A D S S x z ) x x ] Z P U P k S Z Z x r e a qXO.a & O qXg qXJXSXgXgXqXqXB.# % # O.dXAXSXZXtXdXqXo.r > , , , , c V M H G M M v v v v v v v v n c G n c G G l , , 9 9 9 8 JXdXdXZXZXAXlXq 8 8 % i.i.uXAXAXAXHXrXlXi q O rXqXB.B.y j j ] ^ e ( t ` ` e ( u e , x k ^ / z D G D S x A D ^ ^ x ] SXiXl.uXuXfXgXZXJXQ Q p.%.c V U c A x ( g 9X9X9X0X0X9X0X0X0X0X0X0X0XNXIXUXUXUXUXIXUXIXPXPXh.w.0.>.3 0 0 NXMXmXmXmXNXUXPXUXKXKXbXNXNXNXhXfXq.0.0.:.:.3 0 0 ; 3 3 ; ; ; - NXbXvXbXAXVXBXBXeXxXeXF.F.F.F.wXqXqXwXF.S.F.S.qXSXx.8.Y  .",
"].D.F.eXyXyXxXq 8 9 & Y Y 9.9.u.zXvXbXvXvXvXMXNXKXBXDXbX- s s 3 3 =.=.< 3 3 2 0.0.q.e.aXJXJXzXnXnXKXLXLXUXLXLXLXLXKX0 = ; - ; 3 5 1 ;.,.q.q.q.j.c.JXUXUXUXUXUXIXFX9X9X0X0X0X0X0X2X0X0X0X2X2X7X>Xo.x l D H J H m V C C ~ uXl.l.l.p.~ ~ t.JXQ V v M M M n n M M G A A S x x z z x S D Z H n P j _ F F x t a B.O.r.g & O . O B.JXSXgXgXtXqXB.% # # lXSXAXSXZXdXdXqXB.r & > > & & k l h j , x K n M M v v v M n J l S D l l j , & & 9 % % 9 VXdXgXSXZXAXVXq 8 8 & i.i.uXgXsXsXBXi i 9 9 . tXqXqXO.u ^ ( ] ^ r ` u ` ` u _ u e t _ k k _ _ x L G S ] D A D S D [ dXy.b G c c y.dXgXn P C P b m b c l z ( g 9X9X9X9X0X9X9X9X9X9X0X0X0XNXIXUXUXUXUXUXUXUXUXPXh.w.0.<.3 0 0 FXMXmXMXMXFXIXPXIXKXIXNXNXNXNXhXpXq.0.0.0.0.3 ; ; ; 3 3 ; ; ; - MXbXvXbXCXBXxXxXjXxXwX].F.F.F.wXqXwXF.F.S.F.S.qXhXuX$.Y | ",
"D.D.F.F.eXyXs w w 8 & 7 Y 8.9.f.vXvXvXvXvXvXbXbXDXDXDXbX- 0 0 3 5 &.&.1 3 3 &.,.q.q.e.e.pXfXvXnXnXFXDXLXLXLXLXLXLXKX$ ; ; = 3 3 5 =.1 2 ,.e.q.e.e.ZXPXUXUXUXUXPXGXMX9X0X0X0X0X0X0X0X0X0X2X2X2X9XB.) ) S G J J J M C E V U M M U M n p.! ! E V M M M M c G n H G A Z Z x l l l l %.$.F P n H Z j r e e 9 i tXsXqXdXlX& # # qXJXAXAXdXi.qXB.9 8 8 O r.dXi.gXqXdXtXg a a e 9 9 9 9 9 9 9 9 r [ D A A A A Z S x l j r e & % % 8 w w w w w v.& lXtXAXdXtXi O # 8 B.tXi.dXgXgXtXtXO 8 # i VXdXgXAXBXg % & & & t ( u _ _ ^ _ ( e e u y / ^ / x G G x / x Z A S Z P L H H K J K A c M J n b m b m m c l ^ e M.9X9X9X9X9X9X9XnXnXmXnXnX9XFXIXUXUXUXUXUXUXUXUXUXfXpXh.6.6 4.6 FXNXMXMXMXFXUXPXIXHXLXKXNXNXNXhXpXq.0.0.-.2 = 0 = ; ; 3 = ; = - bXbXvXDXCXBXxXxXjXeXF.F.F.F.F.wXwXF.F.S.S.S.F.F.F.qXaXl.g ",
"].D.F.D.D.zX0 8 9 i i : : 9.e.f.bXvXvXvXvXbXbXbXbXvXvXvX0 0 ; ; 1 =.=.< 3 3 &.:.q.q.q.q.c.fXnXnXnXnXDXUXLXIXLXIXIXKX- ; = 3 3 3 5 3 3 *.;.;.:.e.e.SXPXUXIXIXUXUXIXDXnX9X0X9X0X0X0X0X0X0X9X2X2X2XbX' _ x A J G G L H m n m n n H J b y.C U V M H H n H G G G H A c Z S z z l p.ZXr.JX%.H M H H Z r e e > O.AXsXqXtXtXO # # O.tX| dXAXqXqXqX9 # # # tXAXgXSXO.g & LXB.B.B.B.v.e w 9 9 9 9 9 / ) ) ) / k j j t , r 9 9 8 8 8 8 w m.M.F.F.M.# B.a dXdXtXa 8 # 8 O.i.p.uXgXgXr.VXO # # q qXsXAXAXVXM.9 & > > _ [ _ _ ] ( ] / ) t 9 e u z D G G P D ] D A A D D L S L G H K L Z G m J J J G A c A l j j B.].9X9X9XnXnXMXmXFXGXKXKXKXFXKXIXUXUXUXUXUXUXUXUXPXSXhXh.>.7.*.6 NXNXMXNXFXKXUXUXUXLXLXKXNXNXMXhXaXq.0.,.-.1.Z.P.s 0 ; s CXCXCXrXxXbXvXDXBXxXzXjX].F.F.F.F.F.eXeXF.F.F.S.S.F.S.S.F.S.pXx.g ",
"F.D.F.D.yXyX0 8 i i i : h 9.9.l.xXvXvXvXvXvXvXmXvX<X<XjX0 0 0 ; 3 5 6 3 s 3 &.:.q.q.q.q.c.hXnXnXnXNXKXLXLXLXLXIXIXKXf 3 3 3 3 3 3 3 3 =.;.<.:.e.e.SXUXUXIXIXUXIXIXGXnX9X0X9X0X0X0X0X0X0X9X0X2X2XbX' _ z S G L G K m n m m m n H H b V n M M H P G G G P G A A A A A D x x l uXgXAXSXQ H n J H A > e e & qXSXZXtXtXtXO # # i gXSXdXAXr.qXqX% # # + LXJXSXJXg i % UXg o.B.qXB.i a kXkXa 9 % / _ ) ) / / ^ ^ u r e v.m.M.M.M.9 F.S.S.rXsXqXa i & VXtXtXa # # 8 B.i.i.tXuXqXq B.@ # # + g rXAXAXVXM.9 & e > ] D ] ] ] ( ] S D z 9 e y z ) k x G G D S l G Z Z P S G G G H A A H H H G A Z Z S l j j y wXvX9X9XnXnXmXNXGXKXIXIXIXUXIXUXUXUXUXUXUXUXUXUXUXPXHXCXyXCX7.*.f nXmXmXGXIXIXUXUXUXKXKXIXNXNXNXgXc.q.0.,.;.>.^.(.w ; 3 s NXCXCXrXBXBXbXCXxXzX].].].F.F.F.F.wXrXrXS.F.F.S.S.F.S.S.S.qXpXiXg ",
"F.D.F.F.i r.* q i i i : d.i.tXxXjXjXvXvXvXvXvXvXvXvXvXzXs 0 0 ; ; ; ; 3 s 5 &.:.0.0.0.q.pXZXnXnXmXFXIXKXIXIXLXIXLXIX0 3 3 = = = 3 3 3 =.;.,.0.e.e.SXUXUXIXIXUXIXIXKXbXmXnX9X0X9X9X9X0X0X9X9X0X0XvXg wX) _ k S D D G G n m H n H K H H H P H P D ] S Z D A Z Z l k k z z z l Q F ' l c H H J J G > 9 e > qXgXZXtXtXtXo # # # O 8 PXJXr.qXqX& # # + . O X JXi e O PXtXJXJXPXqXi O.SXAXqXg g a u 9 & % # # 8 9 9 i g M.B.B.B.e tXSXdXtXsXgX& 9 8 HXi q % # # # B.i.tXtXp.qX. + @ # # + | dXAXZXVXB.9 % e > D D _ ] _ p / S A Z / , , t y y j G G G D x D A A H Z P J K K H m m m G Z z z / , y ( e M.].nXmXNXNXDXKXKXIXIXUXUXUXIXIXUXUXUXUXUXUXUXUXUXUXIXMX9XNXyX6.4.D.nXnXnXNXKXIXPXUXUXGXNXGXNXNXNXsXj.0.0.,.&.*.f n.n.Z.s s D.D.D.xXHXVXbXxXBXxXkXjXF.F.F.eXrXeXwXqXS.F.S.wXS.F.S.S.S.qXpXaXo.",
"F.D.D.F.& > i q i a a Y g.tXrXkXkXzXvXvXvXvXvXbXbXMXMXvXf 0 ; = ; ; ; 3 3 < -.:.0.0.q.q.pXhXnXnXmXFXBXBXIXLXLXLXUXUXF.3 = = 3 3 3 3 5 -.;.;.0.e.e.SXUXUXUXUXUXUXIXIXKXDXbX9X0X9X0X0X9X0X9X9X9X0X1X9Xf o.( ) ] k ) _ x G J J m G G G G G G G G A D S l S Z Z S x j j j k A ~ 8.) u j G H H n m H , e e > tXZXZXtXtXtXo + + + + $ PXPXqXqXqX& # # + O # O & i 9 & HXtXJXJXPXqXO.+.gXdXqX4.4.q # + @ @ @ + O B.o.B.qXqXtXtXtXo.lXPXJXtXdXSXa 9 9 O + + # # # # qXi.tXqXBXVX% 8 # # # # } dXgXAXAXM.9 & e , P D _ ] _ p y _ _ z ^ t t r y j , j k z S x ) _ x l l G G G Z l Z A D D S / y u ( y e D.<X9X9XnXNXDXIXUXUXUXUXUXUXIXIXIXUXIXUXPXUXUXPXUXUXIXIXGXzXMXmXnXnXnXMXNXNXMXcXFXIXUXUXbXMXmXMXMXMXsXj.0.0.,.;.&.4 * 0 NXzXNXCXDXCXBXAXAXBXBXBXrXeX].F.F.F.eXeXeXF.S.F.F.S.S.F.F.S.S.S.qXc.pX: ",
"F.D.D.F.q 9 e i i ' } X.g.tXrXrXkXjXvXvXvXvXvXbXbXbXbXvXS.; ; = = ; ; 0 3 5 &.:.,.0.q.e.pXhXnXnXnXNXGXDXGXIXLXIXUXUXxXS.* 3 3 3 3 3 5 &.;.;.0.e.e.SXUXUXUXUXUXUXUXUXIXKXxXnX9X9X0X0X9X0X0X0X9X9X0X2XnXg ( _ _ ) _ / ) G m m m J m m H H G G G x z z k l l l x z k j j j Z ~ W , a j c G H H n P > 9 e > qXgXgXtXtXtXO + + O + o rXqX: qXqX& # # # # # O O > % % lXtXJXJXUXqXO.qXdXsXr.r.r.q + + @ @ @ + O lXB.tXtXtXtXdXtXg lXUXJXtXsXAX9 9 9 # # + + # # # tXp.tXi i qX% @ # # # # } dXAXAXAXM.& & > , [ D ] ] _ ( y e e ^ ^ e 9 9 r y j ^ / / ) / y u / x D D G G G D S x x ) ) ( u p p u p n.<X9XnXMXFXKXIXIXUXUXUXUXIXIXIXIXIXGXGXIXIXIXIXIXKXbXGXFXMXMXmXnXmXmXMXNXmXMXNXFXGXIXKXNXmXmXmXmXmXsXj.q.0.0.,.:.< 4 ; mX].D.xXBXCXBXAXAXVXBXxXrXeX].F.F.F.].eXeXF.F.F.F.S.S.M.F.M.S.S.qXc.c.t.",
"D.D.D.eXq 9 q i : Y Y 8.k.uXtXrXkXkXvXvXvXvXvXvXMXmXvXvXvXzXD.2.L.= - = 5 5 =.;.,.0.q.e.pXhXnXnXnXnXvXvXFXKXIXUXUXIXHXKXwX3 4 4 3 3 3 &.;.;.0.e.e.SXUXUXUXUXUXUXUXUXUXIXIXFX9X9X9X9X9X0X0X0X9X9X0X8X:XbX# a u ( ) / / x A G D A G G G G G A Z k j j , , , j j j j , , j k l U r w j H H n J m G , 9 9 e sXsXgXtXtXtXo O + + + + + + i qXqX& # # # # + + + % % % g tXJXJXUXqXO.qXsXuXtXtXrX8 @ + @ @ + @ @ o O.tXtXtXtXtXtXg rXUXPXsXdXdX# # + + # + # # # + tXp.dXg $ + + # # # # O : dXAXAXAXg % % > z P D S ] _ ( y w 9 ( / 9 9 9 r t y y y y y y y u ^ _ _ ) ] x _ ) ) ) ( ( ( ` ` ` B.v.M.mX9XNXNXKXUXUXIXIXIXUXUXUXUXIXIXIXIXGXNXbXNXGXDXDXNXmXMXmXmXMXmXmXmXMXMXmXmXmXbXFXMXmXMXMXmXmXmXmXMXsXj.q.0.q.0.;.3 6 = 0 ; f xXrXxXBXVXAXVXBXeXF.].].F.F.F.F.eXeXF.F.F.S.S.M.D.M.M.M.S.r.aXY  .",
"D.F.g i q 9 w i i $.! y.l.uXdXsXrXkXzXvXvXvXvXvXvXvXvXvXmXvXvX].:X; = yX6.d 1 ;.,.0.q.e.c.hXnXnXnXnXnXnXnXMXbXKXUXUXLXUXCXs 3 f D.s d &.;.<.0.e.e.JXUXUXUXUXUXUXUXUXUXUXUXGX9X9X9X9X9X9X0X0X0X0X0X0X0X0X9XDX' ' ' ' ( / ) ) ) / _ ] / y ^ / / ) _ ) / , ^ , r r t y y j S A A j ^ j c c M n H H , 9 9 & tXqX+.tXtXtXO + + + + + + # i qXqX& # O + + + + + O # # * BXPXUXUXqXB.qXsXsXrXqXg o @ + + + + o + O B.g tXtXqXqXqXg tXLXPXSXZXrX# # O O + + + # + & dXl.dXg + + # # # # # # : AXAXAXVXM.# # , L L D ] _ u t , ( t / / & 9 9 9 e e 9 e t ^ k ) ^ y ( ( y ( / ) y u p u u p v.v.p a vX<X9XnXNXKXUXUXUXUXIXUXUXUXUXUXUXUXUXLXKXNXmXMXNXNXNXmXmXMXmXMXMXMXMXMXMXNXNXmXMXKXKXmXMXmXmXmXMXmXmXmXiXj.q.0.q.0.;.*.*.= - ; S.BXBXBXBXAXBXBXjXeXF.jX].M.F.M.F.eXeXF.F.M.S.S.F.F.M.M.M.S.S.g dXiX",
"D.D.M.9 9 8 8 & : ! ~ y.l.uXdXAXAXrXzXvXvXvXvXvXvXvXvXvXbXvXvXvXvX= ; 4.3 3 < >.:.0.q.q.c.fXnXnXnXnXnXnXnXMXFXDXUXIXIXUXGX; eXKXGXf d &.&.;.:.e.e.JXUXUXUXUXUXUXUXUXUXUXUXGX9X9X9X9X9X9X0X0X0X0X0X0X0X0X0Xf xXM.B.' N.( ( ( ( / ) _ u p u y y ^ ) ) ^ t y > 9 9 r t y , x G H P [ l l A H c k l > 9 8 # O q i tXtXtXO + + + + + + + # i i & # + + + + O + + O # i O.PXLXPXqXB.B.f qXHXo + o o o o + o o + + o # lXqXo.B.B.B.qXLXPXVXqXrX# # + O + + + + + X gXuXdXO.+ + # # # # # # : AXAXqXrXq # 8 > ] z x S _ u t y z / / / & 9 9 9 9 9 % & r ^ j j y y y u r y y ( u e e e u p v.N.w B.9X1X4XMXGXIXUXUXUXUXUXUXUXUXUXUXUXUXUXLXIXNXbXMXmXmXMXMXmXMXmXMXNXNXNXFXFXGXFXNXNXFXDXMXMXmXmXmXMXmXmXnXsXj.q.0.q.0.;.=.*.- 0 0 M.BXsXsXCXrXeXwXF.eXF.eX].M.F.F.F.eXeXF.F.M.S.S.F.M.M.M.S.M.M.M.gXfX",
"D.D.D.q 9 9 9 9 i }  .$.uXuXsXBXsXBXxXvXvXvXvXvXvXvXvXvXbXvXvXb.; S.f ; s s ; 1 ,.0.q.7.j.fXnXnXNXMXmXnXmXMXFXGXKXKXLXLXIXf DXM.w f 6 &.;.:.:.e.e.JXUXUXUXUXUXUXUXUXUXUXUXKX9X9X9X9X9X9X9X0X0X0X0X2X0X2X2X0X0X9XzXg kX( ( ( ( ( ( ( u u u u t u u t t > r 9 % > ) _ ) , z x z S ] z x A H [ ) _ t % # # + g i qXr.qXO + O + o + + + # # % # O O O O O O O O + + + O PXSXPX+.+.O.* wXLXo + + + o + + o o + + o # qXtXqXO.B.M.+.PXPXqX9 9 # + O + + + + + # O . X X & + + + + # # # # : gXAXwXxX8 # # > ] _ ] ] ] u r t / k j / e 9 > y ( r % % e r , , r r r t r t y ) y r e e a v.v.B.nX;X1X7X9XGXIXIXUXUXUXUXUXUXUXUXUXUXUXIXIXLXKXKXbXMXmXmXmXmXmXFXGXIXIXIXIXIXIXIXIXUXGXNXNXMXmXMXMXmXMXmXnXnXsXj.w.w.q.0.;.=.*.; 0 0 M.xXBXBXBXeXrXeXF.eXF.F.F.F.].jXeXeXeXF.F.M.S.S.F.F.F.S.S.S.S.M.gXfX",
"eXD.:Xw % 9 q e : p.u.l.tXsXsXsXsXBXBXxXvXvXvXvXvXvXvXbXbXvXzXL.s L.2.- 0 s = 6 <.0.q.e.j.aXNXNXIXIXKXMXmXMXMXmXMXNXKXPXLXIXbX].0 s 6 =.-.-.0.e.j.JXUXUXUXUXUXUXUXUXUXUXUXIX9X9X9X9X9X9X0X0X0X0X0X0X0X0X0X8X2X2XnXjXHX/ ) ( ` ` ` p ` ` p a e e e e e e 9 9 , ] D D S k ) / u u / / x Z P P x D r % # # # i % B.r.qX+ + + + + + O + + + O O + + O + + + O O O O # o PXJXPXB.o.o.# $ $ + + + + o + + o o o + + + # # # # 8 9 } PXJXqX8 # # + + + + + + + # # # + + # + O + + # # # # X gXdXg w @ # # > L Z ] ] ] u u u / ^ t y r t ( j , e > & 9 e 9 9 9 e r r r t t ( p e p p ` v.jX'.;X2X2X0XmXKXUXUXUXUXUXUXUXUXUXUXUXUXUXKXDXIXDXFXMXmXmXmXmXNXNXHXUXUXIXIXUXIXUXUXIXIXGXNXFXbXMXMXMXMXMXmXnXnXyXpXa.w.q.0.=.=.*.; 0 s 4.jXkXeXwXF.F.wXF.F.F.].F.F.F.eXeXeXeXM.M.M.S.F.F.F.F.S.S.S.D.S.gXhX",
"qX4.qXa i i : a : pXh.i.rXrXrXsXBXVXBXxXzXvXvXbXvXvXvXvXbXvXzXzXd D.D.f f s 3 =.,.q.q.j.c.pXNXNXIXIXIXNXnXNXMXmXmXmXNXKXIXKXDX].0 0 6 &.:.q.q.e.pXPXPXUXUXUXUXUXUXUXUXUXUXIXnX9X9X9X9X9X0X0X0X0X0X0X0X2X0X8X2X8X2XnXDX_ ` M.M.M.v.g a a a a e 9 e e e e 9 9 t _ z z _ / ) _ ) ( x x z Z M U x ] t % # # # # + VXtXB.+ + + + + + + + + + O O + O O + + + + + + + + O PXJXSX+.o.B.8 $ + + + o o o + + + + + @ @ + + + # # 8 9 } JXPXqX# # + + + + + + + + + + + + + + + + + + # # # # X dXdXM.8 @ # # > P S ] ] ] u e u k j r r r t / j > 9 ` p 9 9 9 9 9 9 9 a a a a v.M.M.F.v.` ` <X7X1X2X2X0XMXUXUXUXUXUXUXUXUXUXUXUXIXUXUXDXNXFXNXMXmXMXMXmXMXDXKXIXIXUXIXIXUXUXUXUXIXIXKXFXFXNXMXMXMXMXMXMXmXMXDXhXa.h.e.0.*.=.*.; 0 ; f eXeXeXwXF.F.F.F.F.F.F.F.F.F.eXeXeXeXM.M.M.F.F.M.F.F.S.F.S.D.M.gXfX",
"qXe & e i q Y Y : c.rXwXrXrXrXrXeXxXxXxXbXvXvXvXvXvXvXvXvXvXzXNX2.- 0 0 3 < 1 =.:.q.e.c.hXfXcXMXIXIXKXDXNXNXDXMXmXmXmXmXvX<Xf 0 0 0 6 &.:.q.q.e.pXPXUXUXUXUXUXUXUXUXUXUXUXIXmX9X9X9X9X9X0X0X0X0X0X0X0X0X0X0X2X2X2X0XnXB.MX9XZ.a ` N.N.N.N.N.' a a p u 9 % N.' u t t r t k _ _ / S z j l c G S > r O O # O + . SXAXlXO O + + + + + + + + + O O O + + + + + + + + + O UXPXLXi i q # # + + + o o o + + + o + + @ + + + # # # # : JXPXrX# # + + + + + + + + + + + + + # + + + + + + # # X dXdXM.+ # # # & > & ] ] _ e e u / j ^ ( t e e e e 9 N.N.9 a v.v.v.v.M.M.M.M.B.B.N.N.zX2XvXwX0X8X8X0X9X9XNXIXIXUXUXUXUXUXUXUXUXUXIXGXbXNXMXMXMXMXmXmXmXMXNXKXLXUXIXIXIXIXUXUXUXUXIXUXIXKXKXNXMXMXMXbXFXMXMXNXNXcXyXh.e.:.>.=.*.; 0 0 ; F.wXwXF.F.F.F.F.F.F.M.M.F.F.eXeXeXF.F.M.M.M.F.F.F.S.F.S.D.D.S.sXgX",
"r.w w w & i Y ! Y fXrXxXrXrXeXxXeXjXBXBXbXbXvXvXvXvXvXzXvXvXvXD.zX].0 0 5 &.&.;.0.q.e.pXZXhXnXmXGXNXFXUXUXIXIXNXMXmXmXmXnXvXZ.0 0 0 1.&.:.0.q.e.pXUXUXUXUXUXUXUXUXUXUXUXPXIXDXnXnX9X9X9X0X0X0X0X0X0X2X0X0X8X0X2X2X2X2X2X5X5X<XkXkXN.N.` ] ] B.<X].jXwXg % { ( u y y u u ) D [ _ D S / z Z D S > 9 % O O + O 4 VXVXM.+ o + + + + + + + + + + O O + + + + + + + + + + O + # # # # # + + + + + o o o o o o + + o + + + # # # # g dXAXlXO + + + + + + + + + + + + + + + + + + + + + + @ X gXdXrX+ # # # 9 9 % ] ] / e u u / j / _ ^ e 9 9 e & N.N.8 w jXvX>X4Xe _ _ ] ) _ _ o.:X8X0X0X0X0X0X0X0XnXFXIXUXUXUXUXUXUXUXUXIXUXDXNXMXMXMXMXMXMXmXmXbXGXKXUXUXPXUXIXUXUXUXUXUXUXUXUXIXIXIXKXGXbXmXKXUXFXnXnXnXnXyXh.e.0.<.=.*.= 0 s 3 F.F.wXwXwXF.F.F.F.M.M.M.F.F.].F.M.F.F.F.D.F.F.F.F.F.D.M.D.D.S.CXfX",
"| w w w > i Y ! Y hXrXeXrXeXeXrXeXjXCXBXBXbXbXvXvXvXvXvXvXvXvXjXxXzX0 0 5 &.&.;.0.q.q.c.aXpXnXnXmXmXFXUXUXDXKXKXGXNXmXmXnXvXD.0 0 0 1.-.:.0.q.e.c.UXUXUXUXUXUXUXUXUXUXUXUXIXKXNXnX9X9X9X9X0X9X0X0X0X2X0X0X0X8X8X8X2X2X2X6X8X9XvXvXvXN.N.] ] kX4X<X:XjXn.8 ^ y u y t t t _ D S _ D L x l l S x & 9 % # # # O + o o o o o + + + + + + + + O + O O + + + + + + + + + + + + # # # # # + + + + + o o o o o o + + + + + + + + + + O O O O + + + + + + + + + + + + + + + + + + + + + + + # X AXdXBX+ # # # 9 9 & ] ] ( e u u ) j ^ _ ^ e 9 e e & lXN.w 0 NX:X X6Xa ) B.BXrXrXbXvX0X8X0X0X0X0X0X9XnXMXKXUXUXUXUXUXUXUXUXUXIXIXDXMXMXMXMXMXMXMXmXmXbXKXIXUXUXUXUXUXUXUXUXUXUXUXUXUXUXIXIXLXIXFXmXGXPXGXnXnXnXnXyXh.e.0.w.*.*.; 0 s s F.F.F.F.eXeXeXF.F.M.M.M.F.].].D.M.M.F.F.F.F.F.F.F.F.D.M.D.D.D.gXfX",
"@.w w w i i Y ! Y ZXwXwXwXeXeXsXxXjXBXBXBXbXzXzXzXvXzXzXvXzXzXzXDXxX0 0 5 &.&.;.:.q.q.e.e.h.nXnXmXmXNXGXUXIXIXUXUXIXNXmXmXnXD.0 0 ; 1.&.:.q.q.e.j.PXUXUXUXUXUXUXUXUXUXUXIXUXIXGXnXnXnXnX9X9X9X9X0X0X0X0X0X0X0X2X2X2X2X2X2X8X2X2X0X9X<XjXB.B.zX1X9XZ.w w a y t t t k z _ P L S ) D K A l D S x & & O O # + + + # + + + + + + + + + + + + + + + + + + + + o o + + + + + + + + + + + + + o + + + o o o o o o + + + + + + + + + + # # + + + + + + + o + + + + + + + + + + o + + + + + o . r.O.B.+ # # # 8 % & ] _ y u p u ( / / ^ r e e e r 9 w w m.8 M.i 5X6XD.jX<X8X6X7X8X8X8X0X0X0X0X0XnXNXFXKXUXUXUXUXUXUXUXUXUXUXIXKXNXMXMXMXMXMXmXMXmXmXNXIXIXUXUXUXUXUXUXUXUXUXUXUXUXUXUXIXIXIXIXKXmXmXMXmXmXnXmXnXcXh.w.;.w.=.=.5 5 5 5 F.F.F.F.eXwXwXF.F.M.M.F.].zXeXM.F.F.F.M.F.F.F.F.wXF.Z.D.D.S.r.AXSX",
"g q w m.q i 7 ! Y SXF.F.F.F.wXeXeXjXjXxXBXbXbXvXvXvXvXzXzXzXvX- s s 0 0 3 &.&.;.:.q.q.e.j.cXnXmXmXnXnXnXGXIXUXUXIXUXIXbXmXnX'.0 0 ; 1.-.,.j.aXc.h.JXIXUXUXUXUXUXUXUXUXUXUXUXIXKXGXGXFXMXnXnX9X0X0X0X0X0X2X2X2X2X2X2X8X8X2X8X2X2X8X8X0X0X9X9X4X4X4XM.> v.a y e 9 e ) z ) D D x / S G G Z A S x & & # O O + + # # + + + + + + + + + + + + + + + + + + + o o o o o o o o o + + + + + + + + + + o o o o o o o o o + + o + + + + + + + + + + + + + + + + + + + + + + o o o o + + + + + + + + + + + # # # # % > ] ] ( ` ( u u r t k / y e u t r u a kX8 DXg 8X6X6X8X8X8X8X8X8X0X0X0X0X0X0X0XnXKXIXUXUXUXUXUXUXUXUXUXUXUXDXNXMXMXMXMXMXmXmXmXmXmXNXIXIXUXUXUXUXUXUXUXUXUXUXUXUXUXIXIXIXLXIXKXmXmXMXNXmXnXMXMXNXSXsX>.h.*.=.6 5 5 5 F.F.F.F.eXwXF.F.wXM.F.F.F.F.M.M.M.F.F.F.F.F.F.F.F.D.D.D.Z.4.j.e.z.",
". + 8 w i g  .! Y JXS.F.F.F.F.eXBXrXjXxXDXbXbXbXvXvXvXvXzXzXzX- 0 0 ; 0 3 =.&.,.;.q.q.e.j.cXnXnXnXnXnXnXcXKXUXUXLXUXUXGXNXmX].0 0 0 4.>.,.j.sXZXCXKXKXKXIXUXUXUXUXUXUXUXUXUXIXIXIXIXKXKXGXDXNX9X9X0X8X0X2X2X2X2X2X2X8X8X2X8X8X2X8X8X2X8X2X7X7X7X4XF.e VXa _ r e u _ x / z z k / x G G A A Z x & & # # O + + # # + + + + + + + + + + + + + + + + + + + o + o + + o o + + + + + + + + + o + + + o o o o o o o o + o o + + + + + + + + + + + + + + + + + + + + + + + + + + + + + + + + + + + + + # # # # % > [ [ ( ( ( ( e e r j k j t u e e e e lX8 kX:X5X6X6X8X8X2X8X0X0X0X0X0X0X0X0XnXNXIXIXIXUXUXUXUXUXUXUXUXUXLXNXNXMXMXMXMXMXmXmXmXmXmXNXIXIXUXUXUXUXUXUXUXUXUXUXUXUXUXIXUXUXLXHXNXMXmXNXGXmXnXMXNXDXJXZXc.e.*.=.6 5 5 d F.eXeXeXeXwXF.F.F.M.F.M.].F.M.M.M.F.F.F.F.F.F.F.F.D.4.4.4.>.7.7.c.",
"& # & & & X Y  .| JXS.F.F.F.F.S.CXCXCXjX].BXbXbXvXvXvXvXzXzXvX- ; 0 - - 5 =.&.,.:.q.e.j.iXDXbXNXmXnXnXnXnXMXDXHXUXIXUXUXLXKXDXM.0 0 4.-.0.e.h.CXCXFXMXNXNXDXUXUXUXUXUXUXUXUXUXUXUXIXIXIXLXIXKXnX9X0X0X2X2X2X8X8X8X8X8X8X8X8X8X0X0X8X8X8X2X8X7X2X9XbXwXJXBX_ k ^ ( S S z ) ( ( / z L K L G Z x & % O # # + # # # + + + + + + + + + + + + + + + + + + + o + + + + o + + + + + + + + + + + + + o o o o o o o o o + o o + + + + + + + + + + + + + + + + + + + + + + + + + + + + + + + + + + + + # # # # # % > [ [ _ ) ] _ r e r ^ k x ^ u e e e e kXm.o 9X6X6X7X8X2X0X0X0X0X0X0X0X0X0X0XNXKXIXIXIXUXUXUXUXUXUXUXUXUXIXbXMXMXMXMXMXmXmXmXmXmXmXNXUXIXUXUXUXUXUXUXUXUXUXUXUXUXUXUXDXDXGXDXMXMXmXMXNXmXMXMXNXCXJXgX>.;.>.*.3 * = 3 eXkXxXxXjXwXF.M.M.M.M.F.F.F.M.M.M.F.D.F.F.D.F.D.D.D.>.w.>.4.>.>.a.",
"> q e , & X u.tXM.M.F.F.F.F.F.F.F.xXrX].].xXxXzXvXvXvXvXzXvXvX$ 0 0 = ; < =.&.q.e.e.e.sXSXIXLXUXFXmXmXmXmXmXMXKXPXUXUXPXUXPXPXxX0 0 4.>.w.j.c.CXcXNXNXNXMXNXKXKXIXIXUXUXUXIXUXUXUXIXIXIXIXIXKXNXmXnX9X0X2X2X8X8X8X8X8X8X8X0X0X0X0X0X2X2X8X2X0X0X0XDXgXtX' _ l x z G S ] ] / ( / k G J J G A _ & O # # O O + + + + + + + + + + + + + + + + + + + + + + O + o o o + + + + o o + + o o + + + o o o o o o o o o o o + o + + + + + + + + + + + o o o + + + + + + + + + + + + + + + + + + + + + + + # + # # % & ] [ x _ [ { r e r ^ k x z y y / ^ y p HXKXIXnX0X8X0X0X0X0X0X0X0X0X0X0X0XnXKXIXIXUXUXIXIXUXUXUXIXUXUXIXKXNXMXMXMXMXmXmXmXmXmXMXMXFXUXUXUXUXUXUXUXUXUXUXIXUXKXGXGXKXbXMXMXMXMXmXmXMXMXMXmXNXNXCXVXsXsXrXr.4.4.f f 0 jXkXxXxXjXF.F.M.F.F.F.F.F.D.F.F.F.D.F.F.F.F.F.D.D.D.>.7.7.6.4.1.r.",
"i e u , & X l.sXS.F.F.F.F.F.F.F.F.eXxX].].jXjXvXzXvXvXvXzXzXvX$ 0 0 5 d =.=.&.q.q.e.e.sXHXIXLXLXDXNXmXmXmXmXmXGXUXIXUXUXPXPXUXxX0 s 4.;.:.e.iXCXNXMXNXNXMXNXNXbXGXIXIXUXUXIXUXUXUXIXUXIXUXUXIXKXKXGX9X0X2X2X8X8X8X8X8X8X8X0X0X0X0X0X2X2X2X2XnXNX0XVXi.+._ x A D D K D x z / ( ^ k G J K L G x % O O # + O + O + + + + + + + + + + + + + + + + + + + + O + + o o + + + + o o + + o o o o + o o o o o o o o o o o + + + + + + + + + + + + o o o o + + + + + + + + + + + + + + o + + + + + + + + # # # + # X ] [ ] ] [ { e e r k l x x z k k y t e VXIXe lXFX2X0X0X0X0X0X0X0X0X0X0X0XnXIXUXUXIXUXUXIXIXIXIXKXKXGXNXNXMXMXMXMXMXmXmXmXMXmXMXMXFXUXUXUXUXUXUXUXUXUXUXUXUXKXbXbXFXMXMXmXmXmXmXMXMXMXMXmXDXDXCXVXBXsXrX4.4.4.f s D.kXkXxXxXjXF.F.M.F.F.F.F.M.M.F.F.F.F.F.F.F.F.F.D.D.D.4.r.4.4.2.4.gX",
"9 > , t > X l.sXS.F.F.F.F.F.S.F.F.].xXjX].].jXzXzXvXzXzXzXzXvX- 0 s 5 *.=.;.&.w.w.h.h.yXcXKXKXKXHXIXNXmXmXmXmXMXNXGXIXPXUXUXIXxXs 3 4.a.7.c.gXCXNXMXNXNXMXMXMXNXNXFXKXKXKXIXUXUXUXUXUXUXUXIXUXUXUXLXnX0X2X2X2X2X2X8X8X8X8X0X0X0X0X0X0X8X0X9XKXLXHXAXZX#.] D G G G J G ) ) k / ^ k G J P x S _ % # # O + O O O + + + + + + + + + + + O O O + + + + o + O o o o o o o o o o o o o o o o o o o o o o o o o o o o o + + + + + + + + + + + + + + o o + + + + + + + + + o + + + + + + + + + + + + + + # # + # & ] [ ] ] [ ] e e r l A Z Z x l z t r y p m.kXUXLX:X0X9X9X9X9X0X0X0X0X0X9XNXIXUXIXUXUXIXKXNXNXNXMXMXMXMXMXMXMXMXMXMXMXMXMXmXMXMXMXFXUXUXUXUXUXUXUXUXUXUXUXIXDXmXmXmXmXMXMXmXmXmXMXMXMXNXbXDXHXVXBXBXBXrXqX4.3.b.n.F.kXkXxXxXjXF.F.F.F.F.F.F.M.M.D.F.F.F.F.F.F.D.D.D.D.D.S.2.2.2.2.2.fX",
"i i , y Y Y l.gXM.F.F.F.F.F.S.rXeX].zXxXzXjX].F.zXzXzXvXvXvXvX0 s s 3 *.1 ;.&.0.w.sXxXvXnXNXGXKXUXUXKXNXmXMXMXmXMXNXUXUXUXPXIXjXs 3.6.sXCXSXHXCXbXbXMXMXMXMXMXMXMXMXNXNXNXGXGXGXIXUXUXIXUXIXUXUXIXIXDXMXnX2X2X2X2X8X8X8X8X2X0X2X8X0X0X8X8XnXIXSXtXI l S ] A G H J K D / ( / _ ( k G J G S S _ % # # # O O + O + + + + + + + + + + + + + + + + + + + + o o o o o o o o o o o o o o o o o o o o o o o o o + o o o + + + + + + + + + + + + + + o + + + + + + + + + + + + + + o + + + + + + + + + + # # + # & ] z > ] [ { e e r j ^ / D D x x , y ^ ( N.i LXVXKXnX9X0X0X0X0X0X0X0X9X0XNXUXUXUXUXIXGXNXNXMXmXmXNXMXMXMXMXMXMXMXMXMXMXmXmXMXMXmXFXIXUXUXUXUXUXUXUXUXIXKXMXMXmXmXmXmXmXmXmXmXmXmXMXMXMXFXHXVXBXBXxXrXrXeXS.S.b.n.jXxXjXwXF.M.F.F.M.F.F.F.S.M.S.F.F.F.F.F.F.F.F.D.4.4.4.>.7.a.1.2.1.fX",
"i > r t t.! l.gXS.F.F.F.F.F.F.rXeXjXeXxXxXzXF.F.zXzXzXvXvXvXvXD.f s 3 5 &.,.,.q.h.sXxXvXnXMXDXDXUXUXIXDXNXMXMXMXMXNXGXKXUXUXIXzXf D.L.SXIXPXHXCXbXMXMXMXMXMXMXMXMXMXMXbXbXbXMXbXDXKXIXUXUXIXUXUXUXUXIXBXGX2X2X8X2X2X2X2X8X2X0X2X2X0X0X0X2X9XBXI Z ] ] _ S G G H G G S / ( ) ) / z H K P l S z & # # # O + O O O + + + + + + + + + + + + + + + + o o + o o o o o o o o o o o o o o o o o o o o o o o o o @ o o o o + + + + + + + + + + + + + o + + + + + + + + + + + + + + o + + + + + + + + + # + + # # & ] j & ] [ _ e u r u e r S Z S x j / ^ ( ` & r ` JXNX9X0X0X0X0X0X0X9X0X9XNXUXUXUXUXIXNXNXMXmXmXmXMXMXMXMXMXMXMXMXMXMXMXMXMXMXMXMXGXUXUXUXUXUXUXUXIXUXIXGXMXMXmXmXmXmXmXmXmXmXmXmXMXMXNXbXJXBXxXjXeXrXrXrXqXqXS.M.].kXjXF.F.M.F.F.F.F.F.F.F.M.F.F.F.F.F.D.D.D.F.D.a.w.a.7.w.7.1.2.1.hX",
"i e r , 8.! u.aXS.F.F.F.F.F.F.xXrXeXF.rXxXxX].D.zXzXzXvXvXvXvX<XZ.s s 3 1 =.&.q.a.sXbXvXnXnXFXGXLXUXPXHXGXMXMXMXMXMXmXNXKXIXKXxXeX4.S.IXIXUXPXCXbXMXmXMXMXMXMXMXMXMXMXMXMXMXMXMXMXNXGXUXIXIXUXUXUXUXUXIXIXnX9X9X2X2X2X2X8X2X0X2X2X2X0X9XIXGXVXU H ] G A A G G K S / ) / ( / z D G K G G z x x & # # # O * g sXg + + + + + + + + + +       o O + o o + o o o o o o o o o o o + + o o o o o o o o o o o o + @ @ + o o + + + + + + + + + + + + + + + + + + + # O . . + + + + + + + + + + + + M.M.9 O + # % & _ , & { { { ' N.t e e e z Z l S x / / ) / ^ ( N.JXKXNX9X0X0X0X0X9XFXGXGXGXIXIXIXIXGXNXMXbXNXNXNXKXDXNXNXNXNXMXNXNXMXMXMXMXMXMXmXFXIXUXUXUXUXUXUXIXUXIXGXMXMXmXmXmXmXmXmXmXmXmXmXMXMXDXHXBXzXeXrXrXrXrXrXqXqXqXrXeXkXwXF.F.M.F.F.S.M.S.S.S.S.M.F.F.F.F.D.D.D.D.S.h.w.h.7.w.7.1.2.1.hX",
"a y > ' ! ! u.fXS.F.F.F.F.F.F.wXBXeX].jXxXeXxXF.vXzXzXvXvXvXvX<XZ.s s 3 =.=.>.h.sXBXbXvXnXnXmXmXKXUXPXUXIXbXMXMXmXmXmXmXMXNXMXmXMXKXPXPXUXUXIXIXKXbXMXMXMXMXMXMXMXMXMXMXMXMXMXmXmXMXbXPXPXJXUXUXUXIXUXIXUXIXGXKX9X2X8X2X2X2X0X8X0X0X2X9XPXPXPXI Z z S G L G G G ) y ( j ^ / z H J G D P , , , & # # +   qXsXtXg + + + + + + + + o + q dXdX. + o o + + o o o o o o o o o o o o + @ + + + + + o o + + + + + + + + + + + + + + + + + o o + o o + + + + + + # + * hXAX. # + o + + + + # + # + rXqXX O + # O O & O & ] , r ' { t e e r / j / ] z / ^ y ^ j ^ VXtXUXIXnX9X9XnX9X9XDXIXIXIXIXIXIXGXFXMXMXUXIXLXUXUXPXDXDXDXFXDXGXGXFXFXFXFXNXNXMXvXKXUXUXUXUXUXUXUXIXKXNXmXMXmXmXmXmXmXmXMXMXmXMXMXMXLXCXxXxXxXrXrXrXrXrXrXqXrXrXrXjXF.F.F.M.F.F.F.qXqXS.M.M.S.S.F.F.F.S.D.qXeXqX4.6.>.*.1.1.2.2.1.fX",
"i y , ' ! ! u.iXF.F.F.F.F.F.F.F.BXBX].F.xXF.xXeXzXzXzXvXvXvXzX<XD.s s s =.&.7.h.yXxXbXvXvXvXvXmXKXUXPXUXUXbXMXMXmXmXnXmXmXmXMXmXnXFXKXPXUXUXUXUXUXIXDXNXMXMXMXMXMXMXMXMXmXmXmXmXmXmXMX} l F %.UXUXIXUXIXUXUXLXIX<X2X2X2X2X0X2X2X0X9XnXNXPX} AXb H G A G G G A Z ) y ^ j k j z H m A x D > & % % % # # * JXZXtXg O + + + + + + + + o * dXdXO + o o + + o + o o o o o o o o o o + @ @ + + + + o o + + + + + + + + + + + + + + + + + o o + o o o + + + + + # + X gXZX$ o + + + + + + + + # O tXZXAX. # # O O O + & ] , a ' { r e u t 9 9 u x z _ z / k _ ) k { LXIXnXMXnXFX9XnXKXIXIXIXIXIXIXGXFXNXNXAXPXPXHXlX%.HXGXKXGXKXKXKXKXKXKXKXGXDXMXvXIXUXUXUXUXUXUXUXDXbXMXMXMXMXMXmXmXmXmXMXMXMXMXMXMXCXBXBXBXBXrXBXxXxXrXeXrXrXrXrXrXF.F.S.M.F.F.F.S.4.S.M.S.S.S.S.D.D.D.S.r.c.aX4.4.4.6 d 2.2.2.1.hX",
"q 9 9 e $.y.i.aXS.F.F.F.F.F.F.F.F.F.jXwXjXF.kXxXjXzXvXvXvXvXzXvXD.s 0 3 <.;.a.sXxXbXmXmXmXnXmXmXDXHXKXGXKXbXMXmXmXmXmXmXmXMXmXmXmXMXDXIXIXUXIXUXUXUXUXGXDXNXNXNXNXNXbXMXMXMXMXmXmXMXbX{ P H F UXp.JXIXIXIXUXPXPXnX0X2X2X2X2X0X2X0XnXPXLXLX%.p.J n n J P A D S _ ^ y t ^ / k x J m l l A > % % 9 % % # . JXZXtXg O + + + + + + +   UXr.dXdXO + + + o o + + + o o o o @ o o o o @ + + + + @ + + + + + + + + + + + + + + + + + + + + o o o o o + + + + + # # @ & gXgXBXUXo + + + + # + + # + tXhXAX& 9 8 O + + @ & [ ^ r _ { t e y r 9 e ^ l S z k z ) z ) ) _ lXUXVXJXBXKXGXGXKXIXIXIXIXIXKXKXKXFXKXgXdXPXF K A JXHXHXLXLXLXUXUXUXUXUXLXKXGXbXbXDXUXUXUXUXUXPXNXMXMXMXMXmXMXmXmXmXmXMXMXMXMXbXBXBXCXBXBXBXrXxXjXxXrXrXrXrXrXrXrXF.M.M.M.F.F.F.S.S.S.S.S.yXa.a.4.4.a.r.a.w.a.>.>.4.6 d 1.1.1.1.hX",
"8 w w 9 t.9.d.p.wXF.F.F.F.F.F.F.F.jXwXF.M.F.F.xXkXbXzXvXvXvXzX<XZ.f 5 *.:.a.yXxXbXbXmXmXmXmXmXmXFXNXNXbXbXbXbXmXmXmXmXMXMXMXmXmXNXMXMXGXKXIXUXUXUXUXUXUXIXIXDXGXKXKXKXDXMXMXNXNXNXFXDX{ G P A ZXi.JXUXUXIXUXUXUXKXNX9X0X0X9X9X9X9XmXJXZXgXx.~ H H n n H Z ) ) ) ^ t , j j / S J m l x A > 9 9 9 & O qX7 JXSXtXo.# + + + + + + #   JXdXdXdX& + + + o + + + + o + + o + + @ @ o @ + + + # + # + O + # # # + # # # # # # # O + + + + O O + o o + + @ + # # # # : gXgXtXUX$ + + + + + + + # O tXAXAX. # # + O # + & [ y a _ { t e y , 9 e > _ ) z S k x ) / ) z lXlXtXUXJXLXKXKXKXKXKXIXIXIXKXIXIXUXPXPXJXSXG L Z JXPXLXLXUXUXUXUXUXUXUXIXIXKXmXMXbXIXPXPXUXUXIXNXMXMXMXmXmXmXmXmXmXmXmXMXMXMXDXCXBXCXBXBXxXeXjX].eXBXBXrXsXBXeXwXF.D.M.M.F.S.F.S.D.D.4.4.a.7.a.a.7.w.w.a.a.>.>.>.4.1.d f d 1.1.hX",
"8 q i % x.j.j.iXS.F.F.F.F.F.F.F.F.F.wXkXjXF.F.jXxXzXzXvXzXzXzXvXZ.f 5 >.a.xXzXbXmXmXmXmXmXmXmXmXbXNXNXbXMXbXmXmXmXNXbXDXDXNXMXMXNXMXMXMXNXGXUXPXUXUXUXUXIXIXIXIXIXUXIXKXNXNXNXNXFXFXDX+.A G G U AXAXJXUXUXUXUXUXUXNXnX9X0X9XNXKXGXCXSX%.F c P L H G H H Z ) / / y , k S z k S J m l S A , 9 9 9 % g SXJXJXSXtXo.# + + + + + + + $ PXdXdXdX& + o + + + + o + o + + + @ + + o o + % % % % % % # # + # # # # # % % & % % % % O + + + O O + o o o + @ # # # # # * gXgXgXIX@ @ + + + + + + # O tXAXSXq VXBX+ O # # & [ y a ] ' t e t t 9 9 e y r y z j k / ^ / z ) j _ N.+.UXIXIXGXKXKXIXIXIXKXIXUXPXUXPXdXF L L S VXLXLXUXUXUXUXIXIXIXIXIXLXIXMXvXFXLXPXPXIXUXKXbXMXmXmXMXmXmXmXmXmXMXmXMXMXMXDXCXVXCXBXxXeXF.].].rXBXBXrXsXBXM.F.F.M.M.M.F.S.S.S.D.D.a.w.a.w.a.a.a.6.6.>.6.1.4.4.4.1.2.d 6 1.1.hX",
"i 7 7 x.h.r.S.S.S.F.F.F.F.F.F.F.F.F.F.kXjXF.F.eXxXxXbXvXzXzXzXvXZ.2.L.S.yXvXmXvXmXmXmXmXmXmXmXmXbXbXvXvXbXbXzXbXjXjXwXrXSXAXBXNXMXMXMXNXNXKXDXKXUXUXUXUXIXIXUXUXUXUXUXIXbXFXGXGXGXKXHXtXA A D U [ %.i.JXPXUXUXUXUXIXnX0X9X9XNXUXPXtXt.%.P K H G G A A Z z / ^ y y , x G x j S J m l x S , 9 9 9 9 g JXJXJXSXi.o.# + + + + + . BXrXSXdXdXdX& + + + + + o o + + + o o @ @ + O # r z S ] ] _ _ ( # # # # % , k ) ) _ ) / y > # + + + + + + + + + + @ # # # # # : gXgXAXIXPXUXO + + + # # # & i.AXAXJXPX* 8 # # # > [ y u _ _ u a p u e 9 e e e t _ D x ] z _ ) ) ) ] ] ' UXUXIXDXHXLXUXIXUXUXPXUXJXi.%.P L D P S VXPXUXUXUXUXUXIXIXIXIXIXLXUXGXFXNXGXKXKXGXNXNXMXMXMXMXMXmXmXmXmXmXMXMXMXNXDXCXDXeXjXeXeXjXF.eXxXBXBXBXxXrXeXF.F.F.D.F.F.F.S.S.M.M.D.6.7.>.7.w.6.d *.>.=.>.*.1.>.>.1.f d 1.1.1.fX",
"i 7 Y u.j.a.4.S.S.F.F.F.F.F.F.F.F.F.F.jXjXF.F.F.F.wXF.vXzXzXzXvX<X<XzXzXvXvXvXmXmXmXmXmXmXmXmXmXmXbXvXvXvXbXwXwXwXwXF.wXAXAXVXDXMXMXMXMXMXmXmXMXNXGXIXUXIXIXIXIXIXIXIXIXIXKXKXKXHXHXHXlXA A Z S G { G AXJXUXPXPXPXPXFX<XKXKXNXUXJX%.i.%.A H H G A A A z , y r e > , S G x j l H J c A A ^ e 9 & tXqXSXSXSXAXi.O.@ + # + + + . JXJXAXdXdXdX& + + + + + + + + + + + o + @ # r & t z D A Z A Z ) r > > & & z S D D S ) k j r r & O + + + + + + + + + # # # # # : gXgXAXPXUXVX# # # # # # # & i.AXgXAXKXD.KX9 % O X [ ] ] [ _ t 9 u _ e 9 9 & y y y _ x x k k / ) ) _ x z ) LXIXLXLXPXUXUXUXUXPXUXPXi.Q %.A z z D dXUXUXIXUXUXUXUXUXIXUXIXLXUXGXKXFXbXDXFXbXMXMXMXMXMXMXMXMXMXMXmXmXmXMXbXVXHXCXBXxXjXF.jXF.BXBXrXBXBXBXrXF.F.F.F.M.F.S.S.S.S.S.D.D.D.r.a.7.w.7.4.4.>.>.>.4.1.d 6 *.*.d d d 1.1.aX",
"i i 7 r.j.a.4.S.M.D.F.F.F.F.F.F.F.F.F.wXjX].F.F.F.wXwXzXzXvXvXvXvXvXzXvXvXvXvXvXmXmXmXvXmXmXvXvXvXvXvXvXvXzXF.F.wXF.F.wXAXdXDXDXMXMXMXMXMXMXmXmXmXMXGXIXUXIXUXUXUXUXUXUXUXIXIXIXKXKXKXVXD A Z { D { A { tXAXJXPXUXPXIXKXUXPXrXtXF G P P G G L G G G G z , u r > & , Z G x j z G m M n H ) e 9 > AXAXgXSXSXAXi.+.# + # + O O O LXJXSXdXdXdX& + + + + + o + + + + @ @ + # # t > ^ x D A A D D _ t , t > > j _ _ _ x ) ^ ) u y e # O O O + + + + + + # # # # # i gXgXgXUXPXKX# o # # # # # > i.gXgXAXIXxXHXq e & > [ [ [ ] _ r 9 r _ u 9 8 % r > > , k ] j k ) z x _ ) ) z { PXPXUXUXUXUXUXUXPXdXdX%.G P l / ) { lXUXUXUXUXUXUXUXUXUXUXUXUXUXKXHXKXNXGXFXMXMXMXMXMXMXMXMXMXMXMXMXMXMXMXbXHXHXCXxXxXjXF.F.eXBXBXsXBXxXxXeXF.F.F.F.F.F.S.qXS.S.S.S.D.D.4.>.<.>.>.4.1.*.6 6 1.d d d *.1.d 6 6 >.1.h.",
"i i i t.h.a.4.S.M.D.M.M.S.F.F.F.F.F.F.F.jX].F.F.F.F.F.zXzXzXvXvXvXvXvXvXvXvXvXvXvXvXvXvXvXvXvXvXvXvXzX].F.F.F.F.F.F.F.S.rXAXVXVXbXMXMXMXMXmXmXmXmXmXNXFXIXIXUXUXUXIXUXUXIXIXIXIXLXLXKXHXF D S F { { P P H y.SXAXJXJXSXLXJXSXdX%.P P A L Z Z Z Z l l j k j ^ , > & , Z G x , z G n n n m ) e e > SXAXgXAXSXdXi.#.# # # # . CXVXUXJXSXdXdXdXO O + + + + + + + + @ @ + & > & j j S D L L H H G ) ( ^ u t , D G P G P D / ) u u e % & + + + + + + + + # # # # # i gXgXgXPXUXxXHXUX+ # # # # } $.gXdXAXJXBXqXe p e > ] S S _ ' e e e ' u 9 # % e u e y / ] z z _ x ] z ) ) k I uXdXAXAXSXZXZXJXZXp.P P x Z S k k JXtXPXIXUXUXUXUXUXUXIXUXLXLXLXKXKXKXbXMXMXMXMXMXMXMXMXMXMXMXMXMXMXMXMXNXDXxXkXxXeXeXjXF.rXxXsXsXBXBXjXF.F.F.F.M.D.S.F.S.S.S.S.S.4.S.S.4.4.>.>.>.1.f 2.2.f 1.d 1.*.>.*.*.>.:.>.6 aX",
"i i i r.h.a.2.S.M.M.M.F.F.F.F.F.F.F.F.F.F.F.jXwXF.wXF.zXzXzXvXvXvXvXvXvXvXvXvXvXvXvXvXvXvXvXvXvXzXzXF.wXwXF.F.F.F.F.F.F.eXCXAXAXDXbXbXbXbXMXMXmXMXMXMXMXFXKXDXHXIXIXIXIXIXUXIXLXIXKXKXHXlX' S Z P A P H H U y.%.p.y.Q b gXZXhXy.P P H U G G G A Z k , t e & > , > , x A x , k G n n n G ) e r : SXZXAXAXJXdXi.@.O # + + . JXUXUXSXgXdXdXdXO + + # + + + + + + @ + % > ^ ^ _ Z G P L L H V V P x ^ u t j J P M J D x D [ ' ` t ( u + + + + + + + + # + # # # g gXgXgXSXHXBXPXLXo # # # O JXdXdXgXgXsXrXlXu p 9 > D Z S _ ' e 9 e ` ` 9 # 8 e e e t , j , j j ) ] z z S j U Q Q V b G G c c c c A D k ) / k k LXPXUXUXUXUXUXUXUXUXUXLXDXKXNXNXMXbXMXMXMXMXMXMXMXMXMXMXMXMXMXMXMXNXNXxXBXBXjXjXjXwXeXrXxXxXsXsXsXrXjX].F.F.F.F.eXqXS.S.S.4.a.r.a.a.<.1.6 >.>.*.1.f 2.f d >.>.*.*.*.*.>.*.6 6 6 hX",
"i i i t.h.sXZ.D.S.S.M.M.M.F.F.F.F.F.F.F.F.F.eXeXF.F.F.jXjXjXvXvXvXvXvXvXvXvXvXvXvXvXvXmXvXvXvXzXjXF.F.F.F.F.F.F.F.F.F.F.eXrXBXAXCXbXbXMXbXMXmXMXMXMXMXmXMXGXGXGXIXIXIXUXUXUXIXIXIXIXKXLXLXHXx A H G P K J n %.b b C U n %.tXuXU P P H G A G Z l k j , , 9 9 > j , , z S z , k G J G G D ( e e > SXAXAXAXSXAXZXAXX # + + + PXUXUXAXuXdXdXdXO + + + + + + + + @ @ + & , , j ) D H H P K P P V M F j u y l H P P D _ ) P S ( ` t y e % O + + + + + + # # @ # # g gXgXgXSXPXHXUXwX+ # 8 # O JXAXSXZXgXsXtXtXu p 9 > S S x ) _ ^ e e ` ` 9 8 9 9 & 9 e > , t y , / z k D S j x c A A A G G Z G G D S D k ) / ) x LXUXUXUXUXUXUXUXUXUXUXUXKXDXNXMXMXMXMXMXMXMXMXMXMXMXMXMXMXMXNXDXDXDXxXxXCXkXjXjX].F.xXxXxXxXsXsXBXeXF.].F.F.F.M.F.eXS.S.D.D.a.r.4.4.4.6 f >.1.1.1.d 1.1.1.w.w.*.*.*.*.1.*.5 d 6 hX",
"q : : i.sXsX2.4.6.4.M.S.F.F.F.F.F.F.F.F.F.F.rXrXF.wXwXjXwXwXvXvXzXvXvXvXvXvXvXvXvXvXvXvXvXzXjXjXeXF.F.F.F.F.F.F.F.F.F.F.F.wXxXAXBXDXDXMXNXMXMXMXMXMXMXmXMXNXDXNXbXGXKXIXIXUXIXIXUXUXIXIXLXLX_ x D D D L K K M P H y.p.H L K K S z S A l z x S k , , > t 9 9 > z D j j z k k S G L _ ] ] ( e e , AXgXgXAXrXtXtXtXX # O qX* PXUXUXJXdXdXdXdXO + + + + + + + + # # # > , j _ z S U 8.E U U U U P P k u y l P [ [ L [ ] L D ] ( u u t , & + + + + + + # # @ # # g gXgXgXSXJXJXJXB.. # 8 8 # tXi.tXsXtXqXqXqXe p 9 > S x _ ^ ] ] r 9 u u 9 B.a 9 % % e y y r t y ^ y k x k y x D G D A P P A D G { x S ) _ ) B.B.LXUXUXUXUXUXUXUXUXIXDXKXbXNXMXMXMXMXMXMXMXMXMXMXMXMXMXMXNXDXDXCXCXHXBXeXjXjXjXjX].jXCXxXxXsXsXeXeXF.F.F.F.F.F.M.F.F.S.M.M.S.yXqXZ.Z.2.f f 4.4.1.1.a.w.w.>.w.:.*.*.*.6 d 6 d 5 6 hX",
"i i : tXiXsX3.1.a.4.S.D.S.S.F.F.F.F.F.F.F.F.F.eXwXeXeXwXrXeXzXvXvXzXvXvXvXvXvXvXvXbXjXF.wXwXwXwXwXwXF.F.F.F.F.F.F.F.F.F.eXwXwXrXBXHXBXNXbXbXMXMXMXMXMXMXMXMXMXNXNXNXGXIXIXUXIXIXUXUXUXUXLXLXlXVX/ ) z x S Z G P G M b H L K K x / ) A G P k k , t , > > & % > x K j j ) j x S ] S / _ ] u 9 & : dXZXgXAXrXrXtXrX& o $ JXVXPXUXUXJXdXdXdXVXO + # + # # + + + + # # , j ) l U U E W 8.9.~ ~ ~ Q [ ^ p j Z H P P K L [ [ D ) ( p p t y & + + + + + + $ # # # $ g gXgXAXSXUXPXsXtXdXJX# 8 # tXi.tXsXtXqXtXrXe e 9 & j ^ y , ^ r u 9 e r e N.e % % % 9 t > e r , ] j _ y y y k S S l l A D l z x z k k ( ) k HXIXUXUXUXUXUXUXUXUXIXDXNXFXMXMXMXmXmXMXMXMXmXMXMXNXNXNXDXDXCXAXAXJXCXxXeXjXjXkXeXjX].jXCXsXrXxXxXjXF.D.M.D.].F.F.F.S.S.a.r.h.h.h.a.>.>.>.f f f 4.>.*.w.<.>.1.*.6 6 6 *.*.6 6 5 5 6 fX",
"i i a dXfXsXC.3.6.6.4.D.r.S.S.S.F.F.F.F.F.F.F.eXeXeXeXF.eXeXjXzXvXvXzXvXvXvXvXvXjXjXjXF.wXwXwXwXwXF.wXF.F.F.F.F.F.F.F.F.eXwXwXrXBXCXJXDXNXNXMXMXMXMXMXMXMXmXmXMXMXMXbXIXIXUXIXIXUXUXUXUXLXUXHXtXj ^ _ _ z z x S S A G D D D P z / / D A l j ) ^ > r > & & y > z P , , ^ j ) ) ) _ / ( ) r 9 9 > dXZXgXAXrXtXtXtX& o + PXJXPXUXUXJXdXdXdXdX. + # + # # + + + + # # , j / l U M E ~ iXg.Q Q ! Q { j p j Z V Q Q Q Q A [ L ] ( ` u > y & O + + + + + $ # # # # i gXgXZXSXPXPXdXdXdXHX# 8 # tXi.tXdXsXqXqXB.e e 9 % r u u e a 9 e 9 e r 9 a a 9 9 8 9 e > e e t j l k y u t j l l z k l Z z j k ^ ^ / ( ) y BXLXUXIXUXUXUXUXIXKXKXGXNXNXmXMXmXmXmXMXMXMXMXMXMXNXDXHXAXCXJXJXxXyXjXjXjXjXeX].jX].eXrXCXBXrXsXrXeXF.F.F.D.F.].F.D.S.h.h.a.>.<.7.w.w.w.6.f f f >.<.*.<.>.*.*.1.6 6 6 6 5 d 6 5 5 d aX",
"i > X AXgXgXqX4.4.S.D.4.>.4.S.S.F.F.F.F.F.D.D.S.F.D.D.F.eXwXF.vXzXjXjXjXzXjXjXjXwXwXF.F.F.F.F.F.F.F.F.F.F.F.F.F.F.F.F.F.jXeXwXwXrXBXPXBXNXNXNXMXMXMXMXMXMXMXMXmXmXmXNXKXIXIXUXIXIXUXIXUXUXIXLX+.a VX` _ ] z ] ] ] D D ] S S D ) ( ^ j j k k ^ , j > > & & { _ , , > r y k l ) ) _ ^ u _ r 9 9 e dXtXdXdXrXtXtXtXX # o PXPXPXIXUXJXdXdXdXVX. + # # # # # # # + + # , j j l M M ~ 8.iXZX8.d.j.Q Q x ( ^ Z C W W 9.u.I ] ) ) ` p u , ^ & O O O + + # # # $ $ $ i gXgXAXSXPXPXdXdXdXJX# 8 # tXi.tXdXsXtXtXB.e e > : > t t t ' p u e 9 e 9 e p kXM.8 9 % > > e e t ^ y t y t j z x z j k x / t ^ z k ] / ' LXKXIXIXIXUXUXUXIXKXNXMXMXMXMXmXmXmXmXmXMXMXMXMXMXMXbXDXAXSXCXxXCXjXjXjXjXjXwXrX].].eXBXBXBXxXrXBXeXF.D.D.D.D.D.F.F.S.4.a.w.w.>.>.<.<.>.<.<.1.6 *.<.0.<.<.<.<.*.6 6 6 5 6 6 6 6 5 5 d aX",
"i 7 8.a.>.>.a.4.4.3.3.4.a.a.S.D.D.S.F.F.F.F.D.F.F.F.F.F.wXwX].jXjXeXF.F.F.F.F.F.F.F.F.F.F.F.F.F.F.F.F.F.F.F.F.F.F.F.F.F.wXeXeXwXwXkXeXDXBXVXNXMXMXMXMXMXMXMXMXMXMXMXMXMXNXDXUXUXUXUXUXUXIXIXUXPXPXHX` _ _ ) _ _ z S ] x _ _ _ / ` u u r u ` p 9 e r 9 > , r u r y z , ) z A x ) _ y r ^ z , % & g dXSXAXqXrXtXqXO # o LXLXUXUXIXJXdXdXdXVXO # # # + # # # # + # # > , , l P M E W y.SX8.iXc.Q %.S / ^ S U ~ W 8.~ P [ _ ( ` ` u r t & O # # O + O + + # # # i gXZXAXSXAXJXdXdXdXJX# # O sXtXtXsXtXtXtXg e e D K S t e r ( r r r e e e e e v.w w 8 % e e e e u u u r u r t j , ^ ( j / ^ u y ^ y N.i O IXIXIXUXIXUXUXUXUXGXNXMXMXMXMXMXMXmXmXmXMXMXMXMXNXNXHXHXCXAXxXjXjXeXF.F.jX].].eXeXeXrXsXsXrXsXrXeXF.F.D.D.F.D.D.D.S.S.6.a.a.w.>.>.=.=.*.*.*.*.<.>.*.*.>.>.*.*.1.1.6 6 5 6 6 6 6 6 d 6 sX",
"i 7 e.a.<.<.a.4.a.1.2.2.6.a.S.D.F.S.S.F.F.F.D.F.F.F.F.F.wXF.].eXeXrXwXF.F.F.F.F.F.F.F.F.F.F.F.F.F.F.F.F.F.F.F.F.F.F.F.F.F.rXeXeXjXjXkXBXVXHXDXMXMXMXMXMXMXMXMXMXMXMXMXMXMXFXIXIXUXUXUXUXUXIXIXUXBXqXlX( ) / ) ) / ) ) / / ( ( ` p p u r p p p 9 9 9 & , x y e 9 e z l z x G z / z z D P P z & o.#.B.tXdXqXqXg g       LXLXUXPXUXJXdXsXdXdXO # # # # + # # # # # # & , , x M M U ~ uXZXt.i.l.%.~ S / / D U Q ~ 8.~ P [ [ ) ` ` u e r & # # # O O O # # # # # i gXAXZXSXAXJXdXdXdXLXo # o M.g qXrXtXqXqXa e t P K S ^ r e e e t , t r 9 e e w F.kX8 8 9 9 9 u u u r e u t u ( y u u , ^ / u u p u N.DXrXIXIXIXIXIXUXUXIXKXNXMXMXMXMXMXMXMXMXMXmXMXMXNXNXNXHXCXCXxXxXeX].].eXF.].F.F.].eXrXxXxXBXxXxXyXeXF.F.D.D.F.F.D.D.S.S.S.4.4.>.w.>.*.=.=.*.*.*.*.<.*.1.*.>.*.*.6 d 6 6 5 5 6 5 5 5 5 4.7 iX",
"i h l.h.<.<.<.j.j.4.2.3.4.a.>.D.S.4.4.D.D.S.D.M.F.D.S.F.S.S.wXkXeXwXF.F.F.F.F.F.F.F.F.F.F.F.F.F.F.F.F.F.F.F.F.F.F.F.F.F.F.yXrXeXwXeXeXeXBXxXHXDXbXMXMXMXMXMXMXMXMXMXMXMXMXMXNXbXKXUXUXUXUXUXUXUXUXPXUXr ( u u u u u e e u p p u p p u t p p p a 9 9 & j D k t u 9 j G A D G j y / l H A G S & % 9 r a r.r.qX9 . i JXAXAXPXPXAXVXAXsXdXdXdXO # # # # + . . *   o + O , j l M M U u.I g.8.iXaX%.~ S ) z A U U U ~ ~ P L D _ ` ` u e e % % % q i # # # # # # $ : AXAXSXSXJXPXdXdXdXlXkXkX# # 9 lXqXM.8 9 a e ^ K J Z S ^ 9 e e , k j , 9 9 9 9 w M.w # 8 8 9 p p p p e t u p u u p p u u u p e v.B.i IXIXIXUXIXIXIXIXDXNXNXMXMXMXMXMXMXMXMXMXMXMXMXMXNXDXHXDXCXCXjXjXjXjXjXwX].F.F.rXeX].F.xXrXeXrXF.eXwX].D.S.qXS.D.D.4.a.h.a.d f 1.7.>.*.>.*.1.*.6 *.>.*.5 6 >.6 d f f >.6 6 5 5 5 s 5 5 h.9.w.",
"* Y l.h.=.>.:.j.e.a.2.3.5.=.;.>.<.:.>.S.D.M.D.D.D.D.D.D.F.S.wXS.S.S.S.F.F.F.F.F.F.F.F.F.F.F.F.F.F.F.F.F.F.F.F.F.F.F.F.F.F.xXrXrXeXeXwXjXjXzXHXDXDXNXbXMXMXMXMXMXMXMXMXMXMXMXMXMXFXHXUXUXUXUXUXUXUXUXUXUXUXN.( p p v.v.p p p v.` p p p a a v.v.v.w 9 > i j j , k , Z K G K G t r ^ l G D P P , 8 9 e a qXr.qX9 # + AXdXAXPXPXSXVXAXdXdXtXlXO # # # + O sXJXJXHX+ @ O > j Z m n U f.p.fXu.iXpX%.y.F / z A y.~ Q ~ y.b L D _ ` ` u e & % % q tXtXlXi # # # # # * JXSXJXAXSXJXdXdXdXlXkXkX# % % wXi M.w 9 e e S J J P x ) 9 e e > z j ) r 9 u e 9 M.m.8 % 9 9 v.e e a e e u p u u u u u p e p e & UXUXIXIXUXUXIXUXUXIXFXNXMXNXMXMXMXMXMXMXMXMXMXMXMXMXDXHXBXDXzXkXjXjX].jXeXF.].F.F.F.].].].xXxXrXrXeXeXD.D.D.rXqXqXD.4.a.6 7 r.f f 2.7.>.>.*.d 6 >.<.7.<.>.1.f d 5 d 6 f 1.6 5 3 5 3 s 5 6 7.h.eX",
"* Y uXsX1.=.<.w.j.c.yXS.5.>.>.>.>.:.>.S.D.S.S.D.D.D.D.D.D.S.wXM.wXqXS.F.F.F.F.F.F.F.F.F.F.F.F.F.F.F.F.F.F.F.F.F.F.F.F.F.F.wXrXrXwXwXwXjX].jXBXVXDXCXbXNXMXMXMXMXMXMXMXMXMXMXMXMXNXUXUXUXIXUXUXUXUXUXUXPXPXB._ ( ` ' ` ` p ` ` ` v.' v.v.v.N.N.N.8 % k r y , , k D G K H H G , r ^ k F h F H , % u r g g i i 9 8 # AXdXAXJXPXAXdXVXtXtXtXlXO # # # + O sXAXSXJX@ @ O > , Z K H C u.iXZXaXfXpX%.~ F ( l c 8.f.u.x.y.b L L _ ` ` r > & % % qXuXl.dXB.8 # # # # & JXSXJXJXSXJXdXdXdXrXkXkX% 9 9 a v.M.9 w 9 > D J G D k ) % e r r j j x y 9 a 9 9 B.m.8 % 9 M.m.m.M.M.v.v.v.v.v.v.v.v.v.v.v.w M.i IXIXIXIXUXUXUXIXIXKXNXNXMXNXMXMXMXMXMXMXMXMXMXMXMXNXDXHXCXxXjXxXjXeXjXeXF.F.F.F.F.].].].].rXrXeXeXD.D.D.D.S.eX4.S.S.4.a.1.2.4.1.4.1.7.>.*.1.d 1.>.>.<.>.>.2.d s f d 6 6 6 5 5 3 5 3 3 d 1.4.h.a.",
"* : sXsX1.=.=.;.;.,.aXCX3.*.>.<.7.>.2.D.D.S.4.S.D.S.S.D.M.M.g S.eXqXS.F.F.F.F.F.F.F.F.F.F.F.F.F.F.F.F.F.F.F.F.F.F.F.F.F.F.F.eXrXeXeXeXwXjXeXKXAXVXBXDXbXMXMXMXMXMXMXMXMXMXMXMXMXMXNXNXIXUXUXUXUXUXUXUXUXUXLXLXUXUXHXN.N.N.N.N.N.B.N.N.N.v.v.v.a 9 > D _ y ^ ^ j m J H H k , y r ^ j A j A J F % e 9 # 8 8 8 8 8 O AXgXAXPXPXJXAXAXtXtXtXtXO # # # + O tXAXSXPX8 @ o O > , ) l I u.p.ZXhXfXpX%.%.{ / l A 8.s.8.f.y.M L L _ ` u > & & % # tXl.l.dXwX8 # # # # X JXSXJXJXSXJXdXdXdXrXkXkX% 9 9 8 8 9 9 8 9 j G H D D k ) & e > r z l x ) u u e e 9 jXkX# 9 M.m.w w w w B.B.wXkXwXkXkXkXkXIXUXUXUXIXIXIXUXUXUXUXIXKXFXNXNXMXMXMXMXMXMXMXMXMXMXMXMXNXDXDXDXrXjXjXeXjXeX].F.F.F.F.F.F.].].eXrXsXsXsXrXwXD.S.S.S.S.M.M.M.4.r.r.r.>.>.1.1.7.>.d d d 4.>.1.=.*.*.d f f f f r.>.>.5 5 3 5 3 3 3 3 4.l.iX",
"* 7 SXsX1.1.>.>.;.w.c.CXC.>.>.<.>.4.4.4.4.4.4.r.g r.4.4.S.S.S.S.4.4.S.4.r.S.F.F.F.F.F.F.F.F.F.F.F.F.F.F.F.F.F.F.F.F.F.F.F.F.eXeXwXF.F.eXF.].wXCXAXBXDXCXDXDXDXMXMXMXMXMXMXMXMXMXMXMXNXIXUXUXUXUXUXUXUXUXUXUXUXUXUXUXo.' ' ' ` u u > xXbXjXzXzXn.8 & [ P / ^ A G m m J G S y t r j c H P F P F O 9 e & e 9 # 8 8 . SXgXAXPXUXJXsXtXtXtXtXqX  O O # # O tXAXAXVXLX% O o @ % z l F u.l.hXfXaXpX%.%.{ / l G 8.l.l.u.u.V L [ ] ` u & % % % O tXuXuXdXkX8 # # + lXr.AXdXdXdXVXSXdXdXdXrXkXkX% 9 9 9 9 9 9 % > S G S k S j j & 9 e e z j z x / j r e u v.kX8 M.KXbXDXGXGXLXB.] j g g i g ' a IXUXUXIXIXUXUXUXGXIXUXKXFXNXNXNXMXMXMXNXNXNXNXMXMXNXDXbXDXBXxXxXxXjXjXeXeXeXF.F.F.F.F.F.F.wXeXrXsXsXsXrXrXeXD.S.D.M.D.M.M.Z.D.r.6 6 7.>.7.6.1.d d d d >.>.1.>.*.1.d f s 7 7 >.>.>.4 5 3 4 3 3 3 5 4.h.iX",
"Y X.JXsX1.1.>.>.;.&.7.CXD.>.*.2.1.4.7.w.w.1.2.4.4.2.2.S.S.4.4.2.2.S.4.4.h.a.S.F.F.F.F.F.F.F.F.F.F.F.F.F.F.F.F.F.F.F.F.F.F.F.eXeXF.].wXeX].].eXjXBXBXxXBXBXBXBXNXMXMXMXMXMXMXMXMXMXMXMXFXKXIXUXUXUXUXUXUXUXIXUXUXUXUXUXUXUXIXHX_ ] / DXFXNXNXnXU.R.].^ Z z ) H m n L A G G j r e > > > , D D S z k S D S , , , & O ZXgXgXJXJXJXsXdXtXtXtXqXqXg % 8 # O tXAXAXgXVXX + o @ % j l F W 8.j.d.9.f.%.%.{ j S G 8.g.k.f.u.V L L ] ' u & O # # O dXuXuXdXrX8 # # O VXdXAXdXdXdXdXAXAXAXAXrXkXkX% % & > : j k ) S S ] ] ) ) u u e 9 9 9 ^ y y x z j > r u p v.8 a UXHXKXKXKXLX#.G N.IXIXIXUXUXIXIXIXIXIXKXGXGXKXFXNXNXMXMXNXNXNXNXMXMXNXNXCXJXbXbXbXDXjXxXDXxXzXzXeXjXjXeXeXF.F.F.F.F.F.F.eXrXrXsXsXsXwXS.D.M.M.M.Z.D.M.n.2.4.7.7.7.>.>.>.*.1.d d f d >.-.1.1.d 2.2.4.*.7.7.7.7.7.2 5 6 >.*.3 d 5 >.f.iX",
"h $.JXsX1.1.6 *.;.;.<.CXAX6.1.C.2.>.>.<.w.1.2.4.g 2.2.g S.S.S.2.2.g 4.4.w.7.4.S.F.S.S.S.S.F.F.F.F.F.F.F.F.F.F.F.F.F.F.F.F.F.eXeXF.wXwXeX].].jXjXeXxXBXBXBXBXBXDXbXNXMXMXMXMXMXMXMXMXMXNXNXNXUXUXUXUXUXUXIXIXIXUXUXUXIXUXIXIXHX' N.N.DXDXGXDXmXQ.NX<Xa l z y l G G L D Z Z , r r > 9 t k A D G L D D P P : > > & & dXuXdXgXAXAXtXtXtXtXtXqXqXi % # # O sXSXAXdXqXo n.@ @ % j z F W 8.d.d.u.x.%.%.{ k S D 8.8.8.8.~ V L K ] ' p % O # + + gXuXuXdXlX8 # # O dXdXdXdXdXdXtXtXtXtXtXrXwXwX% % > , x P P G G S ) _ y ( e 8 9 8 8 % k j j x z j t r r e M.KXw IXKXKXKXKXUX#.{ lXIXIXUXUXUXUXUXIXKXGXFXFXFXNXNXNXNXNXNXNXNXNXNXMXMXNXDXCXJXBXzXjXzXjXjXkXjXjXeXjXjXF.S.S.F.F.F.F.F.F.F.rXsXsXsXsXsXS.D.D.D.Z.M.2.4.M.n.4.a.q.w.w.*.2.2.d 1.d d d d <.>.*.1.6 1.>.6.*.6 2 >.>.<.6 5 *.&.*.3 3 5 4.u.aX",
"h $.hXh.1.f f 6 >.;.>.sXh.>.2.2.1.>.>.1.1.4.2.2.4.4.2.S.S.S.S.Z.f g 4.4.a.a.4.S.S.S.S.S.S.S.S.S.F.F.F.F.F.F.F.F.F.F.F.F.F.F.wXwXwXF.F.eX].eXjXjXF.wXxXrXBXBXBXCXDXDXNXNXNXMXMXMXMXMXMXMXNXNXKXIXKXIXUXUXUXUXUXUXUXUXUXUXUXUXIXIXUXIXIXIXHXHXxXIXVXVX' z z _ D G G H K Z z , r e 9 9 t z Z x G P P G L P , , , > & i.tXdXdXdXdXtXtXtXtXtXB.B.9 # & dXqXsXSXJXJXUXxX'.@ @ % , z A W 9.9.d.aXfX%.%.U x S D 8.~ ~ 8.~ C L L ] ' p # O O qXdXgXuXuXdXlX8 # # @ tXtXdXdXdXdXtXtXtXtXqXqXkXkX& & r & D H n P P D ( ` p p 9 8 8 # 8 e z l _ z z ) t u t e a M.v.KXKXLXHXHXIXUXUXUXIXIXUXUXUXUXUXKXNXNXNXNXNXNXNXMXMXMXMXNXNXNXNXNXDXHXHXCXBXzXeXjX].].].].eXsXh.S.F.S.D.D.D.D.S.S.S.qXrXsXgXsXsXyXS.S.D.Z.Z.Z.Z.a.a.f S.4.a.e.w.w.*.d d d 1.d d d 5 7.:.<.*.6.7.q.w.<.5 d 1.*.*.5 5 *.*.>.5 5 6 4.r.fX",
"h $.iXh.1.f f 4 &.;.;.a.uX6.2.4.2.1.1.2.2.1.2.f 2.2.2.4.4.S.S.M.g f 2.4.>.a.4.4.4.4.6.4.4.4.4.S.S.F.F.S.F.F.F.F.F.F.F.F.F.F.F.wXwXF.F.].].eXF.F.F.wXF.rXrXBXBXAXHXHXDXDXNXMXMXMXMXMXMXMXNXMXNXNXNXFXKXUXUXIXIXUXUXUXUXUXUXUXUXIXIXUXUXIXIXKXDXPXh F z _ z G G G m H G A F j t e 9 9 > , k z A P H c P P j l l > & ' o.tXdXdXtXqXtXtXtXtXM.B.# # > dXdXSXSXJXJXJXxXR.8 @ % , k Z 8.W W 9.pXiX%.%.Q S S D Q Q C W W V L L ] ' p O O O qXdXSXSXZXAXlXkXwXO + tXtX@.dXdXdXtXqXB.+.+.o.M.v.& > , > P U U P G D / u u e e 8 8 & 9 e z z k _ k j t r r e e e B.KXDXLXLXKXIXUXUXUXUXIXIXIXIXKXIXFXMXMXMXMXMXMXMXMXMXMXNXNXNXNXNXDXDXHXJXxXjXjX].].].D.S.6.a.a.h.S.F.qXa.qXD.D.S.4.sXhXZXqXyXD.D.2.Z.Z.Z.Z.Z.Z.Z.a.<.4.a.a.>.<.&.&.*.1.1.d d f 1.w.w.0.:.<.*.d 6 0.=.=.5 1.d d 5 s 3 5 5 3 3 3 5 h.t.aX",
"h t.h.h.1.d s s 6 ;.;.6.sXyX6.4.2.1.1.1.1.1.2.2.2.2.1.4.4.g 4.f f 2.2.4.4.a.a.r.>.<.<.4.4.<.4.S.wXF.S.S.F.F.F.F.F.F.F.F.F.F.F.F.wXF.F.F.F.F.].F.].F.wXwXrXrXrXVXVXVXDXbXNXNXNXNXMXMXMXMXMXMXMXMXNXNXGXIXUXIXUXUXUXUXUXUXUXUXUXUXUXUXIXUXIXNXeXPXF G D S S P H G G G D S x j , > e e y y , z D H P G P L z D S > 9 9 v.qXdXdXdXqXtXtXtXtXB.B.# # e dXAXSXSXJXSXJXxXI.$ # % , j x 8.8.8.9.c.iX%.%.Q S S [ Q Q E W W U L [ ] ' e O + O qXdXJXSXSXAXlXkXB.# O qXtX| dXdXdXtXtXtXqXqXo.B.v.& > z j D A G A x / u u e 9 e 9 9 > r t l l z _ z x y u e e e r kXKXm.KXHXKXIXUXUXUXIXIXIXIXIXGXKXNXMXMXMXMXMXMXMXMXMXMXNXNXNXNXNXDXKXBXwXxXjXjX].].D.6.a.<.w.a.a.4.n.yXa.a.D.4.a.qXqXqXyX4.2.Z.D.D.Z.V.D.Z.Z.Z.Z.a.<.w.h.w.;.a.>.<.*.1.d d d d *.q.0.:.:.<.5 1.6 a.*.d 5 5 d s 5 3 d *.5 s s s d c.d.hX",
"Y  .h.w.d d s f 6 ;.=.*.sXa.<.*.2.1.4.>.>.4.4.1.1.2.1.4.qXr.4.f g 4.2.4.4.:.w.>.>.a.7.>.6.6.S.S.S.S.S.S.S.D.F.F.F.F.F.F.F.F.F.F.F.F.F.F.F.F.].F.F.F.F.F.wXrXxXCXBXBXHXDXNXMXMXNXMXMXNXMXMXMXMXMXMXMXMXNXDXIXDXKXUXUXUXUXUXUXIXUXUXUXUXUXIXHXwXPX{ G A A D x D D S D S S Z l l , > 9 t / z z ] l P P S S j D ] & 9 9 B.lXVXdXdXtXtXtXtXqXB.M.@ # e gXgXAXSXSXSXJXrXwXq # % > , x 8.8.8.9.x.iX%.%.%.x S D Q ~ Q E Q U L [ ( 9 9 # + O O.dXJXSXSXZXrXrXB.# % O.tXo.qXtXtXdXtXtXtXtXa u e % , [ ] [ x D G _ ( u u u e r e e > u u x x z z k z , r e e e e kXIXF.KXKXIXIXIXIXKXKXGXKXKXKXFXFXMXMXMXMXMXMXMXMXMXMXMXNXNXNXDXHXJXxXxXjXjXeXeXL.a.7.w.a.1.4.>.h.a.D.a.r.a.4.qXaXiXS.CXyX4.D.Z.Z.Z.V.Z.4.4.4.4.4.w.w.;.>.>.*.*.1.*.5 d d 6 w.7.*.0.;.<.<.<.*.d *.w.*.1.6 >.4 3 7.>.>.*.5 s s s 3 z.f.7 ",
"Y 7 7 7 d f f f s =.&.&.h.e.e.h.2.1.d 1.1.2.1.1.1.1.2.2.2.f 4.1.4.a.a.4.4.a.w.*.d *.w.w.4.4.w.w.a.a.S.S.S.D.D.F.F.F.F.F.F.F.F.F.F.F.F.F.F.F.F.F.F.F.F.F.wXeXxXBXrXCXHXDXDXNXNXNXNXNXMXNXNXMXNXNXMXMXMXMXMXMXmXvXIXUXUXUXIXIXUXUXUXUXUXIXUXKXxXPX{ A A G G S L G D L G H m m b l > 9 9 > ) j _ , l P G F F L [ & % 9 a o.a g tX+.qX#.i.+.g M.# O e gXgXgXZXZXZXJXtXqXqXi % > > z 8.8.8.8.z.x.~ ~ Q x x A Q W 8.W ~ Q [ [ ` 8 8 9 q % g sXZXgXgXZXrXqXM.8 # : +.o.O.qXqXtXqXg O.B.a & & & , P P G l D G x ^ u ` ` % % % 9 r t > x x z z z z k t t r e 9 kXIXIXKXIXKXKXKXKXGXGXGXGXGXFXFXNXMXMXMXMXMXNXNXNXNXNXNXNXNXDXxXCXDXkXF.zXjXeXeXL.6.6.a.4.2.3.4.h.a.2.6.a.h.4.4.4.4.2.2.f 2.3.Z.Z.Z.V.Z.2.a.e.w.0.w.0.<.*.1.5 *.=.1.d d d 6 e.e.0.0.;.>.d d d 1.d d s d 5 6 5 s 6 6 6 6 3 s s f 3 z.g.} ",
"Y hXZXrXs s s s s =.;.;.w.w.e.a.2.2.2.2.2.2.1.>.*.1.1.d f f 4.>.a.<.h.4.1.1.4.1.2.1.a.a.*.>.w.w.a.a.S.D.S.D.D.F.F.F.F.F.F.F.F.F.F.F.F.F.F.F.F.F.F.F.F.F.F.eXyXBXrXrXrXxXBXKXDXNXNXNXNXNXNXMXMXNXNXMXMXMXMXmXMXmXIXUXUXUXUXUXUXUXUXIXIXIXIXPXIXPX{ c A G G A J J G L L J J H G S > 9 9 % j y ) ^ z K H A G K P & > , > r o.y ( +.qX#.tXB.g M.# % e AXZXAXZXZXZXSXqXqXqXi % > > z 8.8.8.9.z.x.~ ~ Q S S A E ~ 8.~ ~ Q [ ] ` 8 8 9 q q O.dXSXAXAXZXrXqXM.8 # > o.g B.O.O.B.qX& & e & j j > j [ D D k z z / y r p p % % 9 9 r ^ j z S x x z z / r , t r e kXIXPXIXIXKXKXKXKXGXGXGXFXFXNXNXNXMXMXNXNXNXNXNXNXNXNXNXDXDXCXxXjXzXjXeX].].].eX6.4.Z.4.4.2.4.>.0.6.2.6.4.a.4.D.2.4.2.2.2.4.4.Z.2.4.2.2.a.h.q.q.:.w.w.<.*.d d 1.*.5 d d d 5 w.0.:.>.>.1.d f 1.*.d d d d 5 >.<.d s s 3 s 3 s s s 3 c.j.| ",
": gXaX4.s s s s 3 =.=.=.*.w.e.a.2.2.4.1.2.2.*.>.>.>.<.>.1.d 4.*.*.1.*.1.4.4.4.1.2.2.f f 1.1.1.1.1.1.2.4.a.6.D.F.F.F.F.F.F.F.F.F.F.F.F.F.F.F.F.F.F.F.F.F.F.eXyXxXrXrXBXBXxXDXDXDXFXDXFXNXNXNXNXNXNXMXMXMXMXmXnXmXKXIXIXUXIXUXUXUXIXUXIXPXUXUXUXJXh A A G H F D H H G H J L S x _ r 9 9 9 u t y ^ z D x S P L P j S P j e e , j o.+.} #.B.i M.# % > AXgXgXAXZXZXSXqXqXqXi 9 9 > j 8.8.9.9.f.u.~ ~ Q _ x A E ~ W W W Q ] ] ` 8 8 % & i O.dXAXAXSXZXqXrXF.# O 9 a i B.o.o.o.B.a 9 9 & S D z j ] _ ) y e t y t e p e % 9 9 % > ( x Z D S S x z ) y y ( u e BXPXPXUXIXIXKXKXIXKXKXKXGXNXFXFXFXNXNXNXGXGXGXGXDXNXNXNXDXJXBXjXzX].eXeX].].].yXh.6.Z.4.4.4.6.a.a.f b.Z.2.2.2.2.2.2.2.2.2.Z.Z.2.a.e.>.a.w.0.0.>.*.*.*.1.1.1.d 1.1.1.d 6 w.w.0.<.>.1.*.1.d d 1.*.6 d d d d 6 >.6 f >.4 s s s s s < j.j.Y ",
": dXgX4.s s s s 3 =.=.=.=.w.e.>.2.1.2.2.1.2.1.1.1.1.1.*.*.1.1.1.1.1.1.1.>.w.w.w.<.6.d f 1.6.1.1.*.6.2.4.<.;.a.6.S.S.D.].F.F.F.F.F.F.F.].].F.F.F.F.F.F.F.F.].F.wXwXeXeXBXrXrXxXCXbXbXNXMXNXNXNXNXNXNXNXMXMXMXMXmXmXMXNXIXIXIXUXUXUXUXUXUXUXSX$.I [ A Z Z A l z Z J J m m J S S D , 9 > 9 & > j j , > e ( F h l P K J l k j , ) ' o.' ' a # 8 # % > AXgXgXAXZXZXSXrXqXtX> o.& & r y.~ W pXiXuX~ ~ Q x S A E W ~ Q C U ] ] ` 8 8 9 o.g O.gXAXdXdXAXqXqXM.O O % # # q q a a a w e r , P L P G ] ( ( t e e r t e u e 9 9 % > > > z G J J G x x k ^ y ( u e e e a HXrXIXKXIXIXLXIXIXKXDXKXKXGXGXKXKXIXIXLXKXDXDXDXNXxXBXeX].].].D.F.].].].6.h.w.6.4.d f S.4.4.V.V.D.2.V.V.2.Z.2.2.Z.Z.Z.2.2.7.0.w.w.w.>.<.*.1.2.2.2.1.d d d d d f 1.>.:.:.-.=.1.1.>.1.d *.2 5 *.1.5 1.6 >.6 0 3 3 0 s s 4 g r.pXj.k.",
": gXgXr.s s s s 3 *.=.=.=.w.w.*.2.1.1.1.1.1.*.*.>.*.*.*.1.1.1.1.1.1.1.1.4.w.w.w.<.>.6 2.1.<.1.1.4.4.2.2.a.w.a.a.a.a.6.D.F.F.F.F.F.F.F.F.].].F.F.].F.F.F.F.F.F.F.wXwXeXxXeXkXxXBXDXbXbXNXNXNXNXNXNXNXNXNXMXMXMXMXmXmXNXKXUXUXUXUXUXUXUXUXSXZXy.U P A Z A n c Z A m m n m K D D A z j j > % > , ^ > u e y H b P K J J D [ k & & # # # # O @ 8 8 % > AXdXdXZXhXhXSXrXqXqXtXqX& % e %.E 8.pXiXp.~ ~ Q S S A E W W E U P ] ] v.8 8 % o.B.O.dXgXgXgXAXqXqXM.O % % + + # # # 8 # 8 r / _ P K J K D ( ( t > > r t e 9 9 9 9 > k ) j x G H U G S l k ^ ^ ` u u p p e PXUXIXKXIXIXIXIXIXIXKXIXIXIXIXIXUXUXIXIXUXGXDXKXCXsXsXeX].].eXD.].].D.yXa.h.w.4.3.2.M.D.S.Z.2.f Z.2.Z.2.Z.2.Z.Z.2.Z.2.Z.2.a.7.<.w.0.<.w.*.1.2.2.d d d d d 6 6 d 1.>.>.:.>.*.>.*.<.*.d 1.*.1.*.1.d d 6 -.6 s 5 s s s s 7 iXhX7.t.Y ",
"h aXgX4.0 0 0 0 ; =.=.=.*.w.w.4.2.4.3.*.a.w.<.>.w.*.>.>.4.1.1.1.1.1.1.4.2.*.*.*.*.<.<.d d 4.1.1.4.*.1.f 1.4.4.1.>.a.a.4.D.F.F.F.F.F.F.F.].].].].].].F.F.].].F.F.F.F.eXrXeXeXrXCXrXBXxXxXxXxXcXNXNXNXNXNXNXNXNXMXMXMXNXFXIXUXUXUXUXUXPXIXI p.~ P H M P G n n n n n G H G K D D G A x k r 8 % > y j , r t j , j Z m J A l ] 9 9 9 % & & % # 8 8 # X dXtXuXhXhXZXSXrXqXqX@.#.& % 9 %.~ 9.x.x.p.~ ~ Q S S A E W E E U [ _ _ v.8 8 % o.o.O.dXdXAXZXAXqXqXM.8 & X O X & X & & O @ r ^ z L P D D ] ( u t > > r t & # # 8 e > S P G Z G A A D D G P z ^ u r r p p e q M.KXHXIXIXIXIXIXUXIXUXUXUXUXIXIXUXxXKXKXxXxXyXr.sXsXeX].].].D.D.D.r.w.<.a.a.a.2.2.Z.D.4.Z.V.2.Z.Z.V.Z.V.Z.V.2.1.1.1.1.1.a.0.&.=.=.=.&.*.d d f f 1.1.d 6 w.w.w.7.w.7.>.>.d d d *.d d d d d d d f f d d d 6 *.6 f s s 7 tXPXl.g.! ",
"h gXZX4.0 0 0 ; 3 *.=.=.>.w.,.1.2.3.2.1.6.<.<.>.a.4.6.6.a.gXgXgXgXsXa.a.4.1.1.d 1.>.*.d d d f 2.*.w.<.>.f 2.2.4.4.a.a.4.3.D.D.D.D.F.F.F.F.F.F.F.].].].].].F.].F.F.].wXwXF.wXeXBXrXxXrXBXBXBXzXNXNXNXNXNXNXNXFXFXNXNXNXNXKXUXUXIXIXKXUXUXI %.%.Q U b c A c n n n n Z Z A G D L H P k y r % # > ( ^ y > ` ) _ _ k x A A x [ 9 9 z P P [ z e 8 8 # X dXdXuXAXSXSXJXsXqXqX| +.% 9 9 ' ~ W u.k.p.~ ~ Q S S c E W E E U [ _ ` v.8 8 % o.B.qXdXdXdXdXSXB.qXM.9 > : : : A A A ] , r z ] _ S D / u t p p u t t t t e # # # r > x G G Z D D x G K K P z y u u u ` r lXr v.HXHXKXKXKXKXKXKXKXIXIXIXLXDXGXGXxXzXzXeXyXyX4.4.4.D.D.].D.4.4.D.a.w.<.3.2.2.2.2.D.S.2.V.V.V.Z.V.V.Z.2.2.Z.2.>.e.w.w.w.e.w.>.=.=.=.*.1.d f f d 1.*.1.*.w.<.<.>.>.>.>.*.d d d d d d d d d d d d d d d f d s s s s s 4 i.JXY Y Y ",
"h gXfX7 ; ; 0 ; ; < < 1 >.<.<.*.1.4.6.a.a.0.e.w.h.c.c.c.c.hXhXhXhXfXc.a.4.4.6 d 1.1.d d d d d d *.7.w.w.d 1.4.4.1.1.4.4.D.D.D.F.D.F.F.F.F.F.F.F.].].].].].F.].].].].F.F.F.F.F.wXjXwXwXxXsXsXxXNXNXNXNXNXNXNXFXFXFXNXNXNXFXKXKXKXFXFXIXUXQ Q y.~ V m G G c b n n n Z S D D G J m G k ^ ^ u % % & % % % ( ` ` ^ S Z Z H G D , , h H b H j > 8 # # X dXdXdXtXtXsXAXtXqXqX| O.% 9 % } y.8.9.k.p.Q ~ Q S S c E E E E U [ _ ` v.8 8 % g a g tXO.qXqXdXqXtXv.9 > : , j c c A D j k ] [ ] D D / r u p p e % & % % % % 9 9 u ^ A J J G D D _ S L K L x / ` u u u u N.u v.KXKXKXKXKXKXKXKXKXKXKXDXKXGXGXbXzXzXyXeXyXyXD.S.D.D.D.D.D.a.6.D.a.w.6.C.Z.Z.Z.Z.S.4.2.V.V.2.Z.2.2.2.4.4.4.6.>.w.<.<.<.:.:.>.=.=.2.2.1.d f f d 6.w.a.a.<.>.*.4.1.1.1.1.d d d d f d d d d d d d d d d d d d d s s s 4 r.SXi.$.Y ",
"Y 9.t.AXs ; 0 ; 3 ; s 5 =.<.;.<.w.0.w.:.0.,.0.0.<.e.q.e.e.2 >.-.2 2 >.*.*.1.d 1.1.1.d d d d d d 5.*.*.1.2.4.4.2.2.2.6.4.4.4.D.D.D.].].].].].F.F.F.].].].].].F.].].F.F.F.F.F.F.].].].].yXyXsXeXF.xXBXBXxXbXbXFXFXFXFXFXNXNXNXNXNXFXFXUXUXI U P P H H n n n n M M n c Z D S G J m A k / ( y & # # # # % ( ` _ u t y / ) ) z A P U V n U l _ > ^ & O o.qXtXtXtXqXqXo.o.o.g o.% 9 % ' y.8.9.k.p.Q Q Q S Z c E E E Q M [ _ ` ` 8 # # o.g g tXtXqXB.VXO.qXv.9 & h c c U Q Q U F P [ x / / / , e e p p e # # # 8 8 # 9 r y j c m m H G G ] / x K G D ] ] _ ` u r r e a IXKXIXKXGXGXGXFXFXNXNXNXNXMXbXxXyXyXyXyXL.eXD.D.S.S.qXeXD.6.4.4.4.4.4.Z.Z.Z.Z.Z.4.4.Z.Z.Z.2.2.2.2.1.<.0.w.w.q.w.1.1.=.1.=.=.=.5 d 5 1.1.4.4.4.w.<.<.<.<.1.1.1.1.1.1.d d d d f d d d d d d d d d d d d d d d s s s 4 r.ZXt.t.h ",
"7 8.t.JX0 s 0 ; 3.; s < >.>.>.>.<.;.,.:.w.7.>.;.>.< &.1 1 1 d >.>.7.e.w.w.a.7.r.i.i.i.h.l.l.4 1.1.*.1.4.>.a.a.1.1.1.4.4.5.5.3.4.D.F.F.].].].F.].].].].].].].].F.F.].].].].F.].].].jX].jXjXjXjXjXxXBXBXxXxXbXNXFXNXNXNXNXNXNXNXIXUXIXPXIX%.M M H M U V M M n n n n n m m H G H K D ) / ( y & # # # # % ( ( ( u r e e r r ) P V V U b U c G l x & # % a qX& B.+.B.B.o.o.i g % 9 # h y.W 8.l.p.Q ~ Q Z x c Q E E Q P [ _ ` v.8 # O a a a qXqXg g i e 9 w 8 > l c A U U Q U P G P z 9 e e e e u p p e # # # # 8 % > / _ z c J m J H H P D D K G D S / y u y t u p a UXLXKXKXKXKXKXNXNXmXnXnXvXvX<XzXyXyXyXL.L.D.D.4.4.4.r.S.4.4.3.3.3.3.2.3.3.2.3.2.4.4.4.2.4.4.>.4.4.w.<.,.,.0.q.0.1.5.5.5.1.=.=.1.yXa.yXa.a.h.a.<.<.<.>.>.*.d f f f f f f f f f f f f f f f f d f d d d d d d s s s 4 r.fXt.Y Y ",
"Y !  .AXf 0 ; ; 2.0 ; 3 >.1 1 =.<.<.<.>.;.2 5 *.6 3 d 5 5 3 d 4.>.r.e.e.9.9.7.t.u.u.u.f.s.f.7 r.a.a.h.p.l.g.h.4.a.a.h.4.4.>.6.a.yXyXyXF.eXeXeXeXeXeXeX].F.F.].].].].].].].].jXjXjXjXzXxXxXxXbXbXbXDXDXDXDXDXDXDXDXDXDXDXDXGXGXUXPXPXPXUXQ V U n b M V M M M n n M J H n n b J K D z ) ( y & # # # # % u y y u r e e u t j M V C E V U A P l , O O % a B.9 B.+.B.+.} o.g 9 8 8 # h p.8.8.l.uX~ ~ Q Z l c Q E E Q P [ _ ` v.8 # # e 9 e qXqXo.g i q 9 w 8 > Z G A P H Q U P H P x e e e e u p ` p 9 # # # # # % > ) _ z c J m m J m m J H H L D x ) ( ` ( y ` N.a UXIXHXIXIXIXKXNXNXMXvXvXvXvXzXyXyXyXeXeXS.S.4.6.a.a.6.4.4.4.4.4.4.4.4.4.6.6.6.4.6.a.a.4.a.a.7.<.>.w.w.w.w.w.w.w.7.a.a.a.r.r.a.4.iXuXuXl.l.f.h.7.7.7.a.a.r.r.r.r.r.r.r.r.r.r.r.| | r.| 7 7 g g g g g g 7 7 7 i i i 7 | aX$.! : ",
"Y ! Y AXf 0 ; ; ; ; - ; 6 5 5 1.*.5 1 *.>.1.5 6 *.6 <.7.w.w.w.e.e.w.e.e.e.e.9.u.s.u.f.f.f.l.l.l.l.l.l.l.f.d.g.k.l.l.l.l.l.x.x.z.z.x.iXsXCXVXAXAXAXHXHXHXLXIXIXIXIXIXIXIXUXUXUXPXUXUXUXUXPXPXUXUXPXUXUXUXUXLXUXIXIXIXIXIXGXGXGXIXUXPXJXPX! U U n A b M M M M M n n n n n n H J J A z _ ( y & % % # # % u ( ( ( ( u e r ( ) S Z G P n L Z P A > : l x ^ 9 # B.B.B.B.a & % 9 8 8 # h u.8.8.l.uX~ Q Q l l Z Q E E Q D [ ` ` v.w # # # # # M.B.g a g 9 9 e u z c m b V M [ P D x ] _ y % 9 u ` ( ( ( 9 # # # # 8 % > / ) x A m m n n n n J J H L G P [ ) u u u p N.kXe B.IXIXUXPXUXKXKXIXKXKXIXKXIXPXPXUXUXUXPXUXPXJXPXJXJXAXAXgXgXgXiXuXiXx.iXiXiXx.iXx.l.h.k.k.k.k.l.k.x.z.l.l.l.uXl.p.l.l.l.l.l.l.uXuXuXuXuXl.p.p.p.p.l.l.p.p.u.f.f.u.u.u.u.u.u.u.u.u.9.u.u.y.p.p.p.p.p.p.i. . .| 7 l.i.fX .h : ",
"Y ! | AXf ; ; ; ; - - - d d s d d 1.1 &.;.:.*.*.>.2 :.q.q.q.q.q.q.q.e.q.e.e.d.u.s.f.f.f.l.l.l.l.l.l.uXl.i.l.l.l.p.uXl.l.l.l.z.h.h.uXgXAXSXHXHXHXHXHXKXKXKXKXKXKXKXFX X X X X X X X X X X X X X{. X X X X X X X X X=X=X=X%X=X6XKXPXJXuXJXgXC M J G G M M M M n n n n n n n H H m A z _ ( y > r r # # % e e 9 > ( ( ( e > r > j D K J G l G K Z P J K D & 8 8 # # # 9 9 8 9 # 8 % h u.8.~ 8.~ ~ Q Q l l D Q E C Q D ] ` ` v.w # # # 8 # # 9 8 9 8 > F P P D c G b m G ] [ { r > r & % 9 ` ` u e u 9 % # # % e 9 r / ) x c m n n n n n n n J K G G [ ) u ( ( u N.v.` B.KXGXJ.}.}. X}.{.{.{.|. XnXnXnXnXcXcXcXcXcXNXFXFXNXcXcXcXCXCXyXcXsXiXiXsXsXsXiXiXuXiXl.x.l.l.l.iXiXiXiXuXiXuXuXuXl.l.l.l.l.p.uXl.l.l.l.l.l.f.u.l.l.f.f.f.f.f.u.u.u.u.u.u.u.u.u.8.y.y.u.u.y.y.t.t.t.i.t.r.r.7.a.hXfXl.: & q ",
"7 ! Y AXs 0 ; ; ; ; - 0 3 s 3 3 6 >.&.&.-.w.7.-.<.4.-.:.:.:.:.w.0.7.0.0.0.w.w.u.u.f.f.l.l.uXl.uXuXuXuXuXuXuXuXuXuXgXuXuXuXuXiXl.l.dXdXsXyXyXzXzXL.:X:XL.L.L.J.J.}. X$X$X%X%X%X%X*X*X*X*X%X%X%X%X%X%X*X*X%X*X%X=X=X=X=X=X=X=X6XGXPXAX! dXI U M n b n V M M M M n n n n n n H G G A z _ ( y , y t % % # % % % 9 ( ^ ( t > 9 e y z P G D G H L G M J H P & # % 9 9 & 9 9 & > & % % ' u.8.~ 8.8.~ Q U Z c P Q E U U D ] ` ` v.w # # % % & & & & 9 9 > P K K A c G G J D ' _ _ e 9 9 9 9 e ` ` u # 9 # # # # & ( u r ( / S c n n M M n n n n J K G G L ) y ` ( u p p lXlXlXDX:X=X=X$X$X$X$X$X$X$X$X$X$X$X$X=X$X{.|.|. X X|.|. X X X X X XCXsXsXsXsXsXgXgXgXiXiXuXiXiXuXiXgXgXiXx.iXiXuXuXx.l.l.uXuXl.uXl.l.uXl.l.l.l.l.l.l.l.l.l.f.f.f.u.u.u.p.p.p.u.u.u.p.p.p.u.y.y.y.i.i.i.t.r.r.7.a.SXhXuX .: : ",
"i Y Y AX= s 0 ; ; 3 5 3 - - 5 >.< >.:.>.< < 5 5 =.5 1 ;.<.<.<.,.0.0.w.w.w.w.0.d.h.h.p.sXuXdXsXsXuXsXuXuXsXsXsXsXsXsXgXsXsXsXsXsXsXCXHXDXGXDXFXNX9X|.|.|.|.|.|.$X$X$X$X$X$X$X%X%X%X%X%X%X*X%X%X%X%X%X%X%X%X%X*X%X%X=X=X=X=X=X1XGXUXSX%.p.M M n V C C E U M n M n n n n n m m H H A ) _ / y y y t % # O # % % % u u ( y , 9 9 r t r t k G H A G M m J P X & > , l l _ / _ k t % % ' p.8.~ 8.8.~ Q U Z c G U U U U ] _ ` ` v.8 # > , , l l l j : X X P J J A c G G G ] u e e 9 9 9 e e r ` ` e @ # # # # # % u u r ( ) A b n n M v M n H J J K L G K A Z / u u p e u ( N.BXFX1X=X=X=X$X$X$X$X$X$X=X=X$X$X$X$X|.$X$X$X$X$X$X|.|.|.|.|. XCXCXCXcXcXcXcXcXCXAXCXCXCXAXAXAXAXAXCXgXgXgXgXgXgXsXgXgXsXsXgXsXsXsXuXuXuXuXuXuXuXl.l.uXl.l.l.l.uXl.p.p.p.i.i.i.tXtXuXtXp.p.i.i.i.p.i.a.a.a.a.uXsXr.: X q ",
". X : PXr.yX; ; 3 6 &.6 3 ; 6 >.< 5 1 1 3 d 5 5 =.5 5 5 5 *.*.1 =.=.<.0.0.q.0.a.a.a.yXyXyXyXL.L.yXyXyXyXL.L.:X:X:X:X:X:XcXcXcXcX:X;X<X<XnXNXNXFXNX|.{.{.|.|.|.$X$X$X$X$X%X%X%X%X%X%X%X%X*X%X%X%X%X%X%X*X*X%X*X%X*X%X=X=X=X9XnXDXPXSX~ v v M b M V C E C v n n n n n J b m m G m A / / ^ ^ y y r % # # O % # % % 9 9 ( y e r y r e r k D A G n n m n n P P P G U U U ' _ / t & 9 ' u.9.~ 8.u.y.Q U A c H V U P [ ] _ ` p v.@ O % > , H m n n H P P P m m G c G Z Z ) p e 9 r e e y t e e e 9 # # # # # # % u t t ) k G n n M M v v n H H K G ] D H J H _ ( u p u ( _ ' DXDXMX2X=X=X=X=X=X$X%X%X$X=X%X=X$X$X$X$X$X$X$X$X$X|.|.|.|.|.|.cX X X{.K.H.H.J.J.J.J.J.nXnXnXnXnXcX:X9X:X:X:X;X:X;X;X;X}.}.;X;X;X;X;X;X;X;X;X;XJ.J.J.L.:X:XL.L.yXeXeXL.L.L.L.yXeXeXrXyXeXeXL.D.D.eXr.6.a.h.h.ZXpX8.! Y & ",
"  . . qXgXgX; 3 3 1 &.*.5 3 5 5 3 3 s s 3 d 5 5 5 3 3 5 5 =.5 5 5 5 ;.;.<.w.,.4.6.6.6.L.L.G.C.C.C.J.J.J.J.J.}.{.H.}.{.{.{. X:X:X}.{.{.{.E.A.E.A.}.{.OX$X$X$X$X$X$X$X%X%X%X%X%X*X%X%X*X*X*X*X*X*X&X&X%X%X%X*X%X*X%X%X=X5X9XNXCXBXAXp.Q Q M M M M M V C v n n n n n n n b m m G H G / ^ ^ ^ y y r % # O % % O % % 8 9 r y > > t , , ( j k l A G H m m m J K H b U C U j , , , > 9 } u.9.~ 8.9.y.E U b G H V U G D _ _ p p v.o O > > , G n n n J n n H H H H G G S _ ) p e r t r > y r & % 9 9 # # # # # # % t t ^ x j A n n M v v M n H H L D ] D L L A ) ` u p u ^ _ u HXDXDXGX:X=X=X=X=X$X$X$X$X=X%X$X%X$X$X$X$X$X$X$X$X X X X X X|.{.H.{.H.H.H.H.{.H.J.H.H.H.H. XH.H.J.{.{.{.{.{.{.{.{.{.{.{.H.H.{.A.H.H.H.A.A.A.A.A.A.A.Z.C.C.C.C.C.V.C.C.C.Z.C.Z.Z.Z.Z.Z.G.Z.C.A.L.yX4.=.c.fXj.hXg.8.! Y i ",
"q | Y u.aXZXs 3 d *.< 3 d - 0 0 f 0 0 3 5 5 =.&.=.5 5 =.1 =.=.5 1.=.>.=.<.;.&.;.6.L.eXL.yXL.L.A.A.A.H.A.A.J.}.}.}.}. X}.{. X:X9X}.{.{.{.XX{.{..X.X.X.X=X%X$X%X$X$X%X%X%X*X*X*X%X&X&X*X*X*X*X*X*X%X%X%X&X&X%X%X%X%X%X=XMXDXAXJXJXdXuXM b b M M M M M b n n n n n n n n b G G H m G ^ y / ^ t y r % # % O % % % % 9 9 % > y y ^ y e e a 9 u ) _ ] D A A D D D A U U P A A D _ , 9 } u.9.~ 8.8.9.E U m H H U U P [ ] _ ( v.m.@ & j l l G m n m c c Z Z Z A G D D t e u e e t ^ ( t r e 9 % % % % # # # # # % t y z A j G n n n M M M M M M H H H H L L l ) ^ p p u ^ _ ( k B.KXHXGX=X=X=X%X%X%X%X$X=X%X%X%X%X$X$X%X%X$X$X$X$X$X$X$X|.|.|.|.|.{.{.{.{.H.H.{.J.J.H.H.J.H.H.:XJ. X XK.H.H.K.H.{.H.{.{.H.{.H.J.J.L.J.J.J.G.J.J.C.Z.A.A.C.Z.Z.Z.Z.Z.Z.Z.A.A.C.C.A.A.A.A.A.C.xXuX1.=.a.fXh.c.8.! ! h i ",
"i 7  .! w.sXs ; 3 = - - d s 0 s f 0 3 =.=.=.1 &.=.6 6 *.*.*.*.=.1.6 *.1.*.>.>.>.5.C.Z.Z.Z.C.A.Z.A.A.H.A.A.J.J.}.}.}.}.;XA.{. X}.}.OX.X.XXX.X$X%X$X$X%X%X%X$X$X$X%X%X%X%X*X*X*X%X*X*X*X*X*X*X*X*X&X&X%X%X%X%X%X*X*X%X%XNXJXLXJXuXQ %.Q V M M M M M M b n n n n n n n n G l Z A G D j ^ ) ^ y y r % # O O % % % % % e r u ( > & % p p e % r ( ( ( ^ / / / / / ) x ] S S x l z , 9 } u.9.~ y.9.y.E U G P H V M P S _ _ ( v.m.@ & j l l A A A A S S x ) / / / / / e 9 e e p e & 9 9 r e % % % % # # # # # % % t y l Z l G n n M n M M M M M M M n n m J H [ _ u ( ( / _ _ z , UXLXGX+X*X=X%X*X*X*X*X%X*X%X%X*X%X%X%X%X%X$X$X%X$X$X$X$X$X X X X=X}. X}.}.;X}.J.H.J.J.J.H.H.H.J.yXyX:XJ.L.L.L.L.L.J.J.J.J.J.L.G.L.L.J.L.G.J.J.Z.Z.A.Z.Z.Z.Z.Z.Z.Z.Z.A.A.A.C.A.A.A.A.A.3.sXD.6.=.d f hX9.d.! Y Y : i ",
"i 7 | t.fXJXg 0 - - - - d 3 ; ; s ; 3 =.=.=.6 *.=.5 3 3 s s 3 d d d 2.1.1.1.=.*.3.C.Z.Z.Z.Z.A.A.A.A.J.J.A.J.}.}.J.;X;X;XA.{.H.E.{.{..X.XXXXX$X%X%X%X$X$X$X$X%X$X%X%X*X*X*X*X*X*X*X*X&X&X*X*X*X*X&X&X*X%X%X%X%X*X%X*X*X9XJXLXSXc n v U U V M M M M M n n n n n n n n J n J J Z Z D ^ / ) ^ y y t % O # % % % # # % r y y ^ > O % p p e % e ( ( ( ( / ) / ( / / _ ] S S S x l , e } u.9.8.y.9.9.Q V G G H V U P [ ] _ ` v.m.@ & j l l S Z x ) z / / ^ ^ ^ ^ ^ ^ r e e a p e # # 9 y y & % % % # # # # # & & y y l A l m n n n M n M M M M n M M J H M V Z ( ( ( ( ( / ) k , LXLXGX>X*X%X%X*X*X*X*X*X*X*X%X%X%X%X%X%X%X%X$X$X$X%X%X$X$X$X=X X=XOXOX+X}.}.}.J.J.J.J.J.H.H.H.H.L.:XL.J.L.L.:XL.L.J.}.J.L.3.L.G.G.C.A.A.A.A.A.Z.Z.A.Z.A.Z.Z.Z.Z.Z.Z.A.A.A.C.C.C.C.A.C.pXc.h.z.<.d f hXd.s.! Y h : i ",
"* i g 8.gXiX7 0 0 0 - $ - ; - - = s 5 1 < < 3 3 0 0 0 0 f f f V.Z.A.V.D.4.2.2.2.3.3.C.C.C.Z.A.A.A.A.L.L.J.;XJ.}.J.}.A.}.}.}.}.}.}.}.OX$X=X$X$X$X$X$X$X$X$X$X$X%X%X%X*X%X%X%X%X*X*X*X*X*X*X*X*X*X*X%X%X%X*X*X*X*X%X%X=X9XO.JXSXdXuX%.%.tXM M M M M M M n n n n n n n H m H H A A D ) _ _ ^ ^ y y & O # O % % # # # r u r t > % % a ` ` 9 9 e e r u ^ ^ y y y y / z x S S z / y e  .u.9.W T R u.Q M m H H U H [ _ k _ ` v.m.8 O , k k ) ) / ( ^ ( ( y y y t u t t t r p ` e % 9 9 r t & % # # # # # # # & e u , l A c m n n n n n M M M M M H J K N B U P [ D ] ) ( / / j } JXB.KX;X%X%X%X*X*X%X%X%X%X%X%X*X%X%X%X%X%X%X%X%X$X%X%X=X$X$X$X$X$X$X$XOX}.}.}.}.J.}.J.}.J.H.H.{.{.{.{.{.{.|.H.{.{.H.H.H.J.C.J.J.J.A.A.J.J.Z.J.A.A.A.A.A.Z.Z.Z.Z.Z.Z.Z.Z.Z.Z.3.sXyX4.5.h.q.;.;.;.2 4.ZXx.8.h h : i i ",
"* g g 8.7.h.4.- - - - $ - $ 0 - - ; = = = = 3 3 ; = - - zXL.C.V.A.A.V.V.C.C.C.C.C.3.C.C.Z.Z.J.L.L.J.J.J.J.;X;X}.J.}.}.}.}. X$X$X$X$X$X%X%X%X%X$X$X=X$X%X$X$X%X%X%X%X%X%X%X%X*X%X%X%X%X%X%X*X*X*X*X%X%X%X*X*X*X*X*X=XFXLXAXdXAXZXZXdXi.! M M M v M M M M M M n n n n H J J J K G G S ) / / / ^ y & O # # % % # # # & & e ( y r & O % % % # 9 e r u y y y u u y y , ^ , , y y t > %.y.9.~ E E f.Q M H n H P P D _ ) _ ` v.].@ O > > y y y u u u t y y y y r r e # % # % % 9 9 e e % # % % # % # # # # # t t y j l c c n n n n n M M M M M M H K H B T V H G G D ) ( / ^ y j k u KX:X%X%X%X*X%X%X%X%X&X%X%X%X%X%X%X%X%X%X%X%X%X%X%X%X%X$X$X%X%X%X$X$X=X X=XOX}.OX=XOX{.}.}.H.{.{.{.{.{.|.{.|.{.{.}.J.L.Z.J.J.J.A.A.J.L.L.L.L.D.Z.J.J.Z.Z.J.J.Z.Z.Z.C.Z.C.4.c.j.7.<.0.w.;.;.;.a.SX| y.$.h h : i i ",
"* i i Y h.j.a.= 3 ; - - - 0 - $ - - - - - = ; ; - D.2.s :XZ.G.L.L.L.J.G.3.G.G.C.G.G.G.L.J.G.J.L.L.J.J.J.H.H.H.{.{.}.}.}.}.$X$X$X$X$X$X$X$X$X$X$X%X%X$X%X$X$X%X%X*X%X*X%X%X%X*X*X%X%X*X*X*X*X*X*X*X*X*X*X*X*X*X*X*X=XGXPXdXdXp.%.y.p.p.uXv n b v v v V v M M n n n n J n m J H G G S / ^ ^ ^ y t & O # % % % % # # % % e u u u r & % % # 8 9 r r t y y ^ y y y y y y u u u y t B.tXy.9.u.u.u.E U H H M M H H x / ) _ ` m.].@ & e e u u u y ^ y y y ^ ^ u r r & # 8 8 % # # 9 p a # # % % % % # # # # # t y y k Z G c b n n n M M M M M M M P P P E T U H P G S z ( / ^ y ) _ p IX<X%X%X%X%X&X&X*X*X*X%X&X&X%X%X%X%X$X%X%X%X%X%X*X%X%X$X%X%X%X%X$X%X$X$X$X$X$X$X$X|.OX}.}.{.}.}. X X{. X X X XH.J.J.yXL.J.H.H.G.A.C.C.G.L.L.J.J.A.J.A.Z.Z.L.J.C.Z.C.Z.C.D.pXj.w.w.e.e.;.;.&.qXHX: %.h ' h : i i ",
"4 i i  .t.e.hXcX3 - - $ - 0 $ 0 - - - - - - - = ; :XL./.A.A.A.L.6.5.L.G.L.J.J.J.C.J.J.J.J.J.J.J.A.H.J.J.H.H.H.}.}.{..XOX}.OX$X$X$X$X$X$X$X$X$X$X$X%X%X=X%X%X%X%X%X%X*X*X*X*X*X*X*X*X%X%X*X%X%X%X*X*X%X%X%X%X%X*X*X=XGXJXdX%.b v V v v C U U v v N N B M M v M M n H J m J G Z L G x _ ) k / y t & O O % % % % # # % % % & > > , r % # # # # 9 e u u t t t u u u u u u u u t e LXtX8.8.z.8.8.W U H m H P P D x _ _ ( wXw w # 9 e e e r t u u y u u y y u > 9 % # 8 8 # % & > r e % % % % % % % % 9 % % t , ^ k A c c n n n n M V V M M M M P [ D V M P M n G S z ^ ) / y _ _ 9 KXnX$X%X%X&X&X&X%X%X%X&X&X%X*X&X%X%X%X%X*X%X%X%X*X*X=X=X=X%X=X%X%X%X%X%X%X$X$X$X$X$X$X$X=X$X{. X X X{.}.;X;X XH.J.J.fXsXnXL.yXzXA.H.A.A.Z.J.A.A.A.A.A.C.C.J.J.J.J.L.L.L.a.c.0.,.&.,.,.-.&.h.JXHXVX} : q q * q q ",
"4 i i 7 7 2 JXeX- - s 3 3 ; 3 = = - $ $ $ - - ; 0 0 T.NXJ.A.J.L.G.C.A.H.}.H.{.A.H.}.}.{. XH.H.H.J. X}.J. X}. X}.{.{.$X$XOX$X$X$X$X$X$X$X$X$X$X%X%X%X%X=X=X=X=X=X=X=X=X=X=X=X=X=X%X*X*X%X*X%X%X%X*X%X%X*X%X%X$X=X=X=XGXJXdXQ M v v v v M F { F v M v V M M M v M n J J J J D _ D D S ) ) z ) ^ y , ' o.% % % % % % % % % % e & > > > % # # # # # 9 u t r t r r r r r u u y y a LXr.8.W 8.s.s.W U n H J L S z / ( ( ( ].w 9 & > > > > , > e e e r e r r e & 9 # # # # 9 r y t e & % % # # # # % % p p e , y / k A c c n n n n M V V V M M M P U U M G G P m G ] / j / y > , ^ 9 IXnX$X$X%X&X&X&X%X%X&X%X%X%X&X%X%X%X%X%X%X=X=X=X=X=X=X=X=X%X=X%X*X=X%X%X%X%X%X$X$X$X$X$X$X$X$X$X{.|.|.{.{.|.{.{.{.H.s   - A.cXyXA..X.XOX'.A.H.A.J.J.G.J.G.L.J.J.J.L.L.h.j.e.0.,.;.0.,.=.< JXBXrXgXY i i q * * * ",
"i i i Y 7 2 JXxX- 0 d 5 3 3 1.*.1.= $ - - - - ; - - '.HX'.H.{.J.J.{.H.H.{.H.J.A.J.}.{.{.}.}.H.}.}. X;X}. X;X:X X{.|.$X$X$X$X$X$X$X$X$X$X$X%X%X%X%X%X1XnXNXMXmXmXnXnXNXNXNXFXNX=X*X*X*X*X%X*X%X%X%X%X%X*X*X*XnXKXFXNXIXLXSXuXM v v v v M dXB.F c M v M M n n n n m J J J J A _ D D x ) ) k ) ^ u t o.g % % % % % % % % % % & & r , > & % # # # # 9 e e t _ ) r u u u u u y p B.HXSXiXs.W W W W C n H J P ) / ^ u ( p M.w 9 & r r t y y > r r u u e 9 % % # 8 # % % % 9 e u u % % % % # # % % % % v.v.e , y / z A c c n n n n M V V V M M M P U U b A ] P J G _ / j ) ( t ^ ( 8 PXcX+X1X=X&X%X&X%X%X%X%X%X%X%X&X&X&X&X*X*XNXNXNXnX9X9X9X5X1X1X1X1X=X=X$X%X%X%X%X$X%X%X%X&X$X$X$X$X$X&X{.|.|.|.{.{.{.I.0 0 f L.zX{..X.X.XE.V.A.A.J.J.G.J.G.G.G.J.J.L.L.h.j.e.q.:.<.0.,.5 3 HXqX4.7 : : * * * * * ",
"$ 8 8 S.f q LXDX  ; s s 0 s 5 =.5 - - - - - - 2 < 1 6.AX;XH. X{.{. XH.H.{.;X;X}.}.}.}. X X X X X X X X}. X X1X X|.$X$X$X$X$X$X$X$X$X$X%X%X%X%X%X%X=XmXPXUXUXUXIXUXUXUXUXIXIXKX5X=X%X*X*X%X*X*X%X%X%X%X%X%X%X<XKXUXSXSXdX{ c b b c U C U %.B.u , H M M n M n m m J J J J J H P P G ] ) ) z ) / u t o.v.% % % % % % % % % % % % > & & & 9 9 # # # # 9 9 r y ^ t t t u u u > B.UXdX$.8.W u.l.~ Q Q n J H P ) / ( ` ` p m.8 8 & > & & r r t y t p ` e # % # # 8 % & & 9 # % % % % # # # # # % % % $ v.v.e j j ) z c b n n n n n n V V V V M M P ] ] ] ) ( D K P ) ( k k j j ( u B.UXlXVXIXvX*X&X&X&X&X&X&X&X&X&X%X%X%X*X*X*XUXIXUXUXUXUXJXIXIXPXIXLX9X%X%X%X%X%X%X%X%X%X%X%X$X$X$X$X&X$X$X X|.|.{.{.{.{.V.Q.n.$ - A..X.X.X{.E.E.E.}.J.J.J.cXCXG.H.J.J.L.h.e.w.w.;.=.;.&.< 6 SXtXtXt.Y i i : * * * ",
"8 8 $ i i i HXJXJX; 0 ; ; f 3 2 *.3 3 ; = ; < ;.;.:.w.h.yXNXCXH.{.J.H.{.J.cXL.J.:X:X:X;X;X;X;X X X X X X$X$X X$X$X$X$X$X$X$X$X$X%X$X$X%X$X=X%X=X1XnXgXtXi.%.%.%.%.{ { %.%.tXAXSXcX=X*X=X%X%X*X%X%X%X%X%X%X*X>XKXPX%.U %.F Z U %.tXt > : u v.9 , P M n n n M m m m J J J J J G G D S ) ) k z / u t ' g % % % % % % % % % % % % & r > & & & # # # # # % 9 e r e e e r u r UXB.UXi.y.pX8.u.u.E G G L G A D / ^ ( p N.v.m.8 # & > & & t ^ ( ( u # # 8 8 8 # # % % & & > e % % % % % # # # O % % % # v.v.> k k ) z b b m n M M M n M V V M M M P ] _ ] ] ( Z G ] ( y l x z z ) ( p ( ` LXKX:X*X&X&X&X&X&X&X&X&X&X%X%X$X1X>XGXJXI F F I %.%.tXdXAXAXZXCX=X=X%X%X%X%X%X%X%X%X%X%X%X$X$X$X$X$X$X=X=X X|.|. XE.P.b.q * b.XXE..XOX@X.XE.A.L.L.L.yXL.A.L.J.J.G.1.1.1.-.>.=.1 1 sXgXiXp.iXp.Y i i : : 4 4 ",
"% i i y.! Y gXZXSX0 ; 3 3 f < *.*.5 3 3 = < < <.;.:.,.q.yXGXDX{.{.yX X1X:XAXCXCXCXCXCXCXCXCXCXcXnX:X;X X|.|.|.$X$X$X$X$X$X$X$X$X%X%X%X$X%X=X=X:XNXLXdXU P n H H H m m m H L SXZXhX:X=X=X=X*X%X%X%X%X%X*X%X%X=XKXPX%.{ Q F l Q ! #.& & & e N.N.^ n n n n M Q n m m J J J J J G D D S _ ) k ^ ^ u t ' g % % % % % % % % % % % % & , , > > > % # # # # # 9 9 9 e e e r r a UXtXtXl.W W 8.E E Q c [ [ ] x ) y j / u wXM.m.9 % & > > r u ( ( ( u 9 9 8 % % # # 8 # & > > r % % % % % O O O O % % % % v.v.r k k ) z G b n n n n n M M M M M M M P P H n G _ A A , ) ^ A D z z / ( p / ( LXKX:X*X&X&X&X&X&X&X&X%X%X%X*X1XLXKXLXJXG H m m J m m m n G G VXnX9X=X%X%X%X%X%X%X%X%X%X%X$X$X$X$X$X$X$X=X X X X X{.A.Z.B.BX; #X@X@X+XOX.XOXyXh.h.a.a.a.cXyXL.}.G.3.1.6.;.>.1 =.=.s x.g.t.u.t.Y i i h 4 4 4 ",
"i : : ~ ! Y 4.7.qX0 s 1.< = < 3 5 3 3 ; = =.&.,.-.:.0.q.h.CXDX:XnXgXyXsXsXpXj.c.h.c.c.c.c.aXfXfXhXaXyX;X|.|.$X$X$X$X$X$X$X$X%X%X%X%X%X%X%X=X9XPXPXSXU n n m m m H J K L K H %.%.dXJXDX1X=X*X*X*X%X%X%X%X%X%X=XKXPX%.P Q l l p.y.} % a & e N.v.: H n n m m M m m m J J J J K G D D D x z k y t u u o.g % % % % % % % % % % % & & > , t ( t 9 9 9 9 9 8 9 9 9 9 9 & lXtXi LXy.~ ~ E W 8.E W ~ U D ] ] ) ) y ^ ( v.M.8 8 9 % % & & % % % % & % 9 9 9 9 9 8 % 9 9 & y r 9 % % % % % % O O % % % % 8 v.v., z z _ z c n n M n n n M M M M M M M M n n n D ` _ _ u _ l H j ^ k ( u u ( u LXKX:X*X&X&X&X%X%X%X%X%X%X%X&XnXPXPXtXF m m J J H H A G H L H { JXZXyX:X=X=X%X%X%X%X%X%X%X%X%X%X%X$X$X$X$X;X:X:X:X;XL.;Xg i $ f OX$X&X$X3X+XL.h.e.a.;.<.6.L.;X;XG.Z.1.5.=.=.1 =.1.6 aX8.i.u.$.Y 7 7 Y * 4 < ",
"q e * 7 : ' 7 SXZXg 3 3 ; 0 - - $ 0 ; ; = =.1 &.2 :.,.,.w.h.aXh.yXc.q.q.0.e.e.q.q.q.q.0.q.q.q.q.e.e.h.L.|.|.$X$X%X$X$X$X%X$X%X%X*X*X%X%X=XnXNXVXAXU m b A A A S x l z k z l c b l SXJX:X=X*X*X*X%X%X%X%X%X%X=XKXPX%.%.%.F z p.f.} & > > > { v., n n m m m m m m m J J J J K G D D D S x x / y u r M.M.% % % % % % % % % % % & % > y , _ ( e r , > > & & & & & > & JXJXdXtX~ R E 8.W W M n b G ] ] _ z ) , y p M.8 9 % % & & e & % % % % % % 9 9 9 9 9 % % e e r / / u & O O % % % % O % % % % 9 v.v.y z k ) l G m n v v v v v M M M M M M n n n m H S D D D A A J j z z / t r t u UXKX:X=X%X%X&X%X%X%X%X%X%X*X&XzXPX$.b b H G D S S [ D S A K G A Z h UXAXNX=X%X%X%X%X*X%X%X%X%X%X$X$X$X$X%X1XcXcXcX:X;X>Xf $ M.- b.*X=X4X{. XL.h.e.e.q.w.2 d a.w.<.<.&.*.=.*.5 5 4 sXx.f.Y } Y 7 7 4 4 < < * ",
"$ 8 0 q q i g aXpXg 0 0 0 0 - - $ - = 0 = 5 3 3 3 >.&.&.q.q.w.w.w.j.0.q.q.e.q.0.:.0.0.e.w.w.0.,.w.7.a.L.|.$X$X$X$X$X$X$X%X%X%X%X%X%X%X*X=XGXLX{ P K m G l k j u u e 9 9 e , c m c ! c vX*X=X*X*X%X%X%X=X-X=X=XKXPX%.%.U S k h I %.' N.N.' N.e , b n m m m m m J J J J J J K G D D D x ) z / ( u > wX].# % % % % % % % % % & & % > y , _ ) t , , +.tXtXX . . X X . AXAXAXy.8.W W 9.8.W v U G D ] ] z z z ^ p kXMX8 8 8 & & & > & % % % % & % 9 9 9 % % % 9 9 9 e ( u r & O O % % % & % % % % % 9 M.M.u z z S A G b n v v M v v M v v M M M n n m m m m J J m H K m x S D ) ^ ( _ ` UXKX:X=X*X*X%X%X%X%X%X*X*X*X*XBXAX%.H l ' a a M.a a / z S P D P L dXPXJXnX*X%X%X%X%X*X%X%X%X%X%X%X%X$X$X%X=XzXD.2.J.A.I.g q M.0 0 -XE.OX:XcXyXe.e.e.q.w.2 d &.e.q.w.:.:.-.*.1 < sXfXpXi.} g } 7 7 4 4 * 4 * ",
"$ 0 * * q i >.j.c.rX0 3 3 ; - - $ - - - = 1 < s d >.*.<.w.q.q.w.w.w.-.;.;.:.;.;.:.-.-.:.:.<.0.w.6.6.L. X|.|.%X%X$X$X%X%X*X%X*X*X*X%X*X*X=XNXAXJ J J c x , / B.@X/..X.X.XoX, G c b n b vX=X=X=X*X%X%X*X=X1X;XMXIXPXdX%.Q S / N.N.N.N.N.{ { ` a e n n m m m m m J J J J J J K G G G D z y y y ( y r F.jX# % % % % % % % & 9 9 9 e > , ' i.i.dXJXJXJXSXJXJXJXJXJXJXSXSXdXuX8.W R B W T E c G A ] ) ) ) ) / p m.w w 8 8 % % & & & % % % % & e e e 9 & t y , e y r % t ( ` & O O # # & % % % % % % 9 jXwXu ) z x G b m m M v M M M v M M M M n n m m m m m m m m m H G k / ) ^ u y ` p UXIXbX2X9X$X*X%X%X*X*X*X*X*X=XtXb n b a w .X&X&X&X&Xw ] _ / x G L ] A ( 9X*X*X*X%X%X*X*X%X&X&X%X%X%X%X$X$X$XZ.q f {.{.}.Z.s Z.b.0 s P.Z.0X:X:X<.0.w.w.w.*.d 5 < ;.-.-.;.;.=.< < aXj.z. .} } } : Y h h * * 4 ",
"8 * 7 7 i q * 4 7 hXyX= ; = - = = = = = 5 =.5 5 d 1 1 =.<.,.;.<.;.<.1 &.;.&.&.&.=.1 &.,.,.<.6.L.|.|.$X|.$X$X$X%X%X$X$X%X*X*X*X&X&X$X1XNXGX4.n m m G A x j x wX$X&X&X&X&X.XM.B.c b b b <X=X*X=X=X%X%X*X=XFXIXSXtXtX%.%.%.P z u p e 9 9 e e y ( , n n m m m m J J J J J J J J L H H G z y ^ y ^ u t wXjX8 % % % % % % % & & > & > , tXi.hXZXdXdXgXdXp.p.p.i.i.i.y.y.y.8.8.8.W B v V M b Z ] z ( u ` _ ( ` v.<Xw 8 8 9 % & & & % % % % % & > > 9 9 & e r r e , , 9 t / ` & O O % % & % % % % % % 9 jXF.( z z x G G m m M v v M v M G G n n n n m m m m m m m m m J H H L x ^ y ^ ' ` o.B.g KXGX-X*X*X*X*X*X*X*X*X=X%.b b n 3X*X&X&X&X&X&X`.` / z S G G L H ) DX0X5X=X*X*X%X*X&X*X*X%X%X%X%X%X$X$X>X;X}.|.$X$X|.|.|.A.0 f .Xf -X4XnXa.e.w.<.<.*.s d 5 >.2 $ = < < < 3 hXt...Y } i i i 4 * * * 4 7 ",
"q * 7 7 q q g a ' pXa.  ; $ = = ; ; ; 3 < 3 3 s 3 *.2 *.&.-.< < 5 1 1 =.1 &.1 =.=.=.=.<.<.6. X X%X%X%X$X%X%X%X%X%X%X%X%X%X%X&X&X&X=XzXJXLXgXm m m l z ) B.( jX$X&X&X&X$X.X,XB.Z b b G <X=X*X=X=X%X*X*X=XNXIXdX~ Q U %.Q U D k u e 9 9 w w k ] D n n n m m m m J J J J J J J G L G G z y ^ y y u > wXjX8 % % % % % % & 9 9 B.HXrXVXUXUXPXJXSXSXSXhXu.y.8.8.8.8.8.8.8.8.8.W W B M U M G S ) / p p ` ( ` B.w vXw 8 8 9 % & & & % % % % % & > > r t , , > t t > y 9 9 > p 9 a 9 % % % % % % % % % 9 jXwXu k ) x G G m m M v v v v n A A n n n m m m m m m m m m m J J J J z ^ y y ( ( ( ` u KXGX-X*X*X*X*X*X*X*X*X1X%.b b n  X&X&X&X&X&X&X*XR.lX' l A G G L ( HXFXNX9X*X*X*X*X*X*X*X*X%X%X%X$X$X$X$X|.$X{.|.|.|.|.&XOXn.f /.P.#X.XOX6.w.<.1 =.5 s d d >.6 $ = = 3 3 g uX!  .} g i i i 4 4 4 * 4 2 ",
"* = 4 7 f s g  .I c.xX0 s ; ; 3 ; 3 3 3 3 3 3 3 6 ;.;.;.>.<.<.1 = ; 1 5 3 1 1 =.=.6.G.K.|.%X%X%X%X%X%X%X%X%X%X%X%X%X%X%X%X%X&X&X&X+XtXc %.p.m n m , , j vX,X=X$X&X$X$X$X&X$XS.l b n A ,X*X=X=X=X=X=X%X=XNXLXdXAXuXU tXy.U n m G Z x z z k c n n n n n m m m m J J J J J K K H D S D / y ^ ^ y y > F.jX# % % % % % % 9 & & g JXJXZXgXuXl.y.~ 8.! 8.~ ~ 8.8.~ 8.8.W 8.W W W W V b b c x / ^ ( u t j ' ].<Xm.8 # # 9 9 % & & & % % % % % & e r , y y ^ j j , > e 8 9 9 p p N.9 % & % % % & % % % & wXwXy ) ) x G b m m M v v M M n c n m n n m m m m m m m m m m J G J G k ( u u ^ ^ ) _ p KXGX=X=X*X*X*X*X*X*X*X1X{ b b b -X&X&X&X&X&X&X&X%X<Xj l Z A G L ] z k l i &X*X*X*X%X*X*X%X%X%X%X%X$X$X$X$X$X$X$X|.|.|.|.=Xb.s s n.b.@X@X:Xh.a.=.*.5 s d s -.6 = = ; ; = r.p. .} i i i i * 4 4 * * 7 7 ",
"* 0 $ 3 7 q 4 ! Y pXSXS.= = 3 3 = 7 iXtX7 = = ; ; < < 5 3 ; = 3 ; s 3 3 = 1.3.H.3. X&X&X&X*X*X%X%X%X%X%X%X%X%X%X%X%X%X%X%X%X%X&X&X=XrXb b n m n m , , k nX*X&X&X$X$X$X$X$X&XM.h c m / OX*X=X=X=X=X=X=X=XFXIXuXy.y.%.Q b M n n n n b b b b n M n n n n m m m m J J m J J Z A K L z ) ^ t y y y y > F.jX8 % % % % % % % & dXJXSXhXk.8.s.9.N E R B W E C C V V C V N C U b n b L A D S k k j ^ ` ` p v.I.P.8 # # # % % % & & % # % % % & e e r , ^ ^ ^ k j k k / r e e p a v.8 & & % % % & % % % & F.jXy ) z x G H m m n n n n n m n n n n m m m m m m m m m m J J x J G k / y ( u ^ ) ( v.KXFX=X=X*X*X*X*X*X*X&X=Xa c c c -X&X&X*X&X&X&X&X%X2Xl z S D L [ [ ] ] z g $X&X*X*X%X&X&X&X%X%X%X%X$X$X$X$X$X$X$X|.|.|.$X8XNXcXD.0 0 3X-X3XyXa.<.<.*.s s s -.2 $ = * 3 = q i i } i } i i 4 4 4 4 = 3 = ",
"* 0 8 0 i q = $.%.i.AXqX= = 3 3 * Y SXp.$.$ ; s 0 1.d 6 < 5 3 3 s 3 < 6 3 C.=X$XA.=X&X*X%X%X%X%X%X%X%X%X%X%X%X%X%X%X%X%X%X%X%X%X&X=XeXc b b m n J ' , / nX%X*X&X$X$X$X$X$X$Xm., h _ wX$X$X=X=X=X=X=X=X-XGXLXp.%.%.Q U M M M n n n n n b b M n n n n n m m m m J m J m H Z G K K S z j t y y y y > wXjX8 % % % % % & & X ZXgXuXf.8.R T B M V V N E C V N M V V V V V M m J K G D D x / ^ ^ ( v.v.m.m.w 8 + # O % % % & & & % # # # # e t , ^ x x z x l l x x z y u r u a B.wX& & & % & % % % % & M.kXy z x Z G H J m m m n M n n n n m n m m m m m m m m m m J H x G A k / y u u ^ ) _ v.KXNX-X=X=X*X*X*X*X*X*X&X4Xu l z =X&X&X%X%X%X%X%X%X=X> , z D L [ [ ] ] x M.%X*X*X%X%X&X&X&X%X%X%X$X$X$X$X$X$X$X$X$X%X$X7X8X:XCXcXf 0 P..X/.J.a.0.,.:.>.*.4 -.2 = = * 4.7 g i i i i } : * 4 4 * * = = - ",
"q ; 8 0 0 0 0 0 0 O.BXrXF.; 3 * I ! dXtXtXO - 0 3 =.5 1 =.=.3 s = =.=.-.< Z.9X:X}.2X1X-X=X=X=X=X%X%X%X%X%X%X%X%X%X%X%X%X%X%X%X%X&X=XeXc b b n n H VXDXzX6X*X*X%X%X$X$X$X$X&XOXoX~.E..X$X$X$X=X=X=X=X%X7XKXJXQ U V M U M M M M M M M n n m n n n m m m n m m m H J J J G Z G J J L x k ^ ^ y u u > F.jX8 % % % % & g JXdXfXgXy.U V M M n n H m H n G G G n H K H J H G G D D S _ ) k ( p N.M.m.U.U.w X . # 9 % & > > > > e % # # # # e > y j Z D x l z z z k j t u e 9 e M.M.9 & & % % & % % % 9 M.kX^ x S Z G H J m m m n U V n n n n n m m m m m m m m m m J H l G G z / ^ / ( / / ( a IXGXnX=X=X*X*X*X*X*X*X&X&X*X+XOX&X&X%X%X%X%X%X%X%X&X<XKX^ P L [ ] ] ] x M.*X*X%X%X%X%X%X%X%X%X%X$X$X%X$X$X$X$X=X X1X X X=XV.d V.A.- 0 n.[.P.4.-.;.<.4 3 3 -.6 $ = hXaXe.7.7 7 7 7 i q * 4 * 4 7 = = - ",
"q 0 $ q 4 4 ; q = | uXBXqX* * : { { A %.tXO = 0 3 < = 3 3 = ; s 3 =.=.-.7.L.cXcXyXCXgXcXcXFX1X=X=X=X%X%X%X%X%X%X%X%X%X%X%X%X%X%X&X=XrXc b b n m c lXFXnX-X%X*X%X$X%X%X$X$X$X&X&X&X&X&X$X$X$X=X=X=X=X%X9XKXAXC U M M V N v M M M M M V n m n n n m m m m m m m m H m J m G Z A G G l / / / ^ y y , F.jX8 % % % % & dXsXZXy.b P A D x z j ^ ( / / ( / / ) _ ] ] ] ] ] _ _ ) ( ( u p ` ( ^ e P.m.O O M.,XXX.XZ.n.9 9 e & 9 9 % # # # % e t y j l k j G m m m m G / y u 9 9 9 B.B.% & % & & % % % 9 M.kX^ x S S D J m m n n m m m m m m b m m m m m m m m m m m J J H m n x ) y ) y y y ( e rXa mX-X=X*X*X*X*X*X*X%X&X&X&X&X&X&X%X%X%X%X%X%X%X&X<XHX} G P [ ] ] ] x g $X*X%X%X%X%X%X%X%X%X%X$X$X%X%X$X$X$X$X X|.%X*X%XE._.E.A.s 0 $ /.}.>.:.:.>.- 0 * 4 7 4 7 w.q.:.-.&.-.2 4 * * * 4 * 7 7 = = = ",
"4 0 $ g 4.7 4 * * Y u.gXuX* * : { N.x tXtXO - ; 3 1.3 0 0 0 - 3 3 =.&.;.e.aXhXfXsXSXhXcXGXPXnX6X1X=X%X%X%X%X%X%X%X%X%X%X%X%X%X%X&X XrXc b b m m c tXFX9X-X=X*X%X%X%X%X%X$X%X&X&X&X&X&X$X$X$X$X=X=X$X=X:XKXZXN V M V V B N V M M M b Q b m n n n n m m m n m m m m H J H G A A m H x ^ _ / ^ ^ y , wX].8 % % % & & tXhXl.~ U G z ( ` ` p p p ` ` ` ` ` ' _ _ _ _ _ _ ( ( ( ` ` p p p p p a m.8 @ O i OX$X.X.XW.m.F.M.& 9 e % # # # # e t y j k / y D n n n m A S z / 9 9 9 B.B.% & % & & % % & 9 M.kX^ x S S D K m m n n m m m m M m l Z m m m m m m m m m J m m H m m z ( u / u ^ / ( u ' ` MX=X=X*X*X*X*X*X*X*X&X*X&X&X&X&X%X%X%X%X%X%X*X*XNXHX} G G D ] ] ] z g $X*X%X%X%X%X%X%X%X%X%X$X$X$X%X%X%X$X$X|.H.{.&X%XA.Z.C.L.S.f $ Q.:X>.:.:.>.= w r.7.r.>.>.0.0.:.;.;.&.&.6 7 t.4 = = 4 * = = = ",
"$ 8 @ ; 0 0 = 3 3 >.4 2 r.* * : ] VX} LXJX& - - s 1.3 - 0 0 - 6 < 3 1 &.;.:.0.0.0.w.w.,.pXJXxXyXSX9X%X%X%X%X%X%X%X%X%X%X%X%X%X%X&X+XrXc c b n m A tXDXMX6X=X*X%X%X%X%X%X%X$X$X$X$X%X$X$X$X=X$X$X$X$X=XxXJXAXn m m H M C N N M M m G M H m n n n m m n m m m m m G G G A A Z A m m Z ' ' ( ^ ^ y , F.jX8 % % % X AX$.l.s.b A S / p v.v.v.v.v.v.v.v.v.` ` ` ` ` ` ' ` ` p v.v.v.v.v.v.w # # O 0 3X3X,X$X$X.X.X.X.X.XM.9 9 e % # # # # & t y j z ) ) D m m n m Z x z / e 9 9 M.B.% & % % & % % & 9 M.wX^ x x x Z J H z F m m m n n M m n G m m m m m m m m m J J J G A G z / ^ / y y ( u y ` p mX=X*X*X*X*X*X*X*X*X%X%X%X&X%X%X%X%X%X%X%X%X*X=XFXPX' G G D ] _ _ z g =X*X%X%X%X%X%X%X%X%X%X%X$X%X$X$X$X X X:X{.>X:X:XL.6.,.w.< f 8 n.Z.* &.1 2 - - 4.:.6.*.=.:.,.;.;.;.2 2 -.7 7.* = = - q - = 4 ",
"; @ $ 3 3 5 5 ; - 3 < < 5 $ * : F %.Y JXVX> - - 0 ; ; - 0 0 5 *.= < 1 &.;.;.:.,.,.,.:.,.0.w.w.fXZXcX-X=X=X*X%X%X%X%X%X%X%X%X%X%X&X1XtXc c b m b Z B.JXDX0X=X=X%X%X%X%X%X%X%X%X%X%X%X%X$X$X=X$X$X$X$X=XxXSXAXv M n n M N N V n n J G m J J m n m m m m m m m m m G G G c A A c J m G ' ' ^ ^ ^ y , F.jX8 % % % X uXg.U U G ] _ ) ` v.a w 8 8 8 8 8 8 8 e a a a a v.v.v.v.v.m.m.M.m.m.[.I.n.0 0 =X*X*X$X$X$X$X$X$X.XM.& & e e % # # # & t y j z x _ ] G m n m z t t u 9 9 9 M.B.% & % % % % % & 9 M.wX^ x x D x G G ( _ m n m n n n m m m m m m m m m m D x S J J P l H L k k k u r r e e e a nX=X*X*X*X*X*X*X*X%X%X%X%X%X%X%X%X%X%X%X%X%X*X1XKXUX' L D ] ] _ _ k a =X*X%X%X%X%X%X%X%X%X%X%X%X X1X9X1XcXZXCXA.S.j.j.e.e.e.e.< 1.0 $ - = d 3 f >.w.w.,.,.;.;.;.:.;.&.2 5 5 *.-.>.< 4 = - = 0 4 a.",
"= $   *.*.&.5 0 $ $ 6 1 5 $ $ , { ' { { ] > i & : : : & * = 6 =.5 5 *.&.;.;.:.;.;.,.:.<.,.,.,.w.w.CXFXDX1X%X%X%X%X%X%X%X%X%X%X%X%X>XqXl c b b G l h %.LXNX=X=X%X%X%X%X%X%X%X%X%X%X%X%X%X$X$X$X$X$X$X$XcXSXSXb n n m n v v v n m m G m J H m m m m m m m m H m b G G G A l F I %.%.P y ` ^ ^ ^ y , F.jX8 % % % & tX9.n G ] ) ( y e 8 @ @ @ o + O + + + O o o               . .   o o $ &X&X$X=X=X=X=X=X=X=X=X=X$X$XR.9 & 9 r 9 # # # & t ^ ^ , y y ^ A m m H l j t u e 9 9 B.wX% & % & % % % & 9 M.wX^ x x k ^ S D y z m n m m n m m m m m m m m m m n k e y H J J m m J k y ^ t e e e e p v.0X=X=X=X*X*X*X%X*X*X*X*X%X%X%X%X*X%X%X%X%X*X*XGXZX/ ] L D ] _ _ ) j a =X=X=X=X=X%X$X%X=X$X$X*X=XCXhXfXyXh.pXsXZ.yXj.j.e.w.w.:.3 0 0 $ $ 0 s = ; w.q.0.,.,.,.;.;.&.*.3 s 0 s ; = ; 3 3 * = 4 0 7 >.",
"4 $ $ *.=.=.5 0 + $ 6 *.=.. $ ^ ' B.' U P / #.AXVXtXtXqX#.| = = = = = < =.< 6 1 < < < >.<.<.<.w.w.h.fXh.cX=X%X%X%X%X%X%X%X%X%X%X%X1XqXZ c G G G A D %.PXKX7X=X=X%X%X%X%X%X%X%X%X$X$X%X%X%X$X$X$X$X$X$X;XKXLXh H n m m n v v n m n H J m H H m m m m b G G G G G G A G h JXLXLXJXhX{ u ( j ^ ^ y , wXjXw 9 % % & %.~ P [ ] / ^ p 9 8 # + O O O & % O # # @ @ o     o o o       o o   $ &X&X*X*X=X=X=X=X=X=X=X=X=XOX`.I.D.9 u 9 # # 8 9 t ^ j z x x x c m m m A S , ^ e 9 9 B.kX% % % % & & % & 9 M.wX^ x x x l Z A l A m m m m m m m m m m m m m m m m z > j H m m n m K l z _ r e e p p ` a 9X=X*X=X=X%X*X*X*X*X*X*X*X*X*X*X%X%X*X%X*X*X-XSXZX%.L L D ] _ _ _ j a =X=X=X=X=X$X$X=X$X=X=X$X XZXSXiXa.w.w.a.1.>.w.w.;.&.;.2 ; 0 0 $ - - 0 ; 1 &.q.0.,.,.,.;.;.&.=.3 3 3 3 ; ; ; = = 4 g 4 = 7 >.",
"s - - 6 4 3 ; ; $ $ 7 7 7 . O k ' a } I F j , tXdXAXSXdX ...* ; ; - - ; s d s s s s s 1.=.5 d 1.<.,.w.h.yX1X1X=X$X$X$X$X%X$X%X%X*X1XrXl Z A c A Z Z %.JXfXFXNX2X=X=X*X%X%X%X%X%X$X$X%X%X%X%X:XPXUXPXPXLXSXdXp.M n m m m n v n m n m m m H G G m b m m G G G G G S _ _ h LXPXJXJXSXBXr / ^ ^ ^ y , wXjXw % % 9 & I V [ [ _ ( e 8 @ @ O j j j h l l j > & & % % O O # # # % f 0X9X9X1X$X&X&X*X*X=X=X=X=X=X=X=X=X=X=X=X=Xn.q a & # # 8 9 , y j Z G J K c H m G c Z j ^ r u e B.kX% & % & & & % & 9 M.wX^ l l G G Z G H H H m m m m m m m m m m m m m m m H D D H m H c A Z Z Z z > e r u e p e MXFXKXPXPX2X*X*X*X*X*X*X*X*X%X%X%X*X%X=X0XnXbXZXc.Q K L D _ _ ) ) j a =X=X=X=X=X=X=X=X%X=X:XsXa.pXfXc.0.w.e.a.4.c.j.e.2 ,.,.2 0 w - < = $ 0 a.j.e.:.,.,.:.:.,.;.-.=.5 5 s 3 3 ; ; ; = 3 = 2 * >.>.",
"4 d 3 = = q & O.: . gXuXuX7 : ' ' i } } X.' ' { Q %.%.%.%.tX7 3 = 3 = = = 0 0 3 0 s 3 5 5 d f 1.;.<.w.w.h.sXh.L.=X=X=X=X=X=X=X%X*X1XrXl h j G Z D S A U dXPXSXSX:X=X=X%X*X=X*X%X%X%X%X%X%X&X+XPXPXPXPXPXgXb n n n m n m m n n m m m m m H G m J m m m m G A G A S h Y l.ZXhXiX%.tXB.r ( / / ^ y t wXjXw 9 % 9 & l M { F ' 8 # O % 9 > k l l l l l l , t r r r > & & & & & w n.f D.{.&X*X*X*X=X=X=X=X=X=X=X=X=X=X%X%X=Xg ' ' 9 # 8 # 9 r y j S G K G z z j j l x y / t p v.wXkX% & % % & & & & & g wXy z z Z Z l Z P G k G m m m m m m m m m m m m m m G A z G K J m m l Z A k r e r r e p 9 NXIXIXUXPX%X*X*X%X*X%X%X*X%X*X%X%X%X=X*X1XDXHXfXc.~ L L D z ) _ ) j u -X=X=X=X=X=X=X=X=X=XsXfXc.j.e.e.,.<.a.3 f l.7.h.-.;.>.6 = f D.a.>.1.; 7.e.e.7.2 1 < < < -.&.&.=.6 3 s 3 3 s ; 3 3 = >.< 6 4 ",
">.1.3 3 $ $ } dXt.uXZXSXhXaXY ' u a 7 & i a } } } ' ' } ' } * ; ; f 5 4.= s s s 0 0 d s d f >.w.w.;.;.w.w.h.e.a.:X-X=X=X=X=X=X=X%X1XrXl k z A Z D z P L %.JXSXJXcX-X=X=X=X=X*X%X%X%X=X=X2X9X XJX%.{ tXPXgXn m n b b n m m m n m m m m m H H m J m H J m G A D D x X.iXfXuXi.y.l j r u ^ ( / ^ y y wXjXw 9 % % > l c A c u 8 8 X a v.r l l j l l l l , t t r e & & & & % & w n.i S.J.&X*X=X=X=X=X=X-X=X=X=X=X=X=X=X=X3XB.tX+.& % # 8 9 r , j S G G D ^ ) ` y z x ^ ^ y a M.kXkX% & & % % & & & & g wXu ) k Z A A A K G z G m m m m m m m m m m m m m m m H k S G G m H Z l x / > r e e p p 9 MXB.%.tXJX:XmXnX=X=X%X%X%X%X*X=X=X8X6X=X9XDXJXQ I M G K D k ) ) _ k u -X=X-X=X=X=X=X=X=X=XCXgXpXh.e.w.:.*.1.= f a.-.<.6 1 < 4 = *.6.< < w.-.w.7.q.:.1 5 3 3 < -.&.=.=.*.3 3 3 3 3 ; ; 3 ; 7 4 = = ",
"= = ; 3 * > / $.uXp.p.dX$.%., ' v.' Y e g g % & * $ $ * $ * = = - s 3 1.; 0 0 3 - 0 f d f 4.<.:.*.3.C.5.e.e.e.h.yXcX:X9X2X1X1X1X=X1XrXk l x Z A Z Z A L H tXJXPXyX9X2X=X=X=X=X=X=X=X=X5XKXPXKXPXF K I PXgXn m m m m m m m m m m n m n m H J m b m m m b b Z ) _ k  .pXpXgXl.h j k ' y y / / ^ y , M.zXq % % % & h v M M r 8 # X v.m.r l l k z z , j > r r r e & & & % % % F.].M.g S.NXNXNXNXNXNXNXnXnXnXnXnX9X9X9X0X9XO.X.tX& % # # 9 r y , x G G A j / ( x A x / k j B.kX8 M.% & % % % % % & & M.kXu ) x A A A G c A A H J m m m m m m m m m m m m m m P / _ x z x k z x x _ z ^ r u p v.a mXB.D P dXUXJXJXnX=X%X%X=X=X*X=X=X9XNXNXGXKXSXb n H G J G k / / ) k r 1X1X1X1X:X2X2X2X2X9XsXaXaXh.e.w.;.1 5 *.<.&.&.<.6 d < 4.r.h.w.3 *.2 1 5 5 < >.5 s 6 >.>.3 = ; 0 0 0 - = ; 3 ; ; 3 ; s ; 0 = ",
"3 s 3 3 * > k z ' k ] { Z l , i p u U , ' g $ * * * * = - - $ = = ; 3 1.= < < >.- - 4 5 d g a.6.6.3.C.C.a.w.w.h.hXZXZXSXSXSXSXHXCXCXZXj z l Z D G G G L P P AXdXJXUXLXDX2X-X=X=X=X=X=XFXqXPXZXSXc H F JXuXb m m m m m m m m m m m n n m J H m b m m G G G l ( t , X.pXz.iXY j j , / y y ^ / ^ , > M.zXq % % % & j v v b e 8 # X m.m.u l Z G Z Z l l , y t r r & & & % % % jXBXtXt.r.SXSXSXJXJXJXJXJXJXJXJXJXJXJXJXJXxXB.%.%.> % # # % r y y z D A J H G G H A z / / j B.vX# % % % % % % % % & 9 M.kXu ) z Z A A H { VXdXtXP m m m m m m m m m m / j G m G x / ( ( ` u / Z A Z x / r u p v.e DXwXS [ tXJXtXAXNX3X-X-X6X6X7X9XNXGXIXUXAXSXhXv n H l z z y ^ ^ / ' rXGXHXSXSXZXZXSXSXfXgXiXh.h.h.e.q.;.6 5 =.<.-.;.<.*.3 < >.= 3 5 ; ; ; ; < < 2 >.1 3 *.a.>.= - - 0 0 0 0 0 3 6 < ; 3 s 4 7 7.7.",
"3 3 = 3 * & j k ' , ] S D x , i a e k a a a q % $ * $ $ - $ $ = = = 3 *.< 7.7.7.7 4.>.6 r.M.a.>.6.4.3.3.a.w.e.h.hXhXhXZXZXZXZXZXZXhXhXj z l z z x G A K U U i.dXSXUXPXPXNX4X9X:X9X1X4XIXSXLX%.F D L F ZXl.n m m m m m m m m m m m m m m m H G b m m G G G , ' } y.! j.d.y.h j , , j y y y ^ ^ > > M.vXq % % 9 & , v v b e 8 # & M.m.y x S D A A Z l j ^ t r r & & % % % # M.lXi.y.t.ZXSXSXSXSXSXSXSXSXSXSXSXSXSXSXSXrXtXtXtX& % # # % r y ^ k D D P K G K H A k / / k F.vX# % % % % % % % % & & M.kXr z z Z A G J F tXAXtXZ n G m m m m m m m J k k G m G G x ( ` ( ^ / x Z S x / t t p v.a DXbX, Z %.AXVXHXDX0X9X9XnXnXcXDXIXUXUXUXgXfXp.b b G z k / ^ ^ ^ / : qXSXZXZXZXhXhXZXhXaXiXsXiXw.j.e.0.1 < 3 d 1 6 5 3 s s 6 a.< a.7.= ; 4 7.q.w.q.w.-.>.w.w.:.7 2 4 - 0 - - - 4 2 7.= 4.6 4 7.7.7.",
"3 3 3 ; - O > t ' > ^ , j , e e a a e u t } dX#.i + $ * = = = = - s 3 6 -.:.&.2 2 w.w.5 4.1.w.w.w.w.w.w.a.a.a.h.aXfXfXhXhXhXhXhXhXfXhXk z l j , z A l A G H H H %.SXtXSXSXAXUXJXPXPXsX%.P G { H D ] l gXu.n m m m m m m m m m J m H L K J H H J H H G c A , : h y.! d.9.! j j , t y , , , y ^ > > M.zXq % % 8 % X C C F 9 8 8 & M.M.( S S S x S x x x z , r r 9 9 % % % # 9 B.y.y.t.hXZXZXZXZXSXSXSXSXSXSXSXSXSXSXZXqXtXp.} & % % % % r y y / S S F P G J H A x ) / , ].jX# # # % % % % % % & & M.kXu ) z Z A A I i.AXSXAX#.l l m m m m m m m m J J J H m m A S x Z Z D l l x z / y y p p & F.[.% , z [ S x lXGXGXLXJXJXSXSXAXuXdXSXb m m m G G k k k , ^ ^ ^ : tXZXhXhXhXhXhXhXfXfXhXaXpXq.0.,.;.>.6 0 f f f s 3 s s 2 j.0.w.:.= s 4 7.7.7.:.7.-.-.q.q.7.:.:.-.- 0 0 4.7 3 . >.< 3 4 = 2 >.>.",
"= - $ = ; ; f s f 0 8 8 0 0 8 e ' ` e ^ k h uXi.%.o.i 4 5 5 3 - - 0 3 3 3 3 d f < w.q.>.4.*.<.;.=.1.<.e.e.<.5.5.yXhXhXhXhXhXhXhXhXfXhX' z z j j x H Z G L J H P I ZXc SXLXPXUXUXPXPXJX%.H G Z A x ) tXuXu.n m m m m m m m m m K J G G G G H H K H L G G A > & > %.! s.8.! j j , , ^ y y ^ y y > , F.zXq & % 9 9 % X e 9 9 8 8 & M.M.^ Z G G G G A Z x r r > r v.w % & % % % > Q ~ t.fXhXhXZXZXZXZXZXZXSXSXSXSXSXSXZXqX$.$.u % 9 % % % > ^ / j ) / , P J m m G D x z j jXvX# % % % % % % % % & & g rXe ^ ( z Z Z uXuXZXJXSXAXo.l b m m m m m m m J J J J J H H m G G H m J G z / ^ u p e 9 & kXNX8 > , x z x { JXPXPXUXUXUXuXg.8.u.aXb n m m c G l z k j y ^ ' t.gXhXfXfXhXhXfXhXfXh.a.h.w.0.;.;.&.-.2 2 4 7 7 0 >.h.a.4 h.7.w.<.= s 3 5 7.w.>.&.1.2 w.q.7.7 2 >.; q 0 h.4 4 >.a.< s s s 6 *.>.",
"; 0 $ 5 3 s s s s - - 0 s s $ e ' ' e , j j y.p.%.%.i 4 3 3 = $ - 0 s s s 0 f 6 2 w.e.w.6 5 1.6.1.1.>.e.e.*.6.yXgXhXhXhXhXhXhXhXhXhXhX' j ^ / j z Z Z A G K H b %.tXb %.tXdXAXSXgXgXgX%.G G l Z z ^ dXuXy.v m m m m m m m J H J m J J G G H K K H H G G G > % > %.! 9.9.! , j , y ^ , y y y y > t F.bXq % % 9 9 % 9 9 9 9 8 8 & B.M.^ Z H G G G G A x > 9 e r 9 w % O O # & ' Q Q y.fXhXhXZXZXZXZXZXZXZXZXZXSXZXZXZXr.$.+.r & % % % % & ^ ) x l Z D H n m m A S x z j ].vX# % % % % % % % % % & g rXe y ^ ) x Z x.! gXhXaXi.kX, F m m m m m J J J J J J J J J m J G G G G A / y u p p e 9 9 kXNX8 > > , j z ] F h %.gXhXZX~ Q N Q y.m H c Z l l j j , , t y ' l.hXhXhXfXhXhXhXhXfXiXw.w.e.;.;.;.;.:.w.:.:.>.6 = >.w.w.< 7.7.e.q.a.3 6 7.a.7.*.=.5 < a.w.7.7 4 >.6 4 s h.4 3 3 < 4 ; = < w.-.6.",
"3 0 - 6 ; s s s d = - 0 s s 8 q ' ' 9 , / ^ j %.%.{ a 4 = = ; = = ; ; s 0 - f 3 1 2 < >.>.1.d 2.d f =.w.<.4.sXgXfXhXhXhXhXhXhXhXhXhXhXtXSX, k j j j z z Z G G m n m m m m m G tXb G L K G G D k ) ( dXiXy.V m m m m m m G D l G m G G G H H H K K H H G A > 9 > %.I 8.8.I , j , , , y y y y y , t kXDXq % % 9 9 % 9 9 9 9 9 % % M.M.y Z D G G A A D D _ u u ( e v.9 % % # & ' z ) X.hXhXhXZXZXZXZXZXZXZXZXZXZXZXhXhXi.+.o.a e 9 % % 9 & , z Z A G J P H n H Z x z k , m.vX# # # % % % % % % % & g kXi ( / _ S Z ~ I iX8.9.I kXw # > F G m J J J J J J J J J m m D _ z D G G S ) ^ y u u u r bXNX8 & > > , j Z D A U U C M H m m n G A l k ^ y , u u y > , ^ +.gXhXhXhXhXZXZXZXZXZXZXh.e.e.:.&.;.;.:.q.7.:.>.1.f *.;.-.>.a.< :.q.w.< 6 =.5 3 d 3 0 s >.0.-.= 4 -.-.1 d 6 3 d s 0 s d >.:.0.:.*.",
"d f 3 2 - - 8 s 5 1 3 0 0 q q i { { i > r > ^ ] { { o.4 = 3 4 r.r.4 s 3 s s 2.3 = s d 3 >.>.; 7 7 d *.a.>.r.hXfXfXaXhXZXZXZXhXhXhXhXhXfXgXh ' ( ^ k j k x S A b b b m m m m n %.b A A A A c l j , e } iXy.~ b J m m m n m A l G H Z l l H H H H H H H G c > 9 > %.I y.8.%., ^ , , , y y y , , r e 9 9 % % 9 % % % 9 9 9 9 9 q kXM.M.( S S D D x _ ) ) / u t u e 9 9 % # # % N.} X.p.hXhXhXZXZXZXZXZXZXZXZXZXZXhXhXhXgXr.u u e 9 9 9 9 & y z S Z A H ) / D Z k ^ / ^ > w vX8 # # % % % % % % % & O X O ( / ^ z x V E c.8.8.Q wXGXkXO O , J J J J J J J J J G G Z ( ( ( z x x S z / / ^ u y p kXR.# & > > > , j j , G b b G c G n n m l k ^ y y t u u t r AX: t.hXhXhXhXhXZXZXZXhXhXaXa.e.j.7.-.7.w.w.e.q.7.w.a.>.:.:.:.-.a.>.-.7.-.5 5 3 s s 3 = = ; <.w.:.* 7 7 >.4 s s s s 0 0 < <.-.-.-.>.6 ",
"d 7 < 1 - @ 8 3 =.=.< 0 0 q q r { { g * & > , _ { %.} f = 3 4 7 Y g 7 7 4 4 * 4   = 3 4 >.r.7 i.l.7 h.z.l.uXhXfXfXfXfXhXhXhXhXhXhXhXZXhXgXdX' / / / k k k x l A c b b b n n n M G Z Z Z l l k , i HXY gXuXy.G H m m m m m n G J J G A A G A G J K G G G A > 9 > %.I y.~ %., / , , , , y y y , t e 9 9 % 9 9 % % % 9 9 9 9 9 # xXwXB.^ Z D D D D _ ) ) / ^ y ^ e 9 a # # # % +.p.p.uXhXhXhXhXZXZXZXZXZXZXZXZXZXhXhXhXhXhXtXy e 9 9 9 9 & t / x Z A H Z Z c A z k k ^ e 8 ].NX8 # % % % % % % % & % & & / ) t ^ / l I pXy.Q U i GXbX8 O > K J J J J J J H H G A S ) / / ^ / ^ j ^ ^ y u u u p v.w   % % > > > t , > D m m A l Z G c A z j , u r , > r u r tXAXgXhXfXfXhXhXfXhXhXfXaXc.7.q.q.7.a.g.z.w.q.e.7.<.-.>.>.<.<.>.>.>.<.&.3 3 3 3 7 7 4.g g 4 <.:.>.= - < 6 4 s d s 0 0 0 >.0.:.7.:.7.6 ",
"s 5 6 >.= $ 8 5 =.=.< 0 0 q i ^ { { g $ * i , ( _ { } i 3 3 3 7 Y Y Y Y Y Y Y Y | | | | | r.r.k.g.p.iXiXk.l.fXfXfXfXaXiXiXiXiXhXhXhXhXhXhXgXX.j ^ / ^ k z l x A c b G G b b b G Z l l l l z j , qXUXtX%.I A G A A Z Z Z Z Z Z Z Z Z A G D j j l A G G G Z 9 9 > %.c y.~ %., ) } tXe , y y y , u e 9 % 9 9 9 % % % % 9 9 9 9 9 kXkXkXz G m n m H x _ ) ^ t , y v.e a # # # & ' %.p.uXhXhXhXhXZXZXZXZXZXZXZXZXhXhXhXhXhXfX .t e 9 9 9 9 & y , z S Z m n M H H c x l k y 9 jXbX8 # % % % % % % % % % % & ( ( > u u j I x.U P l u kXDX8 o & L H H H K K K G Z Z c H L Z z k j j j , , > > 9 9 e 9 IXHXw % & > > > > > _ Z Z l j k k j , , t r r r t t r u r : SXhXhXhXhXfXaXiXx.x.aXpXx.iXpXiXx.pXz.z.w.7.7.7.*.6 6 6 2 4 2 a.7 w.>.d s >.8.! Y |  ...6 < < 3 - 8 s *.3 3 5 3 ; s = 7.0.:.:.2 2 6 ",
"s 3 6 -.*.- w 3 1 =.5 ; s q : k ' ' g 3 4 4 * i : i g i 4 4 7 g  . . .Y Y  . . .$.$.X. . .t.t.g.g.t.k.iXpXiXiXfXfXfXfXfXfXaXfXhXhXhXhXhXhXfXgXtX' , , ^ / k k x Z Z Z Z Z Z Z l l k k k z k j , BXUXtX%.Q b J H P H H K H H J H H H D A G A A A G G G G S 9 9 > %.c ~ ~ %.j S Y dXe , t y ^ , u v.# # 9 9 9 % % % 9 9 9 9 8 8 jXwXlX] H J m m H Z S x ^ u t y w 9 a # # 8 % u %.! p.hXhXhXhXZXZXZXZXZXZXZXZXZXhXhXhXhXdX} e e 9 9 % % & / z z Z A H n M H H c x l k t a w m.m.HX8 # # # % % % % % % 9 _ / , u u j I z.U P z t wXDX8 O X P G A G G K K H A l l l k k z A A A Z c c Z z , u t a M.vXw 8 % % & > > r ^ , j , y y ^ ^ y t t u u r e e e B.JXZXZXhXhXhXhXhXfXfXaXiXx.pXaXfXfXfXk.d.z.k.d.h.e.7.>.4 | t.u.t.8.u.8.r.7 6 | t.~ ~ $.X. .@.1.< = 3 * ; 4 2 4 3 5 4 r.| 7 7.:.>.3 d d f ",
"s ; 6 ;.*.- 8 - 1 =.1 3 s 7 h j +.| 1.=.5 6 7 7 7 7 7 ..| |  . . . . . . . . .X. .X.t.X.t.t.8.f.x.x.l.aXaXfXaXfXhXhXhXhXhXhXhXhXhXhXhXhXhXfXfX..SX} , ` ^ ^ / / z z z z z z z z k ^ y , j , , > HXPXuX~ y.G H P U P H G G A A A A G x l G G A Z G G L G S 9 8 > %.c %.Q %.j D I dXu t t t y , u v.8 % 9 9 % % % % 9 9 9 q bXDXBX' { ] A A G H H A D l ^ u t u a 9 a # # 8 9 , { { i.fXhXhXhXZXZXZXZXZXZXZXZXZXhXhXhXhXdX' e e 9 9 % % & / ] z A A n n P H K Z x z ) e a w m.wXDXw % % # % % % % % % O _ ) , r u y I pXM P z ' M.kXw o X P G Z G A G G G Z Z A Z z z Z G G G A A A Z x > , y y w ].w 8 # 9 % & e e t y y t t t t u t r t r e e e LX& X AXhXhXhXhXhXhXhXhXfXfXfXiXx.aXfXfXfXl.t.x.x.k.u.t.u.t.r.t.9.9.8.8.8.y.t.t.t.i.t.$.$.r.r.g g 6 1.g r.g g 7.7.7 4.r.7 Y Y | >.&.*.s s d s ",
"s s 6 2 3 - 8 - 3 1 < ; 0 4 7 * 5 =.=.=.=.>.| Y !  .X. .$.X.X.$.X. . . .$.$.X.X.$.$.t.l.x.t.t.u.fXfXfXfXfXfXhXhXhXhXhXhXhXhXhXhXhXhXhXhXhXhXhXhXhXfX: u u y y ^ ^ / , ^ ^ / j ^ y t t r r r M.wXrX .U y.tXA G G P P G A A A S S x x z , , z D j A G G G x % % > { P D [ ] Z H P VXa t y t y , u v.9 % % % % % % % 9 9 9 9 q eXVX{ L K L L H m J Z z z y t t u M.9 9 % # 8 9 > { F i.fXhXhXhXZXZXZXZXZXZXZXZXZXhXhXhXfXdX' a e 9 9 % % % ^ ) j D A G l ) A A l x Z x y y p m.jXxXw 8 O % # # # % % % % ( _ r o.qX' c l.M P z > a kXw o . [ A S D S D S S l k j k j z l G H H H P G G Z j { z y 8 bXM.MXkX# & > > e t t t t r r r u r r r r e e e i hXhXhXhXhXhXhXhXhXhXhXhXhXhXfXfXfXfXfXfXfXx.iXaXaXuXl.iXiXiXl.u.9.u.u.s.u.u.u.y.u.u.f.f.r.r.r.t.r.r. .i. .7 g 7 7 g | | Y | | 7 >.>.3 s s s ",
"s s ; - - - ; - = 3 3 ; ; = 4 * 5 6 7 7 6 >.t.t.t.t.$. .$.Y t.t. .i. .t.u.f.t.p.uXu.u.k.aXfXfXfXfXfXfXfXfXhXhXhXhXhXhXhXhXhXhXhXhXhXhXhXhXhXhXfXfXhX| O.VX' t y y ^ t ^ y ^ ^ ^ t r r r & q q UXUXJXP H G A c c H H J K J H Z _ _ x ] z / , t j x G G A x % # & { K K L D G J H { tXVXi e > > & e 9 % % % % % % % % 9 9 HXIXF.HX%.~ U U M b m m D t r t y t u F.# 9 9 % 8 9 e ' { i.fXhXhXhXZXZXZXZXZXZXZXZXZXhXhXhXfXtX^ e e 9 9 & % % u ( y t j ] e e k c A G A Z z ) ( p w jXDXm.8 % # # O # O O # % u a SXp.%.b Q H H z , u wXm.  . ] Z S S S S x Z l j z D l Z G n M n n n m n m Z > 9 9 p n.bXFXkX% % & & > r r r r r r e r r r r e e O.+.p.aXfXhXhXhXhXhXhXhXhXhXhXfXhXfXfXfXfXfXfXfXfXhXfXaXi.| t.iXl.l.f.u.u.g.z.d.s.g.f.g.g.g.g.u.u.u.p.t.t.i.f.y.y.t.t.t.$.t.X. .Y Y Y Y Y 7 7 7 7 ",
"s s 0 f f 1.2.s 3 3 3 ; 4 7 g 4 4 7 7 | | | X.$.! y.! t.$.Y Y Y t.p.t.l.x.z.f.x.x.z.x.iXiXfXfXfXfXfXhXhXhXhXhXhXhXhXhXhXhXhXhXhXhXhXhXhXhXhXhXhXfXfXhXZXtXu y y y y , t , t t y , r r e % IXg UXLXlXG b c c c c m J J P H P A l l Z D S S ^ r t x A G Z z 9 # & { A D D D H m J D VXSXi 9 9 & & 9 9 % # 9 9 % % % 9 9 w UXIXrXHX%.y.Q ~ Q c m n P t e y t u p F.8 9 9 9 8 9 > ' { p.fXhXhXhXZXZXZXZXZXZXZXZXhXhXhXhXhXtX' a e 9 9 9 9 % u ( u u y k y t l H m m H A x x ) ` v.v.kXw kX# # % # % % # # 9 r r SXp.%.b U n P k j u M.M.  . ] Z S S S S z k j j l Z c m J H H H H m m m b A > t r y # DXGX8 w m.8 % & r r r r r r r r r r e v.9 JXgXiXpXfXhXhXhXhXhXhXhXhXfXfXfXfXfXfXfXfXfXfXfXfXfXfXfXiXt.p.iXpXfXaXaXaXpXpXc.z.k.k.g.g.k.l.t.u.f.k.k.k.k.g.d.f.f.u.u.$.t.$.$.$.$. . .Y Y t. .t.",
"7 s 0 s g g g g g g g 7 } } } 7 7 | Y  .$.$.$. .t.y.y.y.l.f.l.u.u.l.l.x.x.z.z.x.iXpXiXiXaXhXfXhXhXhXhXhXhXhXhXhXhXhXhXhXhXhXhXhXhXfXfXfXfXhXhXhXhXfXfXfXdXlXB.t t y , t t t t t t > e r q PXUXtXtXc c c c c A G J J J H n M H P H K Z l Z A x e r , x Z z 9 % % { z k x A H m J D +.tXt lXB.9 9 9 9 % % a a 9 9 % HXVXi PXPX+.tXP H c b c l x Z S r e , , u p kX8 8 9 9 8 % > { %.uXfXhXhXhXZXZXZXZXZXZXhXZXhXhXhXhXhXtX' a i 9 9 9 9 % r ^ u e y S G L J G m n m m b c Z ( p p M.].F.kX8 & & # # # O i a g gX8.Q b M n G k , e M.M.  . ] Z x x z ) u u y l Z G m n J H n n J b c c c l k ) j y e & 9 bXzX<Xw & > e r e r r r r u e r a wX& gXiXpXaXfXfXfXfXhXhXhXhXfXfXaXaXfXfXfXfXfXfXfXfXfXuXr.l.pXl.p.p.iXfXaXaXaXaXfXfXx.x.x.x.z.x.z.l.x.z.z.g.k.k.g.d.g.z.g.f.u.uXt.$.! ! $. .Y ! t.! ! ",
"3 f ; ; g g | g | | | g | } } g } Y Y $.$.! $. .$.y.p.y.f.k.l.l.t.l.l.l.x.x.x.iXiXaXpXl.x.hXhXhXhXhXhXhXhXhXhXhXhXhXZXhXhXhXhXhXhXhXhXfXfXhXhXhXhXfXfXaXtXrXo.e e & & % % % 9 8 % # 8 8 g UX} i.P c l l c b c c Z A G A A A G G H K x _ x ] z t e e t / _ 9 # % { x D A A H m J D j j +.qXrXa 9 9 9 % % i 9 9 9 & JXhXZXZXuX$.uXU H n V V A k j ^ r e , , u 9 q 9 8 9 9 8 g O.$.t.uXhXhXhXhXhXhXhXZXZXZXZXhXhXhXhXhXhXtX' o.g 9 9 9 9 % r u a a u , z A m G J n n n m n n l x x ^ N.LXIXM.w 9 M.KXxXBXUXUXUXy.~ Q b M m G k k ` lXM.  . x l ) u u u r k x A Z H n n n H n n J G c l l l c A G j > , y GXzXNXw # O + @ @ # @ # # # # 9 9 qXAXp.x.iXiXaXfXfXfXfXhXhXfXfXfXaXaXaXaXaXaXaXaXaXfXfXuXt.t.x.t.u.l.iXiXiXaXp.iXfXfXpXiXpXx.c.c.c.pXc.z.k.u.f.k.k.z.z.z.g.g.l.l.y.p.y.x.u.! t.~ 8.! y.",
"4 7 4 4 | | | 7 | } } } } } } }  . . .$.$.y.$.$.t.y.p.u.f.k.x.k.x.x.x.f.x.x.x.pXiXiXiXl.iXhXhXhXhXhXhXZXZXZXZXZXCXyXsXZXhXhXhXhXhXhXhXfXfXhXhXhXfXfXaXaXqXB.g 9 % % % # 8 8 8 8 8 % @ M.M.UXSXAXdXp.%.U U U U A S S x z S l Z D G G ] ^ ` ( k _ ^ r ` y ^ r # # ' x ] Z Z b m H A ] F $.dXJXlXtXqXM.g g g i i i i } U U U I M C n H n M M G k / ) t e , , a 8 8 8 # 8 8 8 g O.i.p.gXhXhXhXhXhXZXZXhXhXhXhXhXhXhXhXhXhXgXo.o.B.e 9 9 8 % & e a a e r k A H G m n n n n m m c c A Z Z F JXLXKXHXxXLXHXPXBXIXHXU C U b n n D j ^ p v.M.o X z z ) p e , j l A A c m n G H m m H J G Z c G H H M U G l Z S B.DXbXF.i o + @ @ @ @ @ @ # # # 9 g B.gXl.x.iXaXfXfXfXfXfXhXfXfXfXfXaXaXaXaXaXfXfXfXfXfXiXp.iXaXiXx.l.l.l.l.iXt.uXiXiXp.t.uXz.c.c.c.c.pXpXiXz.pXx.k.c.z.z.z.z.x.x.u.u.8.k.x.y.l.9.! $.$.",
"7 | g 7 | | | g |  . . . . . . . .$.$.y.y.y.y.y.y.y.t.t.p.l.k.k.l.iXiXiXpXiXpXpXaXaXiXaXfXhXhXhXhXhXhXhXZXsXJXHXf f f ZXhXhXhXhXhXhXhXfXfXfXuXuXuXl.uXp.| } } g g g g g i i g i i q g VXJXJXI I C v v V M M b A A A S k _ ] S D L G P / u _ z ] _ y r r y t 8 # ( _ ] x j Z Z D ] S L A %.dXAXdXdXdXtXVXJXPXPXPXPX} M n n U M V n H b G b A j y t r e > e v.8 8 8 8 8 8 % g O.p.x.aXhXhXhXhXhXZXZXhXhXhXhXhXhXhXhXhXhXgX} o.B.a 9 9 8 % # 9 v.p u ( ) l c A H n M n n n n m n b b b c gXZXSXSXJXHXdX8.E ! ! M n n b H b x , u M.m.M.O X k j j e r y j Z Z A A G m Z A m H c A c c H n n v v v n b m m ) > > DXKXM.i i i i i i i i i i a g g tXuXp.uXp.uXuXuXuXfXfXfXfXfXfXaXaXaXaXfXfXfXfXfXfXfXfXaXaXaXfXaXaXiXiXuXl.p.i.i.i.i.i.uXuXl.l.l.l.x.pXc.x.x.z.pXpXz.x.c.pXx.c.x.x.x.pXu.t.f.!  .X.",
"g | g | | | | g | |  . .X. .X.X. . . .p.u.u.p.t.t.t.y.u.l.x.x.iXl.y.iXaXaXaXfXfXfXfXfXfXhXhXhXhXhXhXhXhXZXg qXeXM.m.f SXhXhXhXhXhXhXfXfXuX$. . . . . .| } } } } | } } } } } | } } O.M.PXSXu.E V V M M M H G K G D A D z ^ ) z x D G L D j x z k / t e e > e % # O u ` / k x ] _ _ S G L H P %.%.I SXSXJXZXZXgXAXgX%.n n n b b m A A Z Z l z y u r e e u e v.8 8 8 8 # 8 8 g o.@.i.tXhXhXhXhXhXhXhXhXhXhXhXhXhXhXhXhXhXdXo.o.o.B.9 8 # # # # v.` y u ( z Z S G n M n n n n n n n b m b y.8.8.E dXfXg.B N N N b n n b G l j y p jXm.m.O X > r r & e r k Z Z c G G b c G b G l l b m b n v v B B B B b c _ y ^ ` rXKXw g g g g g g g } } } } o.} } o.} } } +.+.tXiXaXgXgXfXfXaXaXaXaXfXfXfXaXaXaXfXfXfXfXaXaXfXfXfXfXfXaXaXuXl.l.p.p.i.t.$.$.$. .p.iXp.i.tXg.fXaXz.z.c.c.c.c.x.z.z.pXl.u.x.$.Y t.",
"| | g | | | | |  .X. . .t.t.t.t.t.t.r.t.r.r.t.t.k.f.g.k.k.k.x.p.$.$.uXaXaXaXaXfXhXhXfXhXhXhXhXhXhXZXZXSXJXg M.g q 8 + ZXhXfXhXhXhXfXgXuXi.X. . .| | | | | | } } } } | | | | | } @.JXJXZXl.E V M M M M M H G G G Z S S z y j ) z S L L [ j ) / / / y 9 9 e e # # # 9 a t / _ x z ) _ G H K P A A c p.p.%.%.%.I Q I c n n n G H H A D Z x z j ^ y r e 9 p e w 8 8 q q q q i g o.o.| tXhXZXhXhXhXhXhXhXhXhXhXhXhXhXhXhXfX#.o.o.o.B.9 8 w q + # a ` y r p ^ x x A G n M n M v v n m G m n V v v b Q E T v v b b b n b b b l u e v.jXF.m.& > & 9 9 9 e r k x Z A A c b c G m G j h b c D n M v N B T T M c z / ) ( kXg jXi g g g g } g } } } } } } } } } } } } +.@.t...| | Y pXaXaXaXaXaXfXfXfXfXfXfXfXfXfXfXfXfXfXfXfXfXfXaXaXaXfXfXaXuXp.uXp.p.i.t.t. .r.t.t.uXuXl.pXaXiXx.c.c.x.x.x.x.x.x.iXiXiX",
"| | 7 | | | | X.$.$.X. .t.t.t.t.t.t.7.r.r.r.r.i.pXx.c.x.x.pXpXiXiXiXaXiXaXaXaXfXfXfXfXfXfXhXhXhXhXhXJXg g q g q w w + AXdXqXqXrXdX} } #. . . . .| | | | | | } } | } | | | | | | i.JXPXC V U M M M v M M H D D S z j , j y y ^ ^ k k z ) / / / ^ ^ y 9 9 9 % # & > 8 M.B.` ( x z ) ) A H G Z c J J P H J G D G U U M n n m A G P x k k z _ y r r e e e p 9 w 8 8 q i g g g g o.o.| dXZXhXhXhXhXhXhXhXhXhXhXhXhXhXhXhXhXdX} o.o.o.a w w g q 8 w p u p p ^ k ^ ) x D D A M M M H J m J n C E C n M v M b A c b b G c c Z z 9 R.w m.m.w > t & % 9 % > t k z l S x S Z x x G D j l P j ) G b v N N B B V V F j / j e VXLXI.M.g } } } } } } } } } } } } } } } } +.+. .+.+.+.| aXl.p.uXuXaXaXaXaXaXaXaXfXfXfXaXfXfXfXfXfXfXaXaXaXaXfXfXaXiXiXaXi.t.y.i.i.t.t.t.t.t.t.t.t.t.$.p.fXiXp.l.pXc.x.x.pXx.pX",
"| | | | | | |  .X. .X.......| r.Y t.Y 7 p.iXaXaXaXpXpXaXaXaXpXpXpXpXiXu.aXaXaXaXaXfXfXfXfXfXhXhXhXZXSXqXg g B.$ q g q M.M.F.9 wXBXBXO. . . . . . .| | | | | | | | +.| | +.| | | p.JXJXb n M M M M M M H H x l z ) j , ^ y r t ^ ^ y ^ ^ / ^ ^ y y y > 9 % % % > t 9 9 q a ' z j ^ u x D H G G J m m n m H D G C V M m m G x z x ) y y ^ y t e e r r e u e w 8 9 q g } o.o.o.} o.r.dXdXZXhXhXhXhXhXhXhXhXhXhXhXhXhXhXgXdX} O.O.o.o.o.g M.M.8 w 8 w p e u ( u p ^ ) ( / A c H G H n m m N W T n n v v G A G A Z S z / ) ` M.nX[.w # & , , & # # % > , j k k x z ) ) j j k k , x , > ( D A b M V N B N V A / ^ ^ , , g FXm.o.} } } } } } } } } } } } } } +.+.+.+.+.+.+.} | } } } } Y uXfXaXaXaXaXaXaXfXaXpXaXaXaXaXfXiXaXaXaXaXfXfXaXaXaXaXaXiXiXx.l.t.$.$.t.t.t.t.t.t.t.$.X.t.$.t.u.iXl.l.x.g.z.",
"| | | | | | | ..........@.@.| r.t.u.i.p.iXaXaXaXaXaXaXaXaXaXaXpXpXaXaXuXfXaXaXaXfXfXfXfXfXfXfXfXhXr.AXg q g i w q q w m.m.M.M.bXJXrXqX . ..... . . .| +.+.+.+.+.+.+.+.+.+.+.+.+.i.gXt.H H M n M n H m H D z k z k , > , t r t t y y y ^ ^ ( y t y y > & % % % & r 9 8 9 v.' _ k y r / z j z S G G G G G A S G n b G G G A z / ) ( y t u t t e e r e 9 a v.w 8 9 q g o.o.} } } o.| | r.ZXhXhXhXhXhXhXhXhXhXhXfXfXuXr.X.@.O.O.O.o.o.o.g M.9 8 8 w w e e u y u p ^ ( u ^ A b H G H m m m n v n n n M M G A D S x z ) ` p p w NX<Xm.# t t , > # # % > , y y ^ ) / ) ) ^ ^ / ^ , / > % ^ x x A G b M M b b D ( ^ / k k a vXR.g } } } } } } } } } } } } } } +.+.+.+.+.+.+.} } +.} } }  .gXi.i.t.aXaXaXaXaXaXaXaXaXaXaXaXiXaXaXaXaXfXfXaXpXpXpXaXpXpXx.x.l.u.u.u.p.t.t.t.t.$.$.$.X.X. .t.i.$.i.x.k.iX",
"| |  .| ........ . .X.X. .t.t.r.l.iXiXiXiXaXaXaXaXaXaXaXaXaXaXpXaXpXaXaXfXaXaXaXfXaXaXfXfXuXuXiXuXX f f w q q 8 q i # w M.g % 8 qXqX4.|  ... . . . . .....+.+.+.+.+.+.+.+.+.+.} p.uXdXH G A A A D D G D S k j k j , > > e e e > t y ^ ^ ^ ^ t r r r 9 % % % % > > 9 8 8 8 e v.v.v.p ( / ( ( / _ _ _ ) ) / ) S c A A A A l ^ ^ ( ( ( y t t t r e 9 M.8 e w w 9 * O g o.} | | | | o.} qXZXgXgXhXhXhXhXhXhXhXhXfXfXaXi.#.+.+.O.} O.o.o.o.o.o.o.9 w w e ( u y t p ^ ^ u k c c G A A A b G G H H G G A A Z z k / ^ y y p v.F.n.w 8 8 # y y , r # # # e e t y y ^ / / / j j ^ y , k > % t ^ z A G G m J A G D / / / j k a vXR.a } } } } } } } } | } | | +.+.+.+.+.+.+.+.} } | +.} } }  . . . . .fXaXaXfXaXpXpXaXaXiXaXaXaXaXaXaXaXaXfXaXpXpXpXpXpXpXc.c.z.z.z.c.z.8.y.t.t.t.t.t.$.$.X.X.$.$. .Y  .X.",
"| | | | |  . . . . .X.X.X.g.d.f.iXiXiXaXaXaXaXaXaXaXaXaXaXaXaXaXpXpXpXpXpXaXaXaXaXaXaXfXfXi.i.i.t.X f f q * i gXhXZXg $ i g q q qXrX4.*  .........#.#.#.....@.@.@.....@.@.@.+.} dXuXuXc S S S S z z x x z k j j , t r 9 e r r > t y y y y y t t t r % # # # & t r e e 9 9 9 9 v.v.v.v.p p ` ( ( ` ` u p ( ( ) z z z z z k y y y u u t r r t r r 9 f w 9 9 8 i O.O.o.+.+.+.+.+.+.+.+.| ZXuXdXhXhXhXhXfXfXfXhXfXfXl.t. ...+.+.+.+.+.+.+.+.} } 8 8 8 w e e t t u ( ^ t k D D D j ) D A Z S D A A Z l z z ^ / ( u ( ` v.w 9Xn.w 9 9 r , , , r # @ @ # # t , , j j ^ ^ , , , , , k > % r y j l Z A A x ) z z ( ( / k k a vXR.a o.} } } | } } | | +.| +.+.+.+.|  .....+. . . . . .} +. . .......t.#.i.fXpXaXiXpXpXpXpXiXpXpXpXaXpXpXaXaXpXpXpXpXpXx.c.c.c.c.c.c.c.c.x.k.k.l.iXpXt.$.$.$.$.X. . . . .",
"| | | |  ....... . .u.t.r.z.z.x.pXiXpXiXiXaXaXaXaXaXaXaXaXaXaXaXaXaXc.pXc.aXpXaXaXpXiXaXaX$.t.t.X.. q f f 0 g uXpXfXO.# w M.w w g 4.f $ X.X.#. .t.i.i.i.t.t.#. ...#.#.X...@.+.o.' ' { l ) ) z x k j z ) z j , , , t e 9 e e r r t y y y y y t t t t % # + # & e e e e 9 9 9 9 a v.M.v.v.` p ` ` ` p r u ` p ( ^ ( ^ / / ^ u u y u p r e r r e e 9 8 w w w w # i i O.+.+.+.+.| | +.+.+.@.r.r.hXhXfXfXfXfXfXuXr.X.........+.+.+.+.+.+...+.+.+.w 0 jX8 w w e t u y y t ^ z k x y / S S z z D D S x z / ^ ^ ^ ( r p v.w 8 m.w 8 e r > > r t e # + @ @ % t > > y , ^ ^ , , , , , k > % 9 y , k S S x x / / ) ^ ^ ^ j j a <Xm.a } } }  . .p.u.$.$.$.$.$.$.X.X. . . . . . . . . . . . . . .......X...i.fXpXaXiXaXpXiXpXpXpXpXpXaXpXpXaXaXpXpXc.c.c.x.x.c.c.c.x.x.x.c.c.x.z.aXiXu.y.t.! t.X. . . . . .",
"| |  . . . .X.X. . .x.z.iXx.x.iXpXiXpXiXiXpXaXfXfXS.F.D.gXgXaXaXaXc.pXpXz.pXpXpXaXi.i. .X.$.$.$.X.* * Z.n.0 * i.r.r.g 8 w q 0 $ * f f 8 t.t.i.t.i.i.i.i.t.t.t.l.i.t.t.i.i.r.r.O.e ` { k t y ^ j j j j ^ , t r > & & % % % % % % & e e e 9 9 9 & & % # # # + + # # # # # # # # % 8 M.M.m.v.v.p ` p p e u ` p u u u u ( ( y t u u e u e e e e 9 9 9 w 9 q a M.O.+.O.+.+.+.+.+.+.+.+.+.+.+.+.+.dXuXfXfXfXfXfXgX . .......+.+.+.+.+.+.+.+.+.+.+.a qXO.8 w w 9 t t e u r r t u t > ^ z z / j k z k k ^ y y ^ t e 9 w ].n.w m.8 % % & & 9 9 9 9 # @ 8 8 # > & & > > > > > & > & & & O $ # > t k x l x z k ^ ^ ^ ^ ^ , ^ M.[.m.o. .$.$.y.u.l.f.u.p.p.p.p.u.u.t.i.u.u.t.$.X. ... . . . . . ... .........i.t.X.uXiXiXpXpXpXpXpXpXpXpXpXpXpXpXc.x.x.c.pXx.x.x.x.x.pXc.c.c.c.c.pXx.z.g.s.d.s.8.t.t.X.X.X.",
" . . . . . .t.l.x.x.x.x.x.x.x.pXpXiXpXx.z.pXiXpXiXD.R.R.AXgXx.pXpXc.x.z.z.x.c.z.t.$.$.$.$.$.X.X.X.* - f n.w w BXrXqXM.8 w i i i q * * * i.l.f.k.c.c.c.pXpXpXpXx.c.pXpXx.f.t.r.qX9 a p p p p u u r r u e e e 9 8 # # # @ @ @ @ O @ @ @ + o + o o O O O O O O + o o O + + + $ # # 8 w m.I.Z.m.v.v.v.p p p ( u p p u p ` u u e e e e e e 9 9 e e i q w 8 O.g i O.+.+.+.+.+.+.+.+.+.+.@.@.| +.| uXgXfXfXfXfXfXgX ...........@.+.+.+.+.+.@.@.+.+.+.+.+.8 q q 9 r e 8 9 e 9 9 9 9 e t ^ ^ y y ^ / / ^ ^ y y u a ].w <X,Xw w 8 # # # $ $ # # # # + O # + + + + + # # # + + + O + + + @ o o O % t t t t u u u e e r e e e m.m.w g  . .$.y.k.x.x.iXx.iXpXpXx.x.x.x.z.u.t.$.$.$. . . . . . .+.+. .......@.X. . .p.aXpXpXpXiXiXpXpXpXpXpXpXpXpXc.x.c.c.pXx.x.x.pXpXpXpXpXc.x.pXc.x.c.z.z.z.d.z.g.t.t.t.t.",
" . . .X. .i.t.g.z.k.x.x.z.x.x.pXiXaXpXz.g.iXx.x.iXwXF.S.SXZXf.iXpXpXz.z.x.x.x.g.y.$.$.$.$.$.$.$. .X @ w w 0 0 w M.g i 8 w g w w # r.i.uXp.k.k.x.pXpXpXpXpXpXpXpXpXpXpXpXl.i.r.qX8 8 8 8 8 8 8 8 8 8 8 9 9 9 9 8 % % % 9 i i i i i i i i i i i i i i i i i i i i i i i i i i q i q q w w 0 w v.v.v.p e u u u u u u u ` ` u e u e e e e 9 9 9 9 q i g g O.@.@.+.@.+.+.+.+.+.@.@.@.+.+.+...+...i.i.tXtXuXuXuXuX . ...........@.@.@.@...@.+.+.......+.g g B.a e e O % 9 9 & 9 9 9 e t t t t y ^ y y y y t v.M.].8 8 8 w w 9 q q q q q % q q % % % 8 9 # # # # # # # # # # % 9 9 8 8 # # o 8 9 9 9 9 9 9 % % % % % % % 8 w w g  . .$.y.u.z.x.iXpXpXpXpXpXiXiXx.x.l.x.l.l.l.t. . . .X. . . . . ...@... .X.X.t.l.u.t.pXiXpXpXpXpXpXpXpXpXpXpXx.x.x.pXc.c.c.pXpXpXpXpXx.x.pXx.x.x.x.x.z.z.z.z.u.l.x.k.",
" . . . .Y f.u.f.k.x.x.x.x.x.x.x.aXaXpXz.g.iXl.p.l.i.tXi.uXuXu.p.pXc.x.x.iX8.~ y.$.X.#.$.X.t.t.t.i.r.. q g qXq 8 a g g w w q w w g i i.8.z.c.c.pXpXaXaXaXaXaXaXaXpXpXpXpXu.i.i.qX8 # # # # # # # # # # # 9 9 9 i g } } } o.o.} o.o.o.o.o.o.o.o.o.o.o.o.o.O.O.O.O.O.O.O.O.O.o.g g i q q + O 9 v.v.v.v.p p u u u u u u u u r e e e a a e 9 9 9 q g o.g g @.@.@.@.@.+.+.+.+.@.@.@.@.@.@.@.+.+.+.+.+.+... .....@... .............@.@.@.@.@.@.........+.+.+.+.g i g g q e u u u u u u u t u y y y y ( y y u M.M.M.8 8 8 q i i i g g o.o.o.o.o.O.O.O.O.O.O.O.O.O.O.O.O.O.O.O.O.O.O.O.O.O.O.q + $ + O + + + O + O + + + $ q w w g  . .$.y.8.x.x.iXpXpXpXpXpXiXx.iXx.x.x.x.x.x.x.z.pXY X. . . .X.X.X.X.#.X.X. .X.t.t.t.pXpXpXpXpXpXpXpXpXpXpXpXx.iXpXaXiXiXaXaXaXpXc.c.c.x.x.c.x.x.x.z.z.z.z.z.z.z.z.g.",
"$. .X.t.t.k.k.k.k.k.x.x.x.x.x.k.pXiXaXc.z.x.l.8.y.y.~ C Q y.y.u.pXpXpXx.k.~ $.$.$.#.X.X.t.x.z.z.x.l.r.sXuXuX* w w w q w w q O.}  .i.z.g.c.pXpXaXaXaXaXaXaXaXaXaXaXaXpXpXl.i.i.i.} O.+.+.+.+.+.+.+.+.| } o.o.o.o.| | } } } } } } +.+.+.+.+.+.+.+.+.+.+.| +.+.+.+.+.+.+.+.+.| g g g g g i & i v.v.v.v.v.v.p p p p p a a a e 9 9 9 9 9 9 i i i g +.@.@.@.@.@.@.@.@.@.@.@.@.@.@.@.@.@.@.@.@.@...+..... . ... .....................................@.@.@.+.+.@.+.+.+.O.i a a i e 9 9 9 9 e e e e e e e e e i q 9 q i i g g g o.o.o.O.O.O.O.O.O.O.O.O.O.O.O.O.O.O.O.O.O.O.O.O.O.O.O.+.+.| | g g o.| | O.O.+.O.O.| O.O.O.O.O.O.O... .$.y.p.k.x.x.pXiXiXpXpXiXiXaXiXiXiXiXiXiXiXx.pXY x.Y X.X.X.X.X.X.X.X.X.X.X.X.$.$.l.u.l.pXpXpXpXiXiXpXpXx.x.iXhX* * * * q q sXc.c.c.x.x.x.x.x.x.x.x.z.z.z.z.z.z.g.",
"$. .X.t.t.f.g.k.k.f.z.x.x.x.x.x.x.x.x.g.g.g.f.y.y.~ ~ U %.y.y.x.pXfXpXx.l.$.$.$.t.i.i.i.i.x.z.z.x.x.l.l.l.uXg 8 8 q w w w w dXp.u.l.c.pXpXaXaXaXaXaXaXaXaXaXaXaXaXaXpXpXpXi.i.r. ... ..... . . . . . .+.+.+.+.+.|  . ...+.+.+.+...............................@...+.+.+.+.| | | o.g g g 7 O 8 # 8 # # # 9 9 9 9 9 9 9 9 8 8 8 9 9 e q o.@.+.@.@.@.@.@.@.@.@.@.@.@.@.@.@.@.@.@.@.@.@.@.@.@.@.................................@.@...............@.....@.@.@.@.@.@.B.q q q q 9 # # # # # # # # % # # O # # # 8 i g g o.g o.o.o.| | O.O.O.O.O.O.O.O.O.O.+.+.+.@.+.+.@.+.@.+.+.+.+.+.+.+.+.+.+.+.+.+.@.+.+.+.+.+.+.+.| | | | | +...t.t.i.l.z.pXpXaXaXaXaXaXaXaXpXpXpXpXpXpXpXpXpXpXc.$.X.X.X.X.X.X. .X.X.X.X.X.X.$.X.p.p.pXpXpXpXpXpXpXx.iXx.gXJXHXBXBXrXq q sXz.x.c.z.z.z.z.z.z.z.z.z.z.z.z.z.z.k.",
"t.$.t.t.x.g.g.k.k.k.k.x.z.z.x.x.x.x.z.k.g.f.} o.o.a q e i.y.p.t.Y p.l.l.p.y.i.i.u.l.l.z.x.x.x.x.x.x.x.x.l.l.iXr.r.X O + 8 w r.u.s.x.pXpXaXaXaXaXaXaXaXaXaXaXaXaXaXaXiXpXc.r.t.X. . . ..... . . ... . . . ....... ...................@.@.....................@.@...@.@.@.@.@.#.@.+.+.+.| | & # O # # # $ $ # # # # # # # # # # q g g i +.@.@.@.@.@.@.@.@.@.@.@.@.@.@.@.@.@.@.@.@.@.@.@.@.@.@....... . ...................................@.@.@.@.@.@.@.@.@.@.@.@.B.& q & i & O % % # # # # # # # # # 8 8 8 8 i O.O.O.+.+.+.+.+.+.+.+.+.+.+.+.+.+.+.@.@.@.@.@.@...@.@.@.@.@.@.@.@.@.@.@.@.@.@.@.@...@.@.@.@.......+.+.+.+.+.+.+.@.X.$.l.iXpXiXaXaXaXaXiXpXpXpXpXpXpXpXpXiXpXpXpXc.t.t.X.X.X.X. .X.X.X.X.X.X.X.$.$.p.p.pXpXpXpXx.iXpXiXgXAXAXUXLXHXJXLXq 9 r.| gXc.z.z.z.z.z.z.k.g.z.z.z.z.z.z.z.",
"t.8.u.z.k.k.z.z.z.x.x.x.x.x.x.x.x.x.z.z.g.u.M.M.M.a w a %.p.p.#.' tXl.l.l.l.k.x.x.aXaXd.x.pXx.x.pXx.x.iXiXx.iXr.c.h.r.# g 8 B.l.s.x.pXaXaXaXaXaXaXaXaXaXaXaXaXaXaXpXpXpXc.r.t.X. . ...............................X.X.X.X.X.X.X.........................#.#.......@.#.#.#.#.#.@.@.........+.+...+.+.+.+.+.+.+.+.+.+.+.+.+.+.+.+.@.@.@.#.@.@.@.@.@.@.@.@.@.@.@...@.@.@.@................................. . .......................@.@.@.@.@.@.@.#.#.@.@.@.@.@.@.@.+.@.@.@.@.| | +.+.+.+.+.+.+.+.+.+.O.+.O.O.O...@.@...........@.@.@.@.@.@.@.@.@.@.@.@.@.@.@.@.@.@.@.@.@.@.@.@.@.@.@.@.@.@.@.@.@.@.@.@.@.@.@.@.@.@.@.@.@.@...@.@...X.l.Y iXiXiXiXiXpXpXpXpXpXpXpXpXpXpXpXpXpXpXx.pXx.iX$.X.X.X.X.X.X.X.X.X.X.$.t.f.f.x.iXiXiXx.x.pXuXhXJXdXVXrXqXqXg w w q : dXk.z.z.k.g.g.z.g.d.g.z.z.z.z.z.z.",
"u.g.s.d.k.z.z.z.z.z.z.z.z.z.x.x.x.x.z.d.g.l.M.M.M.a r , %.p.p. .j i.t.u.k.c.x.x.x.aXpXk.x.x.x.pXx.x.x.x.iXx.x.7 h.j.r.8 M.8 B.l.d.x.aXpXaXaXaXaXaXaXaXaXaXaXaXaXaXaXpXpXz.t.t.X. .....X...............X.....X.X.X.X.X.X.X.X.X.X.X.X.X.X.....................#.#.@.#.#.#.#.#.#.@.@..... ...........@...@.@.@.@.@.@.@.@.@.@.@.@.......@.@.@.@.@.@.@.@.@.@.@.@.@.@.@...@............................... . . ..... ...................@.@.@.@.@...@.@...@.@.........@.@...@.@.......@.@.@.@.@.@.@.@.@.@.@.@.@...@...@.........@.@.@.@.@.@.@.@.@.@.@.@.@.@.@.@.@.@.@.@.@.@.@.@.@.@.@.@.@.@.@.@.@.@.@.@.@.@.@.....@.........................X.pXpXaXfXpXpXpXpXpXaXaXpXpXpXpXpXpXpXpXpXx.c.aXX.X.$.$.X.X.X.X.X.X.X.$.t.l.f.x.x.k.x.iXx.x.uXAXJXJXdXqXqXqXqXw w 9 a qXl.k.g.k.g.g.k.g.d.g.z.z.z.z.z.z.",
"9.g.g.g.z.z.z.z.z.z.z.z.z.x.x.z.z.z.g.d.j.f.r.| } %.%.~ %.p.p.t.t.x.k.z.x.c.c.x.z.z.x.x.x.x.x.pXx.x.x.x.x.x.uXg 7.7.r.q g 9 i uXk.pXaXpXaXaXpXpXpXaXpXaXpXaXaXaXaXaXpXt.Y l.i. .X.X.X.X.......X.............X.X.X.X.X.X.X.X.X.X.....X.X.X...#.#.......X.X.X.#.#.#.#.#.#.#.#...@.@.....X...............#.@.@.@.@.@.@.@.@.@.@.@.@.@.@.@.@.@.@.@.@.@.@.@.@.@.#.@.@.@...........X.X................... . . ... . . .........................X.X.........#.#.........@.@.@...@.@.....@.@.@.@.@.@.@.@.@.@.@.@.@.@.@.@.@.@.....@.@.@.@...@.@...@.....#...#...@.@.@.@.@.@.#.@.@.@.@.@.@.@.@.@.@.@.@.@.@.@.@.#.#.#.#.@.@.@.@.@.......@.@.@.@.@.t.u.Y r.uXiXiXiXiXaXaXpXpXpXiXpXpXpXpXpXpXpXpXiXl.p.y.t.$.X.X.X.X.X.$.$.$.u.u.k.k.l.uXl.uXgXAXsXtXr.r.i.r.r.r.q w 9 q w 8 aXd.g.g.g.z.d.d.d.g.z.z.z.z.z.",
"9.d.g.g.g.k.z.z.z.z.z.z.k.z.z.z.z.z.z.g.g.z.k.z.l.$.tXtX%.%.l.z.z.x.z.z.x.c.x.c.z.x.x.x.x.x.x.x.x.x.x.x.x.iXt. . . .X. . . .p.x.aXaXaXpXaXaXpXpXpXpXpXaXaXaXaXaXaXaXaXl.$.i.t.X.X.X...X...X.................X.X.X.X.X.X.X.X.X.......X.X.X.X.........X.#.#.#.#.X.#.#.#.#.#.#.....X.X.................#.#.@.#.#.#.#.#.#.#.#.#.#.#.#.#.#.@.#.@.@.@.@.@.@.@.#.#.......X.X.X.X...X.X.X.X...................................................X.X.X.X.X.X.X.............#.#.#.#.#.#.#.@.#.#.#.#.#.#.#.#.#.#.#.#.#.@.@.@.@.@.........@...........#.#.#.#.#.#.#.@.@.....@.#.#.#.#.#.#.#...#.@.@.........@.@.@.#.#.#.#.#.#.@.@.@.#.....@.@.@.#.@.r.@.#.@.gXiXiXiXiXiXiXpXiXpXpXpXiXpXaXpXaXpXl.u.u.u.i.t.t.X.X.X.X.X.t.t.$.u.u.k.g.k.uXdXdXJXJXdXtX| #.tXqXqXqX$ 8 q q w $ x.d.d.g.g.g.9.9.s.d.z.x.z.g.z.",
"9.9.s.s.g.g.k.k.k.k.g.g.g.g.z.z.z.z.k.z.g.g.k.k.k.+.B.+.qXo.uXx.z.z.z.z.c.c.c.x.c.c.x.z.x.x.x.x.x.x.x.l.uXt. . . . . . .X.$.l.f.pXpXpXiXpXpXpXpXpXpXpXpXpXaXaXaXaXpXaXi.$.i.t.X.X.....X.X.X.X.X.............X.X.X.X.X.X.X.X.X.X.X.X.X.X.X...X.X.#.#.X.$.$.$.t.t.t.X.X.#.#.#...X.....X.....X.X.....@.@.#.#.#.#.#.r.r.#.#.#.#.#.#.#.#.#.#.#.@.@.@.@.#.@.@.#.#.............X.X.X.X.X.X.X..... .................X...............X.X.X.X.X.X.X.X.X.X.X.X.............#.#...#.#.#.#.@.#.#.#.#.#.#.#.#.#.#.#.#.#.#.#.#.@.@.#.@.@.@.#.#.#.X.$.$.X.X.X.X.X...#.#.#.#.....#.#.#.#.#.#.#.........@.@.@.#.#...#.#.#.#.......#.#.#.#.....@.#.@.#.@.@.#.@.+.hXaXaXaXiXpXpXpXpXpXpXpXiXpXaXpXpXpXl.y.y.i.t.y.t.t.$.X.X.$.i.p.t.u.u.f.f.l.uXuXuXAXPXSXuX+.O.i q O.r.g i g i w $ uXg.g.g.d.d.9.d.d.g.z.z.z.g.g.",
"9.9.9.s.f.g.g.k.k.g.g.g.g.k.z.z.z.z.z.z.z.g.g.g.f.qXB.O.k.x.x.z.x.x.x.k.x.pXpXx.c.pXx.z.x.x.x.x.x.z.x.l.p. . . . . . . .X.$.l.k.x.x.pXiXpXpXpXpXpXpXpXpXpXaXaXfXl.l.l.u.i.p.$. .X.........X.X.X.............X.X.X.X.X.X.X.X.X.X.X.X.X.X.X.#.#.X.#.$.t.k.d.d.d.g.g.i.#.#.#.#...X.......X.....X.X.....#.#.#.#.#.#.r.r.#.#.#.#.#.#.#.#.#.#.#.#.@.........#.#.#...X.....X.X.X.X.X.X.X.X.X... . . . . . . . ... .X. . . . . . ...X.X.X.X.X.X.X.X.X.X.X.X.X...X.......#.#...X...#.#.#.#.#.#.#.#.r.r.r.r.r.#.#.#.#.#.#.#.........X.X.#.#.X.u.u.u.u.f.u.u.t.X.X.X.X.#.#.#.#.#.#.#...@.@...............#.#.#.#.#.#.............#.....#.#.@.@.@.@.+.@.+.@.X.iXiXiXpXpXpXpXpXpXiXiXpXpXpXpXpXx.x.pXx.x.k.f.f.y.i.t.t.l.u.f.u.u.f.u.t.uXuXi.r.ZXdX| O.B.g w g r.g q w w w $ $ 8 tXd.d.d.d.d.d.d.d.d.d.d.d.",
"9.9.9.s.f.g.g.g.g.k.k.k.z.k.s.u.s.g.g.z.z.g.g.g.k.t.i.t.z.z.z.z.k.x.x.k.x.pXpXpXpXx.x.x.x.x.x.x.z.z.x.t.X. . . . . . .X.X.$.l.k.z.x.x.x.x.iXpXpXpXpXpXaXaXaXaXpXl.u.l.p.p.p. .$.X.X.X.......X.X...........X.X.X.X.X.X.X.X.X.X...X.X.X.X.X.X.t.p.l.p.i.k.k.g.g.g.k.t.#.#.#.@.@.X.X...X.X.X.X...X.#.#.#.t.t.t.t.t.#.#.#.#.#.#.#.#.#.#.X.X.X.X.X.X...........#.X.......X.X.X.X.X.X...X.X... . .X.X.X.X.X. .X.X.X.X.X.......X...X.X...X.X.X.X.X.X.X.X.X.X.X.X.......#.#.#.#.#.#.#.X.#.$.t.t.t.t.t.t.t.t.r.r.r.#.t.t.X.......X.X.X.X.X.X.p.u.u.f.f.u.t.$.$.t.t.X.X.X.X.X.X.X.X.#.@.@.....#.#...#.#.#.#.#.#.#.#.#.................@.@.@.@.@.@.@.@.@.#.i.t.$.uXiXpXpXpXiXx.x.x.x.x.x.x.x.x.x.iXpXz.k.g.g.u.u.u.u.u.u.s.f.f.l.u.p.uXuXi.r.r.r.@.tXtX#.g g i o.a g f q 8 8 0 4.s.s.d.d.d.d.d.d.d.d.d.d.",
"f.s.f.s.f.f.g.k.k.k.k.k.x.k.g.f.x.d.g.f.g.g.g.g.g.z.z.z.z.z.z.z.z.c.x.x.z.k.z.pXpXpXx.x.x.x.x.x.x.x.l.X.X.X.X.X. .X.X.X.$.$.t.u.l.k.l.k.x.x.aXaXpXpXpXaXx.f.l.u.i.i.p.l.l.l.t.t.t.X.X.................X.X.X.X.X.X.#.#.X.#.#. .X.$.p.p.i.i.p.p.l.x.x.x.x.x.x.x.x.x.l.uXuXuX..+.#.i.X. .X.X.X.X.X.X.t.t.t.t.t.i.t.t.t.t.r.r.X.X.#.X.X.t.X.t.X.t.t.X.X.$.#.X.X.X.X.X.#.X.X.X. . . .t.X.X.X...X.X.X.X. .X.X.X.X.X.X.X.....X.X.X.X.X.#...X.$.t.t.$.X.X.X.X.X.X.X.X.t.t.t.$.$.$.$.$.$.t.t.t.t.y.y.t.y.y.i.X.t.#.#.t.i.t...#.X.X.X.u.u.u.p.p.u.u.f.f.f.f.f.f.g.g.u.u.f.f.f.u.t.X.X.X.@.#.#.#.......#.#.#.#.#.#.#.#.#.@.X...............#.#.#.#.@.#.#...#.X.#.p.iXx.x.x.x.x.x.x.x.x.x.x.x.x.iXiXx.z.z.z.z.u.u.u.u.y.u.f.f.f.f.f.f.uXdXtX+.+.B.a g +.qXq w q o.g g q i w 0 0 r.d.d.d.d.d.d.d.d.d.d.d.d.",
"f.f.s.f.f.f.g.k.x.x.l.l.k.x.g.g.pXg.f.f.g.k.g.k.g.k.z.g.z.z.z.z.z.z.x.x.x.f.g.k.pXpXpXpXx.x.x.x.x. .t.X.X.X. .X.X.X.X.X.$.$.t.t.u.x.l.l.iXl.l.x.iXpXx.pXz.f.l.x.t.i.p.l.l.p.i.t.t.X.X.X.................X.X.X.X.X.X.X.X.X.X.t.t.$.i.x.x.x.x.x.x.x.x.x.x.x.x.x.x.x.x.l.k.i...+.t.t.$.t.t.y.t.t.#.X.t.t.t.t.t.i.t.t.t.t.t.t.X.X.X.X.t.t.t.t.X...X.X.X.X.X.X.X.t.t.t. .X.X.X.X.X. .t. .X..... .X.X.X.X.X.X.X...X.X.X.X.X.X.X.X.X.X.X.X.X.$.$.$.$.X.X.t.X.X...#. .p.u.u.t.t.y.t.t.t.t.p.p.u.u.u.y.u.u.u.$.X.i.$.t.t.i. .t.$.$.$.t.u.u.u.u.u.u.f.f.f.f.f.u.g.g.f.f.s.f.s.l.$.X.#.#.#.X.X.#...#.#.#.#.#.#.X.#.#.#.X.#.X.X...........X.X.X.#.#.X.X.#.#.#.#.#.t.iXx.x.x.x.x.x.x.x.x.x.x.x.x.x.x.x.z.z.z.z.f.u.u.u.u.u.f.f.f.f.f.f.uXdXi.@...| o.g o.qXq w w } g g q i w 8 0 M.aXz.s.s.d.s.s.s.d.s.s.s.",
"9.9.9.s.s.u.u.9.s.s.f.u.f.s.s.s.u.s.g.g.g.g.g.g.g.g.g.k.k.z.z.z.z.z.x.x.z.g.g.l.f.z.x.x.x.z.z.x.x. .$.X.X.X.X.X.X.X.X.X.$.t.t.i.f.k.k.k.x.l.f.x.l.pXx.z.k.f.z.x.l.l.l.k.l.t.t.X.X.X.X.X.............X.X.X.X.X.X.X.t. . .X.t.t.l.l.l.x.x.x.x.iXx.x.iXx.x.x.x.x.x.x.x.l.p.i.#.#.t.t.u.u.9.u.t. .X.t.i.p.p.u.u.p.p.p.p.p.p.X.X.#.X.t.t.t.p.u.i.X.X.X.X.X.@.@.t.t.p.t..... . . . . .t.X.X..... .X.X.X.X.X.X.X.X.X.X.X.X.X.X.X.$.X.$.X.X.X.$.$.$.$.X.X.u.t.X.t.t.X.$.t.t.t.i.y.y.f.f.f.k.k.g.g.g.l.f.f.f.l.f.f.t.t.$.u.t.i.u.p.l.l.f.u.u.u.u.u.f.g.g.g.g.k.k.k.k.g.g.f.f.u.y.i.t.t.t.t.t.p.t.#.#.#.#.#.#.#.X.X.X.X.#.#.X.X.X.X.X...#.X.#.#.#.#.X.#.X.#.#.#.t.$.t.y.x.x.x.x.x.x.x.x.x.x.x.x.x.z.z.z.z.z.z.z.z.z.f.g.f.f.f.f.f.f.t.i.t.tXi. .i } o.qXq w w o.o.g f f w 8 $ 0 0 q f.s.9.9.9.s.s.s.s.s.",
"9.8.8.9.s.u.u.u.f.k.k.f.s.f.s.f.u.s.d.d.d.g.g.g.g.g.g.g.g.k.z.z.z.z.z.z.pXc.z.f.x.x.x.x.z.z.z.x.l. .X.X.X.X.X.X.X.X.X.X.t.u.f.k.g.g.k.k.z.k.z.x.k.u.x.z.k.f.u.x.fXfXiXp.uXt.$.$.t.X.X.X.....X.X.X...X.X.X.X.X.X.t.i.z.z.x.x.x.x.x.x.x.iXx.x.x.x.x.x.x.x.iXiXx.x.x.x.l.l.p.p.i.t.u.u.9.9.u.p.u.p.u.u.u.u.u.u.p.u.u.u.u.t.t.t.t.t.t.t.p.u.u.p.X.t.$.$.X.X.#.t.u.f.X.X... . .X. .X.X.X.X.X. .X.X.X.X.X.X.X.X...#.X.X.X.X.$.$.$.$.$.$.$.$.$.$.X.#.#.#.t.t.X.t.y.y.y.t.t.t.y.y.y.l.f.f.k.k.k.k.k.k.l.k.k.k.k.k.k.k.f.f.f.f.f.f.f.f.u.u.u.u.u.u.u.f.k.k.k.k.k.k.k.g.g.f.f.f.f.s.s.g.g.g.d.f.l.t.t.t.t.$.#.#.#.X.X.p.X.X.X.X.X.X.X.X.#.#.#.#.#.X.X.X.X.X.X.X.X.X.i.u.x.z.z.x.z.x.x.x.x.x.iXx.z.z.g.z.z.z.c.c.pXz.k.g.f.g.f.f.f.p.Y p.t.t.i...i g g O.i i a i i i f w q w 8 w m.. g.s.s.s.s.s.s.s.s.s.",
"9.9.9.u.s.s.9.u.f.f.f.s.s.s.u.f.u.f.f.s.s.g.g.g.d.g.g.k.g.g.z.z.z.z.z.z.x.pXz.k.aXc.f.f.z.z.x.t.i.X.X.X.X.X.X.X.X.X.X.X.X.s.s.g.g.g.k.k.z.g.g.z.k.k.x.x.x.k.k.pXaXpXx.l.uXt.$.X.X.X.X.X.X.X.X.X.X.X.X.X.X.t. .y.p.i.x.x.x.x.x.x.x.x.iXiXx.x.x.x.x.x.x.x.iXx.x.x.x.x.l.l.l.i.y.y.u.u.9.u.u.i.u.u.u.u.u.u.u.u.p.u.u.u.f.u.p.i.i.i.i.u.p.u.u.p.t.t.t.$.$.X.t.t.u.f.i.t.t. . .X.X. .X.X.X.X. .X.X.X.X.X.X.X.X.X...X.X.X.X.$.$.t.t.t.t.$.$.t.t.X.#.#.X.X.X.X.t. .t.u.u.y.y.y.p.i.p.l.f.k.k.k.k.k.k.l.k.k.k.k.k.k.k.f.f.f.f.l.f.f.f.f.u.u.u.u.u.u.f.k.k.k.z.k.k.g.k.g.g.f.f.g.g.g.d.d.d.d.g.g.f.9.t.t.#.$.$.$.$.X.u.$.X.X.X.X.X.X.X.X.X.X.X.X.X.X.X.#.X.X.X.X.X.i.p.k.z.z.x.z.x.x.x.x.x.x.x.z.g.s.u.g.g.x.c.pXf.f.k.k.x.l.u.u.p.| i.$.Y i...g g i o.B.O.g i i q f q g i 8 w f g p.f.f.k.l.x.l.x.x.iX",
"u.u.u.u.u.u.u.u.f.l.l.l.f.f.f.u.f.u.s.s.s.9.s.d.g.g.f.g.g.g.d.f.g.z.k.9.s.z.g.g.g.f.d.d.g.g.l.t.X.X.X.X.X.X.X.X.X.X.X.X.t.f.f.g.g.k.k.k.g.g.g.g.g.z.x.x.x.z.k.x.x.iXx.l.u.$.X.$.$.X.X.X.X.X.X.X.X.X.t.t.t.Y t.f.z.z.x.x.iXiXx.x.x.x.iXiXiXx.x.x.x.iXiXx.x.x.x.x.x.x.l.l.l.i.y.y.y.h I %.h y } u.u.u.u.u.u.u.u.u.u.u.u.u.u.u.u.u.u.u.u.y.u.u.u.u.u.u.u.X.t.t.t.y.Y  . . . . . . . . . .X.X.X.X.X.X.X.X.X.X.X.t.t.$.$.$.$.t.X.i.p.t.i.l.f.f.t.#.#.t.#.X.r.t.r.r.f.f.u.u.l.l.p.u.f.f.k.k.k.k.k.k.k.k.k.g.k.k.l.k.f.f.f.f.f.f.f.f.f.f.k.k.k.k.k.k.k.z.z.z.z.z.z.k.k.k.k.k.z.k.k.g.d.d.g.g.k.f.u.8.i.t.t.t.i.i.t.u.t.t.t.t.t.$.X.X.X.X.X.X.X.X.X.X.X.X.X.X.X.X.X.$.t.z.z.x.x.x.x.x.x.x.aXiXx.z.d.f.g.g.z.k.z.g.d.k.iXiXk.u.u.u.r.@.+.| ..| i q q i r.o.v.a a q B.g g g @ @ 0 0 0 qXZXSXJXJXSXSXJXSX",
"JXSXSXAXZXZXgXgXAXSXSXZXgXZXhXiXfXx.u.s.s.u.s.s.f.s.s.d.s.f.s.u.s.g.f.s.g.d.d.d.d.d.s.d.f.k.l. .X.X.X.X.X.X.X.X.X.X.X.$.$.f.f.f.g.g.g.g.g.g.k.k.k.z.x.x.x.z.g.z.z.iXx.p.t.$.X.$.$.$.X.X.X.X.$.$.t.t.t.u.z.z.x.z.z.x.x.iXiXiXiXx.iXpXiXiXiXiXiXx.x.iXiXx.x.x.x.x.x.l.l.k.l.p.u.y.%.x { %.x j Y u.p.y.u.u.u.u.u.u.u.u.u.u.u.p.p.u.s.u.u.u.u.u.t.$.$.$. . . .$.t.t.$. . . . . . . . . . .X.X. .X.X.X.X.X.X.$.$.t.t.t.t.t.t.t.t.l.l.p.t.p.i.u.p.i.i.t.l.x.l.X.r.r.t.f.k.k.k.k.k.k.l.l.k.k.k.k.k.k.k.k.k.k.k.k.k.f.k.k.k.k.k.k.k.k.f.k.k.k.k.k.g.k.k.k.z.z.z.z.z.z.k.z.z.z.z.z.z.z.k.z.z.z.z.z.f.k.k.f.f.f.f.u.u.u.u.u.y.$.y.$.X.X.#.X.X.X.X.X.X.X.X.X.X.X.X.X.#.#.Y l.z.z.z.x.z.z.z.k.z.pXpXk.z.g.s.s.f.d.d.s.g.g.f.f.u.p.i.p.t.g g o.| g q r.qXq tXr.v.a a 9 f w q i 8 8 0 0 0 4.SXJXPXPXJXHXJXKX",
"IXUXPXUXPXPXJXJXJXPXPXJXSXSXSXgXZXfXl.iXiXu.s.u.f.s.f.s.s.f.u.u.u.f.s.f.g.d.d.d.d.d.s.s.f.8.$. .X.X.X.X.X.X.X.X.X.X.t.y.u.f.f.f.g.f.g.g.g.g.k.z.k.z.x.x.x.x.k.pXx.l.f.u.y.$.X.$.$.$.X.X.X.$.$.$.y.y.y.u.z.g.z.z.z.z.x.x.iXiXiXpXpXpXiXgXsXsXgXiXx.x.x.x.x.x.x.x.x.x.z.k.k.l.~ U F x Q ~ x x I y.I %.y.y.y.p.p.u.y.u.u.u.u.i.i.u.u.u.u.u.u.u.t.$.$.X.$.$.$.$.$.t.$. . . . . . . . . . .X. .X.X.X.X.X.$.$.$.$.$.t.t.t.t.t.t.i.u.k.l.p.i.i.p.p.i.i.t.l.k.l.X.r.qXt.l.k.k.z.k.z.k.f.f.l.k.k.k.k.k.k.k.k.k.k.f.p.l.f.k.k.k.k.k.k.k.z.z.z.k.k.k.k.k.k.k.z.z.z.z.z.z.k.z.z.z.z.z.z.z.z.z.z.z.z.z.f.k.f.k.f.f.f.f.u.u.9.u.u.! 8.u.u.$.$.X.X.X.X.X.X.X.X.X.X.$.$.X.X.X. .l.f.k.z.z.z.z.z.f.f.k.d.d.d.d.s.s.s.s.f.d.d.f.f.f.u.p.uXuXuXg g O.7 O.g r.qXw eXqXg t t q f f 0 g 0 0 0 0 0 f ZXCXHXPXPXD.L.L.",
"KXCXxXCXBXDXCXCXBXHXPXJXAXAXSXZXJXSXZXSXSXp.f.s.s.s.u.s.s.s.f.f.f.d.d.d.d.s.s.s.s.s.s.s.s.t.$.$.X.X.X.X.X.X.X.X.X.X.Y g.g.f.f.g.g.f.g.g.g.g.x.x.x.x.x.x.x.x.pXiXk.f.s.y.y.$.$.$.$.$.$.$.$.$.$.t.p.f.k.k.z.z.k.k.z.z.z.x.iXiXpXpXpXpXyX:X:X;X;XxXl.k.x.x.x.x.x.x.x.x.k.k.k.l.%.%.%.F { I F S %.~ S { F F F ] i.u.y.t.u.u.u.Y t.u.u.u.u.u.u.u.t.$.%.Y ' { { { ! ! $. . . . . .X. . .X. .X.X.X.X.X.X.X.t.t.t.t.i.t.t.l.f.u.i.p.l.l.k.p.p.t.l.l.l.l.l.l.k.l.i.i.uXt.l.k.z.z.z.z.z.z.k.l.k.k.k.k.k.k.g.k.k.l.i.i.l.f.k.k.k.k.k.k.k.z.z.z.z.x.pXpXpXk.k.z.z.z.z.z.z.k.z.z.z.z.z.z.z.z.z.z.z.z.k.k.k.k.g.f.f.f.f.f.u.s.s.u.u.u.9.u.! t.t.$.X.X.X.X.X.$.$.$.$.$.$.$.$.t.u.u.k.z.z.k.z.z.k.u.k.g.d.g.f.s.s.s.s.s.s.d.f.f.l.l.l.p.l.x.r.g O.| r.r.r.r.9 w qX} a i q M.g q g q q 0 8 0 ; 3 f GXIXUXJ.J.J.",
"J.G.L.DXCXCXDXcXxXDXDXHXUXLXHXSXPXJXJXJXJXu.f.s.f.f.f.l.l.x.iXiXuXiXk.d.d.s.s.s.s.s.s.u.u.$.$.$.X.X.X.X.X.X.X.$.t.$.$.f.u.u.u.f.g.g.g.z.k.k.x.z.z.x.x.x.z.z.x.x.k.f.u.y.t.$.$.$.$.$.$.$.$.y.k.g.k.k.z.z.z.z.x.k.z.f.k.x.x.x.iXpXpXpXD.`.oX[.'.sXk.k.x.x.x.iXiXx.x.x.z.k.k.k.%.$.t.{ ] x { x Q I D [ F P D [ %.~ ~ h %.y.y.! y.y.y.y.! ~ ~ ~ ~ Q Q U ] { { { I Y I Y  . .}  .$. .X.X. .X.X.X. . .X.t.p.u.i.i.i.t.t.u.f.k.k.k.k.k.z.f.p.t.l.k.k.k.k.k.z.z.k.l.f.s.k.z.k.z.z.k.z.z.z.k.k.k.k.k.k.k.k.k.g.k.f.iXx.f.k.k.k.k.k.k.k.k.k.z.l.t.t.l.f.k.k.k.z.z.z.z.z.z.z.z.z.k.x.k.z.z.z.z.z.z.z.k.k.k.k.k.g.f.d.f.f.s.f.s.u.u.u.u.u.u.s.t.$.$.$.$.$.$.$.$.$.$.$.$.u.y.y.u.x.x.z.g.f.f.g.f.g.d.s.d.g.f.d.f.f.f.s.s.s.f.iXp.p.uXdXp.i.g B.O.r.qXM.r.g w M.g g o.> 9 a g g f 0 f 0 - - - f NXHXUXKXIXIX",
"G.G.L.KXKXKXKXGXGXKXIXIXIXLXHXJXPXPXPXPXJXl.uXuXiXfXgXZXZXSXJXJXJXJXx.g.f.s.s.s.s.s.s.u.8.$.$.$.X.X.X.X.X.X.$.$.t.8.u.s.9.u.u.f.k.g.f.k.z.g.g.d.z.z.x.z.z.g.g.k.g.f.u.y.t.$.$.$.$.$.$.$.t.u.d.g.k.z.z.z.z.pXuXz.x.t.8.x.x.x.pXpXiXiXS.I.D.S.qXk.g.k.x.x.x.x.x.x.x.z.z.k.k.k.$.t.t.$.Z S { x F A S S l Z F [ Z c F Z U I C I c c G G H P H H P P P P P P P F F I F F { '  . . . .X.X.$. .X.X. .p.p.i.l.l.l.l.l.t.i.y.k.k.k.k.k.k.z.k.l.p.z.k.k.k.k.k.k.z.k.l.t.f.k.z.k.z.z.k.k.k.k.k.k.f.f.f.k.k.k.k.k.k.k.x.x.f.k.k.k.k.k.k.k.k.k.k.l.t.! x.k.k.z.z.z.z.z.z.z.z.z.z.z.u.l.u.z.z.z.z.z.k.k.k.z.k.k.k.g.g.d.g.g.d.f.f.s.u.u.u.u.u.u.t.$.$.$.$.$.$.$.$.$.$.$.$.t.y.8.y.k.k.g.g.f.u.d.f.g.d.d.d.s.s.s.s.f.f.s.s.s.f.uXl.p.qXqXg +.O.B.O.r.O.qXqXqXw w M.qXB.t 8 q g g f 0 f 0 $ - - ; NXPXPXUXUXUX",
"G.G.L.cX:XL.L. XL.L.KXIXUXPXJXJXIXPXPXPXPXJXJXJXJXJXHXHXHXLXPXIXIXPXgXk.f.s.u.s.s.s.u.u.y.$.$.$.X.X.X.X.X.$.$.$.t.9.u.d.f.f.s.f.k.g.f.f.d.g.g.g.g.k.k.z.z.k.z.g.g.g.s.u.y.t.t.$.X.X.$.t.t.u.d.g.k.k.k.k.k.k.z.k.z.x.x.x.pXx.x.pXiXx.l.l.k.l.l.l.g.g.z.x.x.x.x.x.z.k.k.k.k.k.k.k.k.f.$.y.%.F { F { F { { { { P L P L K K K K K J J H K K J K H H L P P P P P F { { F ! Y $.$. .X.$.$.$.$.$.$.$.u.u.u.k.f.f.k.k.l.p.l.k.k.z.k.k.z.k.k.k.k.k.k.k.z.z.z.k.k.z.k.y.k.k.z.k.z.z.k.k.k.k.k.k.y.! 8.k.k.k.k.k.k.f.k.k.g.k.k.k.k.k.f.k.k.k.g.k.k.k.z.z.z.k.k.k.z.k.z.z.z.z.z.z.u.u.f.z.z.z.x.x.k.z.z.x.k.k.k.k.g.g.g.g.g.d.f.s.s.s.9.u.9.u.u.u.y.u.$.$.$.$.$.$.$.$.$.$.y.y.u.u.s.s.s.s.s.s.s.s.s.s.f.u.u.f.k.f.f.f.uXuXuXdXgXuXr.qXO.O.r.O.O.qXr.r.| r.f m.g 4.S.u w i g g g q M.q $ 0 - 4.f KXCXmXnXnX",
"G.G.G.K.K.K.J.J. XG.GXKXKXKXKXIXPXPXKXGXPXLXLXHXHXHXLXHXKXKXIXUXUXIXhXuXl.l.l.l.l.l.l.u.8.$.$.$.$.$.X.X.$.$.$.t.y.8.u.d.d.f.s.g.g.g.s.s.d.d.d.g.g.g.g.g.k.g.g.g.g.g.d.s.u.u.u.t.t.t.y.9.u.s.g.g.g.g.g.g.g.g.d.g.g.g.g.g.s.g.z.x.pXx.x.z.k.k.z.u.k.k.g.z.z.k.k.k.g.g.k.g.k.k.k.k.k.k.g.k.f.l.p.l.p.%.%.{ { { P P L P P P P P P P G D D [ D L D [ [ ] ] ] ] ] { { { I ! $.$.$.$.%.%.y.l.f.k.f.f.k.k.k.l.f.f.k.k.z.k.k.k.k.z.z.z.z.k.k.k.k.k.k.k.k.z.z.k.k.z.x.x.k.k.z.z.z.k.k.k.k.k.k.k.x.iXl.l.l.k.g.g.f.f.g.g.g.k.k.k.k.f.l.k.g.g.g.g.k.k.k.k.k.k.k.k.k.k.k.k.k.z.z.z.z.k.z.z.k.k.k.k.k.z.k.k.z.k.f.g.g.d.g.u.u.9.s.9.9.9.9.9.9.9.9.8.9.u. .X. .$.X.X.$.$.$.$.y.u.u.u.u.f.s.s.s.s.s.u.u.u.u.u.s.f.k.k.f.f.AXJXPXHXAXdXr.r.} +.+.+.g B.r.r.r.qXg q q S.S.a e q g g o.o.M.i $ 0 0 ; = cXcX6X|.5X",
"K.K.K.K.K.K.K.K.K.K.J.L.J.J.L.GXPXJXFXFXKXKXKXGXGXGXGXGXcXcXGXIXUXUXPXJXJXJXJXJXSXSXZXp.y.$.$.$.X.X.X.X.$.$.$.t.y.y.u.d.g.f.s.f.g.g.9.s.9.s.d.s.d.g.g.g.g.g.g.g.g.g.g.s.9.u.9.8.y.y.9.u.9.s.g.g.g.g.g.g.g.g.g.g.g.d.g.d.u.f.g.x.x.x.z.z.z.k.k.f.k.z.g.z.z.k.k.k.g.g.g.g.k.k.k.k.k.k.k.k.k.k.k.k.g.y.%.{ { { F D ] _ ) ) ) ) ) ) _ _ _ ` _ _ _ ) ' ` _ _ _ _ ] ] { I 8.$.$.$.~ y.y.y.k.g.g.k.k.k.k.f.f.f.f.z.k.k.z.z.k.k.k.k.z.z.z.k.k.k.k.k.z.z.z.k.k.k.z.x.x.x.k.z.k.k.k.k.k.k.k.k.k.z.iXl.Y l.g.g.g.f.f.g.g.g.g.k.k.g.f.u.k.g.g.k.k.g.k.k.k.k.k.k.k.k.k.k.k.k.z.z.z.z.z.z.z.k.k.k.k.k.g.f.k.k.s.u.g.g.g.g.u.s.s.s.s.s.s.s.9.9.u.u.9.9.u. .$.$.$.$.$.$.t.t.y.u.u.u.u.s.s.s.s.u.s.u.u.u.u.u.u.f.f.f.k.f.f.AXJXPXJXAXdXr.tX} B.+.+.o.i g r.r.r.g q 8 wXqXa 9 $ g i o.i m.q $ 0 0 0 ; 3 = 6X%X;X",
"|.H.H.H.K.K.K.K.K.K.K.K.K.K.H.KXHXHX:XC.A.G.J.J.J.J.J.J.J.J.NXCXIXUXPXPXPXPXPXPXJXJXSXtXt.t.t.t.i.i.i.i.tXdXdXdXuXl.l.k.g.s.9.u.u.s.s.9.9.9.s.s.s.d.d.d.d.g.g.g.g.d.g.s.s.s.s.s.u.s.s.s.s.f.d.d.d.g.g.d.g.g.d.d.d.d.g.d.9.s.s.d.g.k.k.z.g.z.z.z.z.z.z.z.z.k.k.k.g.g.g.g.k.k.k.k.k.k.k.k.k.k.k.k.k.i.t.$.$.$.$.X. .Y a ' ' y y u p u u u u y , y u y j h h h h h h Y u.u.u.u.u.u.u.u.k.g.g.k.k.k.k.f.f.f.f.k.k.k.z.z.z.k.z.z.z.z.z.k.k.k.k.k.z.k.k.k.k.k.k.z.x.k.k.k.k.z.k.k.k.k.k.k.k.k.l.y.! l.g.g.g.g.g.g.g.g.g.g.g.g.k.k.k.k.k.k.k.k.g.g.g.k.g.k.k.k.g.g.k.k.k.z.z.z.z.z.z.g.z.g.g.g.g.g.g.k.f.u.f.d.d.d.d.d.d.s.s.s.s.d.s.9.9.9.9.9.u.i.t.t.t.t.t.t.t.t.t.p.p.p.p.u.f.u.u.u.u.u.u.u.u.u.u.u.u.u.p.p.p.SXJXPXVXAXtX| | } O.} #.} g i i i i g g 8 wXwXg g # q q g i n.f 0 0 - 0 $ $ $ 0X X0X",
"NXL.NXNXNXNXNXNXNXcXNXNXNXNXcXLXHXHXNXNXNXNXFXFXNXGXFXnX:X:XNXKXUXUXUXUXUXUXUXUXPXPXPXHXKXHXKXHXCXHXHXHXHXHXSXSXAXSXSXgXx.u.u.f.u.u.u.s.9.9.s.s.9.s.d.d.d.g.d.g.d.g.g.s.f.g.g.f.f.s.u.s.s.s.d.g.d.g.g.g.g.g.g.d.d.d.d.d.s.d.s.d.d.! 8.f.d.k.z.z.z.z.z.z.z.k.k.k.k.z.z.z.g.k.k.g.k.k.k.k.k.k.k.k.k.z.k.k.k.k.k.g.d.t.8.8.y.y.y.y.u.u.y.%.%.p.d.s.f.f.s.f.d.d.d.g.f.f.f.k.f.f.f.g.g.g.g.g.g.d.s.g.k.l.k.k.k.k.k.k.k.k.k.k.k.k.k.k.k.k.k.k.k.k.k.k.g.g.g.g.k.k.k.k.k.k.k.k.k.k.k.k.k.k.g.f.u.p.y.k.g.g.g.g.g.g.k.f.k.k.f.f.k.k.k.k.k.k.k.k.k.g.g.g.g.g.k.k.k.k.g.k.g.k.k.z.k.k.z.g.g.g.g.g.d.d.d.g.s.s.s.s.s.s.s.d.d.d.s.s.d.s.s.s.u.8.p.p.p.i.i.t.i.t.i.t.t.i.t.JXPXPXPXPXJXPXPXPXPXPXPXPXPXPXPXPXPXPXUXUXPXPXLXLXrXqXqXi } ' @.| #.+.g i a a i g g q w i g M.8 q q i q w M.w 8 8 $ $ $ * nXnXnX",
"nXJ.NXnXcXcXcXnXnXcXNXFXFXcXcXIXIXIXKXKXKXKXKXLXKXIXKXGXnXnXnXKXUXUXIXIXKXKXKXKXGXGXGXFXNXzXL.L.L.L.D.xXKXHXAXSXAXAXJXSXgXu.l.iXuXuXl.s.9.9.9.9.9.s.s.d.d.d.s.d.d.g.g.f.f.s.s.s.s.9.9.u.s.f.d.d.g.g.g.g.g.g.g.d.d.d.d.d.s.d.g.g.f.8.9.f.g.k.z.z.z.z.z.f.u.k.x.x.u.z.c.z.k.g.g.g.k.k.k.k.k.k.k.k.k.k.k.k.k.k.k.g.g.u.9.9.9.9.9.9.9.9.9.~ ~ u.s.s.s.d.d.g.f.d.g.f.f.f.f.k.k.f.f.g.g.g.g.g.g.d.f.s.f.l.k.k.k.k.k.k.k.k.k.k.k.k.k.k.k.k.k.k.k.k.g.g.f.f.d.g.g.k.k.k.k.g.g.f.f.f.f.f.f.s.s.u.u.l.f.f.f.f.g.k.k.f.k.f.k.l.l.f.k.l.k.k.k.k.k.k.k.g.g.g.g.g.k.k.k.g.g.g.g.k.g.g.g.g.g.g.d.d.g.g.d.d.d.d.s.s.s.s.s.s.s.s.s.s.s.9.s.s.9.s.9.y.JXSXAXSXSXSXJXSXSXAXAXZXdXJXPXUXPXPXPXPXPXPXPXPXPXPXPXPXPXUXUXUXUXUXUXLXKXIXwXM.g i g i O.o.O.o.g g a a o.r.r.i q g o.B.q i q i q M.M.q 8 8 $ $ + $ 9XnXNX",
" XA.K.K.K.K.H.K.H.H.H.H.H.H.G.NXcX:X:X:X:X:X:X:X:XGXKXFXnXnXnXKXIXUXcXG.G.G.G.G.K.K.H.J.G. XJ.J.Z.J.J.;X;X:XxXVXgXJXPXJXSXAXSXJXAXJXSXu.9.9.9.9.9.9.9.9.9.s.9.s.s.s.s.s.s.u.u.9.u.u.u.u.s.s.d.d.d.g.g.g.g.g.g.f.d.d.g.s.s.s.d.g.g.d.d.d.g.g.k.k.k.k.g.f.f.aXfXiXu.f.x.z.g.g.g.s.k.k.k.k.k.k.k.k.g.k.k.k.k.k.k.k.z.d.g.f.f.f.f.s.d.d.d.d.d.f.d.d.d.d.g.g.g.g.g.g.g.f.f.f.k.k.g.g.g.g.f.g.g.g.d.s.d.pXx.k.k.k.k.k.k.k.k.k.z.k.k.k.k.k.g.k.g.g.g.g.f.s.s.f.f.g.g.f.f.f.f.s.s.u.u.s.u.s.u.s.f.l.f.f.f.f.k.k.k.k.f.f.k.l.l.l.l.k.k.k.k.k.k.k.k.f.f.k.k.k.k.k.k.g.g.g.g.g.g.g.g.d.g.g.g.d.d.g.d.f.s.s.s.s.s.s.s.s.s.s.9.s.s.9.s.u.p.p.p.i.PXPXPXPXJXPXPXPXPXPXPXUXPXUXUXUXGXFXFXFXFXGXGXGXFXDXFXFXFXNXNXNXNXNXNXNXGXHXg i o.i g : i i i i q g a a i r.r.g 0 g O.O.g f f g q 0 q i M.q q 8 @ w 0 w n.",
" XC.J.K.K.K.K.H.H.H.H.H.H.K.K.H.K.K.K.K.K.K.G.H.G.NXKXFXNXnXnXcXIXUXIXKXGXFXFXFXNXNXNXNXNXNXGXKXL.J.J.;X;XL.NXLXPXPXPXPXLXPXPXUXUXUXPXSXSXSXl.s.9.9.9.9.9.9.9.9.9.u.s.f.f.s.u.u.u.f.l.l.l.f.f.f.f.g.k.l.l.x.l.l.f.g.s.s.s.s.s.g.g.d.d.d.g.g.g.g.g.g.g.z.g.g.s.f.s.f.k.z.f.f.g.f.x.x.k.k.k.k.k.f.f.g.f.k.k.k.z.k.z.k.k.g.g.g.d.d.d.d.g.g.g.g.d.d.d.g.g.g.g.g.g.g.g.k.u.f.k.f.g.g.g.g.k.g.g.d.d.s.u.k.k.k.k.k.k.k.k.k.k.k.k.z.z.k.k.k.k.k.g.g.g.g.f.f.f.f.f.f.f.f.f.s.u.u.s.s.s.u.u.s.s.f.f.gXgXuXuXiXuXuXuXuXuXuXuXuXuXuXuXuXiXiXuXiXiXiXiXuXiXiXiXiXiXiXuXuXk.g.g.g.g.g.g.g.g.d.g.d.g.d.s.d.s.s.s.s.s.s.s.s.9.s.u.s.s.u.9.u.SXPXUXPXPXUXPXPXPXDXyXyXyXyXL.L.yXcXCXHXG.J.K.K.K.K.K.K. X X:X X X X X X X X XL.FXGXg q O.i B.} g g g g g g a a i g r.g w w o.O.i f f f i 0 w i g w 0 8 8 n.w w FX",
" XH.J.H.G.G.H.H.H.H.H.K.H.H.H.H.H.H.K.K.K.K.H.H.H.:XcX:XG.G.G.:XIXUXIXUXUXUXUXUXUXUXUXUXPXIXIXIXcXJ.;X:X;XJ.NXKXKXKXKXKXIXUXUXUXUXUXPXPXUXJXuXu.s.9.9.9.9.9.9.u.u.u.u.u.u.s.u.u.u.f.fXgXiXgXiXiXiXiXiXgXZXAXZXSXSXf.f.s.s.s.s.s.d.d.s.s.d.f.f.g.g.g.g.s.s.g.s.s.s.d.d.g.s.f.z.x.x.x.k.k.k.g.g.f.f.f.g.f.k.x.z.k.x.k.k.g.g.g.g.g.d.d.d.g.d.d.g.g.g.g.g.g.g.g.g.g.g.g.g.g.g.k.k.g.g.z.x.g.f.d.d.s.f.g.g.k.k.k.k.k.k.k.k.k.k.k.k.k.k.g.g.g.g.s.g.f.s.s.s.f.f.f.f.f.f.s.u.s.s.u.s.u.u.s.f.f.f.gXJXSXJXSXSXSXSXSXSXSXSXSXSXJXJXJXJXPXPXPXPXPXPXJXPXPXJXJXJXJXJXSXuXk.g.g.g.g.g.g.g.g.g.f.g.f.s.s.s.s.s.s.s.s.s.s.9.s.s.s.s.u.9.u.SXPXUXUXUXUXUXPXPXFXL.L.L.L.L.L.L.L.yXcXG.K.K.K.K.K.K.K. X:XL.:X X X X X X X XL.FXGXbXxXS.f qXg i g i g g s i a a i O.O.q q B.B.g i f f g 8 8 q q w 0 8 8 n.w D.GX",
"NXFXFXNXJ.H.H.H.K.H.H.H.H.H.H.H.H.H.H.K.K.H.H.H.H.H.G.H.H.H.G.J.:X:XL.L.L.J.G.J.J.J.J.;X;X:XDXHXGXGXGXGXG.J.9XL.J. XJ.J.FXKXIXUXUXUXUXUXPXPXuXf.s.s.u.u.u.u.u.u.u.u.u.u.u.f.f.f.f.l.uXZXgXuXgXgXgXgXgXJXPXLXHXPXJXsXAXgXs.s.s.9.s.9.9.s.d.s.s.g.g.g.g.s.s.s.s.s.d.d.s.d.s.s.g.f.f.9.k.k.k.k.k.k.f.k.k.k.k.k.x.x.k.k.z.g.f.g.g.g.g.g.d.d.d.g.g.g.g.g.g.g.g.g.g.g.g.f.g.d.g.g.g.g.g.g.k.d.s.f.g.g.g.k.g.g.g.g.g.g.g.k.g.g.g.g.g.g.g.g.g.g.d.s.s.s.s.s.s.s.f.f.f.f.f.f.l.l.l.l.uXuXuXl.l.l.uXAXJXJXJXJXJXJXJXJXJXJXJXJXJXJXJXJXJXPXPXPXPXPXPXPXPXJXJXJXJXJXJXPXgXx.l.l.l.l.l.l.g.g.f.f.f.f.f.s.s.s.u.s.u.s.s.s.u.u.9.9.u.u.u.u.SXUXPXPXDXDXHXPXPXDXL.L.L.L.L.L.L.:XcXcXL.G.G.G.J.G.K. XJ.GXGXKXL. X X X X X XL.NXKXKXKXGXGXGXGXGXGXGXGXGXD.g g i i g g % 8 $ q q q q q g q 0 q q w 0 8 8 n.w '.FX",
"KXGXKXGXnXnXnXnXnX:X:X;XJ.H.H.H.H.H.H.K.H.H.H.H.H.H.H.H.H.H.K.H.H.H.K.K.K.K.K.K.K.K.K.K.K.J.IXIXIXKXIXIXKXGXNXFX9X}. X2XnX9X:X:XnXnXNXKXUXIXJXJXJXJXJXJXJXJXJXJXJXSXSXSXSXSXSXSXSXSXSXSXSXSXSXSXSXSXAXJXPXPXPXPXUXIXLXJXu.s.s.s.s.9.s.s.s.9.9.f.g.f.g.s.s.s.s.9.f.d.g.s.s.d.s.s.s.9.f.k.k.f.s.s.f.g.g.k.g.k.k.z.k.g.d.s.s.s.g.s.d.d.s.s.s.g.g.g.g.g.g.g.g.d.g.g.f.f.k.k.g.g.g.g.d.g.g.g.d.g.s.z.k.g.g.g.g.g.g.g.g.g.g.g.g.g.g.g.g.g.g.f.d.s.s.s.s.s.u.u.s.s.f.f.l.gXJXJXJXJXPXJXJXJXJXJXJXHXHXSXAXSXJXJXJXJXSXgXAXAXAXAXSXSXAXSXAXAXJXJXJXJXAXJXJXJXSXJXJXJXJXJXJXJXJXJXJXJXJXJXJXSXSXSXSXSXZXZXZXAXZXgXZXZXgXZXZXZXZXJXJXJXUXUXUXPXD.cXcXxXKXFXL.L.L.L.L.L.L.cXcXcXcXcXCXCXCXcXcXCXGXLXPXIXnX X X X X X X X XK.:XGXKXKXGXGXGXGXnXKXGXFXbXeXS.M.M.g q q q q q q q q rXF.F.bXbXjXjXzXzXFXNXzXNX",
"nX}.}. XKXLXUXUXUXUXUXUXNXH.H.H.H.H.H.H.H.H.H.H.H.H.H.H.H.H.H.H.H.H.H.H.K.K.K.K.K.K.K.K.K.J.GXGXFXFXcXzXGXGXGXDXzXJ.J. XK.K. X X XK.K.GXUXUXUXUXUXUXUXUXPXPXPXPXUXUXUXUXUXUXUXUXPXPXPXPXPXPXPXUXUXPXPXUXUXUXUXUXUXLXUXJXl.l.f.s.9.s.9.s.s.9.9.s.s.s.s.s.s.d.s.s.s.s.s.s.s.s.s.s.s.9.u.k.k.s.u.u.f.g.g.g.g.g.g.k.g.d.s.9.s.s.d.s.s.d.s.d.s.d.g.g.u.f.g.g.g.g.g.g.f.g.k.k.g.k.g.g.g.g.f.g.f.g.s.k.k.g.g.g.g.g.g.g.g.g.s.f.g.g.f.g.g.g.g.f.s.s.u.u.s.u.u.u.9.s.f.l.l.gXJXJXPXPXJXAXAXAXAXAXAXAXdXgXsXsXAXSXAXdXsXsXsXsXsXsXsXdXsXsXsXtXAXAXAXAXBXAXAXAXAXSXBXPXLXPXPXPXPXPXPXPXLXJXLXLXLXJXJXJXJXJXJXJXPXPXPXPXPXPXPXPXPXPXPXPXUXUXPXPXGXGXDXxXGXNXG.G.G.G.G.G.L.cXcXcXcXcXcXNXNXcXcXcXFXFXGXGXnX X X X X X X X X X XnXcX:X:X X X XJ.LXLXUXIXKXKXUXPXUXUXIXIXUXUXUXLXUXUXUXUXLXPXUXKXKXKXIXKXKXGX",
"E.{.{.{.nXnX9X:X:XnXNXGXKXJ. XH.J.J.J.J.J.J.G.J.J.J.J.H.H.H.H.H.H.H.K.K.H.H.K.K.K.K.K.K.K.K.H.H. X6X X X X1XnXIXUXIXnX X|.K.K.K.K.K.K.FXKXKXGXGXFXGXNXNXNXNXNXFXGXGXKXKXKXKXKXIXIXKXKXKXLXPXLXLXUXIXLXLXHXHXLXLXLXLXIXIXJXJXgXs.s.s.9.s.9.9.9.s.s.s.s.s.f.s.s.s.s.s.s.s.s.s.s.s.s.s.s.s.d.s.s.s.s.f.f.f.f.f.f.g.g.s.s.s.d.d.d.s.s.s.s.d.d.d.f.d.d.g.g.g.g.g.f.f.g.g.g.s.f.f.f.d.s.f.s.g.g.g.s.f.f.s.d.s.d.d.f.d.s.d.s.s.s.d.f.f.d.d.s.s.s.s.s.u.u.s.u.u.u.uXSXSXdXAXJXJXJXJXJXsXsXdXdXdXdXdXBXdXdXdXVXAXAXHXHXHXAXAXSXHXJXJXSXJXJXHXJXAXHXJXHXJXHXHXHXHXPXLXPXPXLXPXPXLXHXHXJXJXJXLXLXHXJXJXJXJXJXLXPXLXLXLXLXPXPXPXPXUXUXPXUXPXPXPXLXLXPXUXIXFXK.K.K.K.K.K.K.L.J.J.K.K.K.K.K.K.K.K.K.H.K.K.J. XJ.J.K.K.K.K.K.K.K.K.2X XH.C.A.A.<XmX<XJ.V.b.b.UXUXPXPXUXUXUXUXUXUXUXUXIXzX'.D.'.Z.b.b.P.I.T.vX",
"E.E.E.{.{.{.{.H.{.H.NXPXPXKXLXKXKXKXLXGXGXFXGXIX;XJ.J.J.J.J.J.J.J.J.J.J.H.H.H.H.H.H.K.K.{.K.|.|.|.|.|.$X$X XMXPXUXUXnXH.K.H.K.K.K.K.K.K.K.K.K.K.K.K.H.K.K.K.K.K.H.K.K.K.K.K.H.H.G.G.G.G.G.C.Z.4.IXUXLXIXIXLXLXLXLXLXUXUXPXPXVXfXx.s.s.9.9.u.s.s.s.s.s.u.u.9.9.s.s.u.u.u.s.s.s.s.s.s.s.s.s.s.s.s.s.s.s.s.s.s.f.g.f.s.s.s.s.s.s.s.s.s.s.d.d.d.s.s.d.f.g.g.g.g.f.f.g.g.f.s.f.s.s.u.s.s.s.u.s.u.s.s.s.s.s.s.s.s.s.s.s.s.s.s.s.s.9.s.s.s.s.9.s.s.s.u.f.s.u.u.u.SXPXPXPXPXHXHXPXJXPXLXPXUXPXUXUXLXLXLXLXKXHXHXHXHXHXHXHXHXHXHXHXHXJXJXHXJXHXHXHXHXJXJXJXJXJXJXPXPXIXIXPXPXPXLXLXHXHXHXHXLXxXxXCXCXHXxXBXBXCXBXxXBXVX4.1.G.G.G.G.G.G.G.G.G.G.H.K.K.G.G.K.K.K.K.K.K.K. X X X X X;X;X X X X X X XJ.J.J.J.J.J.J.J.J.J.J.J.H.J.:X:X:XV.V.V.2.2.V.V.V.V.Z.<X;X;XZ.Z.b.V.V.V.V.Z.V.V.f b.V.Z.P.I.P.E.P.Z.mX",
" X X{.{.{.H.H.H.H.H.FXIXPXCXGXDXDXCXFXNXNXnXzXmXL.9XnXnXnXnXnX:X:X:X:X:X;X;X;X;XL.J.;X;XJ.;X;X;X;X;X;X:X:X:XNXUXIXIXNX:XnXNXNX XK.K.K.K.K.K.K.K.K.K.K.K.K.K.K.K.K.K.K.H.H.H.H.H.H.H.H.G.G.J.D.S.xXDXKXHXIXHXKXKXKXLXIXLXPXPXLXJXaXs.s.s.s.u.u.f.s.f.s.s.u.9.u.s.s.u.9.u.s.s.s.s.s.s.s.s.s.s.s.s.s.s.s.s.s.s.s.f.f.s.s.u.s.s.s.s.s.s.s.s.s.d.f.f.s.f.f.g.g.f.u.u.f.f.f.u.f.d.u.s.s.s.f.u.u.u.s.s.s.s.s.s.s.s.s.s.s.s.s.s.s.s.9.u.s.s.s.9.s.s.s.f.uXuXl.l.l.SXPXPXPXJXSXSXPXJXHXLXLXIXKXKXGXGXGXGXKXGXKXKXHXHXHXHXHXHXHXHXHXHXHXHXDXHXDXHXHXHXHXHXHXHXHXHXLXLXLXKXPXPXHXHXHXHXLXHXHXHXBXCXDXCXCXxXyXxXxXCXyXBXVX4.3. XK.K.K. XK.K.K.K.K.K.K.K.K.K.K.K.K.K.K.K.K. X X XNXFXFXFXFXFXFXFXFXFXFXGXGXGXGXGXGXGXGXGXGXGXGXGXGXKXGXNXNXNXNXFXFXFXFXFXFXNXNXnXnXnX;XZ.V.f b.f f f f f f ].].].].:X'.].MX",
"J.L. X|.H.H.H.H.H.H.J.:X:X}.{.}. X}.OX{.{..X.X}.FXIXIXUXUXUXIXIXUXUXUXUXUXUXUXUXIXUXUXUXIXIXUXIXUXUXUXUXUXPXUXIXIXIXIXIXIXPXGXK.K.|.K.K.K.K.K.K.K.K.K.K.K.K.K.K.K.K.K.K.H.H.H.H.H.H.H.H.J.J.wXB.g g g S.KXUXIXIXLXUXUXUXPXPXUXPXSXSXSXSXSXSXJXJXJXJXSXl.s.9.u.9.s.s.u.s.u.s.s.s.s.s.f.f.f.f.f.f.f.f.s.f.f.f.u.s.s.s.s.s.s.s.s.s.s.s.s.s.s.f.f.f.f.f.f.g.f.g.k.f.u.s.s.d.g.g.f.s.s.s.s.s.s.s.s.s.u.s.s.s.s.s.s.s.s.s.s.s.s.s.s.s.s.s.s.9.s.s.s.gXUXUXPXPXPXPXPXPXPXJXJXSXJXJXHXLXLXcXG.5.5.3.5.5.3.3.3.3.3.5.6.6.3.3.3.3.3.3.3.3.3.3.3.3.3.4.4.4.4.4.4.r.4.4.4.4.4.4.4.1.yXBXCXxXxXxXyXyXyXzXcXyXqXsXqXrXrXtXdXO.S.G.K.K. XK.K.K.K.K.K.K.K.K.K.K.K.K.K.K.K.K.K. X X XKXIXLXLXIXIXUXUXUXUXUXUXUXUXUXPXUXUXUXUXUXUXIXIXIXPXUXUXUXUXUXUXPXUXUXUXPXUXLXKXKXKXKXGXDXFXFXNXnXnX XA.Z.FXKXIXKXKXKXKXKX",
"K.K.K.J.H.H.J.A.A.H.H.H.H.A.A.}.<X<X;XmXnX9X9XmXKXKXFXNXcXcXnXnXcXnX:X:X:XzXzXzXnXnXcXcXnXnXNXNXNXNXNXNXNXNXNXnXnXnXKXKXGXKXGX1X X;X1X|.K.K.K.K.K.K.K.K.K.K.K.K.K.K.K.K.K.K.H.H.H.H.H.H.J.D.B.+.+.+.+.O.r.r.qXqXqXBXBXqXrXBXUXIXUXUXLXIXUXUXUXPXUXUXUXgXx.l.l.l.l.l.l.l.l.l.l.l.l.l.uXuXuXiXiXiXgXgXgXgXZXSXu.f.f.s.s.s.s.s.s.u.u.s.s.s.u.s.s.s.f.f.f.f.f.d.g.f.f.s.s.g.d.g.d.s.s.s.s.s.s.f.f.s.s.9.u.u.u.s.u.s.s.s.s.s.f.f.d.s.s.s.s.s.s.s.f.gXPXUXIXPXPXPXPXPXJXJXJXSXPXJXJXJXLXcX3.5.5.5.5.5.5.5.5.5.5.5.5.5.5.5.5.5.5.5.3.3.3.5.3.3.4.4.4.r.r.r.r.r.r.r.r.r.4.6.6.6.6.6.6.5.5.6.6.6.6.L.L.DXrXrXtXtXtXtXlXO.4.L.:X:XcXcXJ.K.K.K.K.K.K.K.K.K.K.K.K.K.K.K.K.:XFXKXUXNX XK.K.H.H.H.H.H.H.H.H.;X2XJ. XJ.}. XJ.J.J.}.cXcXZ.2.2.V.Z.V.f f b.b.b.b.f b.V.Z.Z.;X:XDXMXV.C.V.V.V.V.V.V.V.2.V.V.V.V.",
"K.H.K.nX:XNXGXGXGXGXGXGXGXGXGXFXKXIXcXIXUXPXLXIXKXKX:XK.K.K.H.H.H.H.|.{.{.{.{.H.H.{.|.|.|.K.H.H.H.H.H.H.K.H.H.K.H.H.mX X XGXUXUXUXUXKX X XK.K.K.K.K.K.K.K.K.K.K.K.K.K.H.K.H.H.H.H.H.H.H.J.J.B.+.+.+.+.+.+.+.+.+.O.O.O.r.r.qXUXIXUXPXUXUXUXUXIXIXIXIXUXJXJXJXJXJXJXJXJXJXJXJXJXJXJXJXJXJXJXJXJXJXJXJXSXSXPXJXu.f.f.f.f.f.f.f.f.u.u.u.s.s.u.u.u.u.s.s.s.s.s.g.g.f.f.g.f.g.g.d.s.f.f.f.f.s.s.s.s.u.u.9.u.u.u.s.u.s.s.s.s.l.hXgXaXaXaXgXiXgXaXaXgXSXPXUXHXDXCXBXCXCXCXCXCXCXHXJXCXCXDXyX3.5.5.5.5.5.5.5.5.5.5.5.5.5.5.3.5.5.5.5.3.4.4.3.5.3.5.4.r.r.r.r.r.r.r.r.r.r.6.6.6.6.6.6.6.5.5.6.6.L.L.L.L.KXLXLXHXHXHXHXHXBXCXcXFXKXUXKXJ.K.K.K.K.K.K.K.K.K.K.K.K.K.K.K. XcXIXUXUXNX|.|.|.|.|.|.|.|.|.|.|.|.|.|.|.|.|.|.|.|.|.|.9XnXL.C.V.C.J.Z.b.b.b.b.b.b.b.b.b.b.b.V.b.MX'.f f f f b.b.V.V.V.V.V.A.V.V.",
"C.C.C.2X X:XKXKXKXKXIXIXIXIXIXIXIXLXFXKXLXLXKXKXKXKXnX|.K.K.|.{.|.|.|.{.{.{.{.{.{.{.{.{.{.{.{.{.|.{.{.{.{.{.{.{.|.|.|.H.H.FXKXNXFXUXIXGXGXGXGXGXcX X X X XK.K.K.K.K.K.K.H.K.H.H.H.H.H.H.H.J.B.#.#.+.+.+.+.+.#.+.O.+.r.r.r.r.KXxXxXyXyXL.L.L.L.L.L.eXUXUXUXIXUXPXIXIXIXLXIXLXIXIXUXPXPXPXPXJXJXJXJXJXJXJXPXJXp.f.f.f.f.f.l.l.l.f.s.s.s.u.u.u.u.u.u.u.u.u.u.f.f.f.g.d.f.s.s.f.f.s.s.s.f.s.f.s.s.u.u.u.9.9.u.9.s.s.s.s.s.l.JXJXPXPXJXJXJXJXJXJXPXPXUXUXCXxXcXyXyXL.L.L.L.L.L.cX3.3.3.3.5.5.3.5.5.5.5.5.3.3.3.5.5.3.5.5.5.3.3.3.4.4.4.4.5.5.6.4.r.r.qXqXqXqXqXr.qXqXrXrXrXyXyXyXxXxXxXxXxXcXcXxXyXLXPXUXLXKXKXKXKXIXHXHXIXIXIXNXJ.K.K.K.K.K.K. X XK.K.K.K.K.K.K. XNXIXNXNXnX|.|.|.|.|.|.|.|.|.|.|.|.|.|.|.|.|.|.|.|.|.|.2XcXL.C.2.2.V.V.V.b.b.b.b.V.V.b.b.b.Z.b.b.b.V.b.b.V.b.b.b.V.V.V.b.b.A.V.Z.",
"C.C.C.C.C.C.9X1XC.J.J.J.J.J.J.J.:X:X:X:XL.J.H.H.H.A.H.{.|.|.|.|.|.|.|.{.{.{.{.{.{.{.{.|.{.{.{.{.|.|.H.{.{.{.{.H.{.{.{.{.|.2XH.K.J.KXIXIXKXKXIXIXDXNXcXnXnXnXnX9XnXnXnXnXnXnXnXnXnXnXMXNXNXNXrXtXtX+.} +.+.+.+.O.O.O.r.r.O.r.g g g g g 4.4.4.4.yXcXDXUXUXUXPXIXUXIXIXIXIXLXPXIXLXLXPXPXPXPXKXPXHXPXLXKXCXPXPXl.f.f.l.uXgXSXSXJXgXl.l.l.f.f.u.u.u.u.u.u.u.u.f.f.f.k.k.g.g.f.f.f.f.f.f.f.f.f.f.f.f.s.s.u.u.u.u.s.u.f.k.l.uXJXPXPXLXKXHXHXHXKXPXLXLXLXPXJXJXPXKXKXcXyXL.L.L.yXcXL.3.3.3.3.3.3.5.5.3.3.5.3.3.3.5.5.5.3.4.4.4.5.5.CXUXUXPXUXPXPXPXPXPXLXPXPXHXKXKXKXKXLXLXLXLXIXIXIXUXUXUXUXUXPXPXPXPXJXBXrXrXrXrXFXGXKXKXKXKXUXGXnX9X:X:X:X:XnXFX9X;X;X;X:X:X:X:X:XNXGXcX9X}.|.|.|.|.|.|.|.|.|.|.|.|.|.|.|.|.|.|.|.|.|.|.|.:XA.C.C.V.C.V.V.V.V.V.V.V.V.V.V.V.b.b.b.b.b.b.b.V.b.b.b.V.b.V.b.b.A.A.A.",
"C.C.C.C.C.C.6X=XA.{.{.{.{.{.{.{.H.{.|.{.{.{.{.{.{.{.|.|.|.|.|.|.|.|.|.|.{.{.|.{.|.{.{.|.{.{.|.|.{.{.{.H.H.H.{.H.{.{.|.|.|.|.|.|.|.:X:X:X:X:X:XIXUXPXUXUXUXUXIXLXIXUXUXIXUXIXUXUXUXIXKXIXPXIXPXPXJXrXBXBXBXHXCXHXrXr.r.O.O.g O.B.O.O.O.O.O.r.r.rXyXDXIXKXGXKXGXDXDXFXFXFXDXDXFXDXFXGXGXIXIXyXGXxXKXzXNXxXPXPXgXuXuXuXgXgXSXJXJXgXl.l.iXuXl.l.l.l.l.l.l.l.l.uXiXuXiXiXuXuXuXuXl.l.l.l.l.l.l.l.l.l.l.l.f.f.f.f.l.9.x.uXuXdXJXPXHXyXL.L.L.L.L.yXyXcXCXHXJXHXLXHXLXGXyXL.L.L.L.L.3.3.3.3.5.5.3.5.5.5.3.3.S.L.L.4.4.4.4.4.4.4.4.4.GXUXUXUXUXPXUXUXIXUXUXPXLXVXVXBXBXBXBXBXBXBXBXBXBXBXBXBXBXCXBXCXCXCXBXr.r.r.#.qXJ.H.A.A.J.zXUXUXIXIXIXKXGXGXGXUXIXKXKXIXIXIXIXKXGXFXNXNX2X|.|.|.|.|.|.|.|.|.|.|.|.|.|.|.|.|.|.|.|.|.|.|.|. XH.C.C.V.C.C.Z.V.V.V.V.V.V.V.V.b.b.b.b.b.b.b.b.b.b.b.b.b.b.b.b.b.A.A.A.",
"C.C.C.C.A.V.5X6XA.{.{.{.{.{.{.{.{.|.|.|.|.|.|.{.|.{.{.|.|.|.|.|.|.|.|.|.{.{.|.{.|.{.|.|.|.|.|.|.|. XnXNXFXNX2X;X:X X|.|.|.|.|.|.|.|.|.|.|.|.|.FXKXGXGXFXFXFXFXFXNXNXNXNXNXnXNXNXNXNXGXIXUXLXIXUXUXUXPXPXPXUXUXUXxXg O.g g g M.B.B.B.B.B.B.qXqXqXqXg r.4.4.5.5.5.5.G.5.G.G.3.C.G.G.G.G.xXIXxXLXCXHXDXKXHXLXJXJXJXSXJXSXSXJXLXPXPXJXJXJXSXSXJXJXSXJXJXJXJXJXJXJXJXJXJXJXJXPXJXPXJXJXJXJXJXJXJXJXJXJXSXSXJXJXJXPXJXJXJXJXJXPXPXPXyXcXyXyXyXyXyXL.3.5.5.3.5.3.5.5.3.3.3.3.3.3.3.3.3.3.5.5.5.5.5.5.5.L.cXIXUXUXUXPXPXUXUXUXJXIXIXUXKXqXqXqXr.qXqXqXqXHXKXO.+.O.+.+.+.o.+.+.+.+.+.+.+.+.O.+.+.+.+.+.r.qXqXqXqXqXD. X{.H.H.H.;XGXnXnXFXKX1X$X$X$XKXIXcXL.L.CXZXZXL.L.L.L.zXzX;X|.|.|.|.|.|.|.|.|.|.|.|.|.|.|.|.|.|.|.|.|.|.|.|.H.C.C.C.C.C.V.V.b.V.V.V.V.V.b.V.b.b.b.b.b.b.b.b.b.b.b.b.b.b.b.b.^.W.Z.",
"V.C.A.nX0X9X0X0X8X{.{.{.{.{.{.H.{.|.|.|.|.|.|.|.|.|.|.|.{.{.{.{.{.{.{.|.|.|.{.{.{.|.|.|.|.|.|.|.:XyXCXJXHXHXCXJXLXcX|.|.|.|.|.|.|.|.|.|.|.|.|.|.|.|.|.|.K.|.{.H.H.|.|.|.|.|.|.|.|.|.nXPXUXUXIXIXLXDXKXHXHXDXKXUXIXKXKXKXKXKXKXKXKXGXGXGXKXGXKXKXVXr.tXqXqXL.L.G.G.G.G.G.G.G.G.G.G.G.G.NXIXIXIXKXIXKXKXLXKXKXKXLXLXLXPXPXPXUXIXIXUXPXPXPXPXPXPXPXPXPXPXUXPXPXPXPXPXPXUXUXUXUXUXUXUXUXIXUXUXUXUXPXPXUXUXPXPXPXUXUXUXPXPXPXPXPXPXIXKXUXUXUXUXLXLXyX5.5.5.5.3.3.3.3.3.3.3.3.3.3.3.3.3.3.5.5.5.5.5.J.IXKXKXLXLXHXVXBXBXxXxXxXBXBXBXrXo.} } } +.+.+.+.O.qX+.+.+.+.+.+.+.+.+.+.+.+.+.+.+.+.O.+.+.+.+.qXD.D.L.L.D.J.|.|.|.{.|.{.{.|.|.|.{.|.2XnXNXIXIXcXL.a.h.h.h.yXyXNXIXUXLXNX9XnX9XnXnX9XnX|.|.|.|.|.|.|.|.|.|.|.|.|.|.|.|.|.1XDXA.C.C.C.V.V.V.V.V.b.V.V.V.b.b.b.b.b.b.b.b.b.b.b.b.b.Z.Z.V.V.^.J.W.",
"V.C.C.nX4X4X0X9X0X{.{.{.{.{.{.=X0X=X{.{.{.{.{.{.|.|.|.|.{.{.|.{.{.{.{.{.{.|.{.|.|.|.|.|.|. X X XyXuXg qXsXgXgXAXCXcX|.|.|.|.|.|.|.|.|.|.|.|.|.{.{.|.|.{.{.{.{.{.{.{.|.|.{.|.|.|.|.|.0XLXPXIXyXrXrXqXwXqXqXB.DXIXIXIXIXIXIXIXUXUXIXIXIXUXUXUXPXUXHXr.i.tXqXL.G.G.G.G.G.G.G.G.G.G.C.G.G.:XNXNXcXcXcXcXcXcXcXcXcXcXcXcXcXcXNXDXGXGXKXKXKXKXKXKXIXIXKXIXIXIXPXPXPXKXKXKXKXKXKXKXKXKXKXKXKXKXKXKXKXKXKXKXKXKXKXKXKXKXKXKXKXKXGXFXFXNXNXNXNXDXcXCXcXL.5.5.5.3.3.3.3.3.3.3.3.3.3.3.3.3.3.3.3.5.5.3.C.L.UXUXPXqXVXrXO.O.O.O.O.O.O.O.O.O.} } +.} } +.+.} } } +.+.+.+.+.+.+.+.+.+.+.+.+.+.O.O.O.O.B.B.B.wXT.}.}.'.J.}.|.{.|.|.|.|.|.|.|.|.$X2XGXIXIXUXUXNXyXsXh.h.h.a.yXyXxXCXIXIXIXUXUXPXUXUXKX X|.|.|.|.|.|.|.|.|.|.|.|.|.|.|.$X XcXC.C.C.C.Z.V.V.V.V.b.V.V.V.b.b.b.b.b.b.b.b.b.b.b.b.V.Q.'.Z.V.;X;XW.",
"V.C.V.6X.X.X.X.X@X{.{.{.{.{.{.;X;X;X}.}.}.{.|.|.|.{.{.{.{.{.{.{.{.{.{.|.{.{.|.|.|.|.{.:XL.L.L.L.g } i i  .i.p.p.gXZXCXcX X|.|.|.|.|.|.|.|.|.|.|.{.{.|.|.{.{.{.{.{.{.{.{.{.|.|.|.|.|.;XGXNXFXcXtXqXqXB.B.B.B.qXqXqXqXqXqXS.g g g S.S.S.wXwXF.KXUXHXdXVXVXVXHXHXCXCXCXCXxXzXL.L.L.L.J.J.J.J.J.J. X X XK.K.K.K.K.H.G.G.G.G.G.G.G.G.G.G.G.C.G.C.G.G.G.C.G.L.IXPXKXL.L.L.L.L.L.L.L.L.J.L.L.J.J.L.J.J.J.J.J.G.G.G.G.G.G.G.G.G.J.H.H.H.H.G.G.G.G.G.G.5.5.3.3.3.3.3.3.3.3.3.3.3.3.3.3.3.3.3.3.3.3.3.G.:XKXGXsX .} #.+.+.+.+.+.} } +.+.+.} } } +.+.+.+.} } } } } +.+.+.+.+.+.+.+.+.+.O.O.O.O.O.O.B.B.B.S.Z.|.}.'.W.}.{.{.{.{.{.{.{.|.|.|.&X%X XcXcXL.:X;XJ.L.yXL.L.yXL.Z.D.L.L.nXNXNXNXNXNXNXGX X$X|.|.|.|.|.|.|.|.|.|.|.|.|.|.$X$X2XA.A.C.C.Z.V.V.V.V.b.b.b.V.b.b.b.b.b.b.b.b.b.Z.V.b.V.V.V.V.V.V.V.Z.",
"V.V.V.E.{.{.{..X{.oXFXGXFXNX1XGXUXUXUXUXIXOX|.|.|.|.{.{.|.{.{.{.|.{.{.{.{.{.|.{.|.{.J.SXZXPXSXSXi 9 9 % } i.t.r.hXZXr.qXsX X|.|.|.|.|.|.|.|.|.|.|.|.|.|.{.{.{.{.{.{.{.{.|.|.|.|.|.|.K.|.|.&X=XeXrXqXB.B.O.O.+.+.+.+.+.O.O.O.O.O.O.O.O.O.B.r.IXUXPXPXPXUXUXUXPXPXUXUXUXUXPXPXUXUXIXKXKXKXKXKXKXKXGXGXGXGXFXFXNXG.G.G.G.G.G.G.G.G.G.G.G.C.C.C.C.G.G.G.G.:XIXLXIXNXFXFXFXFXNXFXGXGXGXGXGXGXGXGXGXGXGXGXGXGXFXFXFXFXFXFXFXFXFXGXGXGXGXKXKXKXKXKXGXG.5.3.3.3.3.3.3.3.3.3.3.3.3.3.3.3.3.3.3.3.3.3.G.L.IXCXqX . . . . .+.} +.+.+.+.+.+.} } } } } } } } } } o.o.o.+.+.+.+.+.O.O.O.O.O.O.O.O.O.O.B.B.B.zX[.MXNXNXNXNXNXNXNXNXNXNXNXNXNXNXNXmXnX|.|.|.{.|.K.G.GXHXGXLXGXnXnX9X2X{.{.|.|.|.|.{.nX X|.$X$X|.|.|.|.|.|.|.|.|.$X$X$X$X$X$X{.E.{.V.A.Z.V.V.b.b.b.b.b.b.b.b.b.b.b.b.b.b.V.V.V.V.V.V.V.V.V.V.V.",
"V.V.V.-X@X{.{.{.{.}.MXmX:X}.{.9XGXGXFXIXKX}. X}.OX.X|.|.{.{.{.{.|.{.{.{.{.{.{..X}.2XJ.uXr.r.r.| i 9 9 i  .i.t.Y hXhXr.qXdXFX|.|.|.|.|.|.|.|.|.|.|.|.{.{.{.{.{.{.{.{.{.{.{.|.|.|.|.|.|.|.|.*X=X].eXjXF.B.B.+.+.+.+.+.+.+.+.o.o.O.O.O.O.O.B.4.LXHXVXVXVXVXVXCXCXHXHXHXHXKXGXDXDXDXFXFXGXGXGXGXKXKXKXKXKXKXKXKXKXC.C.C.C.G.C.G.G.5.5.C.C.C.C.C.C.C.C.C.C.L.IXUXPXKXIXKXIXKXKXLXUXPXUXUXUXUXUXUXPXPXUXUXUXUXUXUXUXUXUXUXUXUXUXUXUXUXUXUXUXUXKXUXPXG.G.G.3.3.3.3.3.3.3.3.3.3.3.3.3.3.3.3.3.3.3.3.C.C.KXKXrX . .+.+. .+.+.+.+.+.+.+.+.} } } } } } } } } o.o.O.O.+.+.+.+.O.O.O.O.O.O.O.O.O.O.O.O.B.B.DX[.<X`.NXIXIXIXIXIXIXUXUXLXIXLXLXKXKXGX{.|.{.{.{.K.G.KXPXKXKXKXMXnXnX2X{.{.{.{.{.{.{.}.{.$X$X|.|.|.|.|.|.|.|.|.|.&X&X|.$X$X$X&X&X*XV.V.V.V.V.V.V.b.b.b.b.b.b.b.b.b.b.b.b.b.V.V.V.V.V.V.V.V.V.V.",
"A.V.,X4X@X.X{.{.{.{.{.{.{.{.{.{.-XOX+XKXIXGXKXIX}..X|..X{.{..X.X{.|.|.|.|.|.|.{.NXLXD.tXi.qX| 7 > % % > ' ' } Y | ..} $.#.PX].:X X|.|.|.|.|.|.{.{.{.{.{.{.{.{.{.{.{.|.|.|.|.|.|.|.|.|.|.|.$X-X`.].;XW.B.#.+.+.+.+.+.o.+.o.o.o.O.O.O.O.O.g B.O.O.+.B.B.+.+.o.g O.g g g 4.3.C.C.C.C.C.C.C.C.C.C.C.C.C.G.G.G.L.cX3.C.3.3.3.3.3.3.3.C.C.C.C.C.C.C.C.C.3.C.J.:X:XcX:X:X:XL.L.:X:X:XnXnXnXnXnXnXnX:X:XnXnX:X:X:X:X:XnXcXcXcXcXcX:XL.L.L.J.G.G.2.zXHXL.KXD.G.3.3.3.3.3.3.3.3.3.3.3.3.3.3.3.3.3.3.3.C.C.Z.L.S.+.+.B.B.B.O.O.O.B.B.B.B.O.O.B.B.B.B.B.B.g g g O.O.O.O.O.O.O.O.O.O.O.O.O.O.B.O.O.O.O.B.B.bXmXvX<XnXNX;X+X+X X}.+X X;X2X9XnXMXNXFX{.{.{.{.H.H.H.:X;XA.A.E.E.{.{.{.{.{.{.{.{.{.{.{.|.|.$X|.$X|.|.|.|.$X$X$X$X$X&X&X$X&X$X&X%X-XA.V.V.V.Z.V.V.b.b.b.b.b.b.b.b.b.b.b.b.b.b.V.V.V.V.V.V.V.V.Z.",
"A.V.3X3X.X{.{.{.{.{.{.{.{.{.{.E..X.X{.NXFXNXNXFXGXNXNXNXmXnX9X4X+X.X.XXX}.}.}.OXNXDXf o.o.| | +.& 8 9 & ' i a ' ' } } +.+.JXtXVXcX X{.{.{.{.{.{.{..XOXOXOXOXOXOXOXOXOX.X.X{.|.|.|.|.|.|.|.=XNXNXNXmXnXB.B.} O.O.o.o.O.o.o.o.o.O.O.O.o.B.B.o.O.B.N.N.N.N.N.O.O.O.O.O.g O.4.3.3.3.C.C.C.C.C.C.C.C.C.C.C.C.C.L.yX3.C.3.G.G.3.3.3.3.3.3.3.3.C.C.C.C.C.C.C.C.C.A.H.H.H.H.H.H.H.H.H.H.H.H.H.H.H.H.H.H.H.H.H.H.H.H.H.H.H.H.H.H.H.H.H.H.H.H.H.C.C.L.DXxXIXUXGXFXFXNXnX3.3.3.3.3.3.3.3.3.3.3.3.3.2.C.C.C.Z.Z.D.D.D.zXIXKXGXDXGXDXFXNXNXFXGXGXKXKXKXLXLXKXKXDXM.B.M.M.M.B.B.O.O.B.g qXqXqXqXrXrXxXBXBXBXDXFXFXNXnXnX{.&X&X&X.X$X.X&X&X|.|.&X{.{.{.{.{.{.{.{.{.{.{.{.E.{.{.{.{.{.{..X{.{.OX$X$X|..X$X.X$X$X|.$X$X$X$X$X$X$X$X$X$X$X%X$X&X=X=XA.V.V.V.V.V.V.b.b.b.b.b.b.b.b.b.b.b.b.b.b.Z.Z.P.'.NX<XKXUXUX",
"A.V.+X4X.X.X{.{.{.{.{.{.{.{.{.E.{..X.X.X.X.X{.E.KXKXKXKXKXKXKXDXMXmXnXNXNXGXGXnXjXi O i g } g g & 8 9 & ' > i a i } i a } tXo.qXxXmX:X9XnXnX5X=X=X=X+X1X4X4X9X9X>X3X-X3X1X$X|.$X|.|.|.|.|.=XFXGXKXKXKXxXxXkXeXeXeXbXxXo.o.o.o.O.O.o.o.B.o.B.o.o.+.+.+.N.+.O.O.O.O.O.g O.4.2.2.C.C.C.C.C.C.C.C.C.C.C.C.C.G.D.a.3.3.3.3.3.3.3.3.3.3.3.3.3.C.C.C.C.C.C.C.C.A.A.H.H.H.H.H.H.H.H.H.H.{.{.{.{.{.{.H.H.H.H.H.H.H.H.H.H.H.H.H.H.H.H.H.H.H.G.C.C.C.J.zXeXKXUXKXIXIXKXDXL.L.L.L.L.yXyXzXzXzXcXcXcXNXNXNXFXGXGXFXFXGXFXKXKXGXDXDXGXGXGXGXDXDXGXKXKXKXKXIXLXIXIXIXKXKXKXKXKXIXIXIXIXKXKXKXKXKXKXKXKXDXCXDXDXGXNXmXMXnX{..X.X.X.X.X.X.X.X.X.X.X|.|.|.{.{.{.{.{.{.{.{.{.E.{.{.{.{.{.{..X.X.X.XOXOX.X$X$X$X$X$X$X$X.X.X.X.X&X$X=XOXOXOX$X%X&X=X=X&X&X0XV.V.V.V.b.b.b.b.b.b.b.b.b.b.b.b.n.b.P.Z.'.GXKXvXzXGXFX",
"A.V.b.P..XE.{.E.E.E.E.E.{.{.E.E..X@X.X.X.X.X.X{.}.}.}.}.}.{.NXKXKXGXGXKXKXIXLXGXg o.& g i +.q % # 8 8 % ' > q i a y i q i o.a a s GXKXGXFXnX+XOXOXOX+X>X1X+X+X+XOX=X$X0XNX$X.X.X.X$X$X$X|.|.=XOX,X<X<XFXKXIXKXKXIXPXGXO.O.o.o.O.O.O.B.B.o.B.g M.o.o.o.o.o.O.O.O.g g g O.4.3.2.3.C.C.C.C.C.C.C.C.C.C.C.C.3.C.2.3.3.C.3.2.2.C.C.C.C.C.C.C.C.C.C.C.C.C.C.C.C.A.C.A.C.A.A.A.A.A.A.A.A.A.A.A.A.A.A.A.H.H.H.H.H.H.H.H.H.H.H.G.J.G.H.J.G.G.C.C.C.C.3.2.1.4.4.D.S.KXIXHXKXIXKXKXIXIXIXIXIXIXUXUXLXIXIXUXUXUXUXUXUXIXrXrX4.S.S.g g g S.4.g g S.4.3.3.3.4.UXIXIXIXIXIXIXIXIXIXIXIXIXIXIXIXIXIXIXLXGXDXDXNXGXKXKXKXNX.X.X.X.X.X.X.X.X.X.X.X.X.X.X.X.X.X{.{.{.{.{.{.{.E.{..XXX.X.X.X.X.X.X.XOX@X-X-X#X#XOX@X@X@X@X@X@X=X=X=XnXNXNX9X=X6X6X5X6X&X&X8XA.A.Z.Z.V.V.V.b.b.b.b.b.b.b.b.b.b.P.E.^.KXIXIXNX3XE.P.",
"A.V.P.-X3XnXmXmXnXnXnXnX9X2X1X>X>X4X9XXX.X.X.X.X.X.X.X{.{.{.nX9X{.$X+X3X<XIXIXGXjXeXD.D.f M.q # O # # # a i q 9 a } o.B.GXkX].M.n.GXGXKXXX.XOX.X.X.X.X.X{.{..X{.{..X.X0XGX9X9X9X9X9X9X9XnXNXFXKXIXPXUXUXPXHXVXVXHXUXKXqXrXrXrXBXBXBXVXDXBXHXIXIXrXg o.B.B.O.O.O.O.g g O.S.C.C.C.C.C.C.C.C.C.C.C.C.C.C.C.C.C.C.3.C.C.C.2.C.C.C.C.C.C.C.C.C.C.C.Z.IXIXIXIXIXIXIXIXLXKXIXIXIXIXIXKXIXIXIXIXKXKXKXKXKXKXKXKXGXGXGXGXGXGXGXGXKXKXKXKXGXD.C.C.C.C.D.2.D.4.4.4.1.KXIXxXNXNXbXcXcXDXDXDXNXcXcXzXzXzXzX].eXeXjXxXGXFXqXqXO.O.O.O.O.O.O.O.O.O.r.4.3.3.3.3.IXLXPXg g g g g g 4.S.qXqXqXqXqXeXrXrXrXrXxXsXxXnXnX-X|.nX{..X.X.X.X.X.X.X{.{.{.{..X{.{.{.{.{.{.E.E.E.E.E.E..X.XXXXXXXXX.X$X$X$XOX@X3X3X#X#X@X@X#X#X#X#X#X#X>X9XNXGXKXKXKXKXGXGXGXNXNXFX<XvXMXmXmXvXvXvXvX<X].].].].'.T.T.'.<X,X{..XE.A.b.b.b.",
"A.V.V.XXXX;XmXnXnXnXnX9XnX9X9X9X4X4XnX4X+X.X.X.X.X.X{.{..X.XE.{.{.&X&X&X}.IXIXIXKXKXKXFXf w w @ @ o o o 9 $ - o $ i B.M.KXUXKXGXGXKXKXGX+X.X.X.XOX.X.X.X.X{.{.{.{.{.{.nXKXIXIXUXIXIXKXKXUXIXKXKXGXGXKXB.B.+.+.} BXUXUXUXPXPXUXUXUXPXPXLXHXHXLXIXrXVXUXg B.B.O.O.O.g g g D.C.C.C.C.C.C.C.C.C.C.C.C.C.C.C.C.C.V.2.2.2.C.C.C.C.C.C.C.C.C.C.C.C.A.Z.IXPXLXIXIXUXUXUXUXLXUXIXUXUXUXUXUXUXUXUXUXUXLXUXUXUXUXUXPXUXLXLXLXLXLXLXUXUXLXPXUXeXZ.C.C.D.qXf S.4.4.4.d KXKX2.2.2.2.2.2.2.2.2.2.2.2.2.2.2.2.C.C.C.C.Z.'.].qXO.O.O.O.O.O.O.O.O.O.O.O.4.4.4.4.4.IXHXLXg O.O.O.O.O.O.O.O.O.O.B.O.O.O.qXqXqXsXsXdXcXMX0XnXNX}.+X+X+X+X>X4X1X4X4X0X0X0X9X0X9X0X9X9X9X9X9X9X9X9X9X9X9X9X9X9X9X4X1X1X1X+X3X3X@X@X@XOX#X-X3X3X4X0XnXNXGXGXKXIXIXIXKXIXIXKXGXIXJXUXUXUXIXIXUXUXUXUXUXUXUXUXIXIXIXIXIXKX4X8X!.Z.n.V.V.",
"E.A.A.E.E.V.E.E.E.E.E.P.XXXX.X.X.X.XXX/..X.X.X.X.X.X.X.X.X.X.X.X.X.XE..XE.UXUXUXUXLXUXUXKXbXNXGXFXNXFXFXFXNXMXNXGXGXGXKXKXIXKXGXGXGXGXGX9X{..X/..XE..X.X.X{.{.{.{.{..X0XNXMXmXmXnX9X9X:XIXLX;XE.E.E.I.B.} } } } rXUXUXIXPXUXIXUXUXUXPXLXHXCXHXUXJXUXUXg M.B.g g g g g g S.Z.C.C.C.C.C.C.C.C.C.C.C.C.C.C.C.C.V.V.V.V.2.NXGXGXGXFXFXFXFXFXFXGXFXGXLXzXG.J.J.J.J.J.G.J.J.J.J.J.J.J.J.J.J.J.J.J.A.J.J.L.;X:X9XnXMXFXGXGXGXGXGXGXFXGXUXbXD.L.f HXPX4.S.4.S.4.f D.S.g g g g g g g f 2.2.2.2.2.2.2.3.C.A.H.A.Z.Z.S.g O.O.O.O.O.O.g g O.O.O.O.4.4.r.r.4.eXS.qXO.O.O.O.O.O.O.O.O.O.O.O.O.O.B.B.B.qXxXeX;X;XnXFXGXKXKXKXKXIXIXUXUXLXUXUXUXIXUXUXUXLXUXUXUXIXIXIXIXLXIXIXIXUXUXUXUXUXUXIXKXKXKX=X$X$X.X.XOX@X@X.X.X.X.X.X.X}.}.}.}.}.}.}.}.}.OX.X;XIXKXGXGXFXNXNXNXNXNXNXNXNXNXNXMXMXMXMX<XA.V.V.V.V.V.Z.",
"b.b.b.P.A.b.E.E.E.E.E.E..X.X.X.X.X.X/..X.X.X.X.X.X.X.X.X.X.X.X.X.X.X.X*X{.{.{.{.{.{.{.OX{.{.XX>X1X9XnXmXmXnXnXnXFXGXGXnX}.{.{.{.{.{.{.{.{..X.X.X.X.X.X.X.X.X.X.X.X.X.X.X.X.X.X.X.X.X.X{.mXmX,XXX,X'.I.F.B.+.} o.g g g g g g g g g g g g g rXxXBXHXUXUXM.wXwXwXwXeXeXjXjXjX].].<XvXvX<X<X<X:X;X;X;X;X;X;X'.Q.Z.Z.Z.Z.Z.NXKXKXLXIXKXKXLXKXKXKXKXKXKXNXH.H.H.H.H.H.H.H.H.H.H.H.H.H.H.H.H.H.H.H.H.H.H.H.H.H.H.H.H.H.H.H.H.H.H.H.H.}.UXPXPXIXIXUXKXZ.Z.D.f f f f g g g g g g g g f 2.2.2.2.2.3.G.3.H.&X&XA.M.S.4.g O.O.O.O.O.M.g g O.O.O.O.B.O.B.B.B.B.o.o.O.O.O.O.O.o.o.o.o.o.o.o.o.o.o.B.M.M.@X/././.4XNXnXnXMXmXnX9X9X9XnXnXnXnXnXnXnXnXnXnXnXnXmXMXNXNXNXNXNXNXNXFXFXFXFXFXFXFXFXFXNX$X.X.X.X.X.X.X.X.X.X.X.X.X.X.X.X.X$X.X.X.X$X&X&X&X{.b.E.E.E.P.b.b.b.b.V.V.V.b.V.V.Z.Z.Z.Z.V.V.Z.Z.V.Z.Z.V.",
"b.b.b.b.V.b.b.E.E.E.E.P./..X.X.X/..X.X.X.X.X.X.X.X.X.X.X.X.X.X.X.X.X.X$X.X{.|.|.|.{..XOX{.{.V.n.n.P.V.A.E.E.E.E.}.E.E.A.A.E.E.{.{.{.{.E..X.X.X.X.X.X.X.X.X.X.X.X.X.X.X.X.X.X.X.X.X.X.X.X.X.X.X&X.X.X{.W.M.o.} o.M.M.M.M.g g g g g g g g M.rXwXrXDXUXUXIXIXIXIXIXPXUXUXUXUXUXUXPXUXUXLXPXUXUXUXUXUXPXUXUXUXUXLXLXLXHXKXIXIXIXKXcXzXzXbXbXMXMXNXMXmXnXA.H.H.H.H.H.H.H.H.H.H.A.H.H.H.H.H.H.H.H.H.H.H.H.H.H.H.H.H.H.H.H.H.H.H.H.H. XUXUXPXPXUXUXIXf D.GXM.f g g g g g g g g g g f 2.2.2.2.2.2.3.3.H.%X%XH.wXqXg g g M.M.g g M.M.g O.+.O.O.+.O.B.B.B.B.o.o.O.O.O.o.O.o.o.o.o.o.o.o.o.o.o.M.M.M..X.X/./..X.X.X.X.X.X.X{.{.{.{.{.{.{.{.{.{.{.{.{.{.{.{.{.{.{.{.{.{.{.{.{.{.{.{.{.{.{.{.{..X.X.X.X.X.X.X.X.X.X.X.X.X.X.X.X.X.X&X.X.X.X.X&X&X&X{.n.P.E.P.P.b.V.V.V.V.V.V.b.Z.V.Z.A.Z.A.V.V.Z.Z.Z.V.V.V.",
"b.b.b.V.A.A.A.!.E.E.E.E./..X.X/././..X.X.X.X.X.X.X.X.X.X.X.X.X.X.X.X&X*X.X{.{..X.X{.{.{.{.{.E.E.E.A.P.V.P.P.P.!.E.{.E.A.E.E.E.E.{.{..XE..X.X.X.X.X.X.X.X.X.X.X.X.X.X.X.X.X.X.X.X.X.X.X.X&X&X$X&X.X.X.XE.M.B.o.o.M.g g g g g g g g g g g qXqXwXwXwXIXKXKXKXKXKXKXKXGXKXKXKXIXKXKXIXKXIXIXUXIXIXIXIXKXKXIXKXIXKXKXKXKXIXIXIXIXKXV.Z.A.A.A.A.A.A.A.A.A.A.A.A.A.A.A.C.A.A.A.A.A.A.A.A.H.H.H.H.H.H.H.H.H.H.H.H.H.H.H.H.H.H.H.H.H.H.K.FXNXNXMXGXUXUXUXIXIXxXqXqXqXqXg g g g g g f 2.2.2.2.2.2.2.2.2.H.5X=XJ.yXqXqXS.S.S.S.S.S.M.M.M.O.O.O.O.O.o.o.o.B.o.o.o.o.o.o.o.o.o.o.o.O.o.o.o.o.o.o.M.M.M.-X-X3X#X@X.X.X.X.X.X.X.X.X.X.X.X.X.X.X.X.X.X.X.X.X.X.X.X{.{.{.{.{..X.X.X.X.X.X.X.X.X.X.X.X.X.X.X.X.X.X.X.X.X.X.X.X.X.X.X.X.X$X.X.XOX$X$X.X.XXXP.P.P.P.P.V.b.b.b.b.b.b.b.V.V.V.Z.I.Z.V.V.Z.Z.Z.V.V.V."
};
