/* XPM */
static char *result[] = {
/* columns rows colors chars-per-pixel */
"128 128 16 1 ",
"  c #1C1C0C",
". c #070718",
"X c #6A2912",
"o c #355326",
"O c #A55C44",
"+ c #5E8850",
"@ c #CC9583",
"# c #F2B586",
"$ c #B4CFA7",
"% c #DFD1A5",
"& c #D7D4B2",
"* c #E8C2A0",
"= c #FFC5BF",
"- c #FFDAB0",
"; c #FFDFEF",
": c #F4E6E2",
/* pixels */
"--------***--***---&&&&&---&&;;;===**===-----------**---***--&&&&&&--&&&;;;==***===----------***---**---&&&&&---&&&;;===***==---",
"--------***--***---&&&&&---&&;;;===**===-----------**---***--&&&&&&--&&&;;;==***===----------***---**---&&&&&---&&&;;===***==---",
"--------***--***---&&&&&---&&;;;===**===-----------**---***--&&&&&&--&&&;;;==***===----------***---**---&&&&&---&&&;;===***==---",
"-----###***##---;;;==******--&&&===--***--------###**###---;;===*****---&&&==---***--------##***###--;;;===*****---&&===---**---",
"-----###***##---;;;==******--&&&===--***--------###**###---;;===*****---&&&==---***--------##***###--;;;===*****---&&===---**---",
"===##******--------**---===**---***-----=====###*****--------***---==***---**------=====###*****--------***--===***--***-----===",
"===##******--------**---===**---***-----=====###*****--------***---==***---**------=====###*****--------***--===***--***-----===",
"===##******--------**---===**---***-----=====###*****--------***---==***---**------=====###*****--------***--===***--***-----===",
"*****------*****###-----===&&######==###********-----******##------==&&&#####===###********-----*****###-----===&&&#####===##***",
"*****------*****###-----===&&######==###********-----******##------==&&&#####===###********-----*****###-----===&&&#####===##***",
"*****------*****###-----===&&######==###********-----******##------==&&&#####===###********-----*****###-----===&&&#####===##***",
"===--***-----===&&&--&&&---**===---&&---&&&==---***-----===&&---&&&--***===--&&&---&&===---**------==&&&---&&---***==---&&&--&&&",
"===--***-----===&&&--&&&---**===---&&---&&&==---***-----===&&---&&&--***===--&&&---&&===---**------==&&&---&&---***==---&&&--&&&",
"***-----;;;--===***==;;;-----===&&&--&&&---**------;;---===**===;;;-----===&&---&&&--***-----;;;---==***===;;------==&&&---&&---",
"***-----;;;--===***==;;;-----===&&&--&&&---**------;;---===**===;;;-----===&&---&&&--***-----;;;---==***===;;------==&&&---&&---",
"***-----;;;--===***==;;;-----===&&&--&&&---**------;;---===**===;;;-----===&&---&&&--***-----;;;---==***===;;------==&&&---&&---",
"---##===---*****###--======-----***--***===--###===--******##---=====------**---***==---###==---*****###---=====-----***---**===",
"---##===---*****###--======-----***--***===--###===--******##---=====------**---***==---###==---*****###---=====-----***---**===",
"---##===---*****###--======-----***--***===--###===--******##---=====------**---***==---###==---*****###---=====-----***---**===",
"***&&###***--###=====------##&&&*****###---**&&&###**---###=====-----###&&&*****###--***&&&##***---##======-----###&&******##---",
"***&&###***--###=====------##&&&*****###---**&&&###**---###=====-----###&&&*****###--***&&&##***---##======-----###&&******##---",
"-----======##***-----;;;-----***###-------------=====###***-----;;;-----***##--------------=====###**------;;------**###--------",
"-----======##***-----;;;-----***###-------------=====###***-----;;;-----***##--------------=====###**------;;------**###--------",
"-----======##***-----;;;-----***###-------------=====###***-----;;;-----***##--------------=====###**------;;------**###--------",
"%%%--***#####-----------***==###---;;%%%---%%---***#####-----------**===###--;;;%%%--%%%---**######----------***===##---;;;%%---",
"%%%--***#####-----------***==###---;;%%%---%%---***#####-----------**===###--;;;%%%--%%%---**######----------***===##---;;;%%---",
"%%%--***#####-----------***==###---;;%%%---%%---***#####-----------**===###--;;;%%%--%%%---**######----------***===##---;;;%%---",
"---**======--===###-----#####***---%%---%%%--***=====---===##------#####***--%%%---%%---***=====---==###-----######**---%%%--%%%",
"---**======--===###-----#####***---%%---%%%--***=====---===##------#####***--%%%---%%---***=====---==###-----######**---%%%--%%%",
"***##------**&&&***##---========&&&--%%%---**###-----***&&&**###---========&&---%%%--***###-----***&&***###--========&&&---%%---",
"***##------**&&&***##---========&&&--%%%---**###-----***&&&**###---========&&---%%%--***###-----***&&***###--========&&&---%%---",
"***##------**&&&***##---========&&&--%%%---**###-----***&&&**###---========&&---%%%--***###-----***&&***###--========&&&---%%---",
"###==--------%%%-----***===-----###==******##===--------%%%-----***==------##===*****###===--------%%------**===-----###===*****",
"###==--------%%%-----***===-----###==******##===--------%%%-----***==------##===*****###===--------%%------**===-----###===*****",
"###==--------%%%-----***===-----###==******##===--------%%%-----***==------##===*****###===--------%%------**===-----###===*****",
"===-----;;;%%---%%%&&===---=====-----&&&***==------;;%%%---%%&&&===--======-----&&&**===-----;;;%%%--%%%&&&==---=====------&&***",
"===-----;;;%%---%%%&&===---=====-----&&&***==------;;%%%---%%&&&===--======-----&&&**===-----;;;%%%--%%%&&&==---=====------&&***",
"*****%%%-----%%%&&&**---***##&&&---;;---###*****%%%-----%%%&&***---**###&&&--;;;---##******%%------%%&&&***--***###&&---;;;--###",
"*****%%%-----%%%&&&**---***##&&&---;;---###*****%%%-----%%%&&***---**###&&&--;;;---##******%%------%%&&&***--***###&&---;;;--###",
"*****%%%-----%%%&&&**---***##&&&---;;---###*****%%%-----%%%&&***---**###&&&--;;;---##******%%------%%&&&***--***###&&---;;;--###",
"-----###***==&&&***--===&&&-------------===-----###**===&&&**---===&&--------------==------##***===&&***---==&&&-------------===",
"-----###***==&&&***--===&&&-------------===-----###**===&&&**---===&&--------------==------##***===&&***---==&&&-------------===",
"-----###***==&&&***--===&&&-------------===-----###**===&&&**---===&&--------------==------##***===&&***---==&&&-------------===",
"--------***--***---&&&&&---&&;;;===**===-----------**---***--&&&&&&--&&&;;;==***===----------***---**---&&&&&---&&&;;===***==---",
"--------***--***---&&&&&---&&;;;===**===-----------**---***--&&&&&&--&&&;;;==***===----------***---**---&&&&&---&&&;;===***==---",
"-----###***##---;;;==******--&&&===--***--------###**###---;;===*****---&&&==---***--------##***###--;;;===*****---&&===---**---",
"-----###***##---;;;==******--&&&===--***--------###**###---;;===*****---&&&==---***--------##***###--;;;===*****---&&===---**---",
"-----###***##---;;;==******--&&&===--***--------###**###---;;===*****---&&&==---***--------##***###--;;;===*****---&&===---**---",
"===##******--------**---===**---***-----=====###*****--------***---==***---**------=====###*****--------***--===***--***-----===",
"===##******--------**---===**---***-----=====###*****--------***---==***---**------=====###*****--------***--===***--***-----===",
"===##******--------**---===**---***-----=====###*****--------***---==***---**------=====###*****--------***--===***--***-----===",
"*****------*****###-----===&&######==###********-----******##------==&&&#####===###********-----*****###-----===&&&#####===##***",
"*****------*****###-----===&&######==###********-----******##------==&&&#####===###********-----*****###-----===&&&#####===##***",
"===--***-----===&&&--&&&---**===---&&---&&&==---***-----===&&---&&&--***===--&&&---&&===---**------==&&&---&&---***==---&&&--&&&",
"===--***-----===&&&--&&&---**===---&&---&&&==---***-----===&&---&&&  ***===--&&&---&&===---**------==&&&---&&---***==---&&&--&&&",
"===--***-----===&&&--&&&---**===---&&---&&&==---***-----===&&---&&&  ***===--&&&---&&===---**------==&&&---&&---***==---&&&--&&&",
"***-----;;;--===***==;;;-----===&&&--&&&---**------;;---===**===;;;  ---===&&---&&&--***-----;;;---==***===;;------==&&&---&&---",
"***-----;;;--===***==;;;-----===&&&--&&&---**------;;---===**===   XX   ===&&---&&&--***-----;;;---==***===;;------==&&&---&&---",
"***-----;;;--===***==;;;-----===&&&--&&&---**------;;---===**===   XX   ===&&---&&&--***-----;;;---==***===;;------==&&&---&&---",
"---##===---*****###--======-----***--***===--###===--******##---   XX   ---**---***==---###==---*****###---=====-----***---**===",
"---##===---*****###--======-----***--***===--###===--***           OO           ***==---###==---*****###---=====-----***---**===",
"***&&###***--###=====------##&&&*****###---**&&&###**---           OO           ###--***&&&##***---##======-----###&&******##---",
"***&&###***--###=====------##&&&*****###---**&&&###**   OOOXX   XXX@@XXX   XXOOO   --***&&&##***---##======-----###&&******##---",
"***&&###***--###=====------##&&&*****###---**&&&###**   OOOXX   XXX@@XXX   XXOOO   --***&&&##***---##======-----###&&******##---",
"-----======##***-----;;;-----***###-------------=====   OOOXX   XXX@@XXX   XXOOO   --------=====###**------;;------**###--------",
"-----======##***-----;;;-----***###-------------        XXX  OOO   @@   OOO  XXX        ---=====###**------;;------**###--------",
"-----======##***-----;;;-----***###-------------        XXX  OOO   @@   OOO  XXX        ---=====###**------;;------**###--------",
"%%%--***#####-----------***==###---;;%%%---%%---        XXX  OOO   @@   OOO  XXX        ---**######----------***===##---;;;%%---",
"%%%--***#####-----------***==###---;;%%%---%%---   XX      OO@@@XXX  XXX@@@OO      XX   ---**######----------***===##---;;;%%---",
"---**======--===###-----#####***---%%---%%%--***   XX      OO@@@XXX  XXX@@@OO      XX   ***=====---==###-----######**---%%%--%%%",
"---**======--===###-----#####***---%%---%%%--   XXXOOXXXOOO  :::   OO   :::  OOOXXXOOXXX   =====---==###-----######**---%%%--%%%",
"---**======--===###-----#####***---%%---%%%--   XXXOOXXXOOO  :::   OO   :::  OOOXXXOOXXX   =====---==###-----######**---%%%--%%%",
"***##------**&&&***##---========&&&--%%%---**   XXXOOXXXOOO  :::   OO   :::  OOOXXXOOXXX   -----***&&***###--========&&&---%%---",
"***##------**&&&***##---========&&&--%%%---**   XXX  XXX@@@OOXXXOOO@@OOOXXXOO@@@XXX  XXX   -----***&&***###--========&&&---%%---",
"***##------**&&&***##---========&&&--%%%---**   XXX  XXX@@@OOXXXOOO@@OOOXXXOO@@@XXX  XXX   -----***&&***###--========&&&---%%---",
"###==--------%%%-----***===-----###==******##   XXX  XXX@@@OOXXXOOO@@OOOXXXOO@@@XXX  XXX   --------%%------**===-----###===*****",
"###==--------%%%-----***===-----###==***     XXX   @@OOOXXX::   OOO::OOO   ::XXXOOO@@   XXX     ---%%------**===-----###===*****",
"===-----;;;%%---%%%&&===---=====-----&&&     XXX   @@OOOXXX::   OOO::OOO   ::XXXOOO@@   XXX     %%%--%%%&&&==---=====------&&***",
"===-----;;;%%---%%%&&===---=====-----   +++  OOO   XX:::   XXXXX   ::   XXXXX   :::XX   OOO  +++   --%%%&&&==---=====------&&***",
"===-----;;;%%---%%%&&===---=====-----   +++  OOO   XX:::   XXXXX   ::   XXXXX   :::XX   OOO  +++   --%%%&&&==---=====------&&***",
"*****%%%-----%%%&&&**---***##&&&---;;   +++  OOO   XX:::   XXXXX   ::   XXXXX   :::XX   OOO  +++   %%&&&***--***###&&---;;;--###",
"*****%%%-----%%%&&&**---***##&&&---  +++...OOXXX     XXXXXX@@OOOOOO  OOOOOO@@XXXXXX     XXXOO...+++  &&&***--***###&&---;;;--###",
"*****%%%-----%%%&&&**---***##&&&---  +++...OOXXX     XXXXXX@@OOOOOO  OOOOOO@@XXXXXX     XXXOO...+++  &&&***--***###&&---;;;--###",
"-----###***==&&&***--===&&&--------  +++...OOXXX     XXXXXX@@OOOOOO  OOOOOO@@XXXXXX     XXXOO...+++  ***---==&&&-------------===",
"-----###***==&&&***--===&&&--------  +++...XXOOOXXX@@OOOXXXXX::::::XX::::::XXXXXOOO@@XXXOOOXX...+++  ***---==&&&-------------===",
"--------***--***---&&&&&---&&;;;===  +++...XXOOOXXX@@OOOXXXXX::::::XX::::::XXXXXOOO@@XXXOOOXX...+++  ---&&&&&---&&&;;===***==---",
"--------***--***---&&&&&---&&;;;===  ...@@@OOOOOXXXXX::::::OOXXXXXX@@XXXXXXOO::::::XXXXXOOOOO@@@...  ---&&&&&---&&&;;===***==---",
"--------***--***---&&&&&---&&;;;===  ...@@@OOOOOXXXXX::::::OOXXXXXX@@XXXXXXOO::::::XXXXXOOOOO@@@...  ---&&&&&---&&&;;===***==---",
"-----###***##---;;;==******--&&&===  ...@@@OOOOOXXXXX::::::OOXXXXXX@@XXXXXXOO::::::XXXXXOOOOO@@@...  ;;;===*****---&&===---**---",
"-----###***##---;;;==******--&&&===  +++...  @@@OOOOOXXXXXXXXXXXOOO::OOOXXXXXXXXXXXOOOOO@@@  ...+++  ;;;===*****---&&===---**---",
"-----###***##---;;;==******--&&&===  +++...  @@@OOOOOXXXXXXXXXXXOOO::OOOXXXXXXXXXXXOOOOO@@@  ...+++  ;;;===*****---&&===---**---",
"===##******--------**---===**---***  +++...  @@@OOOOOXXXXXXXXXXXOOO::OOOXXXXXXXXXXXOOOOO@@@  ...+++  ---***--===***--***-----===",
"===##******--------**---===**---***  ...OOO@@XXX@@@@@OOO@@@OOXXXXXX::XXXXXXOO@@@OOO@@@@@XXX@@OOO...  ---***--===***--***-----===",
"*****------*****###-----===&&######  ...OOO@@XXX@@@@@OOO@@@OOXXXXXX::XXXXXXOO@@@OOO@@@@@XXX@@OOO...  ###-----===&&&#####===##***",
"*****------*****###-----===&&######  +++.....   :::@@@@@:::::@@@:::OO:::@@@:::::@@@@@:::   .....+++  ###-----===&&&#####===##***",
"*****------*****###-----===&&######  +++.....   :::@@@@@:::::@@@:::OO:::@@@:::::@@@@@:::   .....+++  ###-----===&&&#####===##***",
"===--***-----===&&&--&&&---**===---  +++.....   :::@@@@@:::::@@@:::OO:::@@@:::::@@@@@:::   .....+++  &&&---&&---***==---&&&--&&&",
"===--***-----===&&&--&&&---**===---&&......  ooo   XXOOO:::XXXXX@@@::@@@XXXXX:::OOOXX   ooo  ......==&&&---&&---***==---&&&--&&&",
"===--***-----===&&&--&&&---**===---&&......  ooo   XXOOO:::XXXXX@@@::@@@XXXXX:::OOOXX   ooo  ......==&&&---&&---***==---&&&--&&&",
"***-----;;;--===***==;;;-----===&&&--......  ooo   XXOOO:::XXXXX@@@::@@@XXXXX:::OOOXX   ooo  ......==***===;;------==&&&---&&---",
"***-----;;;--===***==;;;-----===&&&--&&&   +++++...OOXXXXXX  ...   @@   ...  XXXXXXOO...+++++   ---==***===;;------==&&&---&&---",
"---##===---*****###--======-----***--***   +++++...OOXXXXXX  ...   @@   ...  XXXXXXOO...+++++   *****###---=====-----***---**===",
"---##===---*****###--======-----***--   ooo$$$$$   XXOOOXXX.....ooo  ooo.....XXXOOOXX   $$$$$ooo   **###---=====-----***---**===",
"---##===---*****###--======-----***--   ooo$$$$$   XXOOOXXX.....ooo  ooo.....XXXOOOXX   $$$$$ooo   **###---=====-----***---**===",
"***&&###***--###=====------##&&&*****   ooo$$$$$   XXOOOXXX.....ooo  ooo.....XXXOOOXX   $$$$$ooo   ##======-----###&&******##---",
"***&&###***--###=====------##&&&*****   $$$+++++.....XXXXXX  ooo+++$$+++ooo  XXXXXX.....+++++$$$   ##======-----###&&******##---",
"***&&###***--###=====------##&&&*****   $$$+++++.....XXXXXX  ooo+++$$+++ooo  XXXXXX.....+++++$$$   ##======-----###&&******##---",
"-----======##***-----;;;-----***###--   $$$+++++.....XXXXXX  ooo+++$$+++ooo  XXXXXX.....+++++$$$   **------;;------**###--------",
"-----======##***-----;;;-----***###--   +++oooooooo.....   XXooo+++$$+++oooXX   .....oooooooo+++   **------;;------**###--------",
"%%%--***#####-----------***==###---;;   +++oooooooo.....   XXooo+++$$+++oooXX   .....oooooooo+++   ----------***===##---;;;%%---",
"%%%--***#####-----------***==###---;;   +++++oooooo..###.....   +++$$+++   .....%%%..oooooo+++++   ----------***===##---;;;%%---",
"%%%--***#####-----------***==###---;;   +++++oooooo..###.....   +++$$+++   .....%%%..oooooo+++++   ----------***===##---;;;%%---",
"---**======--===###-----#####***---%%   +++++oooooo..---.....   +++$$+++   .....---..oooooo+++++   ==###-----######**---%%%--%%%",
"---**======--===###-----#####***---%%   ++++++++.....---===##   +++$$+++   --%%%---.....++++++++   ==###-----######**---%%%--%%%",
"---**======--===###-----#####***---%%   ++++++++.....---===##   +++$$+++   --%%%---.....++++++++   ==###-----######**---%%%--%%%",
"***##------**&&&***##---========&&&--   ++++++++.....***&&&**   +++$$+++   &&---%%%.....++++++++   &&***###--========&&&---%%---",
"***##------**&&&***##---========&&&--%%%...........--***&&&**   ooo++ooo   &&---%%%--...........***&&***###--========&&&---%%---",
"###==--------%%%-----***===-----###==***...........-----%%%--   ooo++ooo   ##===*****...........---%%------**===-----###===*****",
"###==--------%%%-----***===-----###==******##===--------%%%-----   ++   ---##===*****###===--------%%------**===-----###===*****",
"###==--------%%%-----***===-----###==******##===--------%%%-----   ++   ---##===*****###===--------%%------**===-----###===*****",
"===-----;;;%%---%%%&&===---=====-----&&&***==------;;%%%---%%&&&   ++   ===-----&&&**===-----;;;%%%--%%%&&&==---=====------&&***",
"===-----;;;%%---%%%&&===---=====-----&&&***==------;;%%%---%%&&&   oo   ===-----&&&**===-----;;;%%%--%%%&&&==---=====------&&***",
"===-----;;;%%---%%%&&===---=====-----&&&***==------;;%%%---%%&&&   oo   ===-----&&&**===-----;;;%%%--%%%&&&==---=====------&&***",
"*****%%%-----%%%&&&**---***##&&&---;;---###*****%%%-----%%%&&***   oo   &&&--;;;---##******%%------%%&&&***--***###&&---;;;--###",
"*****%%%-----%%%&&&**---***##&&&---;;---###*****%%%-----%%%&&***---  ###&&&--;;;---##******%%------%%&&&***--***###&&---;;;--###",
"-----###***==&&&***--===&&&-------------===-----###**===&&&**---===  --------------==------##***===&&***---==&&&-------------===",
"-----###***==&&&***--===&&&-------------===-----###**===&&&**---===&&--------------==------##***===&&***---==&&&-------------===",
"-----###***==&&&***--===&&&-------------===-----###**===&&&**---===&&--------------==------##***===&&***---==&&&-------------==="
};
