/* XPM */
static char *result[] = {
/* columns rows colors chars-per-pixel */
"128 128 18 1 ",
"  c #1C1C0C",
". c #070718",
"X c #6A2912",
"o c #355326",
"O c #A55C44",
"+ c #5E8850",
"@ c #C69F30",
"# c #F8F16D",
"$ c #CC9583",
"% c #F2B586",
"& c #B4CFA7",
"* c #DFD1A5",
"= c #D7D4B2",
"- c #E8C2A0",
"; c #FFC5BF",
": c #FFDAB0",
"> c #FFDFEF",
", c #F4E6E2",
/* pixels */
"::::::::---::---:::=====:::==>>>;;;--;;;:::::::::::--:::---::======::===>>>;;---;;;::::::::::---:::--:::=====:::===>>;;;---;;:::",
"::::::::---::---:::=====:::==>>>;;;--;;;:::::::::::--:::---::======::===>>>;;---;;;::::::::::---:::--:::=====:::===>>;;;---;;:::",
"::::::::---::---:::=====:::==>>>;;;--;;;:::::::::::--:::---::======::===>>>;;---;;;::::::::::---:::--:::=====:::===>>;;;---;;:::",
":::::%%%---%%:::>>>;;------::===;;;::---::::::::%%%--%%%:::>>;;;-----:::===;;:::---::::::::%%---%%%::>>>;;;-----:::==;;;:::--:::",
":::::%%%---%%:::>>>;;------::===;;;::---::::::::%%%--%%%:::>>;;;-----:::===;;:::---::::::::%%---%%%::>>>;;;-----:::==;;;:::--:::",
";;;%%------::::::::--:::;;;--:::---:::::;;;;;%%%-----::::::::---:::;;---:::--::::::;;;;;%%%-----::::::::---::;;;---::---:::::;;;",
";;;%%------::::::::--:::;;;--:::---:::::;;;;;%%%-----::::::::---:::;;---:::--::::::;;;;;%%%-----::::::::---::;;;---::---:::::;;;",
";;;%%------::::::::--:::;;;--:::---:::::;;;;;%%%-----::::::::---:::;;---:::--::::::;;;;;%%%-----::::::::---::;;;---::---:::::;;;",
"-----::::::-----%%%:::::;;;==%%%%%%;;%%%--------:::::------%%::::::;;===%%%%%;;;%%%--------:::::-----%%%:::::;;;===%%%%%;;;%%---",
"-----::::::-----%%%:::::;;;==%%%%%%;;%%%--------:::::------%%::::::;;===%%%%%;;;%%%--------:::::-----%%%:::::;;;===%%%%%;;;%%---",
"-----::::::-----%%%:::::;;;==%%%%%%;;%%%--------:::::------%%::::::;;===%%%%%;;;%%%--------:::::-----%%%:::::;;;===%%%%%;;;%%---",
";;;::---:::::;;;===::===:::--;;;:::==:::===;;:::---:::::;;;==:::===::---;;;::===:::==;;;:::--::::::;;===:::==:::---;;:::===::===",
";;;::---:::::;;;===::===:::--;;;:::==:::===;;:::---:::::;;;==:::===::---;;;::===:::==;;;:::--::::::;;===:::==:::---;;:::===::===",
"---:::::>>>::;;;---;;>>>:::::;;;===::===:::--::::::>>:::;;;--;;;>>>:::::;;;==:::===::---:::::>>>:::;;---;;;>>::::::;;===:::==:::",
"---:::::>>>::;;;---;;>>>:::::;;;===::===:::--::::::>>:::;;;--;;;>>>:::::;;;==:::===::---:::::>>>:::;;---;;;>>::::::;;===:::==:::",
"---:::::>>>::;;;---;;>>>:::::;;;===::===:::--::::::>>:::;;;--;;;>>>:::::;;;==:::===::---:::::>>>:::;;---;;;>>::::::;;===:::==:::",
":::%%;;;:::-----%%%::;;;;;;:::::---::---;;;::%%%;;;::------%%:::;;;;;::::::--:::---;;:::%%%;;:::-----%%%:::;;;;;:::::---:::--;;;",
":::%%;;;:::-----%%%::;;;;;;:::::---::---;;;::%%%;;;::------%%:::;;;;;::::::--:::---;;:::%%%;;:::-----%%%:::;;;;;:::::---:::--;;;",
":::%%;;;:::-----%%%::;;;;;;:::::---::---;;;::%%%;;;::------%%:::;;;;;::::::--:::---;;:::%%%;;:::-----%%%:::;;;;;:::::---:::--;;;",
"---==%%%---::%%%;;;;;::::::%%===-----%%%:::--===%%%--:::%%%;;;;;:::::%%%===-----%%%::---===%%---:::%%;;;;;;:::::%%%==------%%:::",
"---==%%%---::%%%;;;;;::::::%%===-----%%%:::--===%%%--:::%%%;;;;;:::::%%%===-----%%%::---===%%---:::%%;;;;;;:::::%%%==------%%:::",
":::::;;;;;;%%---:::::>>>:::::---%%%:::::::::::::;;;;;%%%---:::::>>>:::::---%%::::::::::::::;;;;;%%%--::::::>>::::::--%%%::::::::",
":::::;;;;;;%%---:::::>>>:::::---%%%:::::::::::::;;;;;%%%---:::::>>>:::::---%%::::::::::::::;;;;;%%%--::::::>>::::::--%%%::::::::",
":::::;;;;;;%%---:::::>>>:::::---%%%:::::::::::::;;;;;%%%---:::::>>>:::::---%%::::::::::::::;;;;;%%%--::::::>>::::::--%%%::::::::",
"***::---%%%%%:::::::::::---;;%%%:::>>***:::**:::---%%%%%:::::::::::--;;;%%%::>>>***::***:::--%%%%%%::::::::::---;;;%%:::>>>**:::",
"***::---%%%%%:::::::::::---;;%%%:::>>***:::**:::---%%%%%:::::::::::--;;;%%%::>>>***::***:::--%%%%%%::::::::::---;;;%%:::>>>**:::",
"***::---%%%%%:::::::::::---;;%%%:::>>***:::**:::---%%%%%:::::::::::--;;;%%%::>>>***::***:::--%%%%%%::::::::::---;;;%%:::>>>**:::",
":::--;;;;;;::;;;%%%:::::%%%%%---:::**:::***::---;;;;;:::;;;%%::::::%%%%%---::***:::**:::---;;;;;:::;;%%%:::::%%%%%%--:::***::***",
":::--;;;;;;::;;;%%%:::::%%%%%---:::**:::***::---;;;;;:::;;;%%::::::%%%%%---::***:::**:::---;;;;;:::;;%%%:::::%%%%%%--:::***::***",
"---%%::::::--===---%%:::;;;;;;;;===::***:::--%%%:::::---===--%%%:::;;;;;;;;==:::***::---%%%:::::---==---%%%::;;;;;;;;===:::**:::",
"---%%::::::--===---%%:::;;;;;;;;===::***:::--%%%:::::---===--%%%:::;;;;;;;;==:::***::---%%%:::::---==---%%%::;;;;;;;;===:::**:::",
"---%%::::::--===---%%:::;;;;;;;;===::***:::--%%%:::::---===--%%%:::;;;;;;;;==:::***::---%%%:::::---==---%%%::;;;;;;;;===:::**:::",
"%%%;;::::::::***:::::---;;;:::::%%%;;------%%;;;::::::::***:::::---;;::::::%%;;;-----%%%;;;::::::::**::::::--;;;:::::%%%;;;-----",
"%%%;;::::::::***:::::---;;;:::::%%%;;------%%;;;::::::::***:::::---;;::::::%%;;;-----%%%;;;::::::::**::::::--;;;:::::%%%;;;-----",
"%%%;;::::::::***:::::---;;;:::::%%%;;------%%;;;::::::::***:::::---;;::::::%%;;;-----%%%;;;::::::::**::::::--;;;:::::%%%;;;-----",
";;;:::::>>>**:::***==;;;:::;;;;;:::::===---;;::::::>>***:::**===;;;::;;;;;;:::::===--;;;:::::>>>***::***===;;:::;;;;;::::::==---",
";;;:::::>>>**:::***==;;;:::;;;;;:::::===---;;::::::>>***:::**===;;;::;;;;;;:::::===--;;;:::::>>>***::***===;;:::;;;;;::::::==---",
"-----***:::::***===--:::---%%===:::>>:::%%%-----***:::::***==---:::--%%%===::>>>:::%%------**::::::**===---::---%%%==:::>>>::%%%",
"-----***:::::***===--:::---%%===:::>>:::%%%-----***:::::***==---:::--%%%===::>>>:::%%------**::::::**===---::---%%%==:::>>>::%%%",
"-----***:::::***===--:::---%%===:::>>:::%%%-----***:::::***==---:::--%%%===::>>>:::%%------**::::::**===---::---%%%==:::>>>::%%%",
":::::%%%---;;===---::;;;===:::::::::::::;;;:::::%%%--;;;===--:::;;;==::::::::::::::;;::::::%%---;;;==---:::;;===:::::::::::::;;;",
":::::%%%---;;===---::;;;===:::::::::::::;;;:::::%%%--;;;===--:::;;;==::::::::::::::;;::::::%%---;;;==---:::;;===:::::::::::::;;;",
":::::%%%---;;===---::;;;===:::::::::::::;;;:::::%%%--;;;===--:::;;;==::::::::::::::;;::::::%%---;;;==---:::;;===:::::::::::::;;;",
"::::::::---::---:::=====:::==>>>;;;--;;;:::::::::::--:::---::======::===>>>;;---;;;::::::::::---:::--:::=====:::===>>;;;---;;:::",
"::::::::---::---:::=====:::==>>>;;;--;;;:::::::::::--:::---::======::===>>>;;---;;;::::::::::---:::--:::=====:::===>>;;;---;;:::",
":::::%%%---%%:::>>>;;------::===;;;::---::::::::%%%--%%%:::>>;;;-----:::===;;:::---::::::::%%---%%%::>>>;;;-----:::==;;;:::--:::",
":::::%%%---%%:::>>>;;------::===;;;::---::::::::%%%--%%%:::>>;;;-----:::===;;:::---::::::::%%---%%%::>>>;;;-----:::==;;;:::--:::",
":::::%%%---%%:::>>>;;------::===;;;::---::::::::%%%--%%%:::>>;;;-----:::===;;:::---::::::::%%---%%%::>>>;;;-----:::==;;;:::--:::",
";;;%%------::::::::--:::;;;--:::---:::::;;;;;%%%-----::::::::---:::;;---:::--::::::;;;;;%%%-----::::::::---::;;;---::---:::::;;;",
";;;%%------::::::::--:::;;;--:::---:::::;;;;;%%%-----::::::::---:::;;---:::--::::::;;;;;%%%-----::::::::---::;;;---::---:::::;;;",
";;;%%------::::::::--:::;;;--:::---:::::;;;;;%%%-----::::::::---:::;;---:::--::::::;;;;;%%%-----::::::::---::;;;---::---:::::;;;",
"-----::::::-----%%%:::::;;;==%%%%%%;;%%%--------:::::------%%::::::;;===%%%%%;;;%%%--------:::::-----%%%:::::;;;===%%%%%;;;%%---",
"-----::::::-----%%%:::::;;;==%%%%%%;;%%%--------:::::------%%::::::;;===%%%%%;;;%%%--------:::::-----%%%:::::;;;===%%%%%;;;%%---",
";;;::---:::::;;;===::===:::--;;;:::==:::===;;:::---:::::;;;==:::===::---;;;::===:::==;;;:::--::::::;;===:::==:::---;;:::===::===",
";;;::---:::::;;;===::===:::--;;;:::==:::===;;:::---:::::;;;==:::===::---;;;::===:::==;;;:::--::::::;;===:::==:::---;;:::===::===",
";;;::---:::::;;;===::===:::--;;;:::==:::===;;:::---:::::;;;==:::===::---;;;::===:::==;;;:::--::::::;;===:::==:::---;;:::===::===",
"---:::::>>>::;;;---;;>>>:::::;;;===::===:::--::::::>>:::;;;--;;;>>>:::::;;;==:::===::---:::::>>>:::;;---;;;>>::::::;;===:::==:::",
"---:::::>>>::;;;---;;>>>:::::;;;===::===:::--::::::>>:::;;;--;;;>>>:::::;;;==:::===::---:::::>>>:::;;---;;;>>::::::;;===:::==:::",
"---:::::>>>::;;;---;;>>>:::::;;;===::===:::--::::::>>:::;;;--;;;>>>:::::;;;==:::===::---:::::>>>:::;;---;;;>>::::::;;===:::==:::",
":::%%;;;:::-----%%%::;;;;;;:::::---::---;;;::%%%;;;::------%%:::        :::--:::---;;:::%%%;;:::-----%%%:::;;;;;:::::---:::--;;;",
":::%%;;;:::-----%%%::;;;;;;:::::---::---;;;::%%%;;;::------%%:::        :::--:::---;;:::%%%;;:::-----%%%:::;;;;;:::::---:::--;;;",
"---==%%%---::%%%;;;;;::::::%%===-----%%%:::--===%%%--:::        OOOOOXXX        %%%::---===%%---:::%%;;;;;;:::::%%%==------%%:::",
"---==%%%---::%%%;;;;;::::::%%===-----%%%:::--===%%%--:::        OOOOOXXX        %%%::---===%%---:::%%;;;;;;:::::%%%==------%%:::",
"---==%%%---::%%%;;;;;::::::%%===-----%%%:::--===%%%--:::        OOOOOXXX        %%%::---===%%---:::%%;;;;;;:::::%%%==------%%:::",
":::::;;;;;;%%---:::::>>>:::::---%%%:::::::::::::;;;;;   XXXOO   XXXOOXXXXXXOOXXX     ::::::;;;;;%%%--::::::>>::::::--%%%::::::::",
":::::;;;;;;%%---:::::>>>:::::---%%%:::::::::::::;;;;;   XXXOO   XXXOOXXXXXXOOXXX     ::::::;;;;;%%%--::::::>>::::::--%%%::::::::",
":::::;;;;;;%%---:::::>>>:::::---%%%:::::::::::::;;;;;   XXXOO   XXXOOXXXXXXOOXXX     ::::::;;;;;%%%--::::::>>::::::--%%%::::::::",
"***::---%%%%%:::::::::::---;;%%%:::>>***:::**:::---  XXXXXX,,$$$$$$  XXXXXXXXOOOXXXXX   :::--%%%%%%::::::::::---;;;%%:::>>>**:::",
"***::---%%%%%:::::::::::---;;%%%:::>>***:::**:::---  XXXXXX,,$$$$$$  XXXXXXXXOOOXXXXX   :::--%%%%%%::::::::::---;;;%%:::>>>**:::",
":::--;;;;;;::;;;%%%:::::%%%%%---:::**:::***::---   OOXXX,,,$$OOO   OO$$$OOOOOXXX     OOO   ;;;;;:::;;%%%:::::%%%%%%--:::***::***",
":::--;;;;;;::;;;%%%:::::%%%%%---:::**:::***::---   OOXXX,,,$$OOO   OO$$$OOOOOXXX     OOO   ;;;;;:::;;%%%:::::%%%%%%--:::***::***",
":::--;;;;;;::;;;%%%:::::%%%%%---:::**:::***::---   OOXXX,,,$$OOO   OO$$$OOOOOXXX     OOO   ;;;;;:::;;%%%:::::%%%%%%--:::***::***",
"---%%::::::--===---%%:::;;;;;;;;===::***        XXXOOXXXOOOOO   XXX,,OOOXXX  OOOOOOXX   XXX  :::---==---%%%::;;;;;;;;===:::**:::",
"---%%::::::--===---%%:::;;;;;;;;===::***        XXXOOXXXOOOOO   XXX,,OOOXXX  OOOOOOXX   XXX  :::---==---%%%::;;;;;;;;===:::**:::",
"---%%::::::--===---%%:::;;;;;;;;===::***        XXXOOXXXOOOOO   XXX,,OOOXXX  OOOOOOXX   XXX  :::---==---%%%::;;;;;;;;===:::**:::",
"%%%;;::::::::***:::::---;;;:::::%%%;;   ooo  $$$OOOXX,,,XXX  XXXOOOXXXXX   $$$$$OOOOOXXX        :::**::::::--;;;:::::%%%;;;-----",
"%%%;;::::::::***:::::---;;;:::::%%%;;   ooo  $$$OOOXX,,,XXX  XXXOOOXXXXX   $$$$$OOOOOXXX        :::**::::::--;;;:::::%%%;;;-----",
";;;:::::>>>**:::***==;;;:::;;;;;:::::   +++  ,,,$$$XX,,,OOOXX,,,$$$OO   XXXXXOOOXXX     OOOOOXXX   ::***===;;:::;;;;;::::::==---",
";;;:::::>>>**:::***==;;;:::;;;;;:::::   +++  ,,,$$$XX,,,OOOXX,,,$$$OO   XXXXXOOOXXX     OOOOOXXX   ::***===;;:::;;;;;::::::==---",
";;;:::::>>>**:::***==;;;:::;;;;;:::::   +++  ,,,$$$XX,,,OOOXX,,,$$$OO   XXXXXOOOXXX     OOOOOXXX   ::***===;;:::;;;;;::::::==---",
"-----***:::::***===--:::        :::  ...ooo..,,,,,,XXXXX$$$OOXXXXXX  ,,,$$$OOXXX   XXXXX           **===---::---%%%==:::>>>::%%%",
"-----***:::::***===--:::        :::  ...ooo..,,,,,,XXXXX$$$OOXXXXXX  ,,,$$$OOXXX   XXXXX           **===---::---%%%==:::>>>::%%%",
"-----***:::::***===--:::        :::  ...ooo..,,,,,,XXXXX$$$OOXXXXXX  ,,,$$$OOXXX   XXXXX           **===---::---%%%==:::>>>::%%%",
":::::%%%---;;===---::   &&&++ooo   oo      ..   ,,,XX,,,XXXXX,,,OOOXX   XXX     XXX$$OOOXXX     XXX          ===:::::::::::::;;;",
":::::%%%---;;===---::   &&&++ooo   oo      ..   ,,,XX,,,XXXXX,,,OOOXX   XXX     XXX$$OOOXXX     XXX          ===:::::::::::::;;;",
"::::::::---::---:::  ooo+++oooooooo++ooo+++     ,,,XX,,,OOO  OOO$$$OOXXX   OOXXX        XXX     XXX  ooo+++++        ;;;---;;:::",
"::::::::---::---:::  ooo+++oooooooo++ooo+++     ,,,XX,,,OOO  OOO$$$OOXXX   OOXXX        XXX     XXX  ooo+++++        ;;;---;;:::",
"::::::::---::---:::  ooo+++oooooooo++ooo+++     ,,,XX,,,OOO  OOO$$$OOXXX   OOXXX        XXX     XXX  ooo+++++        ;;;---;;:::",
":::::%%%---%%:::   ,,&&&ooo,,&&&&&&++ooo&&&&&   $$$OOXXX$$$OOXXX        OOO$$OOOXXXXXXXX   XXXXXXXX  &&&&&&+++++ooooo      --:::",
":::::%%%---%%:::   ,,&&&ooo,,&&&&&&++ooo&&&&&   $$$OOXXX$$$OOXXX        OOO$$OOOXXXXXXXX   XXXXXXXX  &&&&&&+++++ooooo      --:::",
":::::%%%---%%:::   ,,&&&ooo,,&&&&&&++ooo&&&&&   $$$OOXXX$$$OOXXX        OOO$$OOOXXXXXXXX   XXXXXXXX  &&&&&&+++++ooooo      --:::",
";;;%%------:::::   &&+++,,,&&   ooo&&+++ooo++...OOO$$OOOXXX     $$$OOXXX   XXXXX   XX   XXXOOOOOXXX  ++++++ooooo   ..........;;;",
";;;%%------:::::   &&+++,,,&&   ooo&&+++ooo++...OOO$$OOOXXX     $$$OOXXX   XXXXX   XX   XXXOOOOOXXX  ++++++ooooo   ..........;;;",
"-----::::::-----   &&+++ooo  ###@@@  &&&+++oo...$$$,,$$$OOO,,XXXXXX,,$$$OOOXXOOOXXX  XXXOOO$$XXX   ..ooo   .....===%%%%%;;;%%---",
"-----::::::-----   &&+++ooo  ###@@@  &&&+++oo...$$$,,$$$OOO,,XXXXXX,,$$$OOOXXOOOXXX  XXXOOO$$XXX   ..ooo   .....===%%%%%;;;%%---",
"-----::::::-----   &&+++ooo  ###@@@  &&&+++oo...$$$,,$$$OOO,,XXXXXX,,$$$OOOXXOOOXXX  XXXOOO$$XXX   ..ooo   .....===%%%%%;;;%%---",
";;;::---:::::;;;   ++   +++..###   +++++ooo  ......$$OOO$$$OOXXXOOOXXXXX   XX   XXXXX$$$OOOOO   ...        ==:::---;;:::===::===",
";;;::---:::::;;;   ++   +++..###   +++++ooo  ......$$OOO$$$OOXXXOOOXXXXX   XX   XXXXX$$$OOOOO   ...        ==:::---;;:::===::===",
";;;::---:::::;;;   ++   +++..###   +++++ooo  ......$$OOO$$$OOXXXOOOXXXXX   XX   XXXXX$$$OOOOO   ...        ==:::---;;:::===::===",
"---:::::>>>::;;;...     ooo++...&&&&&ooo...     ooo..XXX,,,$$$$$OOOOOXXXXXXOOXXXOOO$$,,,$$$  ...   oo+++ooo  ::::::;;===:::==:::",
"---:::::>>>::;;;...     ooo++...&&&&&ooo...     ooo..XXX,,,$$$$$OOOOOXXXXXXOOXXXOOO$$,,,$$$  ...   oo+++ooo  ::::::;;===:::==:::",
":::%%;;;:::-----%%%::...   oo++++++oo...   ++&&&&&&oo   ...XXOOO,,,$$OOO$$$,,$$$OOOOO   .....oooooo++&&&&&&++   :::::---:::--;;;",
":::%%;;;:::-----%%%::...   oo++++++oo...   ++&&&&&&oo   ...XXOOO,,,$$OOO$$$,,$$$OOOOO   .....oooooo++&&&&&&++   :::::---:::--;;;",
":::%%;;;:::-----%%%::...   oo++++++oo...   ++&&&&&&oo   ...XXOOO,,,$$OOO$$$,,$$$OOOOO   .....oooooo++&&&&&&++   :::::---:::--;;;",
"---==%%%---::%%%;;;;;::::::.............ooo&&&&&+++++ooo.....   OOOXXXXXXXXOO   ...........oo+++ooo++&&&&&&++   %%%==------%%:::",
"---==%%%---::%%%;;;;;::::::.............ooo&&&&&+++++ooo.....   OOOXXXXXXXXOO   ...........oo+++ooo++&&&&&&++   %%%==------%%:::",
"---==%%%---::%%%;;;;;::::::.............ooo&&&&&+++++ooo.....   OOOXXXXXXXXOO   ...........oo+++ooo++&&&&&&++   %%%==------%%:::",
":::::;;;;;;%%---:::::>>>:::::---   $$+++ooo+++++ooo  ......  XXX     ........   XXX     ...  ooo+++++ooo&&&++   :::--%%%::::::::",
":::::;;;;;;%%---:::::>>>:::::---   $$+++ooo+++++ooo  ......  XXX     ........   XXX     ...  ooo+++++ooo&&&++   :::--%%%::::::::",
"***::---%%%%%:::::::::::---;;%%%   $$+++&&&oo+++ooooo........   XXXOOOOOOOOOOXXX     ...:::..   ooo  +++&&&  ...;;;%%:::>>>**:::",
"***::---%%%%%:::::::::::---;;%%%   $$+++&&&oo+++ooooo........   XXXOOOOOOOOOOXXX     ...:::..   ooo  +++&&&  ...;;;%%:::>>>**:::",
"***::---%%%%%:::::::::::---;;%%%   $$+++&&&oo+++ooooo........   XXXOOOOOOOOOOXXX     ...:::..   ooo  +++&&&  ...;;;%%:::>>>**:::",
":::--;;;;;;::;;;%%%:::::%%%%%---:::..,,,ooooo+++ooo  ...;;;........     XXX     .....:::---;;...........+++,,...%%%--:::***::***",
":::--;;;;;;::;;;%%%:::::%%%%%---:::..,,,ooooo+++ooo  ...;;;........     XXX     .....:::---;;...........+++,,...%%%--:::***::***",
":::--;;;;;;::;;;%%%:::::%%%%%---:::..,,,ooooo+++ooo  ...;;;........     XXX     .....:::---;;...........+++,,...%%%--:::***::***",
"---%%::::::--===---%%:::;;;;;;;;===::...,,,ooooo   ..---===--%%%:::.............***::---%%%:::::---==........;;;;;;;;===:::**:::",
"---%%::::::--===---%%:::;;;;;;;;===::...,,,ooooo   ..---===--%%%:::.............***::---%%%:::::---==........;;;;;;;;===:::**:::",
"%%%;;::::::::***:::::---;;;:::::%%%;;---...........:::::***:::::---;;::::::%%;;;-----%%%;;;::::::::**::::::--;;;:::::%%%;;;-----",
"%%%;;::::::::***:::::---;;;:::::%%%;;---...........:::::***:::::---;;::::::%%;;;-----%%%;;;::::::::**::::::--;;;:::::%%%;;;-----",
"%%%;;::::::::***:::::---;;;:::::%%%;;---...........:::::***:::::---;;::::::%%;;;-----%%%;;;::::::::**::::::--;;;:::::%%%;;;-----",
";;;:::::>>>**:::***==;;;:::;;;;;:::::===---;;::::::>>***:::**===;;;::;;;;;;:::::===--;;;:::::>>>***::***===;;:::;;;;;::::::==---",
";;;:::::>>>**:::***==;;;:::;;;;;:::::===---;;::::::>>***:::**===;;;::;;;;;;:::::===--;;;:::::>>>***::***===;;:::;;;;;::::::==---",
";;;:::::>>>**:::***==;;;:::;;;;;:::::===---;;::::::>>***:::**===;;;::;;;;;;:::::===--;;;:::::>>>***::***===;;:::;;;;;::::::==---",
"-----***:::::***===--:::---%%===:::>>:::%%%-----***:::::***==---:::--%%%===::>>>:::%%------**::::::**===---::---%%%==:::>>>::%%%",
"-----***:::::***===--:::---%%===:::>>:::%%%-----***:::::***==---:::--%%%===::>>>:::%%------**::::::**===---::---%%%==:::>>>::%%%",
":::::%%%---;;===---::;;;===:::::::::::::;;;:::::%%%--;;;===--:::;;;==::::::::::::::;;::::::%%---;;;==---:::;;===:::::::::::::;;;",
":::::%%%---;;===---::;;;===:::::::::::::;;;:::::%%%--;;;===--:::;;;==::::::::::::::;;::::::%%---;;;==---:::;;===:::::::::::::;;;",
":::::%%%---;;===---::;;;===:::::::::::::;;;:::::%%%--;;;===--:::;;;==::::::::::::::;;::::::%%---;;;==---:::;;===:::::::::::::;;;"
};
