/* XPM */
static char *result[] = {
/* columns rows colors chars-per-pixel */
"128 128 18 1 ",
"  c #1C1C0C",
". c #070718",
"X c #6A2912",
"o c #355326",
"O c #A55C44",
"+ c #5E8850",
"@ c #C69F30",
"# c #F8F16D",
"$ c #CC9583",
"% c #F2B586",
"& c #B4CFA7",
"* c #DFD1A5",
"= c #D7D4B2",
"- c #E8C2A0",
"; c #FFC5BF",
": c #FFDAB0",
"> c #FFDFEF",
", c #F4E6E2",
/* pixels */
"::::::::---::---:::=====:::==>>>;;;--;;;:::::::::::--:::---::======::===>>>;;---;;;::::::::::---:::--:::=====:::===>>;;;---;;:::",
"::::::::---::---:::=====:::==>>>;;;--;;;:::::::::::--:::---::======::===>>>;;---;;;::::::::::---:::--:::=====:::===>>;;;---;;:::",
"::::::::---::---:::=====:::==>>>;;;--;;;:::::::::::--:::---::======::===>>>;;---;;;::::::::::---:::--:::=====:::===>>;;;---;;:::",
":::::%%%---%%:::>>>;;------::===;;;::---::::::::%%%--%%%:::>>;;;-----:::===;;:::---::::::::%%---%%%::>>>;;;-----:::==;;;:::--:::",
":::::%%%---%%:::>>>;;------::===;;;::---::::::::%%%--%%%:::>>;;;-----:::===;;:::---::::::::%%---%%%::>>>;;;-----:::==;;;:::--:::",
";;;%%------::::::::--:::;;;--:::---:::::;;;;;%%%-----::::::::---:::;;---:::--::::::;;;;;%%%-----::::::::---::;;;---::---:::::;;;",
";;;%%------::::::::--:::;;;--:::---:::::;;;;;%%%-----::::::::---:::;;---:::--::::::;;;;;%%%-----::::::::---::;;;---::---:::::;;;",
";;;%%------::::::::--:::;;;--:::---:::::;;;;;%%%-----::::::::---:::;;---:::--::::::;;;;;%%%-----::::::::---::;;;---::---:::::;;;",
"-----::::::-----%%%:::::;;;==%%%%%%;;%%%--------:::::------%%::::::;;===%%%%%;;;%%%--------:::::-----%%%:::::;;;===%%%%%;;;%%---",
"-----::::::-----%%%:::::;;;==%%%%%%;;%%%--------:::::------%%::::::;;===%%%%%;;;%%%--------:::::-----%%%:::::;;;===%%%%%;;;%%---",
"-----::::::-----%%%:::::;;;==%%%%%%;;%%%--------:::::------%%::::::;;===%%%%%;;;%%%--------:::::-----%%%:::::;;;===%%%%%;;;%%---",
";;;::---:::::;;;===::===:::--;;;:::==:::===;;:::---:::::;;;==:::===::---;;;::===:::==;;;:::--::::::;;===:::==:::---;;:::===::===",
";;;::---:::::;;;===::===:::--;;;:::==:::===;;:::---:::::;;;==:::===::---;;;::===:::==;;;:::--::::::;;===:::==:::---;;:::===::===",
"---:::::>>>::;;;---;;>>>:::::;;;===::===:::--::::::>>:::;;;--;;;>>>:::::;;;==:::===::---:::::>>>:::;;---;;;>>::::::;;===:::==:::",
"---:::::>>>::;;;---;;>>>:::::;;;===::===:::--::::::>>:::;;;--;;;>>>:::::;;;==:::===::---:::::>>>:::;;---;;;>>::::::;;===:::==:::",
"---:::::>>>::;;;---;;>>>:::::;;;===::===:::--::::::>>:::;;;--;;;>>>:::::;;;==:::===::---:::::>>>:::;;---;;;>>::::::;;===:::==:::",
":::%%;;;:::-----%%%::;;;;;;:::::---::---;;;::%%%;;;::------%%:::;;;;;::::::--:::---;;:::%%%;;:::-----%%%:::;;;;;:::::---:::--;;;",
":::%%;;;:::-----%%%::;;;;;;:::::---::---;;;::%%%;;;::------%%:::;;;;;::::::--:::---;;:::%%%;;:::-----%%%:::;;;;;:::::---:::--;;;",
":::%%;;;:::-----%%%::;;;;;;:::::---::---;;;::%%%;;;::------%%:::;;;;;::::::--:::---;;:::%%%;;:::-----%%%:::;;;;;:::::---:::--;;;",
"---==%%%---::%%%;;;;;::::::%%===-----%%%:::--===%%%--:::%%%;;;;;:::::%%%===-----%%%::---===%%---:::%%;;;;;;:::::%%%==------%%:::",
"---==%%%---::%%%;;;;;::::::%%===-----%%%:::--===%%%--:::%%%;;;;;:::::%%%===-----%%%::---===%%---:::%%;;;;;;:::::%%%==------%%:::",
":::::;;;;;;%%---:::::>>>:::::---%%%:::::::::::::;;;;;%%%---:::::>>>:::::---%%::::::::::::::;;;;;%%%--::::::>>::::::--%%%::::::::",
":::::;;;;;;%%---:::::>>>:::::---%%%:::::::::::::;;;;;%%%---:::::>>>:::::---%%::::::::::::::;;;;;%%%--::::::>>::::::--%%%::::::::",
":::::;;;;;;%%---:::::>>>:::::---%%%:::::::::::::;;;;;%%%---:::::>>>:::::---%%::::::::::::::;;;;;%%%--::::::>>::::::--%%%::::::::",
"***::---%%%%%:::::::::::---;;%%%:::>>***:::**:::---%%%%%:::::::::::--;;;%%%::>>>***::***:::--%%%%%%::::::::::---;;;%%:::>>>**:::",
"***::---%%%%%:::::::::::---;;%%%:::>>***:::**:::---%%%%%:::::::::::--;;;%%%::>>>***::***:::--%%%%%%::::::::::---;;;%%:::>>>**:::",
"***::---%%%%%:::::::::::---;;%%%:::>>***:::**:::---%%%%%:::::::::::--;;;%%%::>>>***::***:::--%%%%%%::::::::::---;;;%%:::>>>**:::",
":::--;;;;;;::;;;%%%:::::%%%%%---:::**:::***::---;;;;;:::;;;%%::::::%%%%%---::***:::**:::---;;;;;:::;;%%%:::::%%%%%%--:::***::***",
":::--;;;;;;::;;;%%%:::::%%%%%---:::**:::***::---;;;;;:::;;;%%::::::%%%%%---::***:::**:::---;;;;;:::;;%%%:::::%%%%%%--:::***::***",
"---%%::::::--===---%%:::;;;;;;;;===::***:::--%%%:::::---===--%%%:::;;;;;;;;==:::***::---%%%:::::---==---%%%::;;;;;;;;===:::**:::",
"---%%::::::--===---%%:::;;;;;;;;===::***:::--%%%:::::---===--%%%:::;;;;;;;;==:::***::---%%%:::::---==---%%%::;;;;;;;;===:::**:::",
"---%%::::::--===---%%:::;;;;;;;;===::***:::--%%%:::::---===--%%%:::;;;;;;;;==:::***::---%%%:::::---==---%%%::;;;;;;;;===:::**:::",
"%%%;;::::::::***:::::---;;;:::::%%%;;------%%;;;::::::::***:::::---;;::::::%%;;;-----%%%;;;::::::::**::::::--;;;:::::%%%;;;-----",
"%%%;;::::::::***:::::---;;;:::::%%%;;------%%;;;::::::::***:::::---;;::::::%%;;;-----%%%;;;::::::::**::::::--;;;:::::%%%;;;-----",
"%%%;;::::::::***:::::---;;;:::::%%%;;------%%;;;::::::::***:::::---;;::::::%%;;;-----%%%;;;::::::::**::::::--;;;:::::%%%;;;-----",
";;;:::::>>>**:::***==;;;:::;;;;;:::::===---;;::::::>>***:::**===;;;::;;;;;;:::::===--;;;:::::>>>***::***===;;:::;;;;;::::::==---",
";;;:::::>>>**:::***==;;;:::;;;;;:::::===---;;::::::>>***:::**===;;;::;;;;;;:::::===--;;;:::::>>>***::***===;;:::;;;;;::::::==---",
"-----***:::::***===--:::---%%===:::>>:::%%%-----***:::::***==---:::--%%%===::>>>:::%%------**::::::**===---::---%%%==:::>>>::%%%",
"-----***:::::***===--:::---%%===:::>>:::%%%-----***:::::***==---:::--%%%===::>>>:::%%------**::::::**===---::---%%%==:::>>>::%%%",
"-----***:::::***===--:::---%%===:::>>:::%%%-----***:::::***==---:::--%%%===::>>>:::%%------**::::::**===---::---%%%==:::>>>::%%%",
":::::%%%---;;===---::;;;===:::::::::::::;;;:::::%%%--;;;===--:::;;;==::::::::::::::;;::::::%%---;;;==---:::;;===:::::::::::::;;;",
":::::%%%---;;===---::;;;===:::::::::::::;;;:::::%%%--;;;===--:::;;;==::::::::::::::;;::::::%%---;;;==---:::;;===:::::::::::::;;;",
":::::%%%---;;===---::;;;===:::::::::::::;;;:::::%%%--;;;===--:::;;;==::::::::::::::;;::::::%%---;;;==---:::;;===:::::::::::::;;;",
"::::::::---::---:::=====:::==>>>;;;--;;;:::::::::::--:::---::======::===>>>;;---;;;::::::::::---:::--:::=====:::===>>;;;---;;:::",
"::::::::---::---:::=====:::==>>>;;;--;;;:::::::::::--:::---::======::===>>>;;---;;;::::::::::---:::--:::=====:::===>>;;;---;;:::",
":::::%%%---%%:::>>>;;------::===;;;::---::::::::%%%--%%%:::>>;;;-----:::===;;:::---::::::::%%---%%%::>>>;;;-----:::==;;;:::--:::",
":::::%%%---%%:::>>>;;------::===;;;::---::::::::%%%--%%%:::>>;;;-----:::===;;:::---::::::::%%---%%%::>>>;;;-----:::==;;;:::--:::",
":::::%%%---%%:::>>>;;------::===;;;::---::::::::%%%--%%%:::>>;;;-----:::===;;:::---::::::::%%---%%%::>>>;;;-----:::==;;;:::--:::",
";;;%%------::::::::--:::;;;--:::---:::::;;;;;%%%-----::::::::---:::;;---:::--::::::;;;;;%%%-----::::::::---::;;;---::---:::::;;;",
";;;%%------::::::::--:::;;;--:::---:::::;;;;;%%%-----::::::::---:::;;---:::--::::::;;;;;%%%-----::::::::---::;;;---::---:::::;;;",
";;;%%------::::::::--:::;;;--:::---:::::;;;;;%%%-----::::::::---:::;;---:::--::::::;;;;;%%%-----::::::::---::;;;---::---:::::;;;",
"-----::::::-----%%%:::::;;;==%%%%%%;;%%%--------:::::------%%::::::;;===%%%%%;;;%%%--------:::::-----%%%:::::;;;===%%%%%;;;%%---",
"-----::::::-----%%%:::::;;;==%%%%%%;;%%%--------:::::------%%::::::;;===%%%%%;;;%%%--------:::::-----%%%:::::;;;===%%%%%;;;%%---",
";;;::---:::::;;;===::===:::--;;;:::==:::===;;:::---:::::;;;==:::   ::---;;;::===:::==;;;:::--::::::;;===:::==:::---;;:::===::===",
";;;::---:::::;;;===::===:::--;;;:::==:::===;;:::---:::::;;;==:::   ::---;;;::===:::==;;;:::--::::::;;===:::==:::---;;:::===::===",
";;;::---:::::;;;===::===:::--;;;:::==:::===;;:::---:::::;;;==:::   ::---;;;::===:::==;;;:::--::::::;;===:::==:::---;;:::===::===",
"---:::::>>>::;;;---;;>>>:::::;;;===::===:::--::::::>>:::;;;--   XXX  :::;;;==:::===::---:::::>>>:::;;---;;;>>::::::;;===:::==:::",
"---:::::>>>::;;;---;;>>>:::::;;;===::===:::--::::::>>:::;;;--   XXX  :::;;;==:::===::---:::::>>>:::;;---;;;>>::::::;;===:::==:::",
"---:::::>>>::;;;---;;>>>:::::;;;===::===:::--::::::>>:::;;;--   XXX  :::;;;==:::===::---:::::>>>:::;;---;;;>>::::::;;===:::==:::",
":::%%;;;:::-----%%%::;;;;;;:::::---::---;;;::%%%;;;::           OOO          :::---;;:::%%%;;:::-----%%%:::;;;;;:::::---:::--;;;",
":::%%;;;:::-----%%%::;;;;;;:::::---::---;;;::%%%;;;::           OOO          :::---;;:::%%%;;:::-----%%%:::;;;;;:::::---:::--;;;",
"---==%%%---::%%%;;;;;::::::%%===-----%%%:::--===%%%  OOOXXX  XXX$$$XX   XXXOO   %%%::---===%%---:::%%;;;;;;:::::%%%==------%%:::",
"---==%%%---::%%%;;;;;::::::%%===-----%%%:::--===%%%  OOOXXX  XXX$$$XX   XXXOO   %%%::---===%%---:::%%;;;;;;:::::%%%==------%%:::",
"---==%%%---::%%%;;;;;::::::%%===-----%%%:::--===%%%  OOOXXX  XXX$$$XX   XXXOO   %%%::---===%%---:::%%;;;;;;:::::%%%==------%%:::",
":::::;;;;;;%%---:::::>>>:::::---%%%::::::::::        XXX   OO   $$$  OOO   XX        ::::::;;;;;%%%--::::::>>::::::--%%%::::::::",
":::::;;;;;;%%---:::::>>>:::::---%%%::::::::::        XXX   OO   $$$  OOO   XX        ::::::;;;;;%%%--::::::>>::::::--%%%::::::::",
":::::;;;;;;%%---:::::>>>:::::---%%%::::::::::        XXX   OO   $$$  OOO   XX        ::::::;;;;;%%%--::::::>>::::::--%%%::::::::",
"***::---%%%%%:::::::::::---;;%%%:::>>***   ..   XXX     OOO$$XXX   XX$$$OOO     XXX  ...   --%%%%%%::::::::::---;;;%%:::>>>**:::",
"***::---%%%%%:::::::::::---;;%%%:::>>***   ..   XXX     OOO$$XXX   XX$$$OOO     XXX  ...   --%%%%%%::::::::::---;;;%%:::>>>**:::",
":::--;;;;;;::;;;%%%:::::%%%%%---:::**...ooo..XXXOOOXXOOO   ,,   OOO  ,,,   OOXXXOOOXX...ooo..;;;:::;;%%%:::::%%%%%%--:::***::***",
":::--;;;;;;::;;;%%%:::::%%%%%---:::**...ooo..XXXOOOXXOOO   ,,   OOO  ,,,   OOXXXOOOXX...ooo..;;;:::;;%%%:::::%%%%%%--:::***::***",
":::--;;;;;;::;;;%%%:::::%%%%%---:::**...ooo..XXXOOOXXOOO   ,,   OOO  ,,,   OOXXXOOOXX...ooo..;;;:::;;%%%:::::%%%%%%--:::***::***",
"---%%::::::--===---%%:::;;;;;;;;===::   ooo..XXX   XX$$$OOOXXOOO$$$OOXXXOOO$$XXX   XX...ooo  :::---==---%%%::;;;;;;;;===:::**:::",
"---%%::::::--===---%%:::;;;;;;;;===::   ooo..XXX   XX$$$OOOXXOOO$$$OOXXXOOO$$XXX   XX...ooo  :::---==---%%%::;;;;;;;;===:::**:::",
"---%%::::::--===---%%:::;;;;;;;;===::   ooo..XXX   XX$$$OOOXXOOO$$$OOXXXOOO$$XXX   XX...ooo  :::---==---%%%::;;;;;;;;===:::**:::",
"%%%;;::::::::***:::::---;;;:::::%%%..ooo...     $$$OOXXX,,,  OOO,,,OO   ,,,XXOOO$$$     ...oo...:::**::::::--;;;:::::%%%;;;-----",
"%%%;;::::::::***:::::---;;;:::::%%%..ooo...     $$$OOXXX,,,  OOO,,,OO   ,,,XXOOO$$$     ...oo...:::**::::::--;;;:::::%%%;;;-----",
";;;:::::>>>**:::***==;;;:::;;;;;:::..+++...OO   XXX,,   XXXXX   ,,,  XXXXXX  ,,,XXX  OOO...++...***::***===;;:::;;;;;::::::==---",
";;;:::::>>>**:::***==;;;:::;;;;;:::..+++...OO   XXX,,   XXXXX   ,,,  XXXXXX  ,,,XXX  OOO...++...***::***===;;:::;;;;;::::::==---",
";;;:::::>>>**:::***==;;;:::;;;;;:::..+++...OO   XXX,,   XXXXX   ,,,  XXXXXX  ,,,XXX  OOO...++...***::***===;;:::;;;;;::::::==---",
"-----***:::::***===--:::---%%===:::>>...OOOXX      XXXXX$$$OOOOO   OOOOO$$$XXXXX     XXXOOO..::::::**===---::---%%%==:::>>>::%%%",
"-----***:::::***===--:::---%%===:::>>...OOOXX      XXXXX$$$OOOOO   OOOOO$$$XXXXX     XXXOOO..::::::**===---::---%%%==:::>>>::%%%",
"-----***:::::***===--:::---%%===:::>>...OOOXX      XXXXX$$$OOOOO   OOOOO$$$XXXXX     XXXOOO..::::::**===---::---%%%==:::>>>::%%%",
":::::%%%---;;===---::;;;===::::::::::...XXXOOXXX$$$OOXXXXXX,,,,,XXX,,,,,XXXXXOOO$$$XXOOOXXX..---;;;==---:::;;===:::::::::::::;;;",
":::::%%%---;;===---::;;;===::::::::::...XXXOOXXX$$$OOXXXXXX,,,,,XXX,,,,,XXXXXOOO$$$XXOOOXXX..---;;;==---:::;;===:::::::::::::;;;",
"::::::::---::---:::=====:::==>>>;;;..$$$OOOOOXXXXXX,,,,,OOOXXXXXOOOXXXXXOOO,,,,,XXXXXOOOOOO$$...:::--:::=====:::===>>;;;---;;:::",
"::::::::---::---:::=====:::==>>>;;;..$$$OOOOOXXXXXX,,,,,OOOXXXXXOOOXXXXXOOO,,,,,XXXXXOOOOOO$$...:::--:::=====:::===>>;;;---;;:::",
"::::::::---::---:::=====:::==>>>;;;..$$$OOOOOXXXXXX,,,,,OOOXXXXXOOOXXXXXOOO,,,,,XXXXXOOOOOO$$...:::--:::=====:::===>>;;;---;;:::",
":::::%%%---%%:::>>>;;------::===;;;::...   $$OOOOOOXXXXXXXXXXOOO$$$OOXXXXXXXXXXXOOOOO$$$   ..---%%%::>>>;;;-----:::==;;;:::--:::",
":::::%%%---%%:::>>>;;------::===;;;::...   $$OOOOOOXXXXXXXXXXOOO$$$OOXXXXXXXXXXXOOOOO$$$   ..---%%%::>>>;;;-----:::==;;;:::--:::",
":::::%%%---%%:::>>>;;------::===;;;::...   $$OOOOOOXXXXXXXXXXOOO$$$OOXXXXXXXXXXXOOOOO$$$   ..---%%%::>>>;;;-----:::==;;;:::--:::",
";;;%%------::::::::--:::;;;--:::---..OOO$$$XX$$$$$$OO$$$$$$,,,,,,,,,,,,,$$$$$OOO$$$$$XXX$$$OO...::::::::---::;;;---::---:::::;;;",
";;;%%------::::::::--:::;;;--:::---..OOO$$$XX$$$$$$OO$$$$$$,,,,,,,,,,,,,$$$$$OOO$$$$$XXX$$$OO...::::::::---::;;;---::---:::::;;;",
"-----::::::-----%%%:::::;;;==%%%%%%;;      ..,,,$$$$$,,,,,,OOXXXXXXXXOOO,,,,,$$$$$$,,...     :::-----%%%:::::;;;===%%%%%;;;%%---",
"-----::::::-----%%%:::::;;;==%%%%%%;;      ..,,,$$$$$,,,,,,OOXXXXXXXXOOO,,,,,$$$$$$,,...     :::-----%%%:::::;;;===%%%%%;;;%%---",
"-----::::::-----%%%:::::;;;==%%%%%%;;      ..,,,$$$$$,,,,,,OOXXXXXXXXOOO,,,,,$$$$$$,,...     :::-----%%%:::::;;;===%%%%%;;;%%---",
";;;::---:::::;;;===::===:::--;;;:::  ++++++oo   XXXOO,,,XXX  ...   ..   XXX,,OOOXXX  ooo+++++   :::;;===:::==:::---;;:::===::===",
";;;::---:::::;;;===::===:::--;;;:::  ++++++oo   XXXOO,,,XXX  ...   ..   XXX,,OOOXXX  ooo+++++   :::;;===:::==:::---;;:::===::===",
";;;::---:::::;;;===::===:::--;;;:::  ++++++oo   XXXOO,,,XXX  ...   ..   XXX,,OOOXXX  ooo+++++   :::;;===:::==:::---;;:::===::===",
"---:::::>>>::;;;---;;>>>:::::;;;   ++&&&&&&++...OOOXXXXX     +++&&&++      XXXXXOOO..+++&&&&&+++   ;;---;;;>>::::::;;===:::==:::",
"---:::::>>>::;;;---;;>>>:::::;;;   ++&&&&&&++...OOOXXXXX     +++&&&++      XXXXXOOO..+++&&&&&+++   ;;---;;;>>::::::;;===:::==:::",
":::%%;;;:::-----%%%::;;;;;;:::::   &&&&&+++oo   XXXOOXXX   ooooo+++ooooo   XXOOOXXX  ooo+++&&&&&   --%%%:::;;;;;:::::---:::--;;;",
":::%%;;;:::-----%%%::;;;;;;:::::   &&&&&+++oo   XXXOOXXX   ooooo+++ooooo   XXOOOXXX  ooo+++&&&&&   --%%%:::;;;;;:::::---:::--;;;",
":::%%;;;:::-----%%%::;;;;;;:::::   &&&&&+++oo   XXXOOXXX   ooooo+++ooooo   XXOOOXXX  ooo+++&&&&&   --%%%:::;;;;;:::::---:::--;;;",
"---==%%%---::%%%;;;;;::::::%%===   oo+++&&&++......XX   &&&&&+++&&&++&&&&&&  XXX.....+++&&&++ooo   %%;;;;;;:::::%%%==------%%:::",
"---==%%%---::%%%;;;;;::::::%%===   oo+++&&&++......XX   &&&&&+++&&&++&&&&&&  XXX.....+++&&&++ooo   %%;;;;;;:::::%%%==------%%:::",
"---==%%%---::%%%;;;;;::::::%%===   oo+++&&&++......XX   &&&&&+++&&&++&&&&&&  XXX.....+++&&&++ooo   %%;;;;;;:::::%%%==------%%:::",
":::::;;;;;;%%---:::::>>>:::::---     oooooooo:::;;;..      ++&&&+++&&+++     ...:::::oooooooo      --::::::>>::::::--%%%::::::::",
":::::;;;;;;%%---:::::>>>:::::---     oooooooo:::;;;..      ++&&&+++&&+++     ...:::::oooooooo      --::::::>>::::::--%%%::::::::",
"***::---%%%%%:::::::::::---;;   ,,,oo&&&+++oo:::---%%   ###  ,,,&&&,,   ###  >>>***::ooo+++&&ooo,,,  ::::::::---;;;%%:::>>>**:::",
"***::---%%%%%:::::::::::---;;   ,,,oo&&&+++oo:::---%%   ###  ,,,&&&,,   ###  >>>***::ooo+++&&ooo,,,  ::::::::---;;;%%:::>>>**:::",
"***::---%%%%%:::::::::::---;;   ,,,oo&&&+++oo:::---%%   ###  ,,,&&&,,   ###  >>>***::ooo+++&&ooo,,,  ::::::::---;;;%%:::>>>**:::",
":::--;;;;;;::;;;%%%:::::%%%%%   $$$,,ooo,,,..---;;;;;...@@@  +++&&&++   @@@..***:::**...,,,oo,,,$$$  %%%:::::%%%%%%--:::***::***",
":::--;;;;;;::;;;%%%:::::%%%%%   $$$,,ooo,,,..---;;;;;...@@@  +++&&&++   @@@..***:::**...,,,oo,,,$$$  %%%:::::%%%%%%--:::***::***",
":::--;;;;;;::;;;%%%:::::%%%%%   $$$,,ooo,,,..---;;;;;...@@@  +++&&&++   @@@..***:::**...,,,oo,,,$$$  %%%:::::%%%%%%--:::***::***",
"---%%::::::--===---%%:::;;;;;;;;...$$...$$$..%%%:::::...   oo+++,,,++ooo   ..:::***::...$$$..$$$...==---%%%::;;;;;;;;===:::**:::",
"---%%::::::--===---%%:::;;;;;;;;...$$...$$$..%%%:::::...   oo+++,,,++ooo   ..:::***::...$$$..$$$...==---%%%::;;;;;;;;===:::**:::",
"%%%;;::::::::***:::::---;;;:::::%%%..---...%%;;;::::::::...  ooo&&&oo   ...%%;;;-----%%%...::...:::**::::::--;;;:::::%%%;;;-----",
"%%%;;::::::::***:::::---;;;:::::%%%..---...%%;;;::::::::...  ooo&&&oo   ...%%;;;-----%%%...::...:::**::::::--;;;:::::%%%;;;-----",
"%%%;;::::::::***:::::---;;;:::::%%%..---...%%;;;::::::::...  ooo&&&oo   ...%%;;;-----%%%...::...:::**::::::--;;;:::::%%%;;;-----",
";;;:::::>>>**:::***==;;;:::;;;;;:::::===---;;::::::>>***:::..   +++  ...;;;:::::===--;;;:::::>>>***::***===;;:::;;;;;::::::==---",
";;;:::::>>>**:::***==;;;:::;;;;;:::::===---;;::::::>>***:::..   +++  ...;;;:::::===--;;;:::::>>>***::***===;;:::;;;;;::::::==---",
";;;:::::>>>**:::***==;;;:::;;;;;:::::===---;;::::::>>***:::..   +++  ...;;;:::::===--;;;:::::>>>***::***===;;:::;;;;;::::::==---",
"-----***:::::***===--:::---%%===:::>>:::%%%-----***:::::***==........%%%===::>>>:::%%------**::::::**===---::---%%%==:::>>>::%%%",
"-----***:::::***===--:::---%%===:::>>:::%%%-----***:::::***==........%%%===::>>>:::%%------**::::::**===---::---%%%==:::>>>::%%%",
":::::%%%---;;===---::;;;===:::::::::::::;;;:::::%%%--;;;===--:::;;;==::::::::::::::;;::::::%%---;;;==---:::;;===:::::::::::::;;;",
":::::%%%---;;===---::;;;===:::::::::::::;;;:::::%%%--;;;===--:::;;;==::::::::::::::;;::::::%%---;;;==---:::;;===:::::::::::::;;;",
":::::%%%---;;===---::;;;===:::::::::::::;;;:::::%%%--;;;===--:::;;;==::::::::::::::;;::::::%%---;;;==---:::;;===:::::::::::::;;;"
};
