/* XPM */
static char *result[] = {
/* columns rows colors chars-per-pixel */
"128 128 18 1 ",
"  c #1C1C0C",
". c #070718",
"X c #6A2912",
"o c #355326",
"O c #A55C44",
"+ c #5E8850",
"@ c #C69F30",
"# c #F8F16D",
"$ c #CC9583",
"% c #F2B586",
"& c #B4CFA7",
"* c #DFD1A5",
"= c #D7D4B2",
"- c #E8C2A0",
"; c #FFC5BF",
": c #FFDAB0",
"> c #FFDFEF",
", c #F4E6E2",
/* pixels */
"::::::::---::---:::=====:::==>>>;;;--;;;:::::::::::--:::---::======::===>>>;;---;;;::::::::::---:::--:::=====:::===>>;;;---;;:::",
"::::::::---::---:::=====:::==>>>;;;--;;;:::::::::::--:::---::======::===>>>;;---;;;::::::::::---:::--:::=====:::===>>;;;---;;:::",
"::::::::---::---:::=====:::==>>>;;;--;;;:::::::::::--:::---::======::===>>>;;---;;;::::::::::---:::--:::=====:::===>>;;;---;;:::",
":::::%%%---%%:::>>>;;------::===;;;::---::::::::%%%--%%%:::>>;;;-----:::===;;:::---::::::::%%---%%%::>>>;;;-----:::==;;;:::--:::",
":::::%%%---%%:::>>>;;------::===;;;::---::::::::%%%--%%%:::>>;;;-----:::===;;:::---::::::::%%---%%%::>>>;;;-----:::==;;;:::--:::",
";;;%%------::::::::--:::;;;--:::---:::::;;;;;%%%-----::::::::---:::;;---:::--::::::;;;;;%%%-----::::::::---::;;;---::---:::::;;;",
";;;%%------::::::::--:::;;;--:::---:::::;;;;;%%%-----::::::::---:::;;---:::--::::::;;;;;%%%-----::::::::---::;;;---::---:::::;;;",
";;;%%------::::::::--:::;;;--:::---:::::;;;;;%%%-----::::::::---:::;;---:::--::::::;;;;;%%%-----::::::::---::;;;---::---:::::;;;",
"-----::::::-----%%%:::::;;;==%%%%%%;;%%%--------:::::------%%::::::;;===%%%%%;;;%%%--------:::::-----%%%:::::;;;===%%%%%;;;%%---",
"-----::::::-----%%%:::::;;;==%%%%%%;;%%%--------:::::------%%::::::;;===%%%%%;;;%%%--------:::::-----%%%:::::;;;===%%%%%;;;%%---",
"-----::::::-----%%%:::::;;;==%%%%%%;;%%%--------:::::------%%::::::;;===%%%%%;;;%%%--------:::::-----%%%:::::;;;===%%%%%;;;%%---",
";;;::---:::::;;;===::===:::--;;;:::==:::===;;:::---:::::;;;==:::===::---;;;::===:::==;;;:::--::::::;;===:::==:::---;;:::===::===",
";;;::---:::::;;;===::===:::--;;;:::==:::===;;:::---:::::;;;==:::===::---;;;::===:::==;;;:::--::::::;;===:::==:::---;;:::===::===",
"---:::::>>>::;;;---;;>>>:::::;;;===::===:::--::::::>>:::;;;--;;;>>>:::::;;;==:::===::---:::::>>>:::;;---;;;>>::::::;;===:::==:::",
"---:::::>>>::;;;---;;>>>:::::;;;===::===:::--::::::>>:::;;;--;;;>>>:::::;;;==:::===::---:::::>>>:::;;---;;;>>::::::;;===:::==:::",
"---:::::>>>::;;;---;;>>>:::::;;;===::===:::--::::::>>:::;;;--;;;>>>:::::;;;==:::===::---:::::>>>:::;;---;;;>>::::::;;===:::==:::",
":::%%;;;:::-----%%%::;;;;;;:::::---::---;;;::%%%;;;::------%%:::;;;;;::::::--:::---;;:::%%%;;:::-----%%%:::;;;;;:::::---:::--;;;",
":::%%;;;:::-----%%%::;;;;;;:::::---::---;;;::%%%;;;::------%%:::;;;;;::::::--:::---;;:::%%%;;:::-----%%%:::;;;;;:::::---:::--;;;",
":::%%;;;:::-----%%%::;;;;;;:::::---::---;;;::%%%;;;::------%%:::;;;;;::::::--:::---;;:::%%%;;:::-----%%%:::;;;;;:::::---:::--;;;",
"---==%%%---::%%%;;;;;::::::%%===-----%%%:::--===%%%--:::%%%;;;;;:::::%%%===-----%%%::---===%%---:::%%;;;;;;:::::%%%==------%%:::",
"---==%%%---::%%%;;;;;::::::%%===-----%%%:::--===%%%--:::%%%;;;;;:::::%%%===-----%%%::---===%%---:::%%;;;;;;:::::%%%==------%%:::",
":::::;;;;;;%%---:::::>>>:::::---%%%:::::::::::::;;;;;%%%---:::::>>>:::::---%%::::::::::::::;;;;;%%%--::::::>>::::::--%%%::::::::",
":::::;;;;;;%%---:::::>>>:::::---%%%:::::::::::::;;;;;%%%---:::::>>>:::::---%%::::::::::::::;;;;;%%%--::::::>>::::::--%%%::::::::",
":::::;;;;;;%%---:::::>>>:::::---%%%:::::::::::::;;;;;%%%---:::::>>>:::::---%%::::::::::::::;;;;;%%%--::::::>>::::::--%%%::::::::",
"***::---%%%%%:::::::::::---;;%%%:::>>***:::**:::---%%%%%:::::::::::--;;;%%%::>>>***::***:::--%%%%%%::::::::::---;;;%%:::>>>**:::",
"***::---%%%%%:::::::::::---;;%%%:::>>***:::**:::---%%%%%:::::::::::--;;;%%%::>>>***::***:::--%%%%%%::::::::::---;;;%%:::>>>**:::",
"***::---%%%%%:::::::::::---;;%%%:::>>***:::**:::---%%%%%:::::::::::--;;;%%%::>>>***::***:::--%%%%%%::::::::::---;;;%%:::>>>**:::",
":::--;;;;;;::;;;%%%:::::%%%%%---:::**:::***::---;;;;;:::;;;%%::::::%%%%%---::***:::**:::---;;;;;:::;;%%%:::::%%%%%%--:::***::***",
":::--;;;;;;::;;;%%%:::::%%%%%---:::**:::***::---;;;;;:::;;;%%::::::%%%%%---::***:::**:::---;;;;;:::;;%%%:::::%%%%%%--:::***::***",
"---%%::::::--===---%%:::;;;;;;;;===::***:::--%%%:::::---===--%%%:::;;;;;;;;==:::***::---%%%:::::---==---%%%::;;;;;;;;===:::**:::",
"---%%::::::--===---%%:::;;;;;;;;===::***:::--%%%:::::---===--%%%:::;;;;;;;;==:::***::---%%%:::::---==---%%%::;;;;;;;;===:::**:::",
"---%%::::::--===---%%:::;;;;;;;;===::***:::--%%%:::::---===--%%%:::;;;;;;;;==:::***::---%%%:::::---==---%%%::;;;;;;;;===:::**:::",
"%%%;;::::::::***:::::---;;;:::::%%%;;------%%;;;::::::::***:::::---;;::::::%%;;;-----%%%;;;::::::::**::::::--;;;:::::%%%;;;-----",
"%%%;;::::::::***:::::---;;;:::::%%%;;------%%;;;::::::::***:::::---;;::::::%%;;;-----%%%;;;::::::::**::::::--;;;:::::%%%;;;-----",
"%%%;;::::::::***:::::---;;;:::::%%%;;------%%;;;::::::::***:::::---;;::::::%%;;;-----%%%;;;::::::::**::::::--;;;:::::%%%;;;-----",
";;;:::::>>>**:::***==;;;:::;;;;;:::::===---;;::::::>>***:::**===;;;::;;;;;;:::::===--;;;:::::>>>***::***===;;:::;;;;;::::::==---",
";;;:::::>>>**:::***==;;;:::;;;;;:::::===---;;::::::>>***:::**===;;;::;;;;;;:::::===--;;;:::::>>>***::***===;;:::;;;;;::::::==---",
"-----***:::::***===--:::---%%===:::>>:::%%%-----***:::::***==---:::--%%%===::>>>:::%%------**::::::**===---::---%%%==:::>>>::%%%",
"-----***:::::***===--:::---%%===:::>>:::%%%-----***:::::***==---:::--%%%===::>>>:::%%------**::::::**===---::---%%%==:::>>>::%%%",
"-----***:::::***===--:::---%%===:::>>:::%%%-----***:::::***==---:::--%%%===::>>>:::%%------**::::::**===---::---%%%==:::>>>::%%%",
":::::%%%---;;===---::;;;===:::::::::::::;;;:::::%%%--;;;===--:::;;;==::::::::::::::;;::::::%%---;;;==---:::;;===:::::::::::::;;;",
":::::%%%---;;===---::;;;===:::::::::::::;;;:::::%%%--;;;===--:::;;;==::::::::::::::;;::::::%%---;;;==---:::;;===:::::::::::::;;;",
":::::%%%---;;===---::;;;===:::::::::::::;;;:::::%%%--;;;===--:::;;;==::::::::::::::;;::::::%%---;;;==---:::;;===:::::::::::::;;;",
"::::::::---::---:::=====:::==>>>;;;--;;;:::::::::::--:::---::======::===>>>;;---;;;::::::::::---:::--:::=====:::===>>;;;---;;:::",
"::::::::---::---:::=====:::==>>>;;;--;;;:::::::::::--:::---::======::===>>>;;---;;;::::::::::---:::--:::=====:::===>>;;;---;;:::",
":::::%%%---%%:::>>>;;------::===;;;::---::::::::%%%--%%%:::>>;;;-----:::===;;:::---::::::::%%---%%%::>>>;;;-----:::==;;;:::--:::",
":::::%%%---%%:::>>>;;------::===;;;::---::::::::%%%--%%%:::>>;;;-----:::===;;:::---::::::::%%---%%%::>>>;;;-----:::==;;;:::--:::",
":::::%%%---%%:::>>>;;------::===;;;::---::::::::%%%--%%%:::>>;;;-----:::===;;:::---::::::::%%---%%%::>>>;;;-----:::==;;;:::--:::",
";;;%%------::::::::--:::;;;--:::---:::::;;;;;%%%-----::::::::---:::;;---:::--::::::;;;;;%%%-----::::::::---::;;;---::---:::::;;;",
";;;%%------::::::::--:::;;;--:::---:::::;;;;;%%%-----::::::::---:::;;---:::--::::::;;;;;%%%-----::::::::---::;;;---::---:::::;;;",
";;;%%------::::::::--:::;;;--:::---:::::;;;;;%%%-----::::::::---:::;;---:::--::::::;;;;;%%%-----::::::::---::;;;---::---:::::;;;",
"-----::::::-----%%%:::::;;;==%%%%%%;;%%%--------:::::------%%::::::;;===%%%%%;;;%%%--------:::::-----%%%:::::;;;===%%%%%;;;%%---",
"-----::::::-----%%%:::::;;;==%%%%%%;;%%%--------:::::------%%::::::;;===%%%%%;;;%%%--------:::::-----%%%:::::;;;===%%%%%;;;%%---",
";;;::---:::::;;;===::===:::--;;;:::==:::===;;:::---:::::;;;==:::===::---;;;::===:::==;;;:::--::::::;;===:::==:::---;;:::===::===",
";;;::---:::::;;;===::===:::--;;;:::==:::===;;:::---:::::;;;==:::===::---;;;::===:::==;;;:::--::::::;;===:::==:::---;;:::===::===",
";;;::---:::::;;;===::===:::--;;;:::==:::===;;:::---:::::;;;==:::===::---;;;::===:::==;;;:::--::::::;;===:::==:::---;;:::===::===",
"---:::::>>>::;;;---;;>>>:::::;;;===::===:::--::::::>>:::;;;--;;;>>>:::::;;;==:::===::---:::::>>>:::;;---;;;>>::::::;;===:::==:::",
"---:::::>>>::;;;---;;>>>:::::;;;===::===:::--::::::>>:::;;;--;;;>>>:::::;;;==:::===::---:::::>>>:::;;---;;;>>::::::;;===:::==:::",
"---:::::>>>::;;;---;;>>>:::::;;;===::===:::--::::::>>:::;;;--;;;>>>:::::;;;==:::===::---:::::>>>:::;;---;;;>>::::::;;===:::==:::",
":::%%;;;:::-----%%%::;;;;;;:::::---::---;;;::%%%;;;::------%%        ::::::--:::---;;:::%%%;;:::-----%%%:::;;;;;:::::---:::--;;;",
":::%%;;;:::-----%%%::;;;;;;:::::---::---;;;::%%%;;;::------%%        ::::::--:::---;;:::%%%;;:::-----%%%:::;;;;;:::::---:::--;;;",
"---==%%%---::%%%;;;;;::::::%%===-----%%%:::--===%%%--        XXXOOOOO        ---%%%::---===%%---:::%%;;;;;;:::::%%%==------%%:::",
"---==%%%---::%%%;;;;;::::::%%===-----%%%:::--===%%%--        XXXOOOOO        ---%%%::---===%%---:::%%;;;;;;:::::%%%==------%%:::",
"---==%%%---::%%%;;;;;::::::%%===-----%%%:::--===%%%--        XXXOOOOO        ---%%%::---===%%---:::%%;;;;;;:::::%%%==------%%:::",
":::::;;;;;;%%---:::::>>>:::::---%%%:::::::::::::     XXXOOOXXXXXOOOXX   OOOXX   :::::::::::;;;;;%%%--::::::>>::::::--%%%::::::::",
":::::;;;;;;%%---:::::>>>:::::---%%%:::::::::::::     XXXOOOXXXXXOOOXX   OOOXX   :::::::::::;;;;;%%%--::::::>>::::::--%%%::::::::",
":::::;;;;;;%%---:::::>>>:::::---%%%:::::::::::::     XXXOOOXXXXXOOOXX   OOOXX   :::::::::::;;;;;%%%--::::::>>::::::--%%%::::::::",
"***::---%%%%%:::::::::::---;;%%%:::>>***:::**   XXXXXOOOXXXXXXXX   $$$$$,,,XXXXX   ::***:::--%%%%%%::::::::::---;;;%%:::>>>**:::",
"***::---%%%%%:::::::::::---;;%%%:::>>***:::**   XXXXXOOOXXXXXXXX   $$$$$,,,XXXXX   ::***:::--%%%%%%::::::::::---;;;%%:::>>>**:::",
":::--;;;;;;::;;;%%%:::::%%%%%---:::**:::***  OOO     XXXOOOOO$$$OOO  OOO$$$,,XXXOOO  :::---;;;;;:::;;%%%:::::%%%%%%--:::***::***",
":::--;;;;;;::;;;%%%:::::%%%%%---:::**:::***  OOO     XXXOOOOO$$$OOO  OOO$$$,,XXXOOO  :::---;;;;;:::;;%%%:::::%%%%%%--:::***::***",
":::--;;;;;;::;;;%%%:::::%%%%%---:::**:::***  OOO     XXXOOOOO$$$OOO  OOO$$$,,XXXOOO  :::---;;;;;:::;;%%%:::::%%%%%%--:::***::***",
"---%%::::::--===---%%:::;;;;;;;;===::***   XX   XXXOOOOO   XXOOO,,,XX   OOOOOXXXOOOXX        :::---==---%%%::;;;;;;;;===:::**:::",
"---%%::::::--===---%%:::;;;;;;;;===::***   XX   XXXOOOOO   XXOOO,,,XX   OOOOOXXXOOOXX        :::---==---%%%::;;;;;;;;===:::**:::",
"---%%::::::--===---%%:::;;;;;;;;===::***   XX   XXXOOOOO   XXOOO,,,XX   OOOOOXXXOOOXX        :::---==---%%%::;;;;;;;;===:::**:::",
"%%%;;::::::::***:::::---;;;:::::%%%;;        XXXOOOOO$$$$$$  XXXXXXOOXXX   XX,,,XXXOO$$$   oo   :::**::::::--;;;:::::%%%;;;-----",
"%%%;;::::::::***:::::---;;;:::::%%%;;        XXXOOOOO$$$$$$  XXXXXXOOXXX   XX,,,XXXOO$$$   oo   :::**::::::--;;;:::::%%%;;;-----",
";;;:::::>>>**:::***==;;;:::;;;;;:::  XXXOOOOO      XXOOOXXXXX   OOO$$,,,XXXOO,,,XXX$$,,,   ++   ***::***===;;:::;;;;;::::::==---",
";;;:::::>>>**:::***==;;;:::;;;;;:::  XXXOOOOO      XXOOOXXXXX   OOO$$,,,XXXOO,,,XXX$$,,,   ++   ***::***===;;:::;;;;;::::::==---",
";;;:::::>>>**:::***==;;;:::;;;;;:::  XXXOOOOO      XXOOOXXXXX   OOO$$,,,XXXOO,,,XXX$$,,,   ++   ***::***===;;:::;;;;;::::::==---",
"-----***:::::***===--:::---%%===:::          XXXXXX  XXXOOO$$,,,   XXXXXOOO$$XXXXXX,,,,,...oo...   **        ---%%%==:::>>>::%%%",
"-----***:::::***===--:::---%%===:::          XXXXXX  XXXOOO$$,,,   XXXXXOOO$$XXXXXX,,,,,...oo...   **        ---%%%==:::>>>::%%%",
"-----***:::::***===--:::---%%===:::          XXXXXX  XXXOOO$$,,,   XXXXXOOO$$XXXXXX,,,,,...oo...   **        ---%%%==:::>>>::%%%",
":::::%%%---;;===---::;;;           XX      XXOOO$$$XX      XX   XXXOO,,,XXXXX,,,XXX,,   ...     ooo  ooo+++&&   :::::::::::::;;;",
":::::%%%---;;===---::;;;           XX      XXOOO$$$XX      XX   XXXOO,,,XXXXX,,,XXX,,   ...     ooo  ooo+++&&   :::::::::::::;;;",
"::::::::---::---        +++++ooo   XX      XX        XXXOOO  XXXOOO$$OOO   OO,,,XXX,,      ++ooo+++oooooooo++ooo   >>;;;---;;:::",
"::::::::---::---        +++++ooo   XX      XX        XXXOOO  XXXOOO$$OOO   OO,,,XXX,,      ++ooo+++oooooooo++ooo   >>;;;---;;:::",
"::::::::---::---        +++++ooo   XX      XX        XXXOOO  XXXOOO$$OOO   OO,,,XXX,,      ++ooo+++oooooooo++ooo   >>;;;---;;:::",
":::::%%%---     ooooo++++++&&&&&   XXXXXXXX  XXXXXXXXOOO$$$OO        XXXOOO$$XXXOOO$$   &&&&&ooo+++&&&&&,,,oo&&&,,,  ;;;:::--:::",
":::::%%%---     ooooo++++++&&&&&   XXXXXXXX  XXXXXXXXOOO$$$OO        XXXOOO$$XXXOOO$$   &&&&&ooo+++&&&&&,,,oo&&&,,,  ;;;:::--:::",
":::::%%%---     ooooo++++++&&&&&   XXXXXXXX  XXXXXXXXOOO$$$OO        XXXOOO$$XXXOOO$$   &&&&&ooo+++&&&&&,,,oo&&&,,,  ;;;:::--:::",
";;;%%---...........  oooooo+++++   XXOOOOOOXX   XXX  XXXXXX  XXXOOO$$      XXOOO$$$OO...+++oo+++&&&oo   &&&,,+++&&&  ---:::::;;;",
";;;%%---...........  oooooo+++++   XXOOOOOOXX   XXX  XXXXXX  XXXOOO$$      XXOOO$$$OO...+++oo+++&&&oo   &&&,,+++&&&  ---:::::;;;",
"-----::::::-----%%%::......  ooo...  XXX$$$OOXXX   XXOOOXXXOO$$$,,,XXXXX,,,OO$$$,,,$$...ooo++&&&   @@###   oo+++&&&  %%%;;;%%---",
"-----::::::-----%%%::......  ooo...  XXX$$$OOXXX   XXOOOXXXOO$$$,,,XXXXX,,,OO$$$,,,$$...ooo++&&&   @@###   oo+++&&&  %%%;;;%%---",
"-----::::::-----%%%::......  ooo...  XXX$$$OOXXX   XXOOOXXXOO$$$,,,XXXXX,,,OO$$$,,,$$...ooo++&&&   @@###   oo+++&&&  %%%;;;%%---",
";;;::---:::::;;;===::===:::        ..   OOOOO$$$XXXXX   XXX  XXXXXXOOXXXOOO$$OOO$$$.....   oo++++++  ###...++   +++  :::===::===",
";;;::---:::::;;;===::===:::        ..   OOOOO$$$XXXXX   XXX  XXXXXXOOXXXOOO$$OOO$$$.....   oo++++++  ###...++   +++  :::===::===",
";;;::---:::::;;;===::===:::        ..   OOOOO$$$XXXXX   XXX  XXXXXXOOXXXOOO$$OOO$$$.....   oo++++++  ###...++   +++  :::===::===",
"---:::::>>>::;;;---;;>>>   oo+++ooo  ...   $$,,,$$$OOXXXOOOXXXXXOOOOO$$$$$$,,XXX...oo      ..ooo&&&&&...+++oo      ..===:::==:::",
"---:::::>>>::;;;---;;>>>   oo+++ooo  ...   $$,,,$$$OOXXXOOOXXXXXOOOOO$$$$$$,,XXX...oo      ..ooo&&&&&...+++oo      ..===:::==:::",
":::%%;;;:::-----%%%::   +++&&&&&+++ooooo.....   OOOOO$$$,,,$$OOO$$$,,OOOXXX..   ooo&&&&&+++  ...ooo+++++ooo  ...:::::---:::--;;;",
":::%%;;;:::-----%%%::   +++&&&&&+++ooooo.....   OOOOO$$$,,,$$OOO$$$,,OOOXXX..   ooo&&&&&+++  ...ooo+++++ooo  ...:::::---:::--;;;",
":::%%;;;:::-----%%%::   +++&&&&&+++ooooo.....   OOOOO$$$,,,$$OOO$$$,,OOOXXX..   ooo&&&&&+++  ...ooo+++++ooo  ...:::::---:::--;;;",
"---==%%%---::%%%;;;;;   +++&&&&&+++oo+++ooo..........   OOOXXXXXXXXOO   .....ooo+++++&&&&&&oo..............:::::%%%==------%%:::",
"---==%%%---::%%%;;;;;   +++&&&&&+++oo+++ooo..........   OOOXXXXXXXXOO   .....ooo+++++&&&&&&oo..............:::::%%%==------%%:::",
"---==%%%---::%%%;;;;;   +++&&&&&+++oo+++ooo..........   OOOXXXXXXXXOO   .....ooo+++++&&&&&&oo..............:::::%%%==------%%:::",
":::::;;;;;;%%---:::::   +++&&ooo+++++ooo   ..      XX   ........     XXX   .....   oo++++++oo+++$$$  ::::::>>::::::--%%%::::::::",
":::::;;;;;;%%---:::::   +++&&ooo+++++ooo   ..      XX   ........     XXX   .....   oo++++++oo+++$$$  ::::::>>::::::--%%%::::::::",
"***::---%%%%%::::::::...   &&+++   oo   ...**...     XXXOOOOOOOOOOOXX   ........ooooo+++ooo&&+++$$$  ::::::::---;;;%%:::>>>**:::",
"***::---%%%%%::::::::...   &&+++   oo   ...**...     XXXOOOOOOOOOOOXX   ........ooooo+++ooo&&+++$$$  ::::::::---;;;%%:::>>>**:::",
"***::---%%%%%::::::::...   &&+++   oo   ...**...     XXXOOOOOOOOOOOXX   ........ooooo+++ooo&&+++$$$  ::::::::---;;;%%:::>>>**:::",
":::--;;;;;;::;;;%%%::...,,,++...........***::---.....      XX      ........::...   oo+++ooooo,,,...;;%%%:::::%%%%%%--:::***::***",
":::--;;;;;;::;;;%%%::...,,,++...........***::---.....      XX      ........::...   oo+++ooooo,,,...;;%%%:::::%%%%%%--:::***::***",
":::--;;;;;;::;;;%%%::...,,,++...........***::---.....      XX      ........::...   oo+++ooooo,,,...;;%%%:::::%%%%%%--:::***::***",
"---%%::::::--===---%%:::........===::***:::--%%%:::::..............;;;;;;;;==:::...  oooooo,,...---==---%%%::;;;;;;;;===:::**:::",
"---%%::::::--===---%%:::........===::***:::--%%%:::::..............;;;;;;;;==:::...  oooooo,,...---==---%%%::;;;;;;;;===:::**:::",
"%%%;;::::::::***:::::---;;;:::::%%%;;------%%;;;::::::::***:::::---;;::::::%%;;;---..........::::::**::::::--;;;:::::%%%;;;-----",
"%%%;;::::::::***:::::---;;;:::::%%%;;------%%;;;::::::::***:::::---;;::::::%%;;;---..........::::::**::::::--;;;:::::%%%;;;-----",
"%%%;;::::::::***:::::---;;;:::::%%%;;------%%;;;::::::::***:::::---;;::::::%%;;;---..........::::::**::::::--;;;:::::%%%;;;-----",
";;;:::::>>>**:::***==;;;:::;;;;;:::::===---;;::::::>>***:::**===;;;::;;;;;;:::::===--;;;:::::>>>***::***===;;:::;;;;;::::::==---",
";;;:::::>>>**:::***==;;;:::;;;;;:::::===---;;::::::>>***:::**===;;;::;;;;;;:::::===--;;;:::::>>>***::***===;;:::;;;;;::::::==---",
";;;:::::>>>**:::***==;;;:::;;;;;:::::===---;;::::::>>***:::**===;;;::;;;;;;:::::===--;;;:::::>>>***::***===;;:::;;;;;::::::==---",
"-----***:::::***===--:::---%%===:::>>:::%%%-----***:::::***==---:::--%%%===::>>>:::%%------**::::::**===---::---%%%==:::>>>::%%%",
"-----***:::::***===--:::---%%===:::>>:::%%%-----***:::::***==---:::--%%%===::>>>:::%%------**::::::**===---::---%%%==:::>>>::%%%",
":::::%%%---;;===---::;;;===:::::::::::::;;;:::::%%%--;;;===--:::;;;==::::::::::::::;;::::::%%---;;;==---:::;;===:::::::::::::;;;",
":::::%%%---;;===---::;;;===:::::::::::::;;;:::::%%%--;;;===--:::;;;==::::::::::::::;;::::::%%---;;;==---:::;;===:::::::::::::;;;",
":::::%%%---;;===---::;;;===:::::::::::::;;;:::::%%%--;;;===--:::;;;==::::::::::::::;;::::::%%---;;;==---:::;;===:::::::::::::;;;"
};
