/* XPM */
static char *dafe1c5e7ae84e81d72f4648fe73e2b2Nz8IV90uyDrRU2tj[] = {
/* columns rows colors chars-per-pixel */
"384 384 256 2 ",
"   c #110B36",
".  c #2F1036",
"X  c #1C222C",
"o  c #4E0F36",
"O  c #63202F",
"+  c #1E5532",
"@  c #6C542F",
"#  c #180A49",
"$  c #1A1448",
"%  c #190B55",
"&  c #091051",
"*  c #191458",
"=  c #270B4A",
"-  c #360A4B",
";  c #251649",
":  c #2C124E",
">  c #34144B",
",  c #2C0E54",
"<  c #290B59",
"1  c #350B59",
"2  c #2C1353",
"3  c #271758",
"4  c #2C135B",
"5  c #321354",
"6  c #32145B",
"7  c #351858",
"8  c #112B53",
"9  c #2E2A53",
"0  c #191766",
"q  c #10126B",
"w  c #2A0A64",
"e  c #360A64",
"r  c #2A1965",
"t  c #341865",
"y  c #2E1675",
"u  c #112D6F",
"i  c #292469",
"p  c #352569",
"a  c #2A2877",
"s  c #342876",
"d  c #29357B",
"f  c #333572",
"g  c #4C0C52",
"h  c #6D0C50",
"j  c #4D2E52",
"k  c #6E2E5E",
"l  c #4C106B",
"z  c #700B6C",
"x  c #4C2E70",
"c  c #1D5E63",
"v  c #0C4C73",
"b  c #314C72",
"n  c #4F4E70",
"m  c #615C64",
"M  c #A42227",
"N  c #F13115",
"B  c #DB1E20",
"V  c #F01331",
"C  c #FA163A",
"Z  c #D3302E",
"A  c #F3302D",
"S  c #FC2738",
"D  c #A4592F",
"F  c #EC530D",
"G  c #F85A09",
"H  c #FB4A19",
"J  c #FB5817",
"K  c #D2681C",
"L  c #F96607",
"P  c #F2740E",
"I  c #FC6616",
"U  c #D24F31",
"Y  c #F64F2C",
"T  c #F76F2C",
"R  c #8E0E53",
"E  c #B10B53",
"W  c #A02E5B",
"Q  c #91096F",
"!  c #B00471",
"~  c #D10A54",
"^  c #F90B48",
"/  c #FD1546",
"(  c #F30F55",
")  c #D02F4F",
"_  c #F62C4E",
"`  c #CE066B",
"'  c #EE0B6A",
"]  c #D32F6F",
"[  c #F32E6B",
"{  c #A35F5D",
"}  c #D1575D",
"|  c #F5504F",
" . c #D26F4D",
".. c #F36F4E",
"X. c #F24F6D",
"o. c #F2706C",
"O. c #3FB82F",
"+. c #53DE38",
"@. c #73DB3B",
"#. c #70E73B",
"$. c #25A969",
"%. c #5AA565",
"&. c #37D256",
"*. c #2DDE68",
"=. c #34D06F",
"-. c #50D751",
";. c #66DD47",
":. c #6FDA4E",
">. c #59E548",
",. c #51E652",
"<. c #68E546",
"1. c #70E64A",
"2. c #4BD26C",
"3. c #6ADD6D",
"4. c #50E76C",
"5. c #A7AB29",
"6. c #F99809",
"7. c #F58E11",
"8. c #F8A809",
"9. c #F8B708",
"0. c #F4AF15",
"q. c #D59925",
"w. c #F5902D",
"e. c #F3B12C",
"r. c #8CD636",
"t. c #B0D430",
"y. c #91E134",
"u. c #F6CB12",
"i. c #DDD828",
"p. c #F5D12F",
"a. c #F5E733",
"s. c #A59D61",
"d. c #F38E4E",
"f. c #F2B04D",
"g. c #D99961",
"h. c #F3AF70",
"j. c #95DD55",
"k. c #D2D25E",
"l. c #F3D34B",
"z. c #F5E74D",
"x. c #F4D06F",
"c. c #F7EE6F",
"v. c #15358D",
"b. c #1F299B",
"n. c #283787",
"m. c #2D328C",
"M. c #522B8C",
"N. c #194798",
"B. c #105091",
"V. c #254797",
"C. c #2C4C90",
"Z. c #0B6E91",
"A. c #306F93",
"S. c #1352AE",
"D. c #1858A8",
"F. c #2A53AA",
"G. c #116BA9",
"H. c #0A6AB7",
"J. c #1669B7",
"K. c #0A76BA",
"L. c #1676BA",
"P. c #2A6EB1",
"I. c #565D96",
"U. c #6E718E",
"Y. c #496DAF",
"T. c #0F6DCB",
"R. c #0979C5",
"E. c #1579C5",
"W. c #1460D4",
"Q. c #2A72C9",
"!. c #4564C7",
"~. c #A31788",
"^. c #DD1B8B",
"/. c #9B6597",
"(. c #E05E8D",
"). c #9071C7",
"_. c #098E91",
"`. c #0BB293",
"'. c #2DA892",
"]. c #0E8DB5",
"[. c #2E8EB3",
"{. c #0EB4B2",
"}. c #2EB1B3",
"|. c #5C9BA4",
" X c #17CC92",
".X c #2DCE8D",
"XX c #31E594",
"oX c #11C8B2",
"OX c #2BCBAE",
"+X c #56D798",
"@X c #0887C8",
"#X c #1687C8",
"$X c #0996CB",
"%X c #1698CA",
"&X c #0E8AD4",
"*X c #0899D6",
"=X c #1598D5",
"-X c #2D92D1",
";X c #09A6CB",
":X c #17A7CA",
">X c #09BAC9",
",X c #16B9C9",
"<X c #08A8D8",
"1X c #15A8D7",
"2X c #08B8D8",
"3X c #16B7D7",
"4X c #29B1D0",
"5X c #0C92E7",
"6X c #2E96E5",
"7X c #0CB1E7",
"8X c #2DB2E9",
"9X c #4A94D4",
"0X c #4EADD1",
"qX c #61ABDA",
"wX c #08C5C8",
"eX c #16C4C8",
"rX c #07C5D6",
"tX c #13CAD3",
"yX c #2AC9D0",
"uX c #0FCAED",
"iX c #2DD1F1",
"pX c #2AE7EF",
"aX c #5EDBEA",
"sX c #9B9EA4",
"dX c #E8A895",
"fX c #A1E0A3",
"gX c #E3D39C",
"hX c #F7F190",
"jX c #F9D2AE",
"kX c #F9F4B0",
"lX c #9CB3CC",
"zX c #D4B5C8",
"xX c #93CAD4",
"cX c #AECFD4",
"vX c #9FD9E6",
"bX c #91F0F4",
"nX c #B1F1F4",
"mX c #D0D3D5",
"MX c #DED9DE",
"NX c #D3EDD5",
"BX c #FAFAC9",
"VX c #EEF2D4",
"CX c #F7F8D8",
"ZX c #F5FADD",
"AX c #FBFCDD",
"SX c #D3F4F2",
"DX c #EAEAEB",
"FX c #EAF7E7",
"GX c #F5FBE3",
"HX c #FAFDE4",
"JX c #F5FAE9",
"KX c #FCFEEB",
"LX c #E9FBF8",
"PX c #FCFEF3",
"IX c #F4FDF8",
"UX c #FDFEFC",
/* pixels */
"# % # % % % % % % = < < < < w < 1 1 w w w w < < < < < < < < < < < w w w w w w w w w w w w w < < < < < < < < < < < < 1 e 1 1 1 1 e e e w e e 1 1 1 1 < 1 1 1 < < < , < < 1 , 1 , , , 1 1 1 < w < w w w 1 e e 1 1 1 1 , < , 4 4 6 1 1 1 t 6 t w w w w w w w w 1 w < < e e 1 1 1 < 1 1 1 1 1 t 6 6 6 6 6 1 1 1 1 1 1 1 1 1 1 1 1 < < < , , , 6 6 6 , , , 4 6 6 , , , , , , , < < , < < , , < < 1 1 6 6 6 6 6 1 6 6 6 6 1 6 1 1 1 1 1 1 , , , 6 6 6 6 6 6 , 6 6 1 1 1 1 1 1 , 6 6 < 6 6 , , , 1 < < < < 1 < w < < < < < < 1 < < < < 1 1 1 1 1 e t t t w w < < < < , , , , < , , , , , , , < , 1 1 1 1 w w e e e e w w e e e e e e e e e e e e e w w w w w w 1 1 w w w w w w w w w w w w w w 1 1 1 1 1 < < < < < < w w < < < w w w w w w w w w w w w e w w e 1 1 1 1 < < < < < < < < < < < < < % % % ",
"# % # % % % % < < < < < w w w w w w w w w w 1 1 < < < < w w w w w e e e e e e e e e e e w w w w < < < < w e 1 e 1 1 e e e e 1 1 e e e e e e e w 1 1 < 1 1 1 1 1 1 1 < < 1 , 1 , , , 1 1 1 e w e e e e e e e e e e 1 1 1 , 6 4 6 1 1 e t t t e e e e e e e e e w 1 1 e e e 1 1 e e e 1 t e e e e 1 6 1 1 1 1 1 1 1 1 1 1 1 1 1 1 1 1 1 6 6 1 1 1 1 1 1 1 1 1 1 1 1 6 , , , , , , < < , < 6 t 1 e 1 1 6 1 1 1 6 6 6 1 1 1 1 1 1 1 1 1 6 6 6 6 1 1 6 1 1 6 1 1 1 1 1 1 t t 6 1 1 1 1 1 1 1 1 e e e 1 1 1 1 e e e 1 1 1 1 1 1 1 e 1 1 1 1 e e t t t t e e t 1 1 w < 6 6 6 6 1 1 1 1 1 1 1 1 1 1 1 1 1 e e e e e e e e e e e e e e e e e e e e t t t e e w e 1 1 w w w e e e e e e e e e e e 1 e e e e e e w e e e e e e e e e e e w e e w w w w w w e w w e 1 e 1 e w < w < 1 < < < < < < < < < = = ",
"# % # % % % < < < e e w w w w e e e e e w w 1 w w 1 < 1 < 1 w e e e e e e e e e e e e e e w w w w w < w w w 1 e e e e e e e 1 e e e e e e e e e w 1 1 w 1 1 1 1 1 1 < 1 1 1 1 , 6 6 1 e e e e e e e e e e e l l l l 1 1 6 4 4 6 1 1 t e t t e e e e e w e e e e e e t t 1 1 1 e e e e e e e e e e 1 1 1 1 6 6 6 6 t 1 1 1 1 1 1 1 1 1 1 6 1 1 1 1 1 1 1 1 1 1 1 1 6 6 6 6 1 , , 1 1 1 t t e e e 1 e 6 1 1 1 6 1 1 1 1 1 1 1 1 e 1 1 1 1 1 1 1 1 1 1 1 1 1 1 1 1 e e e t 6 1 1 1 1 1 1 1 1 e e e 1 1 1 e e e e e e 1 1 e e e e e 1 1 e e e e e e e e e e 1 1 e 1 6 6 6 1 1 1 1 1 1 1 1 1 1 g g g e e e e l l e e e e e e e e e e e e e e e e e e e e e w 1 1 e w w e e e e e e e e e e e e e 1 1 e e e e e e e e e e e e e e e e e e w w w w w w e e e e e e e e e e e 1 1 1 1 < < < < = < = = = ",
"# % # # : g g g g h h h g l l l h h g h g g g g l l e e e e g g g g g g g g g h h h h h h h g g e w w w 1 g g g g g g g g g g g h h g g l l g g g g g g g g g g g g g g g g g g g g g o g g g h h h h h h h h R h h h g t t l h h O h h O h h h h h h O O h h o g g l l g g o o o o o g g h h O O O O O o g g l l g g g g g g g h h g h h h h h h h O O O O O O o g 1 g g g o g g g h h h h h h h h h h h h h g g g g h h h h h h h h g g h g g h O O O O O O O O h l l l e g o o o o h h h h h h g g h h h h h g l l g g g g g g g o h h h h h h h h O O o g 6 6 1 - - o g g h h h h h h h h R h l l l l g h h h h h h h h h R R R R R h l l l g l l g g g h h g h h h h h h h R h l l l l e g l g g g g g g h h h h h h h h R R z y m.y e l g o o o g h h h z l z h h h R R g g g g = = = = = ",
"= % # # . E ( [ ) _ _ _ ) ~ ! E o...........o.R Q z z z z h ....T ......| | | | | ..T T T ..) h z z z z h ..w.w.w.T T T T T T T T T T ) R h E ~ ~ ` ` ) w.w.w.w.w.w.w.w.w.w.w.U ) W R d.w.w.w.w.w.w.w.w.w.w.w.w.T T R h l l z R w.w.7.7.7.7.7.7.w.w.7.7.w.w.w.w.M h h h h M f.e.e.e.e.w.w.w.w.6.7.7.7.w.T M h h h R U U T T T w.w.w.7.7.w.7.T T T w.7.7.7.7.0.w.U R h h h d.w.w.w.w.w.w.w.w.w.7.7.7.7.P K U Z ) ) E M U 7.7.7.7.7.7.w.T T T T T w.w.7.7.w.w.7.6.6.U Q z z z h f.0.w.7.7.w.w.w.w.w.w.w.w.7.7.7.T U R R R E E M w.7.7.7.w.w.7.7.w.7.w.0.0.w.w.M z z g g O e.w.w.w.w.w.w.w.w.w.w.w.E Q R R R R T T T T T T T T T 7.T P P Y M ! Q R R R R | | | | | | | ..T T T T T T ..Q Q Q Q z z z R o.......T T T T T T T T T T ..W ~.M.z M.z R e.e.w.w.w.w.d.R Q Q | Y T T | ~ ' ' ! - < < < < ",
"= = # % - E ( _ A Y Y Y Y ) ` ] d.w.w.w.w.w...E ! Q Q Q z R w.T T T T T T T T T T T T T T T ) R ! Q Q Q R ..7.7.7.7.7.7.7.7.7.7.7.7.T Z R h ~ ~ ~ ~ ( Z 0.0.0.0.0.0.0.0.8.8.6.K M R R w.6.6.6.6.6.6.6.6.6.6.6.6.6.w.M R z z z M w.8.8.8.8.8.8.8.8.8.8.8.8.8.8.w.M R E R R M e.9.9.8.9.8.8.0.8.8.8.8.8.8.w.M R R R R T P 7.7.6.6.8.8.9.8.8.0.P P P 6.8.8.8.8.9.9.K M R R R w.0.8.8.0.0.8.8.8.8.8.8.8.8.7.P F F Z ) E M K 6.8.8.8.8.8.6.6.7.7.7.7.6.8.8.8.8.8.8.8.8.U Q Q z z h e.8.8.8.8.6.6.6.6.6.6.6.8.8.8.6.7.U E E E E ~ B 0.8.8.8.8.8.8.8.8.8.8.9.9.9.0.M R h z z O 9.9.8.8.8.8.8.8.8.8.8.w.E E E E E E 7.P P P P P 7.7.7.6.6.6.7.T M ~ E E E R R T T T I T T T T w.7.7.7.7.7.T ~ ! ! ! z z M.R ..T T T T T T T w.w.7.7.7.7.T ) ~.~.! ~.Q E e.8.8.8.8.8.w.R ~.Q | T I I | ~ ( ( E - < < < < ",
"= - . = - W ( ( _ T I Y Y _ ~ ) d.w.w.w.w.w.d.) ` ! ! ! Q Q w.7.7.T T T T T T T T T T T T T ) E ! E E E E ..7.6.6.w.w.7.7.7.7.7.7.7.T M h R ~ ~ ~ ( ( Z 0.9.9.9.9.0.8.8.0.8.8.P Z W M w.7.6.6.6.6.6.6.6.6.6.6.6.6.w.M E E E E M 8.8.0.0.8.8.8.8.8.9.9.9.0.0.8.w.M E E E R M e.9.9.0.9.9.8.8.8.8.8.8.8.8.w.M E E E E T 7.6.6.6.8.9.9.9.9.9.8.7.7.7.6.8.9.9.9.9.9.K M E E M w.8.8.8.8.0.0.0.9.9.9.8.8.8.6.P P F Z E E M K 8.8.8.8.8.8.8.6.6.6.6.6.6.8.8.8.8.8.9.9.9.K Q Q Q Q R w.9.8.8.8.8.6.8.6.8.8.8.8.8.8.8.8.U E ~ ~ B ~ Z 0.9.8.8.8.8.9.9.9.9.9.9.9.9.9.M E R R R O 9.9.9.8.8.8.8.8.8.8.8.e.E E E E ~ M 7.7.7.7.7.7.6.6.6.6.6.6.6.7.Z ~ ~ ~ E E R T T T I T T T 7.7.7.7.7.6.6.w.~ ` ` ! ! Q Q E ..T T T T w.T T w.w.7.7.7.7.T ) ` ` ! ! ! ! e.9.8.8.8.8.w.R Q Q ..T T T T ~ ' ' Q , < < < < ",
", - W O o E ~ / _ T T Y | ) ] ) d.w.w.w.w.w.w.X.` ! ! ! ! E w.7.7.7.T P T T T T T T T T T w.) E E E E E E ..8.6.8.6.6.7.6.6.7.7.7.7.7.Z R E ~ ~ ~ ~ ~ Z 0.0.0.0.0.0.0.0.0.0.8.T U Z M w.7.6.6.6.6.8.6.8.8.8.8.8.8.w.M E E E E Z 0.0.0.9.9.9.0.0.9.9.9.9.9.9.9.0.M E E E E M e.0.0.9.0.0.9.0.9.9.9.9.9.9.w.M E E E E T 7.7.6.8.0.0.9.9.9.9.8.7.7.7.6.8.9.9.9.9.u.q.M B B M w.0.8.8.9.9.9.9.9.0.0.0.9.8.6.7.P U Z Z ) Z T 8.8.8.8.8.8.8.6.6.6.6.6.8.8.8.9.9.9.9.9.9.T E ! Q ! E e.9.9.8.8.8.8.8.8.8.8.8.8.8.8.9.8.K ~ B B B ~ B 0.9.9.9.9.9.9.9.9.9.9.9.9.9.u.M E E E R M u.9.9.8.8.8.8.8.8.8.8.0.M E E E E M 7.7.7.7.7.7.6.8.8.8.8.8.6.6.U ~ ~ ~ E E M 7.T T T T T w.w.7.7.7.6.6.6.w.~ ` ` ` ` ! ! ~ d.T w.w.w.w.w.w.w.w.7.7.7.w.w.) ` ` ` ` ! E e.9.0.9.9.9.w.R Q Q ..T T T T ~ ( ' R - g g < % ",
"2 . W Z E ) [ _ ) ) W W R h h h o.o.o.g.d.d.d.o.! ! ! ! ! Q d.d..... . .U  . . . . .........] R Q Q R Q R } d.d.d.w.w.w.w.w.w.w.K  . .{ W R R E R R R W q. . . . . . . . . .D D W W W D  . . .q.q.q.w.w.w.w.w.e.w.w.R R R R R O  . . .q.q.q. . .q.q.d.d.d.d.q.g.W R R R h h {  . .q.q.q.q.K q.q.q.q.q.q.d.M W R R R } D D D D D q.q.q.q.q.q.D D D  . .q.q.q.q.e.q.M M M M g.q.q.q.q.q.q.q.q.q.q.q.q.q.K D D D W W W W D K K q.q.q.q.q.w.w.T K K q.q.q.q.q.q.q.q.q. .R z z Q R  .d.d.q.q.q.q.q.q.q.q.q.q.q.q.q.q. .E E E E E M q.q.q.q.q.q.q.q.e.q.e.e.e.e.p.M E E R R M f.f.d.q.q.q.q.q.q.q.q.e.M E E R E R  . . . . . . . . . .d.q.q.q. .E ! E R Q R .. . . . . . . . . .w.w.w.w.w.~ ` ` ! ! ! Q W o. . . . . . . . . ....... . .{ ! ! ! ! Q W f.f.g.g.g.g.g.R M.z } ) ) ) ) _ _ _ M W } { w % ",
": 5 M Y | | _ [ ] z z l g 1 1 1 1 1 , , , , , , < < = < , , 1 1 1 , , , , , , , , , < , , , 1 1 1 1 1 1 , 1 1 , 1 1 5 , , - - - - , , = , 1 , , 1 1 1 1 1 1 - - 1 1 1 1 1 1 , 1 1 1 1 1 1 1 1 e e 1 1 1 1 1 , , - 1 1 1 1 1 1 1 1 1 - - - 1 1 1 1 1 1 1 1 1 1 1 1 1 1 1 1 1 1 1 1 1 1 1 1 1 7 1 1 5 5 - 7 7 - - - - - - - - - 1 1 1 1 1 1 1 1 1 1 1 1 : : : > - - - - - > > - - - - - 1 1 > > - - - - - 1 1 1 1 1 1 5 5 1 1 1 > 5 > - - - > - - > > > - - - - 5 , 1 1 1 1 1 1 1 1 1 , , , , , 1 , , , 1 - - 1 1 - g g g 1 1 1 1 1 , 1 1 1 1 5 5 , 5 5 : > > 1 1 1 1 1 1 , < < < , , < < < , , , 1 1 1 1 1 1 1 1 1 1 1 1 e e e , 6 6 1 1 1 1 1 1 < 1 < 1 w 1 1 < 1 1 1 1 1 1 1 , , < < < < = , < 1 1 1 1 1 1 1 1 1 1 1 - 1 1 - 1 1 1 1 1 < < < w w w < w w w w e e l z M.z z h d.w.7.T T T W % % ",
"2 > M T T | _ [ ) h l g - 5 5 5 , , , , , < < < w w < < < < < < < < < < < < < < 1 1 1 1 < , , , , , , < < < < , < < < , < < < < < < , , , , , , , , , , , , , , , , 6 , 1 1 1 1 , 1 6 6 6 w 4 4 < < < < < < < < < 4 6 6 , 2 4 6 1 1 5 5 , 1 1 1 5 5 5 5 5 , 5 5 : : : : 2 2 : 2 2 , 2 2 4 4 4 4 6 , 5 5 5 5 5 5 5 5 5 5 5 5 : 1 - 1 1 5 1 1 1 1 1 , , , , , , , , , , , , , , , , , , , , , , : = = : : 2 5 2 5 5 2 2 2 4 6 5 2 6 6 6 6 6 , , , , , , , < , , < , 6 6 6 4 4 4 2 2 2 2 , , < < < , , , , , , , 6 5 4 6 6 6 6 4 4 4 4 < < , , , 4 e e w e t t t t 4 4 4 4 4 , , , < < , < , , , , , 6 6 6 6 6 1 1 1 1 1 1 , , 6 6 6 6 6 6 < 1 1 w 1 1 e e w w < < 1 1 1 1 1 1 1 w w w w r r w 3 3 e w 1 1 < < e e e e e w 1 1 w , < < < < < < < < < < < < , 2 , , 6 1 l l z l h d.w.7.T T T W % % ",
"2 > M T T T _ _ ) h g g 5 5 : : - 5 , , , < 3 3 4 4 w < < < < < , , < < < < < < , , , , 2 2 , , , , , , , , , , , , , , , < < , : : : , : , , , , , , , , , : , : , 5 5 5 5 5 1 1 1 5 5 5 4 4 4 < < < , 4 4 2 2 , 2 5 5 5 5 5 1 1 1 1 1 1 1 , , , , 5 5 5 5 5 5 : 2 2 2 2 2 2 2 2 : : : 2 2 2 2 2 2 2 : 5 5 5 5 > > 5 5 > 5 1 1 1 5 5 5 5 5 , , 5 , , , , , 2 , , , , , , , 2 : , 2 , , : : : : : : : , 5 5 , 5 5 5 : : 2 5 5 2 2 5 5 5 5 , , , , , , 2 , 2 2 2 2 5 5 5 2 2 2 2 : : : : = : 2 2 , , 2 2 2 2 4 4 4 2 2 2 2 2 2 2 2 2 , 2 , , 2 2 4 4 4 w w 4 1 1 6 2 2 2 2 2 2 , , < < < , , , , 5 5 5 5 5 5 6 6 6 6 5 5 2 , 2 , , , , , , 1 < < 1 6 < < < w < , 1 6 6 6 4 6 6 w w w w 4 3 r 3 4 < < 4 6 6 1 e e e 1 1 1 , 1 6 , , , , < < , < , , < < < , 4 , , 6 1 l l l l h ..T T Y T T W % % ",
": - O w.T T _ _ E g 1 5 5 5 : - : : : : : 2 3 3 $   3 9 ; < < < < < < < 2 2 2 2 5 5 2 2 2 2 , , , , , , , , , , , , , , , < , < < , , , , < : = = , : : , , , < < , , , , 5 5 1 1 1 6 6 6 2 , , 4 4 < 4 4 4 4 2 4 2 2 2 5 , , 1 5 5 5 5 5 5 5 5 , , 2 2 : 5 2 : : 2 2 2 2 : : 2 2 5 2 2 2 2 2 2 5 5 2 5 5 5 > : : 5 5 5 5 5 6 > > 5 5 5 : 5 5 5 : 2 2 2 , , 2 2 2 2 2 2 , 2 : : 5 - : : : : : : : , 2 2 2 2 2 2 2 5 7 6 5 2 3 2 5 5 2 2 2 2 2 2 2 2 2 2 2 2 3 3 4 2 2 2 2 2 : : : 2 : : : : : : 2 , , , 2 2 2 2 2 4 4 4 2 2 4 2 3 3 , , , : , : 6 2 3 w 4 4 4 4 4 4 2 2 2 2 2 2 , , 2 2 2 2 2 2 5 6 6 4 4 4 6 6 6 4 4 4 2 2 2 , , , 2 2 2 , , , 6 6 4 6 4 < w 4 , 6 6 6 6 6 6 6 4 , 4 2 2 < < < 4 4 4 , 6 6 t t w w < , < < < 4 , 4 2   9 9 9 # 2 , , , , , 5 5 , 6 1 g g g h [ _ _ _ T T W % % ",
"5 > O w.w.T _ _ E g 1 5 : > : - : : , : : 2 3 3 lXLXLXDX; , < < < < < < 2 2 4 6 6 6 2 2 2 2 2 2 , , , , , , , , , , , , , < 2 , , , = : ; : : , , , , , , , < , < , , , , 5 5 - 1 7 - 1 1 4 6 6 < < < < 4 4 4 4 4 4 5 5 5 5 5 : 5 5 5 5 5 5 5 5 5 2 , , : : : : : 2 2 2 2 2 : 2 , , 2 : 5 3 f i 3 3 5 5 5 5 > : : 5 5 5 5 > 5 > > 5 5 5 : 5 5 : : 2 : : , , , 2 5 2 2 5 - > > : 5 5 : : - : : : : , : 2 2 2 2 2 2 7 f p 3 3 3 4 4 2 4 2 2 2 2 2 2 2 , 2 2 2 3 3 3 : 2 2 : : : : 2 2 : : : : : : 2 2 , 2 2 2 2 2 2 4 4 4 2 2 2 2 , , , , , : , : ; $ * i i 3 6 6 6 6 2 2 2 2 2 2 6 4 2 2 2 2 5 5 6 6 6 t t t 6 6 6 6 6 6 5 2 2 , , , 2 2 2 , , 6 6 2 6 6 6 6 5 , , 6 6 , 6 6 6 6 6 6 4 4 4 < 4 4 , , 2 2 5 5 t 0 u v.0 3 < 2 < < < < 3 LXLXLXLX9 2 2 < , , , 2 5 5 5 5 7 g l g [ [ [ [ Y | W < % ",
"7 > M w.w.T _ _ W g 1 : : : - - : : : : , : 3 3 sXNXNXLX$ 2 < < < < < < 2 7 7 7 7 7 2 2 2 2 2 2 , , , , , , , , , , , , , 2 2 2 : : > . . = : , , , , , , , < < < , , , , 5 5 1 > g o > > 2 4 6 4 4 < < 4 4 4 4 4 4 5 5 5 5 5 > > > > > 5 5 5 5 5 5 , , , : 2 : : : 2 2 2 : : 2 , 5 2 : 5 n xXxX3 2 5 5 5 5 : : : 5 5 5 > > > . > . 5 5 : 5 : : : 2 : 2 , , , 2 5 2 - o o . > : 5 : : : - : : : : : : 2 : 2 2 2 7 9 |.|.3 3 4 7 7 7 7 2 2 2 2 2 2 2 , , 2 2 8 9 8 3 : : : : : : 2 : : : : : : : 2 2 2 2 2 2 4 2 2 4 4 4 2 2 2 , , , , , , = 2 2 3 lXvXnXSXI.t t 6 4 2 6 2 2 2 2 6 5 2 2 2 2 5 5 6 6 6 t t t 6 6 6 6 6 6 6 5 2 , , , , , 2 , 6 6 e 5 > . . . > 5 5 6 , , 6 6 6 7 2 5 2 : : 4 4 4 4 2 2 5 5 5 3 P.-X6XC.* < < < < 4 4 3 LXDXFXIX9 2 2 < , 2 , , 5 5 : > > 1 1 g [ [ [ [ Y Y W < % ",
"7 g M w.w.T | _ E - 5 : 5 5 5 : : : : : : 2 2 3 sXFXFXIX$ < < < , < < < 2 7 p p p 7 2 2 2 2 : : : ; . j j m m ; : , , , , : j @ @ { d.e.g.; , : : , , , < , , < 4 , < < 1 6 1 7 O D  . .k 2 4 < < w w w 4 4 4 4 4 2 2 2 > o o O O j g g > 5 7 5 5 5 5 2 2 2 2 : : : 2 2 : : : : 2 : 2 2 2 I.xXvX3 3 3 2 2 2 2 5 5 5 5 5 1 > @ k.k.{ > 5 5 5 : 5 : 2 2 5 , , 5 5 5 2 @ w.7.w.O > , 5 5 : : : : : ; : : 2 : : 2 2 7 n bXbXA.9 i p p r 3 2 2 2 2 2 2 2 2 2 2 2 U.SXSXSX3 : : : : 2 2 : 2 2 2 2 2 2 2 2 2 2 2 2 2 4 3 8 u u r 3 3 3 3 3 , , , = : : $ xXvXnXnXlXi r t 6 4 4 4 2 2 2 4 2 5 6 6 6 6 6 t t i d n.n.a t r 3 4 6 4 4 5 5 2 2 2 2 2 2 5 5 1 7 O f.f.f.f.g.{ - 6 1 2 4 4 > { D D D D . 3 4 4 4 2 2 2 5 3 [.$X=XF.% , , , : 2 2 ; DXFXJXIXn 2 2 2 2 2 2 2 5 5 : : : 7 5 g [ _ [ _ Y | W w * ",
"g j M w.w.T Y _ W - 5 5 5 2 : 5 5 : : : : : ; 3 n |.sXlX; < , , < < < < 2 4 7 p p t 2 2 2 2 : : < ; j BXBXkXVX. > : : : , > @ p.p.u.u.u.f.> , - : , < , , , < < r * 3 m.9 3 6 6 O D K q.k < w w w w w w w 4 4 4 4 2 2 2 o d.w.w.D O j > > 7 5 6 6 4 4 2 2 2 2 2 : 5 2 2 2 2 2 2 : : 2 : 3 b vXY.3 3 3 3 2 2 2 5 5 5 5 : 5 > @ l.z.g.> 5 5 5 5 5 2 2 2 5 5 5 5 5 5 > D q.6.7.D > 5 5 5 2 2 : : : : : : : 2 2 2 2 7 n bXaX0XC.f p p p 3 3 2 2 2 2 2 2 2 2 2 2 n SXSXSX3 : 2 : : : : : 5 5 5 : : : : 2 2 4 4 4 4 4 * qXaXqXd 3 3 3 2 3 2 , , ; ; ; $ lXvXvXnXlXs s s p 4 6 4 4 4 4 2 2 6 6 6 6 6 6 r t i D.D.B.n.m.d b n b 9 * 2 2 2 2 2 : : 5 5 5 7 7 j e.0.0.0.0.e.g , 4 2 4 4 . e.9.9.u.u.. 5 t 4 4 2 2 2 2 3 P.[.P.d $ , : , : : : > mXMXMXmX9 2 2 2 : : : : : : : : : 5 6 g X._ [ _ | | W w 0 ",
"g g M ......| ) W > 2 5 5 5 5 > > > : : : 2 : ; ; . ; . : < 2 < < < < , 2 4 7 7 7 7 2 2 2 2 : : : ; X BXkXkXBXX ; : : : < ; @ p.u.u.u.u.f.. . . ; , < , , , 3 * r SXcXmXmXsX3 6 g D  .q.O w w w w w w w w 4 4 4 4 2 2 2 . w.6.7.K M j > 7 7 7 7 6 5 2 2 2 5 2 2 : 5 2 2 2 2 2 2 : : : : 2 8 f * 3 3 3 3 7 7 2 5 5 5 5 : 5 j O z.l.g.> 5 5 5 5 5 2 2 2 5 2 2 5 5 5 5 D w.7.7.D > 5 5 5 2 2 : : : : : : : 2 2 2 2 7 I.bXaX0XC.i p r r 3 2 2 2 2 2 2 2 2 2 2 2 n SXSXLX3 : : : : : : : > > > > > > : 5 2 4 4 4 4 4 8 aXaXaXC.3 3 3 2 3 2 3 , ; ; = < lXnXnXSXI.I.|.|.f 4 4 4 4 4 2 2 2 6 6 4 6 6 6 4 r 0 P.G.N.v.m.b LXLXLXLXU.; 5 2 2 2 : : : > . O j O e.0.u.9.9.e.o < 4 2 4 4 . 0.9.u.u.u.. 6 6 4 4 2 2 2 2 3 C.C.d 3 ; , : , : : : = ; ;   $ ; 2 2 2 : : : : : 2 : : : 2 2 - [ [ [ ] ) ) W r 0 ",
"7 7 g g h Q ! Q z : 3 2 3 . @ D f.g.O O g : : ; : : : : , , < , 2 2 2 2 2 2 3 p t 7 6 2 : > , : ; ; > BXVXkXVX. : = , , : ; O p.u.u.u.u.e.l.p.l.. < < , , , < 3 3 cXPXIXIXLXf e - o o j = e e w w w w w w w e t 4 2 2 2 . w.7.K U M g > 7 7 7 7 1 : - g g g 7 5 2 2 5 5 2 2 2 2 2 2 2 2 3 2 i r i r p p 6 5 6 6 6 7 5 5 g R O O O o 5 5 5 5 5 5 7 5 5 5 5 5 5 5 : : O D O O O - 5 5 2 2 2 2 2 2 : : : : : : 2 2 7 n aXaXA.i p t 4 4 4 2 2 4 4 2 2 2 2 2 : ; $ $ ; f 2 5 : : : : , g { { { O O O o 5 3 4 2 4 3 4 8 aXaXaXA.3 3 3 r i i r 3 3 3 < , < < r s U.|.|.|.C.3 4 r t t 6 1 1 5 6 6 6 1 1 4 e r n.v.d m.a f LXPXKXIXI.3 5 2 2 : : : : > o p.a.p.u.u.u.u.0.e.o < 4 4 4 4 . e.9.u.u.p.. t r w 4 2 2 4 4 5 5 2 5 5 , , : = = : , < 6 4 3 , , 2 2 : j O O @ @ @ o > : 2 2 - ` ' ' ` z z l r r ",
"5 t l h Q ` ' ` Q 2 2 2 3 @ e.u.u.e.D W k 5 : : : : : ; . > > > > : 4 2 2 2 2 2 2 , > o o o g - 2 = . 9 9 9 9 ; ; = = = : : O a.u.u.u.u.p.u.p.D ; < < = , , < < 3 sXPXUXUXIX9 1 < - 1 1 < w < 1 1 1 1 1 1 1 e 1 e 2 2 2 .  .K U M O g g > 7 7 7 7 g W } { { g 7 5 5 5 5 2 2 2 2 2 2 2 2 3 * u d C.b C.d r t 6 6 6 7 7 5 O M M g 7 7 5 5 5 7 1 7 7 1 1 5 5 5 5 5 : : g g g g g - > 5 2 2 2 2 : : 2 : : : 2 2 2 2 5 f C.C.p 6 t t 4 4 4 2 2 4 4 4 4 4 4 2 2 2 2 2 2 2 2 2 : : : 5 : . g.g.g.D D D M 7 4 4 6 6 3 4 3 aXqXqXA.i r i b C.C.d i * 3 3 < < < t x U.U.U.|.I.4 4 e 4 6 1 1 - g 1 1 g g g g y r r r r r r 9 IXIXIXIXU.7 5 2 2 2 5 . . . O a.u.u.u.u.u.9.9.e.O , < 4 4 4 ; @ O O O O 5 6 4 > = : = 5 6 5 5 , 5 , , , 2 . > . . . > : 3 3 3 2 2 ; { w.w.u.u.u.K > 5 , < - ` ' ' ' Q z l r r ",
"5 7 g R ! ` ' ` Q 2 , , 3 @ p.u.u.p.D k j 5 : : : : : . s.{ m @ m . 4 2 2 , 2 2 , 2 . } X.X.} . , = 5 > > > ; ; ; ; : : : : o a.a.p.p.u.u.u.p.@ X m U., , , < < 3 U.IXLXSXSX3 1 = = = < < w g W ] ] ] { { { { { /.2 2 2 : o o o g g g g g 7 7 7 t h { o.o.dXl 1 7 7 5 5 2 2 5 5 2 2 2 3 3 9 F.D.[.B.B.n.i p 7 6 6 5 7 5 O M M g - 7 6 6 5 1 g g l g 1 5 5 5 5 - : 1 - - - > > - > : 5 5 5 2 : : 2 2 2 2 2 2 2 2 2 p M.M.7 6 6 t 6 6 6 6 2 r 0 0 r 0 0 2 2 : 3 2 2 2 5 5 2 2 2 5 7 o g.g.g.U K K W 7 7 4 2 2 3 4 * u 8 8 * 3 i d B.Z.Z.d a i r r < < < 4 p n n I.I.x 6 6 e 6 g R R W W W W ) ) ) W w r r r y r w 3 mXcXcXcXn ; 5 2 2 5 > j X X O a.u.u.a.p.e.e.e.f.o 2 < < < < 3 - - - > 2 w 1 4 m gXgXgX> 2 , , , , , - : = > sX{ sXsXj > 3 3 3 2 2 ; { 7.7.u.u.u.q.> : 4 4 g ` ( ( ' Q Q l r r ",
"7 7 g z ! ` ' ! Q , 3 3 3 @ p.u.u.p.O j > 2 2 2 2 ; ; X kXkXkXc.hX. 4 2 , , , , , , o _ S A ) g , , , : : : ; ; : : ; ; = ; . . . . . p.u.u.p.c.c.hX{ = w < < < < $ 3 4 7 3 4 1 , , , 1 1 e g } o.o.o.o.o.o.o.o.(.: : : : : > > > > > g g g g g g z (.o.dXjXh h g - 6 5 5 2 5 5 2 3 3 3 3 u 0X4XaX4XiX0Xd p t t 4 7 5 5 > > > 5 5 5 5 1 e g l h h l l e 6 5 : : : : - : - - > : : : : 2 7 mXmXMXDX; 3 2 2 2 2 5 5 6 p t 7 6 6 6 r r r 3 r [.iX8X8X8X6Xu 2 3 2 2 2 : : : 2 2 2 : o D h.h.dX .K K W 7 t 6 2 4 2 4 3 4 4 4 r i d b [.yX].Z.Z.D.F.a w 4 4 7 7 7 7 7 7 5 6 1 e 1 W _ _ | | ........| R y e t r r w , 5 5 6 5 6 5 5 5 2 5 5 . @ kXhXc.a.a.u.a.@ . - . . : < < < < < < < < < 4 w w , 4 @ p.p.x.. 2 , , , 5 2 : , : . AXZXCXBXj 5 4 2 2 : : : {  .q.e.u.u.q.. , < < g ' ' ' ' Q Q l r * ",
"7 l g R R ! ` E R = ; 3 ; > @ O @ O > 5 > 2 2 2 : : > j kXkXkXhXc.. < 2 , , , , , : . | A S ) o 2 2 2 : : : : : : = = ; : < : : 2 2 . a.u.p.p.z.hXhXO j , , < < < , < < 6 5 1 1 , , - g g 1 g } ..o.o.o.o.o.o.o.} : : 2 : : > > > - 5 > > g h (.(.Q (.dXjXjXjXg.} g 7 7 2 2 2 2 3 3 i i d C.0X8XiX3XiXiXF.d a i p 6 5 5 5 2 5 5 5 7 g g g g k R R h h g g - > 2 , : : : : : : : : - 5 6 4 SXJXIXIX; 3 2 2 2 2 5 6 6 7 7 7 7 7 3 d B.D.F.V.L.uX7X7X2X8Xd 3 7 2 2 2 > 5 5 5 7 7 > D d.hXBXHXh.7.7.D j l > > 5 2 < 4 < 4 3 * 0X0X0X4XiXiXyXyX%XP.V.i 4 7 7 7 7 5 5 5 5 , 6 6 g } A | | | ..........R l l 1 e e 1 1 1 5 1 1 5 5 5 5 : : . X @ kXhXc.a.a.a.a.{ > w , , ; < < < < < < 4 4 < < < < , , @ l.p.x.. > , , , 5 5 : , > . AXBXCXkXj 7 w 4 4 3 3 3 2 - o O D D k 5 6 6 w g ` ' ' ' E E z r 3 ",
"t g k ..U | _ | W = 3 3 ; $ . . > : 2 2 2 2 2 2 : ; > X kXkXkXhXhX. < , , , , , , : - ) _ | X.o 2 2 , : : : : : : = ; = : 2 ; : : : . a.u.a.a.z.hXk.k.gX. , < 2 < 2 2 2 5 5 5 1 1 , . (.} W h X.......o.o.o.o.o.{ - : 2 > : > > - - 5 5 > g R (.(.X.X.(.jXjXdXd.o.g 7 6 5 5 2 3 3 3 d C.C.P.0X8XiXiXiXiXP.C.[.9XC.5 5 5 5 5 5 5 5 5 k W ) W R Q R R R W W W h 5 6 : : : : : : : - - 5 1 4 SXJXJXIX3 4 2 2 2 2 5 5 5 7 7 7 > 7 3 A.iX8X8XQ.E.iXuX7X<X8Xn.t 6 2 2 2 5 > > > > g g D w.kXjXKXf.7.7.D W W D O k 5 w < < 4 3 0 0XyXyXyXyXyXiXiX1XL.F.n.r 6 7 7 7 5 5 5 5 , , 6 h X.A | | | ..........R k /./.e w e 1 1 5 1 , 5 5 5 6 > ; s.s.@ kXhXc.a.a.a.a.{ . < , ; ; < < < < < < 4 4 < < < < , , @ x.x.gX. > , , , 5 5 5 5 > . BXBXAXBXo 7 4 3 3 4 3 4 2 w 6 5 > > 5 5 4 6 4 g ) _ _ _ ) Z R r r ",
"l l W w.w.w.I I } : , 2 3 , ; ; 2 , , 2 = - = . . X m m gXBXCXkXhXo < , , , , : , : , , , - 1 - , , 2 , ; , , = = , 3 3 3 2 2 2 : : . hXx.g.D hXc.p.z.c.. : w < < , 5 : 2 2 2 5 , , - o.| | | | | | | X.X.X.| X.W 5 2 2 > 5 > 5 - - g g h h E X.d.dXdXdXdXjXdXo.o.k l 6 2 2 2 2 4 f 9X0X-X-X-X-X4XiXuXiX8X8X8X8XP.5 5 : : : : 5 5 > W ) _ ] h h h R } | | | R 7 2 : : : : : : : 5 6 6 3 3 DXJXJXIX3 3 4 2 2 2 2 4 5 5 5 7 > > 3 C.iXiXiX1X1XuX7X8X@XJ.C.p 3 7 2 2 : > 5 j  . .T T f.HXmXHXw.7.7.0.0.0.7.K D - e < , 4 3 8 8XiXiXiXyXaXiXiX7X%XL.F.r 4 7 7 7 7 5 5 5 , , 2 h X.A | | | | ........o.o.o.(.e e 1 1 1 1 , 5 5 5 : 5 2 > X z.k.kXhXkX{ k.k.k.s.- 2 , = , < < < < , < , 1 , < < < , , - 5 5 5 5 5 1 , : > - - g o { kXKXPXHXgXgXgXsXm j . > : , 4 4 2 , 2 2 2 3 w - e.0.7.w.T P W r 0 ",
"l l W e.w.w.T T } : 3 2 3 3 ; ; 2 2 , : { g.g.g.gXKXPXKXkXBXAXkXc.O o o . . . - , < , , , < < 4 4 4 2 3 & & q q q q v.v.u q * 3 3 3 # . = $ X hXp.z.z.c.. - > 5 < , 5 5 2 2 2 > W W R X.| | | | | | | ~ R R R W k 5 5 2 2 2 2 > 5 5 g h R ] ] X.h.dXdXdXjXdXdXX.o.W x 1 2 2 2 2 3 C.0X0X0X-X-X-X4XiXuXuX3X3X8X8X9X2 : : : : : 5 2 > ] _ _ ] h z z W | Y | | R 1 6 > > > : : : ; n n n n b IXJXJXUXsXsXsXsX|.9 5 7 5 5 5 7 > > 7 b aXiXiXiXuXiX=XG.D.F.C.M.p 2 : : : : : O w.w.7.P h.HXVXBX7.6.6.8.8.6.6.P D 1 w < , 4 3 8 8X8X8XiXiXiXaXaX7X2X3X-Xr 6 5 5 5 7 5 5 2 : , , g ] ) ) ) ) | | | | ......d.dXl l - 7 5 5 , , 5 : : 5 5 > X z.z.kXkXkXm 3 ; ; ; ; < < 4 2 g g h h h h R Q Q g , 1 , , 6 6 6 6 6 6 6 g j @ D D { { @ c.KXUXAXkXkXkXkXkXc.K  .g , , 4 2 2 2 2 2 3 2 > e.0.0.w.T T W w 0 ",
"l l W e.w.w.T T } : 3 2 3 , ; ; ; , , ; k d.q.d.x.HXUXUXkXkXCXhXp.l.gXx.f.g.g.k , < , < , , 2 2 2 2 4 r 4XpXpXiXpXpXpXpXiXq r * 3 3 3 * $ % X c.a.z.z.c.O { O 5 2 , 5 2 2 2 2 . X.X.X.| | | | | | | [ E g g g g 7 5 5 2 7 7 7 > 7 5 7 h R ] [ X.h.dXdXdXdXg.(.] o.R x 6 2 2 2 2 i C.-X-X-X-X-X-X4XiXiXuX8X3X8X-XC.2 : : : : : : : > ] [ [ ] h z z W | | | | R 1 5 > > > : : : ; FXFXLXLXSXSXSXLXLXmXNXNXNXVXj > 1 5 5 5 2 > > 5 a aXiXiXuXuXiXL.D.N.V.n.x x 2 : : : : : O w.w.w.T h.AXkXx.6.6.6.6.6.6.7.K D 1 w < , 4 3 * F.V.S.8X8XiXiXiX2X2X2X-Xr 4 5 5 5 5 2 5 : , , 4 : . g - l W _ _ | | | ....d.dXR W R g - 1 , 1 5 : : > . > X c.c.kXhXkXm r < , , , < w w , W [ X.[ [ [ [ [ ] g , 6 , , 6 , , 2 5 5 5 { x.c.kXKXPXPXhXz.AXPXBXkXkXkXkXkXc.K K o 4 2 4 2 2 2 2 2 2 2 . e.0.0.w.T T W w 0 ",
"l l D 0.w.w.I T | = 3 2 3 3 3 3 ; , , = k q.w.q.p.BXUXPXBXhXc.a.u.c.KXAXhXa.p.O , < , 2 2 2 2 2 2 2 3 3 G.pXuXuXuXuXuXuX7Xq q q * 3 3 * * $ O c.a.z.z.l.l.f.D : 2 2 2 : : = - o X._ S S _ Y | X.| [ [ ! g 1 5 5 2 3 3 2 7 t 7 4 7 7 7 g R ] o.d.h.h.o.o.o.X.X.R h g l t 4 2 2 3 r d P.[.-X-X-X-X4X#X6X8X3X8XB.3 3 : : : : : : : : - h h R h h h h ) | ) ) ) h - 5 > > > : : : . FXNXNXNXSXqX9X9X9XNXNXVXVXGXj 7 7 5 5 5 2 2 2 3 r 0X8XuX3X7XiXL.B.F.n.3 3 7 3 2 2 : : : O T T Z A T e.0.0.8.6.6.6.F M M U W 1 4 3 4 4 4 4 2 2 q 8X6X&X3X7X2XrX2X-X0 3 5 2 2 : : : : , : < < < y y y R ~ ~ ) ~ ) ..d.h.o.X.X.X.} h 1 1 1 5 - > : jXdXc.c.c.kXhXkXm w < < < < < e w g ] [ | | _ [ [ [ [ g 1 , , , , , , , , , : @ l.a.kXKXUXUXkXp.hXhXkXCXCXkXhXc.p.K U g 4 4 2 2 2 : : : 2 4 . e.0.0.w.T w.} e % ",
"x x D 0.w.w.T I } : 3 3 2 3 3 3 ; ; , : O w.T w.p.hXPXPXBXx.u.u.u.c.UXKXl.u.p.@ , < , 2 2 : 2 2 2 2 2 3 B.iXuXuXuXuXuXpX*XaXbXaXv 0 r 3 ; ; @ hXk.x.c.l.l.l.g.. , , , : - k R E _ _ S S S | R h h h h h 1 6 6 6 5 2 2 3 3 7 7 4 7 7 7 g h ] d.h.h.dXX.X.X.X.[ Q l e e 6 4 2 2 3 3 r i a C.-X-X4X4X-XE.#X$X:XC.3 3 : : : : : : : - > , , , o ) ] ) _ ) h z h g 5 5 > > 5 : : : . DXNXNXNXNXqX6X6X9XNXVXVXVXGX9 7 7 5 5 5 5 7 2 7 3 9X3X3X1X7XuX1X8XD.u i 4 4 2 2 2 : : : g R W ) A Y 8.8.8.8.8.6.w.Z W R h g 6 4 2 4 2 2 2 2 2 u 5X5X&XuXuXrXrX2X-X0 3 5 2 : : : : : , , < < < 3 < 4 g g h R R R d.d.d.o.X.X.| X.h g 1 1 5 - : . s.z.z.z.c.sXgXMXm w w w 3 = . . h ] [ _ | X._ [ [ [ [ g 1 , , , , , , , , , 5 O e.u.p.kXIXKXx.p.p.l.AXKXHXkXp.u.u.K U o 4 4 2 2 2 2 2 2 4 r . e.0.e.w.w.7.} e % ",
"l l D e.w.w.T T } 2 3 3 3 3 3 3 ; ; , : O T P P 0.h.AXPXBXl.u.u.u.c.KXBX6.9.u.D , < , 2 2 : 2 2 2 2 2 2 B.iXuXuXuXuXuXuXuXaXaXaXv 0 3 3 ; ; X X X X x.l.l.p.h.. , , : : - h E ~ _ _ S S S _ h g l g g g 1 6 6 4 5 2 2 2 3 7 7 4 4 7 7 g h ] h.h.h.dXX.[ X.[ [ E g t 1 4 4 2 2 2 3 r i a C.-X%X%X-X0XQ.6X1X4XF.3 2 : : : : : : : - - : , < o _ _ _ _ E g g g 1 : 5 > > > : : : . DXNXNXNXSXqX8X6X9XSXVXFXFXDX9 5 7 5 5 5 7 7 2 7 i P.8X8X6X1XuXuXiXZ.u p 7 4 3 2 2 : : : 5 - g R S Y 6.8.0.6.8.6.w.M h l l 1 5 6 5 2 2 2 2 2 3 0 6X6XQ.7X7XrXrX2X-X* 3 5 2 : : : : : , , 2 2 3 3 < 3 1 e g g g o d.d.d...X.X.X.X.h g 1 > 5 - : ; g.z.z.z.c.X       < w w 1 l } ] X.X.| _ | | [ [ [ [ [ h 1 , , , , , , , , , , O w.6.7.K gXx.p.p.p.l.GXKXAXhXu.u.0.K U o 4 3 2 2 2 2 2 2 4 4 . f.w.d.d.....{ t % ",
"l l g h R E ' E k 3 3 3 2 2 : ; ; ; , : o M D D T F h.HXhXp.0.u.u.p.c.x.f.l.l.s.= , : , 2 2 2 2 2 2 2 3 d 8X5X@XuXuXuXuXiXaXaXaXu u q q * ; # # #   x.p.p.l.x.. , , < 1 h ) _ _ S _ _ R W ] g g 1 1 1 5 6 6 5 5 2 2 3 3 3 4 4 4 4 4 7 6 g E [ [ | X.] W ] ] ` ! z e 4 4 4 , , 3 3 f f b C.-X#X%X%X-Xq * 8 0 * 2 5 : : : : : : : : , , , , R A Y Y A E 1 e 1 1 : : : > > : : : > ; ; 9 9 8 d F.F.F.  . ; ; ; 5 5 5 5 5 5 7 7 7 7 4 3 i i a B.uX<X3X%XP.C.p 4 5 2 2 2 : : 5 4 2 R _ | w.7.T T T 7.w.O g l e 6 6 6 5 2 2 2 2 2 3 * q 0 q 1X<X2XiXL.P.r 3 : : : : : : : 2 2 2 2 2 2 2 2 < < w 1 1 o { o M X.| X.X.X.X.] g - - : : > g.l.a.a.a.o = # # < w w , . ( | | X.X.X.X.X.X.` ` ] ^.h 1 , , , , , , , , , 1 @ f.f.f.f.f.l.p.p.e.e.BXBXkXw.T T  .D { g 6 2 2 2 2 3 2 2 2 4 , ` ` ^.^.Q Q z w w ",
"e y e M.~.^.^.` Q 3 3 3 ; : : ; ; ; = = , 1 1 - | J T x.l.0.8.9.u.u.0...h g g o = , , 2 2 2 2 2 2 2 2 3 * C.D.N.D.D.D.D.u aXaXbX9XvXaX9X* 3 < # #   k.p.a.a.x.. 2 4 < - R _ _ S S _ X.g 1 - 1 1 1 6 5 7 6 6 6 2 2 2 3 3 3 4 4 4 4 4 6 6 1 R _ _ ( [ R l Q ! E ! z e < 4 4 , , 3 n I.A.A.A.P.-X-X].P.* ; , , 2 2 2 : : : : 5 : 5 > - h h g W A S B ~ ~ g 1 1 1 : : : : : : : : 2 , - : : ; 3 p i 6 2 3 4 2 2 2 2 5 5 5 5 7 7 7 7 6 7 7 6 6 * 8X=X3X8X8X-Xd 3 7 2 2 2 : : > 2 : ] _ _ T T Y Z Y Y T W W h 1 e 6 6 2 2 2 2 5 5 2 2 r < 0 #XK.].#XV.i 4 2 : : : : : : : 2 2 2 2 2 2 2 2 4 4 4 4 < , < = W X.~ X.X.| X.X.R g - : : > g.p.p.a.p.@ < < % < < , R } X.o.o.o.(.. 1 g g g g g g 1 1 , , , , , , , , , 5 - o g g g hXc.c.x.e.e.f.e.6.P Y } g 1 : 5 6 4 3 2 2 3 3 2 2 t , ^.^.^.^.Q Q z w r ",
"e l l Q ! ^.' ^.Q 3 3 3 3 3 3 ; 2 : , = < < < - T P P p.0.8.8.9.u.u.9...l e 1 - , < 2 2 2 2 2 2 2 2 2 2 ; 3 0 0 0 0 0 0 8 aXaXaXbXaXaX9X* 4 w % $ X x.a.a.a.l.. 2 3 < g R _ _ _ X.X.X.g 1 , , 1 1 6 5 5 6 6 5 3 2 2 3 3 4 4 6 7 2 4 6 4 6 h [ [ [ ] z l Q ! E ! h e < 4 4 2 2 3 I.Y.A.Y.A.C.P.[.[.P.* , , 5 2 2 5 : 2 2 : 5 5 : : g W W W W _ _ ~ ~ ! g 1 1 1 : : > : : : : : : : : : : : 4 3 3 3 2 2 , 5 5 5 5 2 5 5 5 7 7 7 7 7 7 4 4 6 3 Y.9X3XuX4X[.d 3 7 2 2 2 2 2 > : : } _ _ | Y A Z _ Y Y } o.k 1 1 5 6 5 5 2 2 5 5 2 4 4 < * -X#X#XQ.n.w 4 2 : : : : : : : 2 2 2 2 2 3 3 3 3 3 3 4 4 < w - (.X.(.(.X.| X.X.h g 1 5 : > g.p.u.u.p.@ w w < < , W o.| ..o.dXdX(.- w < e w w w < < , , , , , , , < , , 1 1 1 e e - hXc.c.x.0.0.8.8.8.P K { 6 , 2 2 2 2 4 r r 4 4 r 4 r 1 ^.^.^.^.Q Q z w r ",
"e l z Q ~.^.^.' z 3 3 3 cXLXLXLXSX9 = , = , = = ..7.7.8.8.6.6.0.u.u.u.T g e 1 , < < 2 2 : : 2 2 2 2 6 2 3 2 4 4 4 3 * * i A.C.m.vXaXaX9Xq y 0 % * X x.z.a.a.l.. 6 < < h ) V A _ o h (.g 1 1 , 1 6 6 6 1 7 4 3 3 4 3 3 3 t r r 3 3 4 2 2 2 > g g g g g t g h Q Q g 6 2 2 2 2 2 2 n b I.n p 3 3 3 3 3 3 2 , , , , 5 2 2 : : > > 5 > g ) ) ) R h h g g g l 1 5 - - > : 2 2 2 2 2 2 2 2 : 2 2 2 2 2 2 2 2 2 5 2 2 2 2 2 5 5 l 2 7 ; ; > > 6 7 6 3 3 6X@X%X-Xd r 7 2 2 5 > : : 5 > } _ _ ) E E R R R W X.} h 1 1 5 5 5 5 5 5 5 5 5 4 4 < < a u a i r < < < : : : . > > > : : : : : : 2 2 : 2 3 4 4 < w , . . - Q X.[ [ [ E h - 5 , > f.u.u.u.e.@ 6 e e y , R | | (.g l /.).= w < < < < < < < , , , , : , = , , , 1 < < e 1 . gXc.c.e.0.0.8.8.8.7.T { , < 4 2 2 2 * 9X0XqXqXA.r r 1 ^.[ [ ^.Q Q z y r ",
"l l z Q ! ~.^.` z 4 3 2 lXSXFXFXLXn , = = = = = Y L P H Y H N B w.p.l.U g e 1 , < < < 2 ; . . . - . . . . . . X . 3 * * < w e y vXaXaX-X6X6XN.* 3 > . M 0.u.p.o , e 1 h _ S S [ g e 1 1 1 1 6 6 7 1 7 4 r i i i d d C.C.C.V.F.i 4 4 2 2 2 , < < , 6 5 5 5 1 - g 1 5 2 2 2 2 2 2 4 3 7 7 7 3 3 3 2 2 2 : : 5 : > : : > : : > : 5 : g ) ) ) h e e 1 1 e l h D D @ o > 5 5 2 3 2 2 2 2 2 2 2 2 2 2 2 2 2 2 2 2 2 5 2 5 5 5 > UXIXIXIXDX> 6 7 2 3 3 Y.P.-X9Xf 3 7 3 2 7 7 7 7 7 7 W W W R g l z z z z } } k e 6 5 5 5 5 > > 7 7 7 : 2 4 4 < < ; , , < < < , , > s.D D D D D D D D @ @ O O o > > 7 , < < < < < g ^.[ [ [ [ ^.g 5 2 > q.0.8.D O h e e 1 W W ) ) o.(.g 1 , = < w 1 > . . . . . . . . . . . . . < , , , < 1 < o U T P Y Z Z M M M 7.w.} - , 2 2 2 2 8 aXaXpXaXB.r r 1 ^.^.^.^.Q Q z w y ",
"l l z E ! ! ^.] k 3 3 2 sXLXFXFXLXf , = = = = = Y I I A ~ ~ V B B M Z ) g w w , < < < : > g.D D D s.q.s.g.k.x.hXm r r 3 3 w w y xXaXaXiX8X7XW.0 3 7 O K 0.u.p.o , e 1 R C S S [ g e 1 e e e 1 1 > > j I.sXlXxXxXxXxXaXaXaXaXaXu 3 4 2 2 2 2 2 , 4 5 5 > 5 6 1 1 1 5 2 2 2 2 5 5 2 3 7 5 5 2 2 2 5 5 5 : : > j 9 9 x ; : : : : 5 5 g W W W g 1 e 1 1 1 l M f.0.e.D > 2 5 2 3 2 2 2 2 2 2 2 2 2 2 2 2 2 2 5 2 2 2 2 5 5 5 ; IXFXNXNXNX7 6 7 2 2 2 r a d d i 3 7 3 3 7 t t t 7 7 j k W z g l l l l g h k g e 6 5 5 5 5 7 > > > > > 2 , < < ; , , < , < < , , . e.0.e.e.e.e.e.e.e.e.e.e.q. .D @ j > 1 < 4 < < z ^.[ [ [ [ [ h 6 6 > q.8.8.D O l e e 1 (.X.o.X.} (.g 1 w , w < < > kXgXgXdXs.s.s.s.s.k.k.gX. < , , , , < , o T J H A _ _ M ~ Z w.w.} - , : 2 2 2 8 aXaXpXaXN.r r 1 ] ^.^.' Q Q h y y ",
"l l h d.| _ [ X.W 4 3 : sXcXmXmXcXf , , , = , > ..T Y _ R R E ` ` ^.' ^.h < < , : , , 2 . e.u.u.u.u.u.i.u.a.a.c.j y y w 2 e e t Y.F.u 8X5X5XW.n.i 7 O D 0.9.e.o , w 1 R V V ~ R g 4 w e w e t p zXVXVXVXNXNXNXnXnXnXbXaXaXpXpXv.0 0 q & * , , : 2 2 2 5 5 5 5 5 5 6 5 2 2 2 2 5 5 5 2 5 5 5 5 2 5 5 5 5 2 > mXVXGXDXn 7 2 2 2 : : : 1 7 - 1 1 1 1 1 1 l M e.9.9.w.> 4 6 2 2 2 2 2 2 2 2 2 3 3 2 3 3 3 2 2 2 4 , 5 5 5 5 . IXFXFXFXFX> 7 7 2 2 2 5 2 2 4 7 3 3 3 3 7 7 7 7 6 5 5 5 7 7 7 7 5 5 5 5 5 5 5 6 6 6 5 5 5 7 j g.f.g.{ . = 4 < < , 2 2 - - - - - > e.0.0.9.9.9.9.9.9.9.9.u.9.9.9.0.{ > y w w w 1 l Q R ! ^.[ ' h 6 t > q.8.8.D o l w e 1 (.) X.g - l e 1 w , < w w 7 gXhXhXhXhXhXc.c.c.z.z.c.. , < < = = , , o Y Y | E R h R ~ | T d.} - < : : : : * aXaX0X9Xd r w - ......| Y Y ) w q ",
"e l h w.w.T | X.W 4 4 3 : 3 4 7 3 5 5 , , = = = h R h h 1 1 , - g ~.^.^.h < < , : . j o o 0.u.u.u.u.u.u.u.u.u.c.X 5 = . . . : r w < i 6X5X5XW.a p 7 O M 0.9.e.O : w 1 R V V E 1 e t t e t t t x zXBXVXVXVXFXNXSXSXnXbXbXaXpXpX8XiXiXiX8Xu 3 : 2 2 2 2 : 5 5 5 5 5 5 4 4 2 2 4 2 5 5 2 2 2 2 2 2 5 5 5 5 5 7 sXVXVXGXn p 2 2 2 2 : : 2 2 2 , 1 1 1 1 1 1 O f.e.0.d.> 4 4 4 4 4 4 3 3 2 2 3 3 3 3 3 3 3 2 5 5 6 6 6 5 5 5 ; IXIXGXGXIX; 6 5 2 5 2 5 2 2 2 2 7 2 7 7 7 3 7 7 5 5 5 5 5 5 5 5 5 5 5 5 5 5 5 6 6 6 6 7 5 7 > f.p.p.g.. : 4 < , , 2 2 O  . . . . .e.9.9.9.9.9.9.9.9.9.u.u.9.9.0.u.D j M.e 1 , 1 1 1 g ! [ [ [ h 7 6 > q.6.8.D o l e e - (.o.X.g e l e e x ; . = : > gXhXhXhXhXhXc.c.c.z.z.c.. . > = , , < 1 g | _ ) g - - - g o O W k - < : : : : ; 0 0 3 3 3 w w . w.w.w.P P 7.U w w ",
"l l h e.w.T | X.W w 4 4 2 4 4 5 2 6 6 6 , : : = : 1 1 1 1 < < < < 1 l l - , , , = . x.g.D u.u.u.u.u.u.u.u.u.u.l.{ s.k.k.c.s.. w w w s 6X5X5XS.a f 7 o M 0.9.0.O : w 1 R B ~ h 1 w 6 j > > 1 7 7 mXBXVXVXVXFXFXSXSXnXbXbXaXpXpXpXuXuXuX7Xu 2 2 2 : 2 2 - : : 5 5 5 6 4 4 2 5 5 5 5 5 2 2 2 2 2 2 : 5 5 6 7 7 sXVXGXJXn 7 7 2 : 5 : : - : 5 5 , 1 , 5 5 5 o O O O O > 3 4 4 4 4 2 2 2 4 2 3 3 3 3 3 3 3 2 5 5 6 6 6 5 2 2 ; MXmXmXIXmX> 7 5 2 5 5 5 2 2 2 2 7 3 3 3 3 3 3 7 3 2 2 5 5 5 5 5 5 5 5 5 5 , 2 5 6 6 6 5 ; > . f.p.p.g.. , 4 < , , 2 2 O T T T T I 7.9.9.9.9.9.9.9.9.9.u.u.9.9.0.u.@ j x l 7 > - - e g ! [ [ [ h 7 6 > q.6.8.D o l e e g (.(.(.g e y e t sXKXJXDXMXzXkXhXhXhXhXhXc.c.c.z.z.l.s.{ O : , < < 1 g R R h - 1 , 1 - 1 1 g - - < : : : : : 3 2 5 2 , w w . d.w.w.7.7.7.U 1 % ",
"l l R e.0.T | X.] 4 4 4 2 2 2 2 5 2 , , , , , , , < < < , , w < < w < < , : = , = . l.9.8.u.u.u.u.u.u.u.u.u.u.a.z.z.z.z.z.s.. y y e x F.W.W.N.d d 7 o O e.0.e.O , w , W Z E g < w , zXkXBXBXBXBXBXBXBXVXZXFXFXNXSXnXbXbXaXaXpXuXuXuXuX1Xu 3 2 2 : : : - : : 5 5 5 7 3 > > 3 2 6 5 5 2 5 5 5 5 5 5 5 5 x m m VXGXGXHXJXJXKXDX> 2 5 2 5 5 5 5 5 5 5 5 1 5 : : : = : 6 4 3 4 4 3 4 4 4 r 0 u 0 u u 0 0 u u F.i r 4 t 4 4 2 2 2 3 , 7 7 7 7 5 5 5 5 5 5 5 2 2 p LXLXLXLXIXn 7 3 7 5 2 2 5 5 5 5 5 5 5 2 2 2 5 5 6 7 n DXjXgXz.z.z.k.j j , < 2 , 4 4 g T I P L I 7.9.9.9.9.9.9.9.9.u.u.u.9.0.u.i.5.s.s.s.s.k.. > 1 h ` [ [ [ h 7 6 g q.6.6.D g g l k k g g g l t l e t sXBXCXCXCXAXkXhXhXhXhXhXc.c.z.z.a.p.p.l.@ : = , < < < < < 1 , < , < , , < , , < < 2 2 : : : 2 2 2 5 5 e w - w.w.w.7.P P | < % ",
"l l R w.0.T | X.] 4 4 4 2 2 2 2 5 5 , , , : : : , , , , , , < < < < < , , = = : : > x.0.8.u.u.u.u.u.u.u.u.u.u.a.z.z.z.z.z.k.. M.5 . { g e b.Y.I.M.. o o w.w.w.O = w , g h h g 1 e < sXgXkXkXkXkXBXBXBXVXZXZXNXNXNXnXbXbXaXpXpXuXuXuXuX7Xu , 2 2 : : : : : : 5 5 2 ; sXsXsXn 3 5 5 5 2 2 2 2 5 5 : 5 5 n sX{ HXGXHXJXJXJXJXIX> 2 2 2 2 5 5 5 5 5 5 5 5 5 , , , , , , 4 3 3 4 r 0 y s 9XiXiXiXaXaXaXiXpXiXiXn.a r y 2 2 2 2 3 3 t p t > 7 5 5 5 5 5 5 5 5 4 9 IXFXFXFXLXU.3 7 2 2 5 5 5 5 5 5 5 5 5 5 5 5 5 5 5 7 m AXBXkXz.z.a.l.s.{ 5 4 4 , < < g T I I I I P 9.9.9.9.9.9.9.9.u.u.u.9.0.u.i.a.a.a.a.a.a.X > 6 g h h ] ^.h 7 t j q.7.7.M g e g /./.g 1 g j m m j > sXkXBXAXCXCXBXhXhXhXc.c.c.z.z.z.a.p.p.l.O : , , < < < < < < < < < < , , , , , < < 2 : : 2 2 2 2 2 2 2 4 , g w.w.w.P P P U < % ",
"l l W w.7.T | X.] 4 4 4 3 2 2 2 5 5 , , : : : : : : : : : : < , , < , , , = = = 2 > x.0.0.0.0.0.u.u.p.u.u.u.u.a.z.z.z.z.z.l.x.k.g.g.g.g l b.I.I.M.. . O d.w.w.O - < < 5 , 7 7 . . = { kXhXkXkXkXBXBXCXVXFXVXNXNXnXvXaXaXaXaX8XuXuXuXuX7Xu 2 2 2 : : : : : : 5 5 2 9 NXNXNXn 7 5 5 5 2 2 2 2 5 5 5 5 5 n sXs.HXGXHXHXJXJXJXIX; 2 2 2 2 5 5 5 5 5 5 5 5 5 , , 5 , , , 4 3 r r u [.P.n.9XpXpXpXpXpXpXpXpXpX8Xv.d n.a 2 2 3 : 2 2 7 7 7 7 > 5 5 5 5 5 5 5 5 2 9 LXIXJXFXIXn 3 2 2 2 5 5 5 5 5 5 5 5 5 5 5 5 5 5 5 9 m AXBXkXz.a.a.l.s.{ > 4 4 < < < g T I J I J K q.q.q.q.q.q.q.q.q.q.q.q.q.i.i.a.a.a.a.a.z.j j j j g g h h h t e g K 7.7.M g e 1 /./.g g l j VXkXkXgXkXkXBXAXCXCXBXhXhXhXhXhXc.c.z.z.z.p.p.g.o : 2 < < < < < < < , < < < , , , , , < < 2 : : 2 2 2 2 2 2 2 2 , g w.7.w.P P P U < % ",
"t l h Z U U | | ] 1 4 4 2 2 2 2 2 2 2 2 5 5 : : : : : 5 , : > 2 = ; . . - = ; : : : O O O j o o o o j O O O O O @ @ O D a.a.a.p.u.u. .o l m.).!.M.. o o w.w.w.O - w , < 4 6 9 kXkXgX@ hXhXgXs.sXm m j > : 2 2 2 < < < < < < * -X1X1X1XP.0 , , , 2 , : , , , 5 5 5 ; NXNXNXn ; 4 2 2 2 2 2 5 5 5 5 5 5 7 7 j j VXVXCXsXsXsXU.; 2 2 2 5 5 5 5 : : 5 2 2 5 : , , , , < 3 r r r u aXaXaXaXaXaXaXaXaXaXaXaXpXiX-X0XaXP.2 4 3 2 2 2 2 > 7 > 5 5 5 5 5 : : 5 5 2 r b I.|.xXvXu 3 2 2 2 5 5 5 5 5 5 5 5 5 5 5 5 5 5 5 7 n GXgXs.e.p.p.f.@ j 5 4 w 4 4 < - }  .| | | O - < < 2 4 6 6 6 5 7 7 2 : j m D 5.q.i.a.z.@ s.k.j g l l l g t y g w.7.7.M g e 1 g W k - g . sXhXkXhXhXkXkXX 9 . X X X X . . . . . . . . o > > 2 2 2 4 w r 0 0 4 4 4 4 < 4 , 1 < , 2 2 2 2 2 2 2 2 2 2 2 2 2 6 g ..T T Y A U ) e q ",
"t x R Z Z ) | | ] 1 4 4 3 2 2 2 2 2 2 5 5 5 : : : : : 5 : : 2 9 MXPXJXMXj : ; : 2 : 6 e 6 7 6 6 6 1 4 6 4 2 2 , 2 4 > O p.p.p.p.u.p.D . . m 9 m.y . . o w.w.w.O = , , 6 > 7 . kXhXhXhXhXhXkXj j t t t 6 r w 4 4 < < < < < 2 2 i r r r r < , , , , 2 2 , : , , 5 2 ; SXSXmXn 2 2 2 2 2 2 2 5 2 2 2 5 5 2 , , 9 VXVXZXn 3 4 5 2 2 5 5 5 5 5 5 : : : : : , , , , 6 6 4 3 * 0 y a aXbXbXLXLXLXLXLXLXLXLXSXnXbXaXpXaXY.* r 3 2 2 2 5 5 > 5 > > 5 : : : 5 5 2 4 4 C.Y.9X9XqXi 2 2 2 2 5 5 5 5 5 5 5 5 5 5 5 5 5 2 2 2 : : - . e.0.0.q.k j 7 6 6 4 , , < - 1 g g - - < < < < 4 6 6 6 t t t 4 4 4 7 k j f.a.a.z.c.c.i.O j l l l 1 6 r g w.7.7.W - w 1 - g j sXs.@ s.hXkXkXhXkXkX. w w 4 4 4 4 4 5 5 7 5 5 5 5 5 5 : 2 2 2 r u D.P.[.P.4 4 4 4 4 4 < 4 4 4 4 2 2 2 2 2 2 2 5 5 5 4 1 g | ....) E E Q w w ",
"s x k Z _ _ | | ] 1 4 4 2 2 2 2 2 5 5 5 5 5 5 5 5 5 5 5 : : ; 9 DXJXCXCXk > ; : : : , 6 6 6 6 6 4 4 4 4 6 5 , , 5 6 > O p.p.p.p.p.p.s.VXBXkX  r e . . o w.w.w.O , w 5 > > 2 . kXhXhXhXkXkXkXm > t 6 6 4 4 4 4 4 2 3 < < , < , < < , < , , , , , : , , , , : 2 5 2 : f f j 7 2 2 2 2 2 2 2 2 2 2 2 2 2 2 4 4 n FXZXFXn 4 2 6 4 2 5 5 5 5 5 5 5 : 2 2 2 , , , , 6 4 3 r u P.N.8 aXbXnXLXUXUXIXIXIXIXIXIXLXSXaXaXaXA.[.P.0 2 2 2 5 5 5 > > > 5 : : 5 5 5 2 4 3 C.9XqXqXqX3 2 2 2 5 5 5 5 5 5 5 5 5 5 5 5 5 5 5 3 2 6 2 , > e.0.0.q.k j 7 p t , < < < < , , w < < < < < 4 4 5 6 6 t t t 4 : 2 5 5 j l.z.z.c.c.c.z.s.j l l l e 1 w - w.7.7.W - e 1 g g @ kXkXkXhXkXkXkXkXhXkX> 6 6 1 6 6 , 2 5 7 5 5 5 5 5 5 > 2 2 2 2 r [.aXpXiXL.r 4 4 4 4 4 2 2 3 : : : 2 2 2 2 2 2 5 5 5 4 t g ..w.w.| ` ! Q w 0 ",
"s x R Z A _ Y | ] , 4 4 3 2 2 5 > ; X X X X X X X ; 2 5 : : 2 9 DXHXAXHXj : 2 2 2 2 : 5 1 t 4 4 4 , , , 4 4 4 , 2 2 ; . . . o o D k.c.z.a.i.. 6 , - . o ..w.T O , < 5 . gX{ O kXc.k.  . X X > > 6 6 6 4 3 3 4 4 4 4 < < < < < , < < , , , , , , , : . D { { g 1 6 5 7 7 5 5 5 2 5 2 2 : - 2 , 5 2 5 3 2 2 2 2 2 7 7 4 r 4 4 , 2 2 2 > 9 j . . : 2 2 2 , , , , 4 3 3 r u SXSXSXnXSXSXSXLXIXIXLXLXLXLXSXSXSXbXbXaXaXaX0X0 4 4 5 5 5 : : 5 : > 5 5 > 5 1 2 6 6 4 4 4 3 3 4 2 2 2 2 : : 2 6 6 6 5 7 5 6 6 5 2 7 5 5 5 1 : > { 5.D @ k j j j j 5 < < < < < < < < < 4 4 4 4 4 6 6 6 6 4 4 4 4 6 6 6 4 . . . .   s.a.k.@ j g 7 e w e g w.7.7.W g l g g g O kXhXhXhXkX@ m m s.m 6 6 6 6 6 6 6 6 6 7 7 7 5 5 5 > 5 5 2 2 2 r Z.iXuXiX-Xr r t 2 w 4 2 %.3.3.:.j.j.%.%.m 7 r 6 2 2 4 t o ..w.w.) ` E Q w q ",
"s x W B A S Y | X., 4 3 3 3 5 > X s.j.r.j.r.r.@.:.+ ; : : : : ; m m sXsXg 5 : 2 2 2 2 4 r r r t 6 4 4 4 4 4 2 2 2 2 2 3 4 4 4 : { l.a.p.p.i.@ s.s.. - . M M Z h , w 5 X c.hXgXs.gXgX> < < , 2 2 2 , , 4 4 4 4 4 2 2 2 2 2 2 2 , , , , , , , , , < : O P 7.w.o 1 , 5 5 5 5 5 5 5 2 ; j X . ; 5 2 2 : ; ; ; 3 3 ; 3 r 4 r 4 4 4 2 2 5 + r.r.5.%.X 2 2 2 2 , , , 4 3 0 0 u SXSXSXSXLXLXSXbXSXLXIXIXIXLXSXvXSXLXLXnXbXaX-Xa r w 6 5 5 5 : 5 5 5 5 . D O O o 7 2 4 4 4 4 4 6 2 2 2 2 5 5 5 5 7 1 1 1 6 n U.sXsX|.5 5 5 5 5 5 > g l j x x x j j 5 , < 4 4 < 2 4 4 , , 4 2 5 6 6 6 6 6 4 4 6 4 6 6 4 3 4 3 3 < m gXk.c.s.s.g.O e e e o ..K U W g g k g.s.@ gXkXkXhXkXX . ; ; > 4 4 4 6 6 6 6 6 6 6 7 7 5 5 7 > 2 5 2 2 2 3 P.iX8X8X9Xr r r r r 3 ; m j.y.#.y.#.y.@.m 7 6 4 5 2 4 t g ..T T ) ~ E R < q ",
"s x W Z V _ Y | ] , 4 3 3 3 7 . @ 5.t.y.y.r.@.@.@.+ X : : : ; > > > j g > 5 2 2 2 2 2 3 r i s 3 4 4 4 4 2 2 2 3 3 3 > : 6 6 6 2 s.l.p.p.f.k.l.z.s.. . . O B V h = < 5 . hXc.s..     = w ; ; : 2 , , , 4 4 4 4 4 4 4 4 4 2 2 < < < < = , , , , , 5 > O 7.7.w.o , 6 5 5 5 5 5 5 7 2 X fXs.sXm 5 4 6 ; $ X X X X X X 9 9 * 4 4 4 4 2 5 @ t.t.t.s.X 2 2 2 2 < , 2 3 * 0 0 u SXSXSXSXLXLXSXbXnXLXIXLXIXLXSXvXSXIXIXvXbXaXG.q 0 u * 5 5 5 : 5 5 5 5 o 0.0.0.D > , 3 3 4 5 5 5 2 2 2 2 > g j j - 7 1 7 t lXSXNXcXlX7 5 5 5 , 6 2 5 1 7 x j j j j 5 , < 4 4 2 2 4 4 4 4 4 2 5 5 6 6 6 4 4 4 4 4 4 4 4 4 w t t r j j j k D a.k.O e e e h } M R h g g @ x.z.l.s.s.dXgXgX. ; 2 2 2 , , , 6 6 6 6 6 6 6 7 7 7 7 7 5 5 5 2 2 2 3 0 u u u u r r r 4 9 m @ + j.y.y.@.y.y.@.m 7 t 7 5 2 4 t g ..T T ) ` E R < q ",
"t x R / ( ( _ | ] 5 3 4 4 7 6 s.5.@ t.j.j.j.j.j.r.+ %.9 : : , 5 : : : > 2 2 2 4 $ * * b 9XqXqXC.r 4 4 4 4 4 3 3 3 4 4 4 4 3 3 3 j o . . .   k.i.O . = : R Z Z o - 2 : . kXhX{ t w w w w 2 k j j j j j k m m { { m g 5 5 , , , , , : , , , , , , < : O w.w.w.g , 1 1 5 5 5 7 7 5 5 ; fXj.j.m 5 2 6 ; c -.&.%.O.O.O.$.%.c < < , 6 : > %.t.t.t.@ X , < < < 2 4 w i Z.aXaXaXSXLXLXSXLXLXLXbXnXLXIXIXIXLXSXbXLXIXLXaXaXpXpXaXiXiXq 4 2 2 2 : : : > O 0.8.8.D > 4 2 2 2 2 4 2 2 2 2 : /.dXg.g.{ l t t 7 sXmXcXcXcX2 6 5 6 5 5 5 5 7 7 7 7 g j 7 5 < < 2 4 4 2 4 4 4 1 6 x /./././././././././././.k x x l e t y e y g s.p.s.O e e e g g h k l 1 1 O x.c.x.{ . = = . : 5 6 1 1 < < < 1 1 1 1 1 1 e t 1 h h h o o . . 2 2 2 2 2 : 2 4 4 r r 3 m j.k.5.%.+ + + 9 @ j.s.j m m ; 3 < < g | | | ) ! ! Q < 0 ",
"r l R ( _ ( [ ) W 5 4 3 ; . X s.5.5.@ X X X X + k.t.t.%.3 ; 2 : ; : : : 2 5 5 3 qXnXbXbXaXaXaXA.r r r r 4 4 4 4 4 r r r 3 r r r 3 2 ; = 3 3 { @ o o W # . . . - 1 3 I.x . j j < 6 t t t 7 g.hXhXhXkXkXkXkXkXkXkXgXsX{ m j > j n m n , , , < , , , = . . o o - , 1 1 5 5 7 7 7 7 7 9 fXj.j.%.> 6 5 : X 2.2.%.O.O.O.O.%.c 4 < 2 , 2 2 j 5.s.%.j $ , < < < 4 4 3 r u iXiXiXnXLXLXSXLXLXSXaXaXSXIXLXLXLXSXaXSXLXSXaXaXpXpXuXuX8Xu 4 , , 2 2 2 , > o e.e.0.D 5 3 2 2 2 2 4 2 2 2 2 2 k g.d.g.} g l e 7 lXSXNXcXcX2 6 7 6 5 5 5 6 7 7 5 5 : : : : , 4 4 2 4 2 7 7 6 6 t k dXdXjXjXjXjXjXjXjXjXjXjXdX(./.W k g g k l l { @ j j 1 1 6 1 1 1 1 1 t e . . . o . < w < 1 6 6 6 6 1 < < < 1 6 6 6 1 e e 1 g } X.....d.d.} > : 2 2 2 : 2 4 2 4 : ; X k.k.k.s.; i i 3 m s.r.j.j.j.X 2 < w g X.| | _ ( ( ! < % ",
"s y R / / ( ( ' W 5 3 3 X dX@ t.@ @ X ; 9 ; ; 9 @ j.j.%.9 9 ; ; 2 : : : 2 2 2 3 0XnXnXbXaXaXqXP.t r r r r r 4 4 4 r r r 0 0 0 q 0 q 0 0 0 u n { s.s.sX# < = , , , 9 cXn 7 p e 1 k { @ k j g.hXhXhXkXkXkXkXkXkXkXkXBXBXVXCXZXGXGXKXmX2 , , , , , , , , , 1 - 5 1 1 1 5 5 7 7 7 7 7 9 sX%.%.m 5 6 > > X 2.%.%.%.%.%.%.%.b 2 < , , 2 2 ; X . X ; ; , < < 3 4 3 3 r u iXuXiXnXSXSXSXSXSXSXaXaXbXSXLXLXLXSXaXbXnXnXaXpXpXpXuXuX8Xu 4 , , 2 2 2 : = . O O O o 5 6 2 2 2 2 2 2 4 4 2 4 k g.g.g.dXg l l t |.cXcXcXlX, 6 7 6 5 5 5 5 5 5 5 5 5 , : 2 2 4 4 4 6 n U.U.U.m m m dXjXjXjXjXjXjXjXjXjXjXjXdXdXdX(.(.(.dXdXg l j g j k l 5 6 1 5 5 6 7 > /.1 1 - . = , 1 1 1 1 6 1 6 1 < 1 1 1 6 6 1 1 e e e g X.........d.o.> 2 2 2 2 : 2 4 2 ; m m X m k.j.%.; r r i 9 X s.j.j.s.; 2 4 < g | Y Y _ _ _ ` < % ",
"s l R / / ( ' ' ! 5 3 3 . k.t.k.X 9 ; : ; ; 9 9 9 > > %.fXfX+ ; 3 3 3 3 3 v B.u A.nXnXbXaXaXqXF.t r r t r r 3 y r i n.N.aXaXaXaXaXaXaXiXiXiXaXm { { m < < < < < < $ vXf 4 r t > h.l.l.l.x.x.hXhXkXkXkXkXkXkXkXkXkXBXBXCXCXCXCXCXZXm : < < , 2 : , , , , , , 6 1 1 1 1 1 1 1 7 7 7 7 7 7 7 7 7 7 6 2 ; 9 ; ; ; ; 9 7 7 7 2 < , , 5 5 2 2 : : 2 2 2 3 3 4 3 3 r r B.iXuXuXbXnXnXnXSXnXbXaXpXaXaXnXSXSXnXaXaXaXaXpXpXpXiXiXuX8Xv.3 , : 2 , , 2 , , = : , 2 2 2 2 2 2 2 4 4 4 2 2 5 > { { { W Q ~.l t t 6 4 , , 6 6 6 6 6 6 1 5 5 5 5 5 5 2 , : 2 6 4 w t sXIXKXKXKXKXKXVXBXBXBXBXBXBXkXkXjXjXjXdXdXdXdXdXdXdXdXg t 7 t j m g 5 6 5 4 4 2 2 2 k W W W h O o o o o o o g g - 1 1 e e 1 1 1 e e e e g | | | | T w.o.o g g < 4 4 2 4 2 X fXj.j.%.9 j 9 3 4 4 4 3 p m j.t.s.; , 4 < g | Y | _ / / ` < q ",
"s l R _ _ ( ' ' W 2 3 3 ; k.i.k.X ; 3 ; ; ; 9 9 9 9 7 s.j.j.+ ; 3 3 3 3 8 aXiXiX:XaX0X0XqXqXqXC.r r y y i a d P.F.F.Q.8XaXpXpXpXpXpXiXiXiXuXaXn { k x < < < < < < $ U.3 4 r r > h.f.l.l.l.c.c.hXhXkXkXkXkXkXkXkXkXBXBXBXCXCXCXCXmX; 3 < : ; : = 2 2 2 , , , 6 1 5 6 7 g g g g 7 7 7 7 7 7 7 7 7 7 7 > > 2 4 4 4 7 5 6 6 2 5 2 5 5 5 2 2 : 2 3 2 2 2 2 3 3 4 r r v.iXuXuXaXbXbXnXnXnXbXaXpXpXaXaXnXSXbXaXpXiXpXpXpXiXuXuX7X8Xv.3 2 : 2 2 2 2 2 2 2 : : , 2 2 2 2 2 2 6 2 4 4 5 5 t 1 l l g (.(.(.l t t 6 6 6 6 6 6 5 6 6 6 , 5 5 2 2 2 2 , 2 2 ; t t x m JXAXGXJXHXHXVXCXCXCXCXCXBXkXkXkXjXjXjXjXdXdXdXdXdXdXg l g > j g 5 , 4 2 2 2 2 2 4 W | | T T T ....d.d.d.d.d.d.o.} } { W g 1 e e e e l h | | | | T w.......} > < 4 4 4 < ; %.3.3.|.r 0 * 3 3 3 3 4 6 n j.r.s.; ; 4 < g | _ _ ( ~ ~ E < q ",
"s l R / _ ' ' ' W 5 4 3 ; s.i.c.X ; 3 ; ; ; 9 9 9 9 9 s.j.j.+ ; 3 3 3 3 8 yXiXiXiXaX0X9XF.C.m.s r r y i s s C.aXaX0X4X8XaXiXiXiXiXiXiXiXiXiXaXf n x t < < < < < < 2 3 2 4 r r > g.g.g.g.g.x.hXhXhXkXkXkXkXkXkXkXkXBXBXBXCXCXCXCXsX9 n m U.sX$ 3 2 2 2 , , , , , 5 1 . O W W g 7 7 7 7 7 7 7 7 7 2 7 7 7 2 3 2 2 5 5 5 5 2 5 2 5 5 5 2 2 : 2 2 2 2 4 2 3 3 4 r r N.iXuXuXaXbXbXvXnXnXbXaXpXpXiXaXaXaXaXiXiXiXiXiXiXiX8X7X7X8Xb.< 2 : 2 2 2 2 2 2 : : : 2 2 2 2 2 2 2 2 2 4 4 5 6 e e e e z X.X.(.l r e 6 6 6 6 6 6 5 6 6 6 , 5 5 2 2 2 2 2 : ; n n j n U.JXHXZXAXHXHXVXAXHXAXAXAXAXBXBXBXjXjXjXdXdXdXdXdXdXdXg g j j g - > , 4 2 2 2 2 2 2 W | Y T T T T w.w.w.w.w.w.d.d.d.f.f.h.(.g l l l e 1 h } ) } | ..T T T T } > 2 4 4 4 3 ; |.3.3.%.r r 0 3 3 3 3 r 4 j r.r.%.; 3 4 < g ) [ [ ' ~ ~ E < 0 ",
"t l R ( ( ' ' ' W 5 3 3 ; s.t.c.X ; 3 ; ; ; 2 7 9 9 9 j.1.1.+ 3 ; 3 3 3 * 0XiXiXiX-X9XY.a y r r i i s a m.m.B.bXbXbXbXbXaXiXiXiXiXiXiXiXiXiXaXu s t , < < < < < < 3 r r r r w 4 7 6 t 6 t 7 5 5 . . . . . . X X . . m AXZXZXZXGXGXGXZXZXZXZX; 3 4 2 2 , , , , , 5 7 O ..T  .o l l 7 7 7 7 7 7 7 7 7 7 5 > 5 2 2 2 2 2 2 5 2 2 , 5 5 2 2 2 2 2 2 2 2 2 4 4 r r r B.iXuXuXaXaXaXaXaXaXaXpXiXiXiXiXiXiXiXiXiXiXiXiXiXiX8X7X7X8XN.3 < 2 , , , , 2 2 2 2 2 2 2 2 2 2 2 5 6 6 6 6 6 6 6 t g g W X.X.(.g t r 6 6 6 4 t 6 t s t 6 6 5 2 2 2 5 5 2 2 ; b KXHXHXAXHXHXAXAXAXHXsXj m m m m n j j j g g g g - g g g g g l l l l l 1 1 6 4 2 2 2 2 2 4 j ) U | Y Y T T w.w.w.w.w.e.w.e.e.0.d.O h k j j 5 6 : - - 1 g } ..T T T } g 6 4 4 < 3 ; %.4.4.'.i r r 4 3 6 3 7 7 + :.@.%.; 3 4 w g [ [ [ ' ~ ~ Q w q ",
"t l R ' ' ' ' ' W 7 3 3 ; @ k.c.      2 2 2 ; X X X X j.1.<.+ * ; ; 3 3 * -X4X;X4XD.n.a y r r r t i d C.N.P.[.bXbXbXbXbXnXaXqX0X9X-XqX[.D.|.C.r w < < < < < < w w r w y y y y y r r s y y r r r r r 4 4 4 4 4 < w 4 sXKXHXGXGXGXZXZXZXZXZXJX3 r 4 2 3 4 5 5 , 5 5 1 O  .T ..O W g 7 7 7 7 7 7 7 7 7 7 5 5 2 2 2 2 2 2 2 2 2 2 , 5 5 5 5 5 2 2 2 2 2 2 4 w r r r B.uXuXuXuXiXiXiXiXiXiXiXiXiXiXiXiXiXiXiXiXiXiXiXiXiXuX7X7X7XS.w < , , , , , 2 2 2 2 2 2 , , 2 2 2 6 6 6 6 6 6 7 7 g R R W E ] Q g l t t t 6 3 qX|.|.Y.C.4 4 2 2 2 2 2 5 2 , 3 $ JXGXHXAXHXHXHXHXHXHXsX> 6 5 5 5 5 5 5 1 1 5 6 e e 1 g g g g g g g l 1 1 1 6 6 2 2 2 w r r w l h R M M Z Y T w.w.w.w.e.e.e.e.e.K  .g.g.g.g.- 1 5 , , e 6 h R Y T J } g 5 4 4 < < 3 %.4.4.$.8 8 c 3 r 4 b m m + @.+.%.; 3 4 < g ] [ ' ` ~ E R w q ",
"t l R ' ' ' ' ' W 7 4 4 ; @ k.c.s.VX9 3 3 3 9 n j.:.%.:.;.-.+ $ ; $ $ $ * [.iXuX8XD.i r r 3 r r t i qXbXqX0X0XbXbXbXbXbXnXxX& 8 8 8 * $ #   = < w < , < < < < 4 w t t s 0 * * r r r r r r i i r r 3 3 2 2 2 : 3 3 3 lXKXHXHXHXJXGXZXZXZXZXIX9 i r 3 3 6 5 5 5 5 5 t O T P T  .{ g 7 7 7 7 7 7 7 7 7 7 5 5 2 2 2 2 2 2 2 2 , , , 5 5 5 5 2 2 2 2 3 3 3 w 4 w r 0 B.uXuXuXuXuXuXuXuXuXuXiXiXiXiXiXiXiXiXiXiXiXiXiXiXuXuX7X7X7XW.3 2 , , 2 2 2 , 2 2 2 2 2 , , 2 2 2 6 6 6 6 6 6 7 7 g ] ) ) R z g l x x x t t 8 qXqXqXxXqX7 4 4 7 6 2 2 2 2 , 3 $ JXHXAXAXAXAXZXHXHXHXsX. 4 4 2 : 5 5 2 7 5 > > - - - g g g g g g g g 1 1 1 1 6 5 2 2 w r t y M.l l h h M M M M D D U e.e.0.e.e.w.d.f.f.f.g.. 1 6 2 4 4 1 g k | T T } g 5 4 < < 3 $ |.XXXX=.$.&.$.$ r 3 c $.O.O.+.O.%.; 3 4 w g ] ^.^.' ~ E R w w ",
"t l h | [ [ [ ) W 1 4 4 9 %.@ 5.j.s.n t i p 9 + j.r.j.+ + + . ; ; ; $ $ $ v G.P.P.n.r r r r * 0 r u qXSXLXLXSXnXbXbXnXnXnXvX8 t 4 6 < . . . g g h o - = w < < w 4 w w p nXSXSXnXnXnXnXnXnXnXI.3 3 4 3 2 2 2 2 3 3 , n m m x j JXGXZXZXFXFXLXDXLXLXn 3 4 2 2 > { { { D ..T U U { g 7 7 7 7 7 7 7 j m j > 6 5 2 2 2 2 2 2 2 : - 5 > - - > > > > > > > > ; 2 r r r S.7X7X7XuXuXuXuXuXiXiXiXiXiXiXiXiXiXiXuXiXuXuXuXuX7X7X7X7X7XW.w < , > : 5 : 5 5 5 5 5 , , , 4 4 6 4 t t 7 6 t 3 > k ) ) W z l g x n x x x t 8 aXqXqXqXqXf x x 7 t t p 9 sXmXsXU.JXHXAXZXAXAXsX{ { { 9 ; 3 3 2 : 2 2 2 5 5 > j { { s.s.s.s.g.g.g.s.- 1 1 1 5 5 6 6 e t - g g l g g l g g g g g - g D p.e.e.w.w.w.f.f.e.e.h.o k k . 5 4 4 < < g h h j 1 1 4 4 4 < ; b c c $.+.,.$.; r i 9 $.%.O.+.O.%.; 3 1 t g } | _ _ Z Z R w b.",
"e l O 0.0.w.w.w. .- 4 4 3 9 . X sXm m b b 9 + + j.r.:.9 2 5 2 , ; ; ; ; ; 3 ; ; 3 * 3 3 3 3 b bXbX0X0XLXLXLXLXSXvX|.& 8 8 b $ 4 3 : = # = - ] ) ) ) W < % r * * < w w p cXSXnXnXnXnXnXSXSXLXb 9 3 8 9 3 3 3 3 , , , ; = : , . KXGXZXGXJXFXFXIXJXJXm 9 4 2 2 g  .w.w.U M M R W k g 7 7 7 7 7 7 j { g.s.j 5 2 2 2 2 2 2 2 4 > { s.g.g.g.g.q.q.q.q.q.q.g.f.m : r r v.5X5X5XuXuXuXuXuXuXiXiXiXuXuXuXuXuXuXuXuXuXuX7X7X7X5X5X5X7XQ.0 < l ) U U W W R O O O O k k k , t t t t 3 cXsXsXn j W W g l l l j n k x x t * qXqXqXaXqXf n x t t t t 9 j PXKXKXKXHXHXCXAXAXsX: ; ; ; ; : : : : > > ; : 5 > j g.p.p.p.p.a.p.p.l.c.- 1 1 6 5 5 : : 6 4 W ) ) } o.} h g g - - - , , o @ O o d.e.w.f.e.e.p.f.U d.d.O 6 r 4 < < , , , < < 4 4 4 2 4 4 4 3 ; $.+.,.$.X 8 X X c %.X + X 9 3 3 w 4 o e.0.8.7.P P M y q ",
"e l O 0.9.8.7.7. ., 4 4 2 2 : 2 p p m 3.2.-.3.O.r.@.:.+ 3 2 : 2 : : ; ; , ; ; , 3 3 3 3 3 3 v bXnXbXaXSXLXLXLXSXvX|.& $ * $ 3 < = = # # < 1 X._ _ ( W w 0 * xXU.* r r r nXSXSXnXnXnXSXSXLXLX8 9 b A.b 3 3 3 3 , , ; , , < 4 ; KXHXHXJXFXFXJXIXJXIXn p 4 4 4 j g.w.w.M O h g g g 7 t 5 7 7 7 7 j { g.s.j 5 2 2 2 2 2 2 2 4 > gXx.l.f.e.e.e.e.e.e.e.e.e.e.@ ; r r v.5X5X7XuXuXuXuXuXuXuXuXuXuXuXuXuXuXuXuXuXuXuX7X7X5X5X5X5X5XT.w w g ) T T d.d.d.d.d.d.d.h.d.h.1 e t t t 9 LXFXLXI.x l l g l l l l x x x x t r 0 u b Y.|.b x x t t t 7 3 9 PXKXKXKXHXAXCXAXAXsX: : : ; ; : : : 2 : ; j . . . . g.p.p.p.p.l.l.z.z.hX- 1 1 6 , 5 . 9 . 5 E ) Z ) ..} g g g - > : = , 4 > = . g.e.w.e.e.e.p.f.d.d.w.W 4 e w w < < < < , < 4 4 4 4 3 3 3 ; ; c ,.+.O.%.2.2.2.+ |.$ ; : 3 3 4 4 < . e.9.9.6.7.7.M w q ",
"e l O 0.9.8.7.6...- 2 2 2 3 3 3 4 4 + +.+.+.+.>.O.%.%.; 3 5 2 : 2 2 ; ; , ; ; ; 3 3 3 8 u u & bXnXSXnXnXSXSXSXvXxXxX& # 3 0 0 % . W O . g o X._ _ ~ ] r r 3 vXY.% y w < 3 & & q q v.SXLXLXLXLXLXLXLX|.3 * 3 2 2 2 3 , , < ; ; lXsXU.8 SXSXJXJXIXIXn i 6 4 7 > { { W h g g - 7 5 7 5 7 7 7 > 7 7 m { { 7 5 6 2 5 2 2 2 2 4 - dXx.l.l.p.p.p.u.u.u.u.u.0.0.O : r r v.W.5X5X8XuXuXuXuXuXuXuXuXuXuXuXuXuXuXuX7XuXuX7X6X6X6XQ.Q.W.Q.< g h Z T T w.w.d.d.d.d.f.e.e.h.1 e y y r 9 LXmXNXI.p t t 6 7 l g g g l l t t 6 7 > 3 3 p p p p t t t 7 p 9 IXKXHXJXJXJXMXmXDXsX2 ; : : : : ; : 1 : . kXkXkXkXhXc.z.a.a.l.o . - . > 1 1 t 6 , 5 m fXj 2 R E E R } } h g h O k g $ = < = = . x.h.g.g.d.e.e.e.w.w.w.D > g > < 1 < 4 < 3 4 2 4 4 4 3 3 2 2 ; + O.&.$.2.2.&.&.+ 9 2 4 2 2 4 4 4 4 . e.9.u.8.6.6.D y q ",
"e l O 0.9.9.6.8.d.- 2 2 2 2 2 2 : 2 + +.+.>.>.-.X 9 9 ; 2 2 2 2 : 2 2 2 , ; , 3 2 2 3 C.bXbXbXnXSXSXnXbXaXqXb $ $ $ * % % 3 4 < .  .T d...g.) h z z l t 0 0 vXY.% w w < y b.b.b.b.9XLXIXIXIXJXIXUXJX|.8 b |.$ 3 4 3 3 2 2 , , 3 3 r q bXSXLXIXPXJXsX9 7 4 4 6 > > - 5 5 5 1 5 5 5 5 5 5 7 5 5 5 5 > > 5 5 6 2 2 5 5 > 5 , = sXhXc.z.z.z.a.p.p.p.u.u.u.e.O > 2 r b.W.W.Q.6X7X7XuXuXuXuXuXuXuXuXuX7X7X7X7X7X7X7X7X5X-XQ.Q.F.F.!.g W ) T w.w.h.x.gXgXx.x.f.f.f.h.1 e < r t p SXNXSXI.7 t t 7 7 l 7 l 7 7 1 6 t 6 5 2 4 7 7 4 4 4 4 6 6 7 t 9 IXKXHXHXFXcX# ; ; ; 2 3 : : : 2 : > > > . x.hXkXkXhXc.z.z.a.z.@ 5 e e e l e 1 6 5 7 m s.X t l l z h { d.o.o...d.d.j = < < = $ $ .   ; . D e.e.w.w.e.w.K  ...D 2 < < 4 3 < 4 2 4 4 4 3 3 2 3 3 $ + + + +X2.2.2.c 9 2 4 2 2 3 3 2 4 . e.u.u.9.6.6.) y q ",
"t l O 0.9.9.6.0.d.- 2 2 2 2 2 : ; ; 9 + + + X X 9 3 2 , 2 2 2 2 : 2 : 2 , 2 2 3 3 3 3 C.bXbXbXnXSXSXnXbXbXaXA.= $ # * % % ; = = o  .F T T d.} g e e e r ; * vXU.% y - - g e w b.b.qXSXLXLXIXIXIXIXFXxXnXSXLX$ 3 4 3 3 3 3 3 3 4 r r u aXnXSXLXPXJXsX; 4 4 4 3 2 6 , 4 2 5 5 5 5 5 5 2 > > 6 6 2 6 5 5 5 5 5 2 2 5 > m o j m s.k.hXc.c.c.c.z.a.p.u.u.u.0.D O O 5 m.W.W.Q.6X7XuXuXuXuXuXuXuXuX7X7X7X7X7X7X7X7X7X7X5X-XQ.!.M.U./.W ) Y w.f.hXBXBXCXCXBXkXhXh.f.dXzXzXsXx t s I.U.U.t 7 t 6 6 7 g g 7 1 1 1 6 6 7 4 3 3 3 5 5 5 2 7 7 7 7 7 9 IXKXKXJXFXcX= , 2 ; ; , : : : 2 : > mXs.{ hXhXhXkXkXhXhXx.h.k.m , w 1 1 g g g 6 5 7 m s.X 9 7 7 l g M d.........d.k < , < = = , = = < > D w.w.w.w.0.w.w.w.T D 2 , < < 3 3 4 4 4 4 4 3 3 3 3 2 4 ; 9 9 c c c c 9 9 2 4 2 2 2 3 2 4 . e.u.u.9.6.6.D y q ",
"l g O e.9.0.6.0. .- 2 2 : 2 : : : : : : : : : 2 5 , , < 3 2 3 ; $ $ 3 4 4 4 4 3 3 3 3 u bXbXbXbXnXSXnXqXxXqXI.= # % 3 < % o  .W O d.T Z d...} g M.y e j FXsXNXU.% w h ) ) h = q q % % % % & xXv SXLXFXLXFXLX8 3 w < 3 3 3 3 3 4 4 4 u 4XaXaXvXvXSXcX$ 3 3 3 3 3 4 5 5 2 5 5 2 5 5 6 5 5 5 6 6 6 5 5 2 2 5 5 2 5 5 . gXhXkXhXkXkXkXBXBXkXkXkXc.z.p.u.u.0.P F Z O t W.W.Q.6X8X7X8X7X7X7X7X7X7X7X7X7X7X7X7X7X7X=X-XQ.!.I.M.z } o.} | T w.x.kXDXIXPXGXCXBXkXx.f.x.x.x.h.{ t t t t 6 4 6 6 6 6 7 7 7 7 7 6 7 7 6 6 3 4 3 2 2 3 2 2 3 7 7 7 7 7 LXvXvXvXnXnX% = , 2 2 2 : ; 2 5 > . kXhXhXkXhXhXkXBXsX. g > > 7 1 w - (.(.(.g 6 t 7 m gXNXBXs.X 3 1 g o.........h.{ - m . ; ; , , , < . { g.D q.e.w.w.7.7.7.D l 1 1 < 2 , 4 3 u u u 0 $ ; 2 2 2 2 2 2 2 2 2 5 2 5 2 2 2 2 2 2 2 2 . e.9.0.0.7.7.) y q ",
"1 1 o M M Z | ..} 5 2 2 2 2 : : : : : 2 : 2 2 2 2 2 , , : 9 |.nXnXnXI.3 4 4 4 t u aXaXB.aXbXbXbXbXnXnX$ $ $ * 3 $ $ % < * O d.w.d.h.dX) R h h l l y t 9 VXVXNXm $ w h ) / W g w y w w < % & SXSXLXLXLXLXSXLX& 8 f & 2 3 4 3 3 3 t t d 6X8X6X0X0X0XxX; 4 4 4 4 3 3 4 4 4 2 4 4 6 7 7 6 6 6 6 6 6 6 5 5 2 2 2 2 5 5 . gXhXkXhXhXkXkXBXBXAXBXBXkXc.p.u.u.8.6.P U M k !.W.W.&X&X&X7X7X7X7X7X7X7X7X7X7X7X7X7X5X5X6XQ.Q.F.M.M.Q o.d.d.d.T w.x.hXBXKXPXBXhXhXhXx.x.x.x.x.x.{ g t t 6 t 4 6 4 6 6 7 7 7 7 7 7 7 6 7 4 4 4 3 2 2 2 2 2 2 7 > 7 7 7 vXqXqXqXqXxX& 2 2 2 2 2 2 : . 9 j . kXhXhXkXkXhXhXkXdX> 5 5 5 1 1 , - R | (.h t e 7 m kXkXkXm X 4 r t g R ~ X.o.h.(.dXdX. = = 2 3 , : ; . ; 7 o w.7.7.7.7.7.K M } o 5 4 < 4 3 A.aXaXaX0X9X, < 2 2 2 2 2 2 2 2 2 2 2 2 2 2 2 2 2 2 - } | | ) E R h y y ",
"e l g h R E ~ ~ R 5 3 2 2 2 : : : : : 2 : : 2 2 2 2 , : ; I.vXnXnXnXI.3 4 4 4 r i 4XpXiXaXbXbXbXbXnXnX$ ; * * 3 < =   g . O d.w.d.x.dXW h l l e e t 7 9 ZXVXNXn < w h ) _ W o 1 < r w < < * SXLXSXLXLXFXLXSX|.LXIXI.3 4 3 4 3 3 4 4 d P.P.Q.aXaXqXqX3 4 4 4 4 3 4 r 4 4 4 4 4 6 6 6 7 6 6 6 6 6 6 2 5 2 2 2 2 5 5 > gXhXhXhXhXkXhXkXBXBXAXBXkXc.p.u.u.8.6.P F M W M.b.b.Q.5XT.7X7X7X7X7X7XuXuXuX7X7X7X7X5X&X-XQ.F.M.k Q R ..d.d.d.T w.f.x.jXKXPXkXc.c.c.hXx.hXx.x.x.{ g t t 6 6 4 6 4 6 6 7 7 7 7 7 7 7 6 6 4 4 4 3 3 3 2 2 2 2 3 7 7 7 3 lXqXqXqXqXaXi 2 , 2 2 2 3 > m VXzXsXkXhXhXkXkXgXkXBXs.> 7 5 5 1 - k . O X.(.h t t p m kXkXhXj . 3 3 3 7 l ! [ o.h.(.h.h.o = = 2 3 , ; ; 3 3 4 > f.6.7.7.7.7.P T T o 6 6 < 4 3 B.tXpXyX4X-X, < 2 2 2 2 2 2 2 2 2 2 2 2 2 2 2 2 6 2 - ] [ [ ` ! Q z m.y ",
"l l l z E ~ ' ` Q 2 3 2 : : : : : : 2 2 : 2 2 2 2 2 2 5 7 b vXnXnXnXY.* r 6 4 r p Z.pXiXaXaXbXbXnXSXnX* 3 3 3 3 3 < . W  .O d.T .. .dXW g e e e 5 U.sXsXFXVXNX9 3 w g E / Z ) ) g = w w w 0 & q q |.SXSXSXLXIXLXLXC.r r 4 6 3 4 4 4 4 r r r 3 3 3 3 3 4 3 4 4 4 3 i C.C.d p r t t r 6 6 6 4 6 6 6 4 4 6 4 3 2 7 > . k.c.c.z.c.kXhXhXkXBXBXBXkXhXp.u.u.9.8.7.P P T g y m.Q.&XW.5X7X7X7X7X7X7X7X7X7X5X5X5X5XE.Q.F.F.x W ) X...T T T P 7.w.w.jXAXAXkXhXkXkXjXh.f.h.x.x.{ o g g 5 r 4 4 4 4 4 4 6 6 4 4 7 7 7 7 7 4 4 9 9 9 9 3 4 7 3 3 3 3 3 3 i f f f f 3 ; , 2 : : 3 : . BXkXkXkXhXhXhXkX{ o O . 5 > > > - . dXdXX.X.W g t t 7 @ hXhXkXX . ; 9 9 t 7 z (.(.(.(.x.h.O . j - 2 ; 2 2 2 3 4 : h.d.w.w.7.7.I P w.h e t 4 4 3 B.tXpXiX4X9X< , 2 2 2 2 2 2 2 2 2 2 2 2 2 6 5 5 5 6 - ] [ [ ` ! Q z y y ",
"l l l h E ~ ( ~ Q 4 3 2 : 2 : ; : 2 2 2 2 2 2 2 2 2 4 4 7 9 vXnXnXnX|.* r r r r s v aXiXaXaXaX0X* $ * 3 * $ ; 3 ; < . D e.x.hXjXh W ~.z e w 1 1 ; sXJXFXZXVXVX9 3 w g R Z | S A O - w 0 w 0 0 q u SXLXSXSXLXLXLXLX8 f U.% 4 4 4 3 4 4 4 6 5 5 2 2 3 3 4 4 4 r 3 3 a A.[.P.C.i t r t 6 6 6 4 4 t p t 7 6 4 4 2 s.hXhXx.l.z.a.z.c.c.c.c.c.c.c.c.z.p.9.9.9.8.8.7.7.7.O y y b.W.S.W.5X5X5X5X5X5X5X5X5X5X5X5X&XT.P.V.M.k ) _ | T T T I P 7.7.w.f.f.x.hXkXkXBXkXx.h.x.l.x.d.d.d.dX- r 4 4 r 4 4 4 6 6 7 4 4 4 7 7 7 4 4 9 $.+ c + 9 7 7 3 3 2 2 2 2 3 3 2 2 2 2 2 2 : . m m @ kXkXkXkXhXhXhXhX{ . > > > > > > 1 - dX..o.o.k 1 t t 7 @ kXhXkXgXjXm 9 9 9 9 t h ' ' (.x.f.f.f.dX> 2 ; 3 3 3 3 2 4 > 7 O 7.7.7.P 7.w.h g 6 < 3 3 u 4X0X0X0XY.4 4 2 2 2 2 2 2 2 2 2 2 5 2 2 5 6 6 5 t - ] [ [ ` ! Q z y y ",
"l l l W ` ~ ~ ~ W 6 6 3 > > ; ; 2 4 3 2 2 2 2 2 4 4 4 4 5 3 3 * 8 i p r r r * P.A.Z.aXiXiXaXaX-X3 3 3 3 * $ ; $ , = = D e.p.z.jXg l M.l e w , , ; lXGXZXZXVXVX9 4 1 g h E | Y S o - l < w 0 0 0 q 9XxX[.SXvXLXLXLXSXIXIX& r w 4 4 4 2 2 6 4 4 6 2 2 : 4 4 4 4 3 t d [.9X0XC.p t t t t 6 4 4 t p p p 4 6 6 6 7 s.c.z.l.p.p.u.a.c.c.z.z.z.a.a.p.p.p.u.9.9.9.9.6.7.7.O y y b.W.W.T.5X5X5X5X5X5X5X5X5X5X5X5X&XT.F.m.M.Q ] _ | Y I I T P 7.7.7.w.f.l.hXkXkXkXhXx.f.l.l.f.d.....o.- 4 4 4 r 4 4 4 7 7 4 4 4 4 7 7 7 4 3 9 O.O.O.c 9 7 7 3 7 2 2 2 2 2 2 5 : 5 : : 2 9 j kXgXgXkXkXkXhXkXgXdXdX{ > 5 > > > > . . . dXo.o.X.z e t t 7 @ kXhXkXkXkXm 9 7 7 9 3 o ' ' (.x.f.f.f.g.> 2 : 2 3 3 2 2 w 3 < o 7.7.P T 7.w.D { k w 4 3 0 8 u d 8 3 4 4 2 5 5 5 2 2 2 2 2 2 > > > > > 5 7 t 7 ] [ [ ` ! ! z y r ",
"l e l R ` ` ` ~ W r 3 ; m s.s.s.; 2 2 2 2 4 < , w 6 6 4 6 5 6 6 6 t t t t r 8 nXbXbXpXiXaXpXaXiX* < * 3 * * = $ j j . M w.T T d.1 w w w w < , : ; lXJXGXZXVXFX9 2 , e g R | | _ ) (.(.= 0 0 w 0 0 v.F.D.LX|.IXLXLXLXIXUX& 3 3 6 4 3 2 5 6 6 6 6 > 7 7 p 7 7 U.|.U.|.xXvXxXv i s r r 4 r t 6 p p C.b d r 6 7 > D z.l.u.u.p.u.z.c.c.c.z.p.u.u.u.u.u.9.9.9.9.9.6.7.w.h y y b.W.W.5X5X5X5X5X5X5X5X5X5X5X5X5XR.T.F.M.k E ( _ _ Y T I T P T w.w.w.e.f.f.h.x.x.x.f.w.w.w.T T T ..(.= 3 4 r 4 r r r 4 4 4 4 7 7 4 3 2 ; ; 8 O.O.O.+ $.+ 7 3 3 3 2 2 : : 5 5 : 5 : 2 2 4 . hXx.x.kXkXhXhXkXO . . . > > > > > > k dXW o.o.o.o.k 6 r 4 7 m kXkXkXkXkXm 9 9 i 3 3 l Q Q /.x.f.d.f. .h k m 3 2 2 3 3 3 w < O 7.w.P P T w.w.w. .6 4 3 3 3 4 4 t 6 6 4 4 , , 5 2 4 4 2 2 2 . h.f.f.{ . 6 e g ] [ [ ' ! ! z y r ",
"l l o ) ~ ~ ' ~ W 4 3 ; %.j.j.j.. 2 4 4 4 7 9 7 : 4 4 6 6 5 6 6 6 6 6 4 3 3 * nXaXaXiXiXaX[.G.P.0 * * 3 3 < % $ . kXBXkXh.d...} l w < < w , , : 3 sXJXZXZXZXVX; 7 2 6 1 g | S _ _ o.(., < % 0 w 0 i u B.nXv LXIXSXIXIXIX& 3 3 3 6 5 2 2 2 2 2 2 3 4 7 7 7 3 |.SXSXLXLXIXSXvXxX|.3 r 4 4 t 6 t t b [.F.r 6 7 7 D l.p.u.0.u.u.a.z.a.p.u.u.u.u.u.u.u.u.9.9.9.9.6.7.w.h x k M.b.v.v.S.S.W.W.W.W.W.W.W.W.W.W.W.S.m.x Q ~ _ _ _ Y T I I T T T T w.w.w.w.w.w.w.e.e.w.w.T A | | | (.= 3 3 4 r r r r 4 4 4 3 3 3 3 4 X %.+ + +.O.O.O.O.O.9 3 7 3 3 2 : : 5 5 5 > : : 4 t 9 hXx.hXhXhXc.c.kXO : : : > > > > > > k h.g.d.d.o.o.k t r 4 t m kXkXkXhXhXm 9 9 3 3 3 3 3 r m l.w.w.w.w.d.h.W 4 2 2 3 3 3 2 , j D D } w.P w.7.w. .< 4 3 3 2 4 4 4 4 6 4 4 j 9 9 9 : 2 5 5 5 . f.0.0. .o t t g ) [ _ _ ~ ~ R e y ",
"g g O w.T Y | Y } 3 3 ; %.j.j.j.. 3 4 4 t n mXmXzX/.3 6 6 5 6 6 6 6 6 6 3 3 * bXaXaXiXiX-Xu 0 0 0 < 3 3 3 3 ; 3 . x.hXhXjXjXjXjXg w < < < , 2 : ; sXJXZXZXZXVX. : 2 5 4 g | A _ | o.(.- z x < w r r 0 u aXv.LXSXqXIXIXLX& C.P.C.5 5 2 2 2 2 5 5 3 7 7 7 7 7 |.cXSXSXLXIXSXvXxX|.3 3 4 4 r 4 6 r a Y.Y.r 6 7 7 D l.p.9.0.0.u.u.p.u.u.u.u.u.u.u.u.u.9.9.9.9.9.6.7.w.U } U W b.q q b.S.W.W.W.W.W.W.W.W.W.W.b.v.y l Q ) _ _ _ Y Y T T I T T T w.w.w.w.w.w.w.w.w.w.w.T S S | | /.= 3 3 3 r r r r 4 3 4 3 3 3 3 4 X O.O.O.+.O.+.O.O.O.9 3 7 3 3 2 : : 5 5 > > 7 > : t 9 hXz.z.c.hXhXhXkX@ > > > > > > > g > k g.g.d.d.o.o.k e r 4 7 m kXkXhXhXhXm 9 r 3 3 3 3 3 * { x.d.d.d.w.w.h.O 4 2 3 2 3 3 4 4 : - g h w.P P 7.w. ., 4 3 3 2 4 4 4 4 6 t t m MXMXMXj 7 7 5 5 . f.0.e.s.. t 5 g ..T T | Y Y W e y ",
"l l O 8.6.P P P ..1 3 ; %.%.m j ; 4 6 6 t m kXhXkXsX; t 6 6 6 6 6 5 5 5 2 3 r bXaXaXiXiXQ.w 3 3 < 3 3 r r 3 j . . x.f.h.dX, < 1 , , < < 4 ; ; ; ; sXPXZXZXVXmX; 2 5 5 5 O | Y _ X.o.X.] (.W 2 < 4 3 3 i u u B.3XK.nXSXaXaXaXaXB.2 2 2 2 2 2 4 4 5 7 7 7 7 f |.xXxXxXxXvXvXqXqX9Xr r r r 6 6 4 t r r t t 7 7 7 D e.8.8.8.8.9.9.u.u.u.u.u.u.u.u.u.9.9.9.9.9.8.6.7.7.T I J } y q y b.F.W.W.T.T.5XT.T.T.T.T.b.m.y l W ( _ _ _ Y Y Y T T I T T w.w.w.7.7.7.T T w.w.w.Y _ / _ _ ~., 3 3 3 r r r 4 4 3 3 3 3 3 3 3 X %.O.O.O.+.+.O.O.O.X 8 9 3 4 2 5 > 2 5 5 > : . gXh.g.p.p.u.p.D O o j > 5 5 5 5 5 5 > dX{ } d.h.(.dXdX(.W t t r 4 j hXx.hXhXhXm i 3 ; ; 3 3 3 3 > g h W ..w.d.h.O j > 7 3 4 4 4 4 4 e w g P P P 7.7. ., 4 4 3 4 4 4 6 t t t t m jXjXVXn 7 t t t > O O O j > 6 6 o w.6.6.7.P P U e y ",
"l l O 9.8.7.7.P o.1 < 3 ; ; ; 3 4 7 7 7 p m hXhXhXsX9 t 1 6 6 6 6 5 5 5 2 3 r aXpXiX7XuX6Xw 3 3 2 3 3 3 w 2 jXjXg.f.f.f.g.6 t , < < < < 2 9 DXmXlXmXZXCXVXVXcX. : , , , o ] R h ] X._ [ [ W 5 , 4 3 3 3 i a B.uXpXaXtXpXaXaXaXd 2 2 2 2 2 2 4 4 7 7 7 3 i I.|.qX+X+XqX0XqXqX0XY.r r r r 4 6 4 6 6 t t t 6 5 7 D 0.8.8.8.8.8.8.9.9.u.u.u.u.u.9.9.9.9.9.8.8.8.6.7.7.T I I | l y y m.V.S.S.W.W.W.W.W.W.W.S.q r r g E ( ( _ _ Y Y Y T T I I T T w.7.7.7.P T T T T Y Y _ / _ [ ~.< 3 3 3 3 r r r r r 3 4 3 3 3 3 ; %.O.O.O.+.+.+.O.O.O.O.+ 9 3 3 > > > > 5 5 > . l.e.e.u.p.p.p.s.j 7 5 5 5 5 5 7 5 5 > g.d.d.d.h.h g g g g 6 t 6 4 > D f.c.hXhXs.m m s.9 ; 4 3 4 3 7 l O ..w.w.d.f.h.jX. 4 4 4 4 4 4 4 , o P I P 7.w.{ , 4 4 4 4 4 4 4 t t t t m jXkXmXn 7 t t 6 e 6 5 7 5 7 t 6 o w.6.6.7.7.7.} w w ",
"l l O 9.8.7.7.P o., w 3 4 3 4 3 7 5 > > g m gXhXgXsXj t 1 1 6 6 6 5 5 5 2 3 r aXuXuXuXuX6Xw 3 3 < 3 3 3 r ; jXx.x.f.f.f.g.7 t 4 4 4 2 2 2 ; ZXCXVXCXVXVXVXVXcX; : , , , > g g l Q (._ [ [ W 5 2 6 3 3 3 r a G.uXuXpXuXaXaXaXaXn.2 2 2 2 2 2 6 6 7 7 7 3 9 I.|.+X+X+X+X|.9X0XqXY.r r r t 4 4 6 6 6 t t t 7 5 > q.8.8.6.6.6.6.8.8.9.9.9.9.9.9.9.9.8.8.8.8.8.8.6.7.7.I I J Y W l 3 % * * q q q q q q q q q r 3 r g E ( ( ( _ S Y Y Y Y Y Y T T T T T T I Y Y Y Y S _ _ / _ [ ~.< < 3 3 3 r r r r 4 r 3 i 3 3 3 ; O.O.O.O.+.+.O.O.O.O.O.+ 3 3 3 2 > > > 5 7 > . l.e.e.0.u.u.p.q.@ 7 4 7 5 5 6 5 7 7 > g.d.d...o.g l e 1 6 t r r 4 9 D x.c.hXhXkXkXkXkX9 ; 4 3 4 4 t t g ..w.e.f.w.d.dX. 6 4 4 4 4 4 6 5 O P P P P w.W , 4 4 4 4 4 4 4 t 4 t t m jXkXjXj 7 7 - 7 1 6 4 7 4 6 t 6 o w.8.6.6.7.7.} w w ",
"l l O u.9.6.7.P ..< < 3 3 4 3 3 r 3 dXjXdX .d. . .{ /.{ W k 1 e 6 4 4 4 4 4 4 aXiX1X7XiX6X4 4 4 2 2 : , t > jXx.x.f.f.f.g.5 5 3 3 3 2 2 2 ; GXCXBXBXBXVXVXBXcX. : 3 2 2 2 4 w l Q ! [ [ [ W g g g 2 3 3 r i D.B.G.$X7XaXaXaXaXN.2 3 2 2 2 2 7 7 6 6 6 7 3 b %.2.$.&.2.c 0 0 0 * 4 4 6 g O O o o 7 r r 6 6 6 > q.8.6.6.6.6.6.6.6.8.8.8.8.8.8.8.8.8.8.8.8.8.8.6.7.P I J J J Y W < < 3 3 3 0 q q q q 0 0 w r 3 < g ] ( ( ( ( _ S S S S S S S S S S S S S _ _ _ _ _ _ _ _ _ [ ~.= < < < 3 r r t i d C.C.b i t r 3 9 + 9 X %.O.O.O.O.O.O.9 9 3 3 7 7 > > 5 > > . l.e.e.0.6.q.q.{ j 7 2 3 2 5 5 7 > g g dXd.d...X.g e 6 4 4 6 4 4 4 9 D x.c.hXhXhXkXhXkXX 3 3 4 4 4 6 7 g M d.w.w.w.h.dXl t e 4 6 4 4 6 - o U Z U U  .k 4 4 4 4 4 4 4 4 g k W ~.k {  .dXsXdXdXjXj t 6 3 4 4 6 t 6 . w.0.0.6.7.7.} t 0 ",
"l l O u.9.6.7.T } = < 3 3 3 4 4 3 ; jXjXjXd.......o.} o.} ] 1 t 6 4 4 4 4 4 4 F.F.V.v.N.n.4 4 4 4 : : (.} } d.w.w.T T T o.5 3 3 3 3 2 2 2 ; VXCXBXBXBXVXVXVXlX; ; 2 2 2 : 2 4 g ~.! ) [ [ ~ W } W : 3 3 3 3 i i a u 2XpXaXpXpXV.3 3 2 2 5 4 7 7 4 7 7 7 3 9 $.-.O.O.2.c p r 3 3 4 r 5 d.w.w.w. .1 r w 6 6 6 > q.8.6.6.6.6.6.6.7.6.6.6.8.6.8.8.8.8.8.8.6.6.6.6.7.7.I I J J Y ) 4 3 3 3 3 9 u v u b 0 * 0 3 < 3 g ] ( ( ( ( _ _ _ _ _ _ _ _ _ _ _ _ _ _ _ _ _ _ _ _ / _ [ X.~.= < 3 r r r r r C.0XiXiX4Xi t r r 3 3 3 9 %.O.O.O.O.O.$.9 3 3 7 7 7 > 7 7 7 > . f.0.0.0.7.D j g 7 5 5 2 5 6 6 6 k dXo.d.d.....o.g t 6 4 4 4 4 3 3 . s.hXhXhXhXc.hXhXkX. 3 3 2 2 6 6 7 7 O ..T ....d.} { (./.5 4 4 4 t t 1 - g g g g 5 4 4 4 4 4 4 4 5 k X.] (./.} } o.o.dXh.jXj t t t 6 4 t t 6 . e.8.6.w.T T } r q ",
"l l @ p.e.w...| ] < < < 4 4 4 4 < : jXjXjXo.......} } X.} ] 1 t 6 4 4 4 4 4 4 r 0 0 r r r 4 4 4 , , 5 o.....w.w.w.T T T o.5 3 3 3 3 2 2 2 ; VXCXVXBXBXNXMXmXsX; 2 2 2 2 : 2 2 6 g g ) _ [ [ [ ) W 2 2 3 3 3 3 i i u 3XpXpXiXiXV.3 3 2 2 2 4 7 7 7 7 7 7 9 9 $.-.O.O.-.+ p r 3 4 r r > w.7.7.7. .5 r 4 6 5 6 > q.8.6.6.6.6.7.7.7.6.6.6.6.6.8.8.8.8.8.6.6.6.6.6.7.7.I I J Y Y ) 4 3 3 2 ; 9 cXNXNXSXr 0 r 3 3 3 g ] ' ( ( ( / _ _ _ _ _ _ _ _ _ _ _ _ _ _ _ _ _ _ / ( [ [ X./.= < 3 r r r r r B.iXiXuX4Xi t 6 6 t 7 3 9 O.O.O.O.O.O.$.f i 9 7 7 > 7 7 7 7 7 . e.0.8.8.7.D j 3 7 5 5 2 5 6 6 7 O g...........o.g t 4 4 4 4 3 3 2 > { s.s.g.z.z.c.c.hXX 3 3 2 2 6 6 7 5 O o.........o.o.o.} g t t t t e 1 4 1 1 1 1 4 4 4 4 4 4 4 3 5 W X.X.X.X.o.o.o.} dXh.gXj y t t 6 4 6 4 4 >  .T T ..E E W r 0 ",
"l l l h Q ` ^.^.! < < w r r 5 . . . jXdXdXo.......o...o.| X.g e 1 4 4 4 4 4 4 r 4 4 r 4 4 4 4 4 4 , 5 } T T T w.w.T T T o.> 4 3 2 2 2 2 3 9 VXCXBXBXBXj $ * 3 3 3 3 2 2 5 3 3 4 6 6 ) _ _ _ _ _ W 3 3 4 3 3 3 3 3 u iXiXiXuXiXV.3 4 2 6 4 4 7 7 m + 9 9 X + $.2.-.2.%.8 r r 4 4 4 4 . f.e.w.w. .7 t t 6 6 6 . d.6.6.6.7.7.7.7.7.7.6.6.6.6.6.6.6.6.6.6.6.6.6.7.7.P T Y Y Y A ) 5 4 3 3 3 9 JXAXZXmXr r r r 3 w g ` ' ' ( ( / _ _ _ _ _ _ _ _ _ _ _ _ _ _ _ / / ( ( ( [ X.X./.= < 3 r r r r r B.iXtXiX4Xp r 3 4 4 4 3 8 %.O.O.O.O.O.O.c + + 9 9 7 7 7 7 7 7 o e.8.6.6.7.D > r r 6 6 6 6 7 7 7 O o...........X.g e 4 4 2 3 3 3 3 5 5 5 7 O p.a.a.a.c.. ; 3 3 3 4 6 6 6 o o...............} g t t t 6 4 4 w w w t w 4 4 4 4 4 4 4 4 - W X.| X.X.....o.o.dXh.jXk k k l 6 4 6 t t g ] _ _ [ ` ` Q r 0 ",
"l l z ! ` ^.^.' ! , < w r 3 j g.o.} dX} (.o.........o.o.X.X.g e e 4 4 4 4 4 4 4 r r 4 4 3 4 4 4 4 6 5 } ..T T T T T T T o.- 2 3 2 2 2 2 3 9 VXCXBXBXBXj * * $ 3 ; 3 , 2 3 3 4 4 6 6 ) _ _ _ [ _ W 7 3 4 3 3 3 3 3 u 8X8X8XuX8XF.3 4 2 6 4 4 7 7 %.O.O.O.O.%.X $ $ $ 8 3 r r 4 4 4 4 5 o o o k k g t t 6 6 4 . f.8.6.7.7.7.7.7.7.7.7.7.6.6.6.6.6.6.6.7.7.7.7.7.P P J Y A A A ] 5 3 3 3 3 9 IXCXZXMXr r r r r 3 g ! ` ` ~ ( ( / _ / / _ / / / / / _ _ _ _ / ( ( ( ( ' [ (.(./.- < r r r r r r B.iXiX9XF.t r 4 4 4 4 7 3 9 9 9 9 9 + O.O.O.O.%.9 9 7 4 4 7 7 O 0.6.6.6.7.K > w r 6 6 6 6 7 7 7 O o...........X.g e t r 4 4 3 3 3 2 6 6 5 M p.a.a.a.c.. 2 3 3 3 4 6 6 6 o o...............} g t t t t t t r r t r w 4 4 4 4 4 4 4 4 - W (.X.X.X...| o.o.g.g.dX} o.o.(.6 r 6 t t g ) _ _ [ ` ` h r 0 ",
"l l z ! ` ^.^.' Q < < w 3 3 o ....} dXo.(.o.d.....o.X.W (.(.g t e 4 4 4 4 4 6 4 4 4 4 4 4 4 4 4 6 6 7 } ..T T T T T T T o.. : 2 2 2 2 3 4 9 VXCXBXBXBXj ; * * 3 3 * $ * * 3 3 7 6 7 ) _ _ _ _ _ W j 7 4 3 3 3 3 3 v 8X8X8X3X8XF.3 4 2 4 7 6 3 7 %.O.O.O.O.O.9 r 3 3 3 3 r r r r 4 4 t t l l g g l t t 6 6 6 . h.e.w.w.P P P P I P P 7.7.6.6.6.6.6.6.7.7.7.7.7.P P I H A A A ] 5 3 3 3 3 9 IXCXZXMXr r r r r 3 g R ` ` ` ' ( ( / / / _ _ _ _ / _ / / / / ( ( ( ' ' ' ! z (./.= 3 r r r r r i u B.v.n.a t r 3 4 4 6 6 r i i 9 9 9 + O.O.O.O.-.8 3 7 3 3 > 7 O 7.6.6.6.7.K g t r 6 6 6 5 7 7 t h o...........X.g t t r r r 3 3 3 2 2 2 : D p.u.a.a.l.. ; 3 3 3 3 6 6 4 o ................} g t t t t t t r r t r w r 4 4 4 4 4 4 r 1 l z R E X.| ..o.o.d.d.d.} o.o.(.6 4 6 t 6 g _ _ | [ ` ` h r 0 ",
"l l z ! ` ^.^.' Q < < r r 3 o ....} g.o.o.d.........o.z b.b.y r w w 4 4 r 4 6 r r r r r r r 4 4 6 t 6 { ..T T T T T T T o.- 5 2 3 2 2 3 4 9 VXBXBXBXBXj 3 3 * 3 3 * aXiXyXu i 7 6 7 W _ _ [ _ _ ) R g 6 4 4 4 4 4 u 8X8X8X8X4XA.3 2 2 4 4 4 3 9 %.O.O.O.O.+ 9 r r 3 r 3 4 r 3 4 4 t 6 6 t t t t t t 6 6 7 5 : : = r /...I I I I I I P 7.7.7.7.7.7.7.7.P P P P I I I H A A A ) 5 r 3 4 r 9 IXHXZXMXr r r r r r g Q ` ` ` ( ( ( ( ( ( _ ( ( ( ( ( ( ( ( ( ( ( ( ' ' ' ~.% # r = 0 3 r r r r r r r r r r r r 3 r r r r r r r 3 3 9 + -.O.O.O.2.9 3 5 3 3 > > O e.0.7.7.7. .> 4 6 6 6 6 7 7 t l h o.........| X.l t s C.L.Q.d ; 3 2 2 2 : D u.u.u.u.l.. ; 3 3 3 4 3 4 4 o ....| | | ......W g t t t r t r r t r r r r r 4 4 4 4 4 r r w m.M.W X.| | | d.d.d.h.o.o.} (.6 t t t t g [ _ | [ ` ` z 0 * ",
"l l h E ` ^.^.' ~.< < r r 3 7 k { W (.} (.o.) ) } (.(.z b.b.b.w r w w r r r t v Z.Z.Z.Z.D.0 4 6 6 t t { T T T T | U } | } g 7 4 7 4 3 3 7 sXCXBXBXBXBXm 3 3 * 3 * 8 iXuXpXZ.i t t 7 W _ [ _ ( ( ( E g 7 6 6 6 4 7 8 A.u & & & $ 2 2 2 4 4 4 3 9 %.O.O.O.O.+ 9 r r 3 i r r 0 r r r t 4 6 6 6 6 6 6 6 6 6 6 4 5 w w w dX..T J J J I I L P P P 7.7.P P I I I I I I I G H A A A ) 5 r 4 4 r 9 UXHXHXmXr r r r r w g Q ` ` ` ' ' ( ' ' ( ( ( ( ( ( ( ( ( ( ( ' ~ ' ' ' ' ~.< % % w r r r r r r r r r r r r r r r r 0 0 0 r r 3 3 3 8 + -.O.O.O.2.9 3 6 4 4 7 2 : . . o o o g 5 4 4 6 6 6 7 7 l x R o.| | _ | X.] l s s %XuXiXv.3 3 2 2 2 > K u.u.u.u.p.o 7 4 3 3 4 r r r o o.) ) ) _ | | | W l t t t t r u v v v u 8 3 r r r w w w w w y y z ^.[ ) ) X.o.o.o.(.W /.(./.t t t 6 w g [ [ [ [ ` ` Q r r ",
"l l W K U ) ) ) W < < r r r < , < < z (.(.X.! W h h h l y b.b.y w w r r r r t 4XiXuXuXuXiXu 4 6 t t t { T ..T | | M R R h 5 7 7 7 3 3 3 7 zXBXBXBXBXBXm 3 3 ; 3 ; 8 iXuXpXB.i t t 7 R _ ( ( ( ( ( E g 7 6 6 6 4 4 3 * 3 3 ; ; ; 3 3 2 4 4 4 3 3 + O.O.O.O.+ 9 r r 3 r i u B.G.D.i r 6 6 6 7 6 6 6 6 6 6 6 4 4 3 < < dX..Y Y Y J I I I I I T I I I I I J I J J J J J H A A Z ) 5 r 4 4 3 9 UXHXHXmXr r r r r w g h R ` ` ~ ~ ~ ' ' ' ( ( ( ( ( ( ( ~ ~ ( ' ' ' ' ' ^.^.= % 0 0 r r r r r r r r r r r r r i t d S.G.P.0 r 3 3 3 3 + %.O.O.-.2.9 9 6 4 4 4 7 4 4 6 5 , 7 1 t 3 4 6 6 6 4 p x x W X._ _ _ _ _ ] l s s =XuXpXv.3 ; 2 2 2 > q.u.u.u.u.p.j 5 r r r r r t r g W h R ) _ _ _ | R l t t t t p v pXpXtXyX[.* r w r w w w r w y y l ~.] ] ] ] X.X.X.~.e e 1 1 t t t 6 t g ) | | _ ~ B R y r ",
"l l @ 9.0.w.w.8.g.< < r r w w r w w z ^.(.(.! Q z l t y y b.b.v.q r r r r r i 3XuXuXuXrXuXu 4 t t t t W o.o...| ) h l g g 7 7 3 7 4 4 4 7 sXBXBXBXBXBXm 3 3 * 3 3 8 aXaX0Xi p t t t R ( ( ( ( ( ( ] g 6 6 6 7 7 7 3 3 4 3 2 2 2 3 2 2 4 4 4 3 3 2 ; > 9 9 9 r r r r r i [.uXuX=Xd t 6 6 6 6 6 7 7 6 7 6 2 2 4 3 w = /.W z g R Y Y Y Y Y A Y T T T I I Y J J J H H N A B E E W 6 r 4 4 4 9 UXHXJXmXr r r r r r < < 1 Q ` ' ' ` ' ' ' ' ' ' ' ' ' ` ~ ~ ~ ~ ~ ` h l z ~.1 w w r r r r r r i r r r r r r r p i [.7X7X8Xu r r 3 3 3 3 ; ; ; ; 9 3 r 6 6 6 7 6 6 6 4 4 4 4 4 6 4 4 4 6 6 t l k Q ) [ [ _ [ _ ( ] l t s 6X7X7Xv.2 3 2 2 2 > q.u.u.u.u.p.j 3 r r r r r r t t 7 l g R E W E W h t t t t r s v pXpXuXuX4X* r r r r t r q v.v.v.e e l z ^.] ^.(.^.(.l y e t t t t t t > e.8.0.7.6.6.M r w ",
"l l O 9.8.7.6.8.g.< r r r w w w t e z ~.(.^.Q z g t t t u -X3X1XT.r r r r r i yXuXuXuXtX%Xr 4 6 t t t 5 g g h E ) h l g 1 6 4 i i 3 4 4 3 sXBXCXBXBXBXsXr 3 * 3 3 * ; * 3 6 t 6 t t h ( ( ( ( ( ( ] h 6 6 6 6 6 7 7 4 7 4 3 3 3 3 3 4 4 4 6 7 3 7 3 3 3 3 6 t t r r i i :X2X7X1Xd i 6 6 6 t t t 6 6 6 7 3 3 3 4 w r 4 4 r e h ( _ _ _ _ _ Y Y Y Y Y Y Y Y Y Y Y A A V ~ h g l 6 r t 4 3 9 UXKXHXmXr r r r r w 4 < < ! ' ' ' ' ` ' ' ' ' ' ' ' ' ` ` ` ` ` ` ` z e < % r y y y i i 9 9 3 r r r r r r r r i i G.2X2XiXu i r r 3 3 3 3 3 7 7 r 4 4 4 6 t 6 r t t t 6 4 4 4 6 4 4 4 t t t k W ) ) [ _ _ [ _ [ ] t e r n.N.v.r 3 2 2 2 > . q.u.u.u.u.p.@ 3 r r r i p r t t t l k h R k l l t t t t t r i d pXpXpX].C.r r r r r r i 8X7X7XP.e e e z ] ` ~.~.Q z l e e t 6 t t 6 t g e.8.0.6.6.6.M w 0 ",
"l l k 0.9.6.8.8.g.< r w w w w 3 < < l ~.^.W h g 1 t 6 r u ].>X<XH.r r r r r i P.G.B.B.B.n.r 4 t r t t t 6 t h ) ) h l g 7 7 3 C.C.9 4 3 4 sXBXBXBXBXBXsXr 3 3 3 3 3 ; ; : 4 4 4 t t h ( ( ( ( ( ( ] h 6 6 6 6 6 7 7 4 7 4 3 3 3 3 3 7 7 6 6 6 6 6 6 7 4 4 6 3 r r r i i -X7X7X8Xd p 6 6 t t t t 6 p 4 9 9 9 4 4 w w r 4 r r h [ [ [ _ A _ Y Y A A A A A A A A A A A V ~ h 1 1 t r t 4 3 9 UXKXHXmXr r r r r w 4 < - ` ` ` ` ` ` ` ` ` ` ` ` ` ` ` ` ! ! ! ! ! z e < < < y m.a i 9 9 9 9 9 r r r r r p r i i Z.7X7X8Xu i r r 3 r 3 3 3 3 3 7 6 4 4 t t t t t t t t t 4 4 4 4 4 4 4 4 r k ] ) _ _ _ _ ( _ ( W t e 4 3 < * 4 4 3 2 2 7 > q.u.u.u.u.u.@ 3 r r r r s i r r 6 g h R W k l l t t t t t r i d [.Z.v u a i t t t r p i iX7X7XP.w w w Q ^.Q z z l l e t t t 6 6 7 6 t g e.9.8.6.6.6.M w * ",
"l x O u.9.8.8.8.g.< r w 3 r 4 w w < l z z l l 6 6 r 4 r u ].>X2XE.r r r 3 r r p s i p p t t 6 6 t t t t e e W ) ) h t t 6 7 b [.[.i 3 7 t sXCXCXBXBXBXsXi 3 3 3 3 4 3 2 < 4 4 6 t t h ( ( ( ( ( ( ~ h 6 6 6 6 6 6 7 7 6 4 7 p p > 7 7 6 6 3 3 3 7 7 4 4 3 3 3 r r r i i b B.N.N.i p t t t t t t t r 9 SXSXLX9 r r r r r r r 4 1 g h ] _ _ _ _ _ S A A S S S S S S S V V h 4 t t r t 4 3 9 UXKXPXmXr r r r r r w 4 g ` ` ` ` ` ` ` ` ` ` ` ` ` ` ` ` ! ! Q z z l e w w w 0 a a a m LXJXJXlXp y r r r i i r r u B.B.d u a y r r 3 4 4 4 4 4 4 6 6 t t t t r i i r r r 3 3 4 4 4 4 t t r k ] [ _ _ _ [ ( ( ' W t t 4 2 2 2 4 4 4 3 3 7 > q.u.u.u.u.u.@ 9 r r r a I.C.i t t j W W W k l t t t r r r r p p i s s p p p t t t t r i iX7X7XQ.w w w e 1 e t t t t t t t 6 6 6 7 t t > e.9.9.8.6.6.W w * ",
"l x O u.u.8.7.6.g.< r r r r 4 w 4 < 4 1 1 g 1 , , 4 4 4 i N.K.J.N.t r r r r r p p p p p r t t t t t t t t t W _ _ h 6 6 6 7 b A.Y.i 7 7 t sXBXCXBXBXBXsXi * 3 3 r 4 4 4 4 4 4 6 t t h ( ( ( ( ( ( ' h 6 6 6 6 6 6 6 6 6 4 3 x n n n p t t t r t 9 3 9 3 3 3 3 r r r i p i f d a i p t t t t t t r p 3 SXFXLXi r r r r r r r 4 t t l ] _ _ S _ S _ S S A S S S A S V B B g 2 4 t t t 4 4 8 UXKXKXmXr r r r r r r r z ` ` ` ` ` ` ` ` ` ` ` ` ` ` ` ` ! ! z l e e y y r y y m.m.d m IXJXJXlXi y r r r r r i i i a a i i i i i i 3 3 3 3 3 3 4 4 4 t t r t f f a i i r r r 4 4 4 4 r r r k ] [ _ _ _ ( ( ( [ Q t e t 4 4 4 4 r r 7 7 7 > q.9.u.u.u.u.D 3 r y r i I.I.d r t g W W W k l t t t r r r r t t p p p p t t t t t t r 0 iXuX7XQ.e w w w 4 t t t 6 6 t t t 6 6 6 6 t t > p.9.9.0.6.6.M w % ",
"l l O p.e.w.| T { r r r r r 4 w w 4 4 1 1 1 6 4 4 4 4 4 r a n.u a t r r r r i t p p p p r t t t t t t t t t R X.X.R 6 6 6 7 p b C.i 7 7 p U.CXCXBXBXBXsXi * 3 r r 4 4 4 4 4 4 6 t t h ( ( ( ( ( ( ( R 6 6 6 6 6 6 6 6 t 6 7 p n n n p t t t r r 9 3 3 i 3 9 i p p i i i p a a i i i t t t t t t p p 3 NXFXJX* i i i i i r r r t t l W ) ] ) ) ) ) _ _ A S S S A S ~ ~ ~ g w r t t t 4 3 9 UXKXPXmXy r r r r r t t z R R Q ! ! ! ` ! ` ! ! Q Q Q Q Q z z z l e r r y y a u a a n.U.IXHXPXzXp a y i r r i i i i r r r i i i i i 4 3 3 3 3 3 4 4 4 t t r r f d d a i r r r 4 4 4 4 r r r h ] [ [ _ _ ( ( ( [ R t e t 4 4 4 4 r 6 7 7 7 > q.9.u.u.u.u.{ 9 y y r s C.C.d r t g W W W k l t t t r r r r r r t p p p p t t t t r r 0 C.D.B.n.e w w w 4 4 r 4 4 4 t t 6 6 6 6 6 t t > p.u.0.0.6.6.M w % ",
"x M.l h Q ` ' ' ~.0 r r r r r r r r t 1 1 1 1 1 4 w r w t r r r r r r r r r r t t t t t t t t t t 6 t 6 6 7 , 1 - 6 t t 4 4 r p s p r t p m CXCXCXCXZXcX8 * 3 r r r 4 r 4 4 r t t t g R R R R R R R h 6 6 4 6 6 t 7 6 t t t p x x x t t t p p p s s s p p p p p p p s s s f n.m.a s s s a s s s p sXsXVXGXFXFXFXFXFXSX9 i r r r 3 3 2 , , 5 - > h ~ ~ V V V V V V ~ ~ E 5 t t r t t 4 4 9 UXKXIXmXy y r r r t t t z ! Q ! ! Q Q ! ! Q Q z e w w w w w w w w r y y a a d lXIXLXLXNXIXKXJXmXU.f a a a a a i i i s a s i r i i i t r r r r r r t 3 t r r i f d d a a r r r 4 4 4 r r r r 5 h h h h h h h h z h t e t 6 4 4 4 t t t 7 7 > q.9.9.9.9.9.{ 9 y y y d n.n.d t t 7 l l x x t i r r r r t r t r t p p p t t t t t t r r r y r r w w 3 r 4 4 4 4 4 6 t t t t 7 7 7 t t 1 ) ) ) ) E R h w w ",
"x M.M.~.~.` ^.' ~.0 y r r r r r r w t 4 6 4 t t y y r r r r r r r t t r t t t t t t t t t t t t 7 k W W { j 4 r r r t r r 4 4 p s p r r r 9 NXNXNXZXZXSXxXqX8 r r r t r t t t t t t 7 1 g 7 5 5 1 6 6 r r r r r r r t r y y s s s x s t t t p s s x f 9 p p p s s s s p p n.C.m.a s a d m.a s s n GXZXVXZXZXZXFXFXVXSX9 a r r r $ $ 3 3 2 2 3 3 h E ~ ~ ~ ~ ~ ~ ~ ) W W g 9 t t t t 7 3 3 UXPXPXmXy y r r r > j j R E E ! ! ! Q Q Q Q Q l w w r w r w w r r r y a m.n.n.U.JXJXHXHXHXKXJXFXFXLXY.m.m.m.s s p i s s s s a a i i x p i p i r p s p s r r t i a a i d i r r r 3 3 r r r r 4 1 t e y y y y y e e e t r t r r r r t p j j o w.8.8.8.8.0.@ i a a a n.C.C.m.p t t t t r s d B.D.B.u r t r r r t t p p t t t 6 6 t r r r r r r r r q q r 4 4 r 4 6 6 p 3 7 p p p t t l ] [ [ ' E E h r r ",
"t l z ~.! ` ' ' Q r y r r i i r r r r r 4 4 r r a u u i r r r p p p p t 7 7 7 t t t t t t t t t 4 { o. . .O 7 t r r r r r 4 r r r r r r r 8 NXNXNXFXGXFXbXbXb r r t t t t t r t t t t t t 6 6 6 t t t r r r r r r r i u v.v.v.a s s s t t t s s s f x j j j n p s s s s s m.n.m.a s a m.m.m.a a n VXVXVXZXZXFXFXZXVXSX9 a y y i $ 3 $ ; : 3 3 3 k E E E ] E W W W { s.s.sXm j t t 7 7 r 9 UXPXPXmXy y y t r 9 zXsX{ { W W E E h z z z z l 2 4 r r r r r r r y a a m.n.n.|.GXGXHXJXPXKXJXGXFXLX|.m.m.m.d s s i s s s i i i i i x p 9 9 9 9 f m.m.m.i r t i i a i a i i r i i i r r r r 4 3 4 r r y y e y y t t r r r r r r t p j k k O 0.9.8.8.8.0.@ i y a a m.C.C.d s t 6 t t y i b 8X3X8XC.i i r i r t t t p p t 7 7 7 t r r y r r r q v.H.J.u 4 4 r 6 6 7 9 9 9 r p p t t 7 [ [ [ ` E E h r w ",
"l M.M.~.~.^.' ' ~.y 0 a n.[.0X|.i p t t r r r i P.7X8X#Xu i r p p 9 7 j k k m m p t t t t t t r r { .... .W t t t r r r r r r r r r r r r 8 nXNXNXZXGXFXnXnXA.i r t t t s t t t t t 6 t t t t 6 6 r t r r r r i i s a B.iXuXuXD.s s s t t t s s f f m hXhXx.h.j p s s s s s s s a s s m.m.m.a i 9 VXVXVXVXVXVXFXSXSXmX8 a a a i 3 3 3 3 3 3 3 3 t t t 6 4 4 r $ sXKXKXKXKXKXsX9 3 3 3 p 3 IXPXKXMXa m.y r r 9 GXBXCXkXkXgXdX{ , 4 4 w 4 4 4 4 3 3 r a a a a a a a m.m.C.lXLXNXmXFXGXKXKXIXLXmXI.n.m.m.m.s s i s s a i i s p p n s.gXgXgXgX9 m.a a y y t r i u 8X8X-XP.u d d a a a a a a i y r r y y r y r r r r i i s r r r p { D D D 0.8.8.8.8.0.j i y a a a a d a s t r r t t p v uXrX3XF.s i i i i t t t 9 @ @ { D { > r r y r r 0 E.7X7X5Xv.4 4 4 r r i b +X'.A.i i s s l ] [ _ ` ` E h y 0 ",
"l l z ~.~.^.^.' ~.a a n.n.[.aXbXv u a y i r i i D.7X7X-Xi i p p p p { g.f.l.l.s.p p t t p s r r p { ......{ t t t t t t t r r r r r r r i 8 nXnXNXJXJXIXnXnXqXi r r t t t p t t p 9 9 7 2 t t t p s s r i i i i i a a v uXrXuXJ.s s s t t t s s s f j hXc.c.gXj p s s s s s s m.s s a m.m.m.a s i lXsXU.FXVXZXlXd b n.n.a a a a a a i i i r r r r r r t r r r 3 sXCXHXHXKXIX. 7 4 3 9 p i IXPXPXMXa m.y y r $ GXBXCXBXBXkXdXdX, r r r r r r r 3 r i a a a a a a a m.m.n.n.C.n.|.NXNXFXLXNXY.C.b n.m.m.m.s s s s s s s a s s p m hXkXkXhXgX9 m.m.a y y y i a a 4X<X<XQ.n.a a d d m.m.n.C.C.F.a r y y 6 3 f M.a a a a a i r i 9 g.f.f.e.8.8.8.8.9.e.j i a a a a a i a s p p p p p f v iX3XuXP.a s i p i p p p . x.l.p.p.z.. r r i i i 0 5X7X7XQ.n.r r r r 8 b '.'.'.c f s s y l [ [ [ ` ` E h y y ",
"l l z ! ` ` ^.] W y a n.N.}.aXbXxXvXqXa i i i i v.=X=XQ.i t p p p 9 s.x.z.z.z.s.p p s p s s y y p {  . .} W t t t t p p t r r r i i r i i 8 nXvXNXFXFXSXSXSXSX8 r t t t t t p t p lXlXsX9 t t t p s s r i i i i a a d d aXiXyXF.s s s s t t s s s f m kXhXhXgXj p s s s s s s m.a s d n.n.m.a a a C.C.C.DXVXZXcXC.n.m.n.a a a a a a i i i i r 3 r r r r 3 r 3 3 U.VXHXHXKXMX  $   X 9 r i IXPXPXMXa m.a 0 r ; JXBXCXCXAXBXdXzX< r r r r r r i i i i a a a d a a a m.m.n.m.m.V.lXcXcX|.cXlXA.n.d n.m.m.n.d s a a s s s s s s p n hXkXBXkXdX3 m.m.a y y y a a d 1X<X<XJ.u a a d d n.n.m.C.F.!.a y y p m mXmXn s a a a a i i p 9 k.l.e.e.8.9.9.8.9.e.j i a a a a i a a p p p p p p i v qX-X9XY.s s s s s p s s 9 c.p.p.a.c.. r r i i i 0 Q.5X5XS.u r r r 3 A.0X}.+XOXb f s s y l ) _ ) ~ ~ E R y y ",
"l l W w.w.T Y P { a m.m.n.[.bXbXbXnX|.a r i i i a d d i i i p i p x s.x.c.c.c.g.p p s s s s t t t t t t t t t t t t t t p p p i i i i i r 8 bXbXxXvXbXvXLXLXSXu i t t t p p p t 9 cXsXlXn t t t t p p s p i i i i i a a d d d d s s s s p p p p 9 9 @ hXkXkXx.j x j j j p p a s a a d n.n.m.a i d F.!.Y.FXVXVXlXm.m.m.m.a a a i a i i i i r r 3 3 3 3 3 4 4 3 3 3 m FXPXKXj lXUXJXKX9 r y IXPXPXDXy y b LXSXcXVXJXJXmXsX  $ $ r r r i r i i i i i i a a d d m.m.d m.m.m.m.m.n.qXcXxXU.|.|.A.n.a d n.n.n.d a s a s s p p p x x m hXhXAXkXdXj m.s y 1 e t a a u L.K.Z.B.n.a a a a a a n.m.C.C.a r r 9 s.k.k.sXs a a a a i i i p k.l.l.e.0.9.8.8.9.e.j a a a a a a a a i i i i i p a a a a a a s s s s s s d m.x x.z.z.z.c.. 9 x f r r r v.S.S.a r r r r 9 |.aX+X+X+Xb s s s s 7 w.7.w.Y J F M w y ",
"M.l W 8.8.7.P P } a m.m.m.v.u b Y.qXC.a a i i i i p s s p p p s s U.g.x.c.c.c.g.x s s s s s s t t t t y t s s s s i i s i i i a a i i i r 8 bXbXaXaXbXvXLXLXSXb f i i p p p t t p sXlXcXI.t t t y s s s s i i a a a d n.d d d a s s s m { s.s.s.s.dXx.hXkXkXl.f.g.g.g.q.s.{ k s a a d n.n.m.m.n.n.V.Y.Y.|.|.sXY.m.m.C.C.n U.U.i a a i i i i r 3 3 r 3 3 4 4 r 3 i p f I.9 UXUXIXIXUX3 y r LXPXPXLXy b.8 NXNXVXFXlX9 i 3 r r r i i i r r i i i i i a a a d d d i f d i u d n.n.d I.Y.I.|.|.Y.d d d d d d d a a f p { { { s.s.s.q.c.hXBXkXk.gXzXgXdXg.dXj a a v.v.d n.n.n.a d d d m.d a a a a s s i 9 m gXgXsXs a a a a a i i i dXl.l.p.0.0.0.8.8.e.j m.m.a a a a a a i i a s a i a a a a a a s s s s s m.m.m.n x.z.hXhXx.zXcXcXmX3 r y m.a a a a i i i p f b b b 9 f s s s s 7 e.0.0.P P P M e y ",
"M.M.W 0.8.7.I P  .s m.m.m.a a a a u a a a i i i i i p 9 p p p x n m s.h.hXhXc.g.x s s s s s s p t t t t p s p s s a i i a p p s s i i i i u vX9XB.xXbXvXLXLXLXC.d s i a p t s r i ; n I.x t t t t s s s s a a a a n.n.n.n.d d a s s y { dXh.x.hXkXkXkXc.BXkXp.e.e.p.e.e.e.f.{ s a a a n.n.m.m.m.n.C.V.n.a d f m.V.C.LXIXIXIXIXn a a i i i i r r i t 3 r 3 3 r 3 i i r s n UXUXIXUXsXr y y LXPXPXIXq b.0 FXVXVXFXlXi r r i i i i i i i i i i i r i a a a d d d cXSXNXNXNXmXd m.d C.C.C.C.C.C.d d d d d a a a a f x x.l.l.e.e.e.p.z.kXBXkXgXkXkXkXkXx.g.j a m.v.n.d v.n.n.a a d d m.d a d s s s s a i 9 j m j s m.a a a i i i i dXx.l.p.0.8.K d.d.f.j i m.a a a a a a i i f i i i a a a a a a a s s s s f f m.n c.z.kXhXhXgXgXgXmXi i m.m.a a a a p p p p p p p f p p p s s y g e.8.8.7.P P M w y ",
"m.x W 9.9.6.P P  .y m.m.m.a a a a a a a a a i i i i i > dXh.k.g.dXKXKXHXp.p.u.e.s.sXs.m @ { m > s s s s s s p I.|.nXSXSXnXC.d s a a i i i a a n.n.qXbXbXLXLXLX|.|.qXA.i s s s p r t t t t s s s s a d b C.d m.m.m.m.n.n.C.d d d a a p { gXf.hXkXBXBXkXc.hXc.0.p.p.l.0.9.7.q.{ a a a a i r a V.n.V.V.V.m.n.n.m.a m.I.IXJXJXJXJXI.a a i r t t t t t t t t r r r r r i a i |.IXUXIXlXmXSXsXn UXIXPXUXU.i   FXFXVXZXmXi a a i i i i a a i i i i i i a a a a a n.d SXLXFXFXFXLXi i s a i a a a d C.V.d a a a a i a d x x.p.p.l.c.hXz.a.hXBXkXkXkXCXZXBXf. .g a d v.u u v.n.n.n.n.n.m.m.d x x s s a a a a p i i p a n.m.m.a i sXsX|.gXx.k.p.0.w.W t t 2 3 y a a a d d n.n.SXSXLXSXcXxXi a a a a a a p m m @ m sXsXgXc.z.c.z.hXPXHXAXgXsXsXsXs s a a a s a p s f f f f s p p s i s j e.0.0.6.P P M w 0 ",
"M.x D 9.8.6.P 7. .y m.n.m.a a a a a a a i a i a i i i 7 s.x.c.x.BXUXPXPXp.u.u.p.kXBXBXhXl.p.g.g i s a s s s s v 0XnXSXSXnXP.n.d a a a a a a d n.n.qXbX0XLXLXSXSXSXSX|.f i i i y i r r r s s s s s qXnXnXnX9Xm.m.m.V.C.C.C.d d a a a i k g.q.e.e.c.kXhXa.u.u.0.p.p.c.7.0.q.D k y a a a a y u V.V.V.V.n.m.n.a a a a U.LXIXFXFXFXI.s s i i p p p t p t t t r p p i r i i i b $ ; r r DXUXUXUXIXIXIXIXKXIXcXlXsXsXU.n i a i i a a s a a i i i i i i a a a a d m.d SXFXFXFXFXLXi i i i i i i a d C.C.d d a a a d a d x d.T w.f.kXjXc.p.z.c.c.hXkXBXBXf.T T g a d v.u u n.N.v.v.n.n.m.m.m.W } { x s a a a i s p a d m.m.m.d d cXCXCXBXhXx.l.0.w.W s y y a i a d d d n.n.C.LXNXVXVXNXcXd a a a a a i 9 h.f.f.kXGXJXZXhXa.p.p.kXIXPXPXkXhXhXgXp s s f f f f s s s s f f s p s s s a j e.0.0.6.7.P M w 0 ",
"x x D 9.8.6.T P  .a m.m.m.a a a a a i a i s a a i a i 9 s.l.z.l.BXUXPXKXp.u.u.p.kXCXZXkXz.u.g.o a a s a a s s b qXnXSXSXnXP.n.d a a a a a a d n.n.qXbX[.LXLXSXSXSXSXn 9 a a a a s i r i a a s s d qXbXbXbX9XF.V.V.F.C.C.C.n.n.m.a s s m  .0.6.7.l.hXhXz.u.u.9.p.p.l.0.0.K M x y a a a a a a V.N.N.V.V.m.n.a a a i b |.|.sX|.U.f s s a p p p p p p p t p p r i i i i i i i r r r r DXUXUXUXPXIXUXPXKXFXmXf f f i 3 i i i a a s a a a a a a i i a a a a a d m.n.mXLXFXFXFXSXi i i i i y i s d C.C.d d d d d d a a x U U F w.c.c.z.u.u.a.c.c.hXhXx.K T T g a d v.u a N.D.D.D.n.m.m.m.M.{ } } k s a a a s a i a a m.m.n.n.d cXBXBXBXhXx.l.e.w.W p t r a a a d d d n.n.b SXNXZXVXNXvXd d a a a a a 9 h.w.e.hXGXJXFXhXa.p.p.BXKXKXPXhXhXhXgXs s s f f f f f s s s f f s p s s s a j e.0.0.6.7.P M w 0 ",
"s x D 9.8.7.P T  .y m.m.m.a a a s i 9 i i s a a s i i 9 s.l.e.K x.BXkXhXu.u.u.p.kXCXCXkXl.e.g.j a a a a s s s C.vXnXnXnXbXP.n.d a a a a a a d n.n.D.J.%XSXSXnXSXLXSXvX|.i a d a a i a a a a a a d qXbXbXxX|.lX|.I.F.F.F.C.C.C.V.C.n.m.x k  . .K e.hXhXz.u.9.8.0.0.w.U U U k t m.a a n.N.B.D.D.D.D.D.D.V.n.n.a a u n.d a f s s s s s s s p p p p p p t p 7 t p i r i i i r r r 3 3 IXUXUXmXKXJXJXJXJXFXlXs a s a a a a a a s a a a a f f f i i i a a a a d m.d b b n I.I.C.i a r i i i a d C.C.B.B.B.N.B.C.C.n.n.p R Z U K e.9.u.9.u.u.c.c.hXl.0.U U ..j n.v.v.N.V.N.J.J.F.C.k W { } ..| | W s s a a a a a a a m.b.m.n.d cXAXAXBXkXx.k.p.q.k p p i a a a d d n.n.n.b LXLXLXSXSXqXn.n.n.n.d d a 9 g.w.w.h.HXHXCXkXz.p.e.kXCXBXkXc.hXhXsXf s s f f f f f f f n n f f s s s s s j e.0.0.7.P P M y y ",
"x x { f.w.T T T  .s m.m.a a a d n gXkXMXf f d s s s a p D e.K w.0.0.u.u.9.u.u.a.a.i.K K U U } k s s s s s s s C.Y.C.V.v.n.n.m.a a a a a a a d n.m.N.D.8XnXSXSXSXSXnXnXnXC.m.n.n.m.a a a a a a a d |.vXqXvXLXFXNXNXF.F.F.D.D.D.D.D.V.V.m.M.x x W w.z.z.p.0.0.7.8.8.d.W k k x M.m.n.V.N.B.B.D.G.G.G.G.G.D.B.N.v.v.v.v.n.n.a n.n.n.n.d s s s p p p j k @ O o > p i i i i i r i r i i i a s I.JXJXJXGXGXIXi m.m.a a a a s a a s a s a f sXSXSXSX|.i a a a d m.m.m.m.n.m.m.m.m.m.n.n.n.n.C.P.G.P.G.J.G.G.G.G.D.D.N.b.m.t l k M e.9.u.8.8.0.l.l.l.q.w.h x x s n.n.N.N.N.N.S.S.F./.o.d.d.T T T | W s s a a a a a a a V.F.V.V.C.cXVXCXVXkXgXx.x. .j p s s a d d d n.n.n.n.d u n.v.v.qX9Xv.n.v.n.n.v.n.p U U Y T f.hXc.c.z.p.e.0.7.7.7.7.g.s.m M.m.f f f f b b U.HXVXsXf s s s s m.a 7 M | ..Z ) E R y y ",
"x l h E ] [ [ ) { m.m.m.m.m.m.d { hXc.gX9 f f d s m.a p { D M w.9.9.9.9.9.u.u.a.a.a.K Y A Z W x m.s s s s s s d n.n.n.n.n.n.m.d a a a a a a d n.n.n.N.B.-X0XaXvXvXnXnXnXC.n.n.n.n.n.a a a a a a d |.bX0XvXFXCXVXFXA.F.F.N.N.N.N.D.N.V.n.m.m.s W w.0.8.7.7.P 7.7.6.w.k x x x m.n.V.V.V.N.B.D.D.D.D.D.G.D.D.D.D.D.N.n.n.n.n.n.n.v.v.v.d s s p p p @ w.w.w.g.O p i r i i i r r r r s d m.m.sXJXJXGXZXGXIXf m.m.s s a a a a a a a s f f sXNXNXNXsXi a a a d n.n.m.m.n.m.n.n.n.V.V.N.D.D.N.F.D.D.D.D.D.D.D.H.J.D.v.b.b.m.M.l M 8.9.u.6.6.7.7.q.q.7.K x m.m.m.m.n.V.N.N.N.F.S.F.} d.w.w.T ..| | W s s a a a a a a n.V.F.F.V.V.cXmXgXmXmXsXgXdX{ 7 s s s d m.d d n.n.n.n.n.m.m.m.b.S.S.V.N.N.N.N.v.n.f U A Y H I x.c.z.z.p.0.8.8.7.7.T k j x s m.f f m.b I.U.sXBXkXsXf s s s s m.m.x [ [ [ ~ ` ! Q y y ",
"x M.z ! ` ^.^.] ~.m.m.m.n.sXgXs.g.z.a.c.hXhXm m.m.m.m.m.p p x w.0.9.9.9.u.9.u.a.a.a.U ) ) E k x m.m.m.s s s s d d d n.d n.n.m.s m.s p j 9 s m.n.n.d d v.B.D.0XaXvXnXnXnXA.m.m.n.V.F.P.P.P.F.n.n.m.n.C.9X0XSXKXFXcXA.F.F.V.V.V.V.V.N.C.m.m.m.l } P 7.7.P I J w.7.7.w.R x M.m.m.n.C.C.V.V.V.N.N.n.V.N.V.V.N.D.G.G.D.N.v.v.n.n.n.N.N.N.m.s s s p p D 6.6.6.T O i i i a i i i i p i p i * f lXKXJXJXJXJXsXf m.m.f s s s s s a a a f f f |.NXNXNXsXi a a a a d n.n.m.C.n.n.n.V.N.D.D.G.G.N.V.b.v.v.v.n.N.N.D.S.S.b.b.b.b.m.s M 6.8.9.6.6.P P P 7.P U k m.m.n.n.n.v.N.N.N.N.v.m.{ h.d.d...E W R z s m.d B.L.L.B.v.n.V.V.V.V.V.cXcXcXcXlXM.M.M.s i s s s f f f d d n.n.m.m.n.n.n.N.F.F.N.N.D.D.D.D.V.f W } U Y T x.c.c.x.l.0.8.8.P 7.T k x f s s s f f b IXZXBXkXhXgXsXsX{ f m.m.m.x [ _ _ ` ! E h y y ",
"x x z ` ' ^.^.] W m.m.m.n.s.c.l.p.p.p.c.c.c.m m.m.m.m.a y y t  .7.8.9.9.u.0.0.6.8.0. .l l l s s m.m.m.d s d s d d n.n.n.n.n.m.s s j s.f.g.n m.m.d a d d C.A.qXxXvXnXnXnX|.n.n.n.V.F.#X%X-XL.v.n.m.n.A.P.[.xXcXxXqXP.P.P.N.V.V.V.V.V.C.C.n.m.j } T T T T T Y w.w.0.w.W x m.m.n.m.V.V.V.N.N.N.n.v.n.m.m.n.V.D.H.J.D.N.V.n.v.v.v.N.N.N.n.f s s p p D 8.8.6.K O i i y i i i i i i i 9 DXUXIXsXIXIXPXIXFXJXFXU.sXI.s s s s s a a a f f f |.NXNXSXlXi a m.d m.m.n.C.C.C.n.n.n.V.V.D.G.G.G.N.V.v.v.v.n.n.N.S.S.S.N.V.N.N.N.m.m.W 7.6.6.7.P I P P P P Y k m.m.m.n.n.V.N.N.v.b.b.x W E ) ) ~ ! Q z x s a n.B.%X;X;XK.N.V.V.V.V.V.vXcXcXcXlXm.m.m.m.i s s f lXSXcXU.I.n m.m.m.d d n.V.N.N.v.N.D.D.D.D.N.n.f x j O ..w.e.w.w.P P 7.7.G F U x m.d s s f m.m.b JXCXBXkXhXc.c.k.s.f m.m.m.x _ _ _ ~ ! E z y 0 ",
"x M.Q ~.` ^.^.] W s m.m.n.s.c.a.p.p.p.c.c.hXm d m.m.m.a y r 6  .w.7.0.9.9.0.7.7.8.7.} M.m.s s s m.m.m.d s d d d n.C.C.n.n.n.m.M.x { q.e.f.m m.n.d a a i d b |.qXxXxXxXxX|.n.n.n.V.D.].%X%XJ.v.a n.n.P.[.0XqX|.aXaX0X9X-XD.N.V.V.V.V.V.V.C.m.j } I Y Y Z M O D d.K  .W k m.m.m.n.n.V.N.V.N.n.n.m.V.m.m.n.V.D.G.G.D.V.V.V.v.v.N.N.N.V.n.d d s s p { e.w.K D > i i s i i i i i i p 9 DXJXFXNXDXLXLXDXJXGXZXJXIXn s s s s s a s f f f f I.SXNXSXlXi a m.m.m.m.n.C.C.C.n.n.m.n.V.V.D.D.P.N.v.v.V.n.n.n.V.N.S.S.S.N.N.N.b.m.m.D I L I Y Y U Y U Y T U k f n.m.V.V.V.N.N.b.b.m.x ~.] ] ] ] ! Q z x d s n.B.%X<X<X].v.V.m.V.V.V.lXlXlXlXlXm.m.a a i i s f cXNXNXlXU./.x m.M.f f m.m.m.n.n.n.N.D.D.N.n.n.d s p j ..T T I I J Y F P J T ..x x d s s f f d b JXCXkXkXhXc.c.z.g.f m.m.m.x _ _ _ ` ! E h y 0 ",
"x x k R ! ` [ ) W s m.m.d s.c.z.l.p.e.hXgXNXn m.m.m.a a i 0 t  .P L P 7.P F P 7.7.7.| x M.m.m.m.m.m.m.d d d d d d m.m.f x k k k D f.q.u.p.m d m.n.a a i r 3 3 i i i i i a a n.m.n.V.L.-X-XP.n.a n.n.n.d v.v.v.P.P.[.[.P.-XD.V.F.F.C.V.C.C.m.k } Y A ) R l l l } U U { k M.m.n.n.n.N.N.V.V.V.x k { { W m.m.V.N.N.N.V.V.V.N.N.V.V.V.m.m.d d s s p g k g g l p p s a i a a i a a p p DXIXJXFXI.!.!.I.IXFXNXJXIX9 f s s s f s f d d d d i f i i f f a m.m.n.n.n.V.D.F.n.n.n.m.n.n.N.V.F.V.m.M.k k k x C.F.F.S.S.N.N.N.b.b.m.D H H S ~ R z ` ~ Z U U k n.n.m.C.C.F.C.C.C.m.m.x l l l x x x l x M.s d n.D.=X=X=XL.v.v.m.b.n.V.i i y r r r r y i i p s C.cXNXcXlXsXg.k k k { k n.v.m.d n.n.V.V.V.C.n.d d a a j T T I I I Y Y H J H J Y g p s s s f f d b SXNXfXkXhXhXgXx.sXs m.m.m.l ) _ [ E E R z y y ",
"s l O w.T T T w. .s n.n.n.b 9 9 . h.f.j f d a a m.a a a a 0 2  .I G J Y Z Z Y J I I | x M.m.m.m.m.m.m.a a d d d s m.s k  .K K w.w.w.g.g.k.m m.m.m.a i i r 3 r p p t p p s d n.n.m.n.V.V.N.v.n.m.n.n.n.a a a u n.N.F.P.P.-X[.[.G.F.F.V.C.C.d k ) ) E R z l l l } U U U k M.m.m.n.n.V.N.N.V.n.g.f.e.q.{ M.m.n.n.V.V.V.V.C.C.C.B.C.C.n.n.n.n.d s s l l l l t p p s s s a s s p 9 n 9 MXJXFXIXn m.b.Y.IXLXcXFXIXJXDXcXi s s s b b b b d s s d f f f d n.m.m.n.C.D.L.J.V.v.N.V.V.n.n.n.n.n.M.{  .....o.n C.F.F.F.S.N.N.b.m.m.W _ _ ) R z z ! ~ ) ) ) k m.m.C.C.C.A.|.qXlXd a s s s s s s x x x s m.m.d N.D.B.D.B.N.V.v.V.V.V.a a a r r r r r y i i p d I.A.I.b { w.w.w.w.w.D d n.n.n.n.n.n.C.C.C.n.d n.n.d j Y T J Y H Y A Y Y J J Y x s m.f f f d d d b n.f kXhXs.f p f m.m.m.m.j d.w.T T Z Z R w 0 ",
"x x O w.w.7.7.7. .p n.n.n.d d d 9 h.x.m a m.m.m.m.a a a m.n.r } Y J Z M h O M M Z A ) x m.m.m.m.m.m.m.d d d d d s n.m.k w.0.0.0.e.D x x j f m.m.m.d a s p p p p p p p p d m.m.m.m.n.n.n.n.d m.m.V.n.n.d a a u n.V.V.F.D.[.}.}.P.F.D.V.C.C.n.k W R k h l l s l { { { { k M.m.m.n.n.V.N.N.V.C.g.e.e.q.{ M.m.n.n.n.V.V.N.C.|.|.|.xXb d m.n.n.m.f f x l x p p p s s s s s s s n DXVXNXNXJXJXJXf m.m.Y.n f U.mXFXGXJXJXn s p s b b b b d f f f f f f n.m.m.n.C.C.P.].G.B.G.G.V.V.n.n.n.n.n.k } U T T ..j n.V.F.F.S.N.N.n.m.m.W E E R h l l z R R W W x m.m.C.C.C.P.|.qXxXd m.s s s s s s s s s s d d d d u u N.D.V.V.V.b.V.n.a a a a a a y y r i i p d d d n.d { 0.6.6.6.K W f n.n.n.n.d n.C.C.C.C.n.C.C.n.x | Y A Z ) ) ) ) Z Y J Y x m.n.d f f d d d d d 9 kXhXs.d a a a m.m.m.j e.0.0.7.F F M e 0 ",
"s x O w.w.7.7.7...p n.d v v d v.9 gXhXm a m.m.m.a a a a V.V.n.R ) A W h y l l h ~ ~ ) x m.m.m.m.m.m.m.d d d m.m.m.n.m.k 8.9.u.u.0.{ M.m.m.m.m.m.m.n.d n.d a s s s s s s m.m.m.m.m.m.m.n.a n.n.V.n.V.V.V.n.V.V.V.V.V.C.C.[.-X-XP.F.F.V.C.C.m.x k l l t s s s y y y t l x m.m.f f f d V.V.V.f f.e.e.q.{ x m.n.n.V.V.V.D.B.LXGXFXLXb n.n.n.n.n.n.s x s s s p p s s a a a a f n sXNXmXNXLXNXMXa m.m.a a a n mXFXFXJXJXm U.9 i b b b b d f f d f d d n.V.V.V.V.V.[.aXaXaXaX8XV.V.n.V.n.m.V.W U U T T ..x m.V.F.V.C.b d m.m.m.x t t t y y s y y y M.M.m.C.C.C.C.C.A.|.qXqXC.m.m.m.m.m.m.n.m.n.n.f m.m.n.n.n.N.D.D.F.F.V.V.v.m.m.m.m.n.n.n.a d d s a a n.n.n.n.d { 0.9.9.8.K W s n.n.n.n.n.n.n.n.C.C.C.n.C.n.x ) ( ~ Q z z z z z E E ) x m.m.d d d d d d d d 8 kXhXs.d a m.n.n.m.m.7 e.0.0.7.G H Z e q ",
"s x O w.7.7.7.7. .s m.n.n.N.N.v.d U.sXx n.b.m.n.n.n.n.a V.V.m.l R R h l y s s h ` ~ E M.m.m.n.n.n.n.C.n.n.n.n.n.n.m.d k w.7.7.6.w.{ M.m.m.m.m.m.n.F.D.F.n.n.m.d f x j j f n.m.n.n.m.m.n.n.n.V.F.G.C.C.V.C.C.C.V.V.V.V.V.N.B.D.F.F.F.C.C.C.m.M.x p r y s s s y y y y y m.M.n dXx.gXm V.n.V.b s.s.s.s.s.I.V.m.V.F.V.V.N.B.LXFXFXLXb n.n.n.n.n.n.d s s s s s s s a d d a a n JXGXVXFXj 9 I.U.a m.m.a a a i lXsXDXZXZXVXVXU.i i d d d d d d d d d d n.V.N.V.V.V.L.aXaXaXaX8XV.V.C.C.v.n.C.k U U U U } x m.v.n.m k.q.{ b m.m.s t t t r y y s y y m.m.C.C.C.C.C.C.C.V.V.V.V.V.V.V.V.V.V.C.C.C.C.C.C.C.C.V.V.C.D.D.D.F.V.F.C.d f f n.n.n.n.n.C.C.C.d d n.C.V.N.d { K 7.w.w.w.} s n.m.n.n.n.n.n.n.C.C.C.V.V.n.s W ` E Q l M.M.M.l z z z M.m.m.d d d d d n.d d u mXgXm n.n.n.n.n.m.m.7 f.0.0.7.F N ) y q ",
"s x k w.w.7.7.7. .s m.n.n.B.B.N.v.a f n.v.b.m.n.n.n.n.v.V.N.b.l k z l t s p t g R E W m.m.m.V.V.B.B.B.V.n.n.n.n.n.n.m.k U U U F F D M.m.m.m.m.m.V.D.J.D.V.m.m.m.f s.5.5.{ n.n.n.m.n.n.V.V.N.V.[.[.B.C.C.C.C.V.V.V.V.F.V.V.V.V.V.C.C.C.C.C.n.m.M.a i s m.m.a a a a m.s m.m.m h.l.x.m m.n.n.m.j j x n m I.V.V.F.V.V.N.N.B.LXLXLXLXb n.n.n.n.n.n.d d f a a a s a d d n.a d n VXVXVXJXn 3 0 3 m.m.m.s a a a * * lXVXVXVXZXsXa a a n.n.n.d d d n.n.n.C.V.N.N.N.N.G.aXaXaXaX-XV.V.C.V.v.n.V.k U M W W k s m.m.n.m 0.0.5.n m.m.m.y y i a a n.d d d n.m.C.C.C.C.C.A.C.N.N.V.V.V.V.V.V.V.V.V.A.C.C.C.C.C.F.C.V.B.D.G.D.F.F.C.s.s.s.m b n.n.n.V.V.C.C.C.n.C.V.V.N.n.{ Y U Z Z Z W M.n.n.d n.n.n.d u c v V.C.V.n.d k Q z l l M.M.M.M.z z l M.C.C.d d d n.C.C.C.n.C.b 9 f V.v.N.n.n.n.m.7 f.0.0.7.N A W y q ",
"s x W 7.w.T 7.7. .s m.n.N.-X1X=Xv.b.b.V.V.V.N.D.P.N.v.V.F.F.n.m.M.s s s s s s l l l M.C.D.D.N.N.'.OX+XOXZ.N.D.D.D.D.V.V.W Z Z Z Z W x m.m.m.n.n.V.G.J.D.n.m.n.n.b l.u.u.i.b n.V.V.V.V.N.V.S.D.[.}.'.}..X'.A.V.V.V.V.V.V.V.V.V.C.{ g.s.n C.m.m.m.n.n.n.n.n.n.n.n.m.n.V.C.F.s.x.l.x.m C.m.m.m.s s f f m.C.V.V.V.V.V.N.V.N.A.c v d C.n.n.n.n.n.C.n.d f s f f f f d d n.a d n ZXCXVXGXm r r r m.V.m.m.a a a a 0 lXVXBXVXVXlXa a a n.n.n.V.n.n.n.V.C.V.V.V.V.N.N.B.Z.G.].#XJ.V.n.n.V.V.V.V.x x x x s s a m.n.b m p.e.s.f m.n.m.n.n.n.d d N.N.V.V.V.V.C.V.V.Z.}.aX_.D.N.N.V.V.V.D.D.D.D.Z.'.$.c A.P.F.F.D.D.D.G.D.D.N.F.I.l.i.a.s.b n.n.n.V.C.B.B.C.C.C.N.B.B.n.{ _ _ _ ) ) W I.F.S.V.N.V.C.fXk.j.%.v C.D.D.C.m.s s s m.M.m.m.m.M.M.M.M.C.C.n.n.C.V.F.P.F.V.V.F.N.S.S.R.R.N.n.b.n.j e.8.0.7.A A E y q ",
"s x W w.I I 7.7. .s v.n.N.4X3X8Xv.b.b.N.F.N.D.J.L.G.D.D.D.D.D.F.F.s a d s s s s y t d D.G.G.D.D._.OX.XOXZ.D.D.D.S.D.S.b.k Z U Z Z W M.V.V.b.V.V.D.G.G.D.n.m.n.n.b k.u.u.e.n V.N.V.V.V.N.N.N.B.[.[.'..X=.'.Z.V.V.V.V.V.V.V.V.V.n q.7.w.s.m m.m.m.n.C.C.V.n.n.n.n.n.n.N.B.P.|.gXsXsXb V.m.m.n.f s f f n.C.V.V.F.N.V.N.V.N.V.V.V.V.n.n.n.d d n.V.V.d d d d d d d d d n.n.a n FXZXFXLXI.r r r C.F.F.m.a a a a 0 mXFXFXFXFXcXa a a n.V.V.C.V.C.V.V.V.V.v.v.N.n.N.D.D.D.J.J.F.V.n.n.V.D.S.V.n.m.s d n.a n.n.n.d b { s.m n.n.n.n.n.n.n.n.n.n.N.N.N.V.V.V.D.G.[.}.OXZ.D.D.D.V.V.V.D.D.D.D.Z..X.X.XA.P.P.P.D.D.D.G.D.D.N.V.b l.p.p.s.b n.n.n.V.C.D.D.N.C.B.N.N.N.n.n ) ) ) ) E W I.F.S.F.S.N.v k.t.k.m B.D.D.D.D.V.n.a m.m.m.m.m.m.m.V.m.m.V.F.D.F.P.P.P.F.D.V.V.N.N.N.#X*X@XN.v.v.n.j w.8.8.6.P P ) w q ",
"s l W e.7.7.7.7.d.d v.v.v.1X1X8Xv.v.b.N.S.S.D.L.].L.J.G.D.D.D.D.D.n.n.n.n.n.n.d a a n.D.D.D.D.B.].OXOX}.Z.D.D.D.S.D.S.F.M.k k k k k m.V.V.V.N.N.D.G.G.F.m.m.n.m.d s.p.p.s.b V.V.v.v.V.N.N.V.N.A.A._.+X=.'.c C.V.V.V.N.N.V.V.V.n q.7.w.g.m m.m.m.n.C.V.V.n.n.n.V.V.V.V.N.G.C.b b C.C.V.m.n.n.f f f m.C.C.V.V.F.N.N.N.N.N.V.V.V.V.n.n.d d n.N.F.V.d d d d d d d b d n.a a i n m U.|.b i i i C.F.V.C.n.n.a a a C.I.U.|.sXU.a a d n.V.V.V.C.V.V.V.V.D.v.n.n.n.n.D.F.D.J.J.D.V.m.n.V.D.D.D.V.n.d d m.n.d n.n.n.n.f b d n.n.n.n.n.C.C.n.n.v.N.N.N.N.N.N.P.].[.}.OX].G.D.D.V.V.V.D.D.D.B.v .X.X.XA.P.D.D.D.D.J.G.D.N.N.N.b k.k.k.m C.n.n.n.N.D.D.D.D.B.B.B.B.S.N.x W W W W W k I.F.S.S.N.N.v k.k.j.A.B.B.D.D.D.N.v.n.V.N.N.v.m.m.V.F.V.V.V.D.D.J.J.P.P.A.D.V.V.N.N.D.&X*X#XN.v.v.m.j w.8.8.8.6.6.U w q ",
"s l k w.8.6.6.6.d.a v.v.N.J.L.J.v.v.b.v.S.S.S.L.4X0X-XD.N.D.D.D.D.D.D.D.D.D.D.D.J.J.J.J.J.S.S.D.B.G.D.D.D.S.S.D.D.D.N.V.m.m.m.m.m.m.m.F.S.S.N.N.N.D.D.V.n.v.b.m.m.f b C.C.v.v.v.Q.Q.T.v.v.v.v.N.v v +X+X}.Z.V.N.V.N.D.D.N.N.V.n s. .m |.Y.n.m.m.n.V.V.N.N.N.N.N.N.N.N.N.G.B.N.V.n.n.N.D.N.V.d f f n.C.F.D.D.D.N.v.v.v.v.B.L.L.G.N.N.n.n.n.N.J.D.V.n.n.d d d n.C.V.n.n.a a a a a a a m.m.n.C.F.F.F.n.n.m.a a a a a a d n.n.n.n.n.V.V.N.V.V.N.D.G.G.v.n.n.v.v.J.J.J.L.L.J.N.v.v.S.D.D.D.N.V.n.n.n.n.n.n.n.n.n.n.V.N.n.V.n.V.n.n.C.n.n.n.N.N.N.v.v.v.P.[.].[.].].G.D.D.D.D.D.D.D.D.B.Z..X.X.XA.N.N.v.N.G.#XE.D.N.N.m.n.C.C.C.C.V.N.V.n.N.D.D.D.C.N.N.L.K.H.N.m.m.M.M.x x x F.S.D.N.N.N.v.v v B.B.D.B.B.D.G.H.H.B.D.S.D.D.D.D.S.D.D.D.D.D.J.H.G.vXvXA.D.F.D.v.v.N.D.S.N.v.v.v.v.j w.8.8.8.6.6.U w % ",
"x x k e.0.8.8.6.d.n.b.N.N.v.v.b.v.N.v.v.N.S.S.J.aXbX[.D.D.D.G.D.G.G.G.G.G.G.G.S.R.R.R.K.T.J.S.N.D.N.N.N.S.S.N.P.-X-XN.b.m.m.m.m.m.m.b.Q.&XT.v.v.N.D.G.P.D.D.J.N.n.V.S.S.N.v.v.N.&X5XQ.v.v.v.v.N.N.B.Z.Z.B.B.N.N.v.v.J.J.J.D.D.V.d m.V.|.Y.C.m.n.n.N.N.B.N.N.N.N.N.N.N.N.J.D.N.V.V.V.N.J.G.N.C.C.C.C.F.J.J.H.G.D.N.N.v.v.B.@X@X@XL.D.V.n.n.D.H.H.D.V.V.n.d d n.C.N.V.V.n.a a a d n.n.m.n.n.V.F.F.F.n.n.m.m.a a a a m.m.m.n.n.V.V.V.N.N.N.N.L.].].L.v.d d v.B.K.K.K.K.K.L.D.D.D.D.G.J.J.B.N.n.V.V.V.v.v.v.v.v.N.N.N.N.N.N.D.N.N.N.v.v.N.D.S.N.v.v.v.P.].[.G.P.G.G.G.G.D.D.D.D.D.G.G.Z.v v Z.D.v.N.N.N.G.@X#XJ.N.v.v.v.V.F.N.N.N.N.N.N.D.D.D.V.V.V.N.E.R.R.S.V.m.m.m.m.m.m.D.%X=XL.v.N.N.N.N.N.N.S.B.B.D.].3X1XG.D.S.D.D.D.S.S.G.J.H.D.D.L.K.G.SXvXP.P.D.D.v.N.N.N.v.v.v.N.N.v.j w.9.9.8.6.7.} w % ",
"x x W e.0.0.8.6.g.m.b.b.N.v.v.v.N.N.v.v.B.9XP.G.nXnX[.D.F.D.D.D.D.D.D.D.S.S.S.H.R.T.T.R.R.J.S.N.D.V.N.N.N.N.N.L.-X-XN.m.b.m.m.m.m.m.N.#X&XT.v.v.N.D.G.].L.#X#XN.v.N.S.S.N.v.v.S.T.E.Q.v.v.v.v.v.v.B.D.B.N.B.N.N.v.N.J.H.H.J.D.N.N.N.S.Y.|.Y.n.n.n.N.D.D.N.N.N.N.N.N.N.N.J.G.D.N.N.N.D.K.H.D.C.C.C.D.P.L.H.H.H.J.S.N.v.v.D.K.@X@X@XD.v.v.v.D.K.K.J.N.V.C.d d n.V.D.D.V.V.a a a n.n.n.n.n.n.N.D.D.D.N.N.n.n.n.a a a m.m.n.V.n.V.V.N.N.N.N.D.K.].].L.v.d d v.D.K.R.R.K.L.J.G.D.J.J.H.H.H.D.B.N.N.N.B.N.D.D.D.D.D.S.S.S.D.D.S.D.N.N.N.v.D.J.H.N.v.v.v.G.].].B.N.D.J.J.G.G.D.D.D.P.G.G.D.B.B.B.B.N.v.v.N.J.@X#XJ.N.v.v.N.D.N.N.B.N.D.G.G.G.G.D.V.V.C.V.E.@XR.S.S.V.V.N.m.n.d D.$X$X-Xv.N.N.N.B.D.D.D.B.D.D.].2X;X].S.S.D.S.D.D.D.G.J.G.D.D.G.K.].SXvXP.D.P.D.v.v.N.v.v.v.N.N.N.v.j w.9.0.8.6.7.U e 0 ",
"M.M.W 0.8.6.6.6. .m.b.N.v.v.v.v.V.V.N.N.v.LXSXSXSXSXvX9XP.P.N.v.v.v.v.N.N.J.H.T.T.T.E.T.T.J.D.S.D.D.D.D.D.D.D.J.%X-XS.F.S.S.D.D.D.D.S.E.R.T.v.N.N.D.P.L.L.L.E.S.N.S.J.H.J.J.S.J.T.E.J.D.D.D.G.G.D.J.J.G.D.D.D.D.D.D.J.J.J.J.H.J.J.J.T.S.B.N.F.V.D.G.G.H.H.H.H.J.D.D.N.N.J.L.L.J.J.J.J.J.L.G.D.D.D.G.L.K.J.J.H.J.J.D.J.H.K.K.K.@XR.K.J.J.J.H.K.K.K.H.G.V.d d v.N.D.G.D.D.D.D.D.S.D.D.D.D.J.H.J.J.H.H.G.D.N.N.N.V.N.N.V.F.F.F.F.D.N.N.N.G.K.@X@X].K.H.J.S.D.L.K.R.R.K.L.L.L.H.H.J.J.H.K.H.H.H.H.H.H.L.K.K.K.H.H.H.H.H.J.J.J.J.J.H.J.J.J.K.H.S.N.N.D.D.L.L.G.G.J.J.L.J.G.D.D.D.J.J.D.D.D.D.D.D.D.N.S.N.J.#X#XJ.D.D.S.D.J.D.D.N.N.L.K.E.K.L.D.V.V.V.D.L.#XR.J.D.F.J.J.D.D.F.G.#X#XK.D.D.D.D.D.D.S.S.D.D.D.].$X%X].J.J.T.B.N.N.N.N.N.S.S.-X#X].[.LXcXSXSXLXN.v.N.N.N.v.v.v.N.N.v.j e.0.0.6.P K ) e r ",
"s x k w.I Y Y Y } b.N.S.S.S.S.S.F.F.S.S.v.LXFXFXFXFXNX9XP.D.N.v.v.v.v.N.N.H.H.T.H.S.S.S.J.J.J.J.J.J.J.J.J.J.J.J.L.L.J.J.J.J.J.J.J.J.J.J.T.L.P.J.J.D.D.D.L.E.E.E.E.E.R.R.R.H.H.T.L.R.R.L.L.K.K.L.L.L.L.H.H.H.J.J.J.J.L.J.L.H.L.L.H.H.H.H.H.J.J.J.H.H.H.K.K.K.K.K.J.J.J.J.E.E.E.K.L.E.K.L.H.J.J.J.J.L.L.K.K.L.K.K.K.K.R.R.R.R.R.R.R.R.R.R.K.K.K.K.K.K.K.F.d d v.B.D.J.J.J.J.J.J.J.H.H.H.H.H.K.K.K.K.H.H.H.H.J.J.J.J.J.J.J.J.J.J.J.D.S.S.L.K.E.G.G.H.K.K.K.K.K.K.K.E.L.L.L.K.K.K.L.L.K.K.R.R.R.R.R.R.R.R.R.E.R.H.H.H.H.J.J.K.R.R.R.R.E.E.R.E.T.T.J.J.D.D.J.L.L.L.L.L.J.J.J.J.J.J.J.J.J.J.J.L.H.J.L.J.E.E.E.E.E.E.L.T.E.L.H.D.D.S.E.R.R.E.L.J.F.J.P.P.L.E.E.E.E.L.L.L.L.J.L.J.L.L.E.L.L.L.L.L.L.L.L.L.H.H.J.J.S.H.#X&X&Xv.v.v.v.v.v.v.S.K.K.G.LXPXUXUXUX|.S.S.S.D.B.B.B.B.B.D.N.x U ....Z ) ) E l t ",
"s l k ..A V V Z W F.J.L.R.E.J.S.S.F.S.S.B.LXFXFXFXFXcX[.P.F.N.v.v.v.v.v.N.H.T.T.S.S.J.S.J.J.L.L.L.L.L.L.L.L.E.L.L.L.J.L.H.H.H.H.H.J.J.J.J.L.L.J.J.D.D.D.E.E.R.R.R.R.R.R.R.R.R.R.T.T.R.K.K.K.K.K.K.L.L.K.K.K.K.K.K.K.L.L.L.L.K.L.L.L.K.H.H.J.H.H.H.H.H.K.K.K.K.K.L.L.L.E.T.R.E.E.E.R.E.E.L.L.K.L.L.L.L.E.T.T.R.R.R.@X@XR.R.R.R.R.R.R.R.R.R.K.K.K.K.K.K.D.B.B.D.J.J.J.L.L.L.L.L.K.K.K.K.K.K.K.K.K.K.K.H.H.H.H.K.H.H.J.J.L.L.H.K.L.E.J.J.H.R.R.S.N.H.K.K.K.K.K.R.R.R.E.E.E.K.K.K.K.R.K.K.R.R.R.R.R.R.R.@X@X@XE.E.L.L.K.L.K.L.L.E.R.R.R.R.E.E.E.E.L.J.D.D.D.L.L.L.L.L.J.J.L.L.L.L.L.K.K.L.K.R.E.E.E.E.E.E.E.E.R.R.E.R.R.K.H.H.J.D.E.E.E.K.K.J.P.J.L.L.L.E.L.E.L.L.L.L.L.L.L.L.L.E.#X#X#X#XE.E.E.L.K.K.K.K.L.J.D.L.&X&XE.v.v.v.v.v.v.v.D.H.H.-XLXIXUXUXUX|.L.E.J.L.L.L.J.J.J.J.D.C.] [ X.~ ~ ~ E l t ",
"s l z E ) V B Z W S.T.R.@X@XR.S.S.D.F.N.v LXJXJXZXZXcX|.P.P.S.N.N.N.N.N.S.H.T.T.H.H.J.H.J.E.L.E.L.E.E.E.E.E.E.E.E.L.L.L.H.H.H.H.H.J.J.J.J.J.J.J.J.J.G.J.E.E.E.R.R.R.R.R.R.R.R.R.K.K.K.K.K.K.K.K.K.L.K.L.K.K.K.L.L.K.L.L.K.L.L.L.L.E.L.H.H.J.H.K.K.K.K.L.L.K.K.L.L.L.L.L.L.E.E.E.E.E.E.L.L.L.L.L.L.L.L.K.K.K.K.R.R.@X@X@XR.R.@X@X@X@X@XR.R.@X@XK.K.@X].K.K.K.H.L.L.L.L.L.L.L.L.L.L.K.K.K.K.L.K.E.E.K.K.L.K.H.K.K.H.H.L.L.L.L.L.K.R.R.R.R.R.@XR.L.K.K.K.K.K.R.K.R.R.K.E.L.L.K.K.K.K.K.K.E.E.R.R.R.R.@X@X#X@X#XE.K.K.K.L.L.E.E.E.R.E.E.E.K.E.E.E.L.L.J.D.D.L.L.L.L.L.L.L.L.L.L.L.L.L.E.E.E.E.E.E.R.R.R.R.E.E.E.E.R.R.T.L.K.H.K.K.L.].].L.L.L.J.L.L.L.L.L.L.L.L.L.L.L.L.L.E.L.E.#X#X#X#X#XE.E.E.L.L.L.L.L.L.J.S.E.E.E.T.v.N.B.B.B.N.N.S.J.G.[.IXIXIXIXIXLXSXbXJ.L.L.L.L.L.G.G.D.C.] ) | ~ ` ~ R l s ",
"s x k R ~ V B Z W S.S.H.E.E.T.S.D.vXSXLXLXFXNXcXxXNXNX|.P.J.D.B.].{.}.Z.J.T.T.T.H.J.T.T.T.J.P.P.P.P.P.P.P.P.L.L.L.L.L.J.J.J.J.J.J.J.J.J.J.J.J.G.D.F.B.D.J.J.J.J.J.J.L.J.J.L.L.J.J.J.J.J.J.J.L.J.L.J.L.L.L.L.L.L.L.L.L.P.J.J.J.J.P.P.P.D.D.D.J.J.L.L.L.L.L.L.P.P.L.J.P.J.J.P.P.L.Q.L.P.L.J.P.J.J.P.P.P.P.J.J.J.J.L.E.E.E.E.E.E.E.E.E.E.E.E.L.L.L.L.J.J.G.G.D.D.D.D.D.J.J.J.P.P.P.P.P.P.P.P.P.L.P.P.G.J.D.D.D.D.D.B.N.B.D.D.D.D.J.J.J.J.J.J.J.J.J.D.L.L.L.L.H.H.E.E.L.L.L.L.L.L.L.L.L.J.L.L.L.L.L.L.L.L.L.L.L.J.J.P.P.P.P.L.L.P.E.E.E.E.E.L.E.E.E.P.D.D.D.P.P.L.L.L.L.P.P.P.P.P.J.L.L.L.L.L.L.L.L.L.L.L.L.L.L.L.L.L.J.J.J.J.J.J.J.L.L.L.P.P.P.D.D.P.L.L.L.E.E.L.L.L.L.L.P.L.P.L.L.L.L.L.P.P.J.J.J.P.D.P.J.J.S.T.R.R.R.H.K.7X7XuXH.S.S.H.H.K.].0X8XqXIXIXIXLXqXL.L.L.G.G.G.D.D.C.) ) ) ~ ~ E R l y ",
"s x k | A B A | W N.S.S.S.S.S.S.P.LXFXNXSXNXxX|.P.C.Y.[.P.D.D.Z.OXoXoX].J.T.T.T.H.J.S.H.T.v.& & q q u u u u u u u u u u u u u u u u u u u 8 u 8 u u 8 8 8 q 8 8 8 u u u q & 8 q u q u u u q u u u u u u u u u u u u u u u u q q q q 0 0 8 8 & 8 8 q u q q q q u q q q q q q q & & & q q q q & q q q q q q & & & & u u u q q q u u u u u u u u u u q q u q q & & & & & & & & & & & & u u 8 q q & & & & & & & & & & & & & & & & & & & & & & q q q q u u u u q 8 & & & & & & & & q & & & q q q q q & & & & & & & & & & 8 q q u u u u u u u u u u u q & & & & & & & & q q u u u q q u u 8 8 8 8 u u u u u u u u u u u & q q q & & & q q q q q 8 & & q q u u u u u 8 8 q q q q q q u q u u u u q q 0 u u u N.D.S.E.R.R.R.R.@X2X2XuXH.S.S.S.B.S.K.7X7X8XLXFXIXLXqXL.J.J.G.D.D.S.D.C.) U Y ) ~ ~ R l y ",
"s s g Y A V A Y { N.S.S.S.S.S.S.[.LXFXNXNXFXqX4X#XN.N.B.D.J.J.Z.yXOXOXK.T.T.T.H.H.J.S.N.S.v.$ $ * r r 0 0 0 0 0 0 r 0 0 0 0 0 0 0 0 0 0 0 * * * 0 0 0 0 * * * * * 0 * * % % 0 % * * * * * % * * 0 * 0 0 r r r r r r r r r r r 0 0 0 0 0 * * 0 0 r r r r y y y r r r r r r r 0 0 0 0 0 0 0 r 0 r 0 0 r * * * * * * * * * * * * * * * * * * 0 0 0 0 0 0 0 0 0 0 q q 0 q 0 * * * * * * * 0 0 * * * * * * * 0 0 * * * % * * 0 0 0 0 0 0 0 0 0 0 0 0 0 * * * 0 0 0 0 0 0 0 r r r r 0 0 0 0 0 0 0 0 0 0 0 0 0 0 0 * * * * * * * * * * * 0 0 0 0 0 0 0 0 0 0 0 0 0 0 0 0 0 0 0 0 0 * * 3 r 3 3 3 3 3 3 3 3 3 3 3 r r r r 0 0 0 0 0 0 0 q q 0 0 0 0 0 0 0 0 0 0 0 0 r 0 0 0 0 0 0 0 0 0 0 0 r 0 r r r i r r i m.N.D.R.R.R.R.R.@X2X2X7XH.H.H.H.S.S.H.7X7X8XLXUXUXLXxXnXG.J.D.D.D.D.D.n | T 7.U _ ( E l y ",
"x x h S C C S Y } N.S.S.S.N.S.D.|.LXLXNXSXnXqX4X#XN.v.v.S.D.D.G.{.yX4XG.T.T.T.T.H.J.N.u V.C.3 $ ; 9 f x n n x f f f f f p i r 3 r r 0 * * * % % % 3 * % % % * * * % % % * * * * * 3 r p i r r 3 r r r 3 3 3 3 3 3 3 i p p p p p x x x p p p p i 3 3 3 3 3 3 * 3 3 9 3 9 9 9 9 9 9 9 9 3 9 i 9 9 3 3 3 3 3 3 3 3 3 3 3 ; ; ; ; ; ; $ $ $ $ * 3 3 * 3 3 3 3 3 i i i r r 3 * % % % % * * * 3 3 3 i 3 p 9 9 9 9 p p p f f p p p p p i 9 3 3 3 3 3 3 3 3 3 3 3 3 3 3 3 3 3 3 3 3 3 3 * * $ $ $ ; 3 3 3 3 3 3 3 3 3 3 3 3 3 3 3 3 3 * * * r i i i p p i p i i i i 3 3 3 3 3 3 3 3 3 3 3 3 3 3 3 3 3 3 9 p p p p i i i i i i i i i i i i i i 3 3 3 3 3 3 3 3 3 3 3 3 p p p i p p 9 p x n n I.I.U.U.sXsXn b I.0 v.D.R.R.R.R.R.K.;X<X$XH.H.H.H.H.S.S.7X<X7XnXLXSXLXLXIXP.S.B.D.D.S.S.x | T 7.Y / ~ E l y ",
"x l h C / / S Y } N.N.S.B.xXqXqX|.SXlXlX|.|.9XQ.J.N.N.N.S.D.S.D.G.].].G.T.T.T.H.T.T.N.u b |.n j mXMXVXDXFXFXJXJXJXIXIXJXJXFXDXDXDXDXDXMXMXDXMXMXMXmXmXMXMXMXDXDXDXMXmXmXMXMXMXMXMXMXMXMXMXMXMXMXMXMXMXMXMXMXMXMXMXDXDXDXDXDXDXDXDXDXFXDXJXJXIXFXFXDXDXDXDXDXDXDXDXDXDXFXFXFXFXFXFXFXFXDXDXDXDXDXDXMXMXMXMXMXMXMXMXMXMXMXMXMXMXMXMXMXMXMXMXMXMXMXMXDXDXDXDXDXDXDXDXDXDXDXDXDXDXMXMXMXMXMXMXMXMXMXMXMXMXMXDXDXDXDXDXDXDXDXDXDXDXDXDXDXDXDXDXDXDXMXMXMXMXMXMXMXMXMXMXMXMXMXMXMXMXMXMXMXMXMXMXMXDXDXDXDXDXDXDXDXDXDXDXDXDXDXDXDXDXDXDXDXDXDXDXDXDXDXDXDXDXDXDXDXDXDXDXDXDXDXDXDXDXDXDXDXDXDXDXDXDXDXDXDXDXDXDXDXDXDXDXDXDXDXDXDXMXmXmXMXMXMXMXMXMXMXMXMXMXMXDXDXDXDXDXJXJXIXJXIXIXPXPXPXIXJXGXGXGXJXxXcXSXq v.P.E.R.R.K.R.H.H.H.H.H.J.H.H.S.S.S.=X5X8XbXP.P.nXLXUXP.A.qXD.D.S.S.M.| T w.A / / E e w ",
"x x O T T w.w.w. .N.S.S.S.SXFXFXLXnX|.|.|.P.S.S.S.S.S.S.S.D.S.S.S.D.S.S.S.S.S.D.N.N.u b.n.mXzXzXVXCXCXCXCXCXZXZXGXGXGXZXZXZXZXZXZXZXZXZXZXZXZXZXZXZXZXZXZXZXZXZXZXZXZXCXZXZXZXZXZXZXZXZXZXZXZXZXCXZXZXCXZXCXCXCXCXZXZXZXZXZXZXZXZXZXZXZXZXGXGXGXGXGXGXGXGXGXZXZXZXZXZXZXZXZXZXZXZXZXZXZXZXZXZXZXZXZXZXZXZXZXCXCXCXVXZXZXGXGXZXZXZXZXZXZXZXZXZXZXZXZXZXZXZXZXZXZXZXZXZXZXZXZXZXZXZXZXZXZXZXCXVXZXZXZXZXZXZXZXZXZXZXZXVXVXZXZXZXVXVXVXZXZXVXVXVXVXVXVXVXVXVXVXVXVXVXZXZXZXZXGXZXGXGXZXZXGXGXZXZXZXZXZXZXZXZXZXZXZXZXZXZXZXZXZXZXZXZXZXZXZXZXZXZXZXZXZXZXZXZXZXZXZXZXZXZXZXZXZXZXZXAXGXZXZXZXZXZXZXZXZXZXZXZXZXZXZXZXZXZXZXZXZXZXZXZXZXZXZXZXZXZXZXZXZXZXZXZXCXZXZXZXZXZXZXZXZXZXZXZXZXZXZXZXCXCXCXcXSXLXu b.v.P.Q.E.L.R.H.H.H.H.H.H.H.D.J.D.S.S.S.W.-X6XaXvXlXUXIXJXLXD.S.S.S.f d.0.0.I P P W e y ",
"x x M 0.9.9.u.u.g.V.S.S.G.nXFXJXIXSX|.|.|.P.J.S.D.D.D.D.D.D.S.D.D.D.S.S.S.D.u & 0 a b.b.a mXmXmXVXVXCXCXCXCXZXGXGXGXZXZXZXZXZXZXZXZXZXZXZXZXZXZXZXZXZXZXZXZXZXZXZXZXCXCXZXZXZXZXZXZXZXZXZXZXZXZXZXZXZXZXZXZXCXCXCXZXZXZXZXZXZXZXZXZXZXZXZXGXGXGXGXGXGXGXGXGXZXZXZXZXZXZXZXZXZXZXZXZXZXZXGXGXGXGXZXZXZXZXZXZXZXZXZXZXZXZXGXGXGXGXGXZXGXGXGXGXGXGXZXZXZXZXZXZXZXZXZXZXZXZXGXGXGXZXZXZXZXZXZXZXZXZXZXZXZXZXZXZXZXZXZXZXZXZXCXZXZXZXZXZXZXZXZXVXVXVXVXVXVXVXVXVXVXVXVXZXZXZXZXGXGXGXZXZXGXGXGXZXZXZXZXZXZXGXGXGXZXZXZXZXZXZXZXZXZXZXZXZXZXZXZXZXZXZXGXGXGXGXZXZXZXZXZXAXZXAXZXZXGXZXGXGXZXZXZXZXZXZXZXGXGXGXZXZXGXGXGXZXZXZXZXZXZXZXZXZXZXZXZXZXZXZXZXZXZXZXZXZXZXZXZXZXZXZXZXZXAXAXZXZXZXCXCXCXCXCXcXnXSXv.b.n.q q q H.R.T.H.H.H.H.J.D.P.P.D.F.S.S.S.W.Q.8XqX0XIXJXJXLXJ.J.J.S.f f.u.9.8.6.6.D t w ",
"x x O 9.9.9.u.u.g.V.N.S.G.cXFXJXIXSX|.A.P.F.W.S.S.D.D.F.F.D.D.D.D.D.S.S.S.D.u * * C.a u u mXVXMXVXVXCXCXCXCXZXGXZXZXZXZXZXZXZXZXZXZXZXZXZXZXZXZXZXZXZXZXZXZXZXZXZXZXCXCXZXZXZXZXZXZXZXZXZXZXZXZXZXZXZXZXZXZXZXZXZXZXCXZXCXCXCXZXZXZXZXZXZXGXGXGXGXGXGXGXGXGXZXZXZXZXGXGXGXGXGXGXZXZXZXZXGXGXGXGXZXZXZXZXZXZXZXZXZXZXZXZXGXGXGXGXZXZXGXGXGXGXGXGXZXZXZXZXZXZXZXZXZXZXZXZXGXGXGXZXZXZXZXZXZXZXZXZXZXZXZXZXZXZXZXZXZXZXZXZXCXZXZXZXZXZXZXZXZXZXVXVXZXZXZXVXVXVXVXVXVXZXZXZXZXGXGXGXGXGXGXGXGXZXZXZXZXZXZXGXGXGXZXZXZXZXZXZXZXZXZXZXZXZXZXZXZXZXZXGXGXGXGXAXZXZXZXZXZXAXZXAXZXZXZXZXZXZXZXZXZXZXZXZXZXGXGXGXZXZXGXGXGXZXGXGXZXZXZXZXZXZXZXZXZXZXZXZXZXZXZXZXZXZXZXZXZXAXZXZXZXZXZXZXZXZXZXCXCXCXCXCXlXcXnXq a f & % * L.K.T.H.H.H.H.J.D.F.F.F.F.S.S.S.W.W.T.0X0XLXLXFXLXP.E.T.S.b p.u.9.8.8.6.D e e ",
"x x O 8.9.9.9.u.dXN.S.S.D.bXSXLXLXnX].S.S.S.S.S.S.D.|.sXsXsXn A.F.S.D.D.S.H.v.* & lXMXVXVXVXVXVXVXCXCXCXCXCXZXZXZXGXGXGXHXHXHXZXGXZXZXZXZXZXZXZXZXZXZXZXZXZXZXZXZXZXZXZXCXCXZXZXZXZXZXZXZXZXZXZXZXZXZXZXAXAXAXCXCXZXZXZXZXZXZXZXZXZXGXGXGXGXGXGXGXGXGXGXGXGXAXZXZXZXZXZXGXGXGXGXGXGXGXGXGXHXHXHXGXZXZXZXZXZXCXCXCXZXAXAXZXZXZXGXGXGXGXGXGXZXZXZXGXZXZXZXZXGXZXZXZXZXZXZXZXZXZXGXGXGXZXZXCXCXZXZXZXZXZXZXZXZXZXZXZXZXZXZXZXZXZXZXZXZXZXZXZXZXCXCXZXCXCXZXCXCXZXZXCXZXZXZXZXZXZXZXZXZXHXHXGXGXZXZXZXZXZXZXZXZXZXZXZXZXZXZXZXZXZXZXZXZXZXZXZXZXGXGXGXGXGXGXGXGXZXZXZXGXGXGXGXGXGXZXZXZXZXZXGXGXZXGXZXAXAXGXGXGXZXZXZXZXZXZXAXAXGXAXZXAXZXZXHXAXAXAXZXZXZXHXHXHXHXHXHXAXZXAXHXAXHXZXZXZXZXCXCXCXCXZXKXJXJXHXHXKX& 0 0 L.K.H.T.T.T.S.I.U./././.I.F.S.S.S.W.W.8X4X0X0XqXaXG.T.T.J.b l.u.u.9.8.6.D t w ",
"x x k 0.8.8.8.e.g.N.S.S.S.G.B.L.S.8X=XS.S.S.S.S.S.F.|.gXkXkXgXI.V.S.D.D.S.J.v.* & sXVXVXVXCXCXCXVXCXCXCXCXCXZXZXZXGXGXGXHXHXHXHXGXGXZXZXZXGXGXGXZXZXZXHXZXZXZXZXHXHXZXZXAXAXZXZXAXAXZXZXAXZXAXAXZXZXZXZXAXAXAXAXZXZXZXZXAXGXGXGXHXHXHXGXHXHXHXHXHXHXHXHXGXGXAXHXHXHXHXAXHXGXHXGXHXHXHXHXHXHXHXHXHXGXGXGXZXZXZXZXZXAXAXAXGXGXGXGXGXGXHXHXHXHXZXGXZXZXZXZXGXGXZXZXZXZXZXZXZXZXZXGXGXGXZXZXZXZXZXZXZXZXZXZXZXZXGXZXZXZXZXZXCXZXZXZXZXZXZXZXZXZXCXCXZXZXCXZXCXCXZXZXZXCXZXZXGXGXGXGXHXHXHXHXJXHXGXGXGXGXHXZXZXZXZXZXZXZXZXZXZXZXZXZXZXZXZXZXZXZXHXGXHXHXHXGXGXGXGXGXGXGXGXGXGXGXGXZXZXZXZXZXGXGXGXGXAXGXHXHXHXHXHXHXHXHXHXHXGXGXHXAXAXAXHXHXHXHXHXGXHXHXHXHXHXHXHXHXHXAXZXAXHXAXHXHXAXAXAXAXCXZXHXHXHXJXHXHXHXKXq 0 0 H.H.H.H.H.H.F.(.X.X.| X.M.F.S.S.S.S.S.8X1X4XaX].L.J.J.J.H.C.l.0.0.0.7.7.D t w ",
"x l k w.7.w.w.T /.S.S.S.S.D.S.H.W.aX8XW.W.S.S.S.S.F.|.gXhXhXkXn V.F.S.S.S.S.v.* * sXVXVXVXCXCXCXCXCXCXCXCXCXAXAXZXGXGXGXHXHXHXHXGXGXZXZXZXGXAXAXCXZXZXGXAXAXAXAXZXZXZXZXAXAXAXAXAXAXZXZXAXAXZXZXZXZXZXAXAXAXAXAXAXZXZXZXGXGXGXGXZXZXHXHXHXHXHXHXHXHXHXHXGXGXGXGXHXHXAXAXAXHXHXGXHXHXHXHXHXHXHXHXHXGXGXGXZXZXZXZXCXCXAXAXZXGXGXGXGXGXHXHXHXHXGXGXZXZXZXZXZXGXZXZXZXZXZXZXZXZXZXGXGXGXZXGXZXZXZXZXZXZXZXHXHXHXGXZXZXZXZXZXCXZXZXZXZXZXZXZXZXZXZXZXZXZXCXZXZXZXZXZXZXZXZXZXGXGXGXHXHXHXHXHXHXGXGXGXGXGXGXZXZXZXZXZXZXZXZXZXZXZXZXZXZXZXZXHXHXHXGXGXHXHXHXHXHXHXGXGXZXZXGXGXGXGXGXAXZXZXAXAXAXGXGXGXHXAXAXHXHXHXAXHXHXHXHXHXHXAXAXAXAXAXAXAXHXHXHXHXHXHXHXHXHXHXHXHXHXAXHXZXHXHXHXHXAXAXAXCXCXZXZXZXHXZXHXHXHXHXq 0 * H.H.H.S.H.S.F.X.| | | X.M.F.S.S.S.S.S.6X%X4X8X].J.J.J.J.H.V.d.7.w.U Z Z W t r ",
"l l k U A Y T ../.S.S.S.S.S.S.H.H.S.H.T.S.S.S.F.N.C.sXgXkXkXkXI.N.S.S.S.S.H.v.* * sXVXCXCXCXCXCXCXCXCXCXCXCXGXAXAXGXGXGXGXGXGXHXJXJXAXZXZXAXAXAXZXGXGXGXHXAXAXAXHXHXHXAXGXHXAXAXAXAXZXZXZXHXGXGXHXHXAXHXGXGXHXGXGXGXGXGXHXHXHXHXHXHXJXHXHXHXHXHXKXGXHXHXZXZXZXGXGXHXAXGXHXGXGXAXZXZXHXJXGXHXGXGXHXHXHXHXGXCXCXCXZXAXCXCXZXGXGXGXJXGXGXGXGXHXGXZXZXZXZXZXZXZXZXZXZXZXZXZXHXGXGXZXZXZXGXHXHXCXAXCXHXHXAXHXJXZXHXGXGXGXCXCXZXGXJXCXGXGXGXGXZXGXGXZXZXZXZXZXZXCXCXZXZXZXZXZXHXHXHXJXHXHXHXHXHXGXHXHXGXGXCXGXGXGXJXGXAXGXZXZXGXHXHXZXCXCXGXCXHXHXGXGXHXHXHXAXHXGXHXHXHXAXHXHXHXHXAXHXHXHXHXHXGXGXKXHXGXHXHXHXAXHXHXHXHXHXKXKXHXAXAXAXHXHXKXHXAXHXKXHXHXHXHXHXKXHXHXHXHXHXJXGXHXHXHXHXHXHXAXAXAXCXAXAXHXKXHXHXHXJX0 * * K.H.H.S.S.S.I.} | ....o.M.M.I.F.S.S.S.J.H.J.H.H.J.D.D.H.S.V. .w.w.Y ~ ~ R y y ",
"x x k Z B | T ../.S.S.S.S.S.D.G.D.S.S.S.S.S.F.sX{ dXh.{ U.I.I.Y.9XP.S.S.S.H.B.* * sXVXCXCXZXCXCXCXCXCXCXCXGXDXJXDXFXFXFXDXDXDXMXMXMXMXCXCXZXZXZXAXKXsXUXIXIXIXPXIXIXLXIXLXFXGXAXAXAXPXDXLXIXIXIXIXHXKXHXHXHXAXVXDXFXIXDXHXHXHXHXHXHXzXMXDXJXPXPXPXIXIXIXJXGXZXGXGXJXJXKXJXKXPXKXJXJXIXDXDXDXLXLXLXLXSXDXJXGXAXAXAXZXAXCXJXLXLXIXIXIXSXSXIXZXZXGXCXGXMXmXmXcXcXlXlXcXmXmXmXmXmXmXmXMXDXPXGXCXHXzXzXGXHXKXKXJXHXHXGXVXZXNXNXFXJXJXGXJXDXmXlX/.IXHXAXAXAXAXZXZXHXHXHXHXHXHXHXHXHXcXDXLXFXIXIXDXmXlXmXFXZXZXGXZXmXMXMXMXDXDXFXDXFXLXDXDXmXlXlXDXPXPXGXJXJXDXMXmXHXHXAXAXGXKXmXLXIXDXDXDXFXLXDXMXlXUXZXHXHXKXIXDXLXIXIXUXFXIXKXHXHXKXKXJXPXUXUXUXHXHXAXAXHXPXlXDXIXIXIXIXIXFXDXDXDXDXGXAXAXGXZXJXHXHXKXKXKXHXHXKX0 * * H.K.H.H.H.J.C.{ W W X.o.X.} (.F.J.S.S.S.N.D.D.D.D.D.D.D.D.C. .7.7.Y ~ ~ h t y ",
"x x k ) A ..T T { S.S.S.S.D.D.G.D.N.N.S.S.S.I.dXx.h.h.U.F.F.F.P.F.Q.J.S.S.H.B.* * sXVXCXZXZXCXCXCXCXCXCXCXGX        ; ; ; ;   $ $ $ sXCXCXZXZXZXHXKX  $ $ $ $ ; 8 9 3 * $ m KXAXAXHXUX$ 8 3 3 i U.KXHXHXHXHXHXsX    $   KXJXHXHXHXHXsX. ; ; 9 9 9 f f f lXDXMXsXsXU.n n j 9 9 9 j x 3 ; ; $ $ $ * % % sXGXAXAXAXZXCXCXCXsX% & & & & & & LXZXCXZXCXGXX $ $ ; ; $ $ $ $ $ $ $ $   $ % % UXJXHXPX      9 lXPXKXKXKXJXGXm       DXPXIX|.        IXHXAXAXAXAXZXZXZXHXHXHXHXHXHXHXHXsX; 3 3 ; $ # # # sXNXVXZXZXZX9 $ $ $ $ ; ; $ $ #           DXPXUXIXU.n 9     HXHXAXAXHXKX    #       $ $ % 0 $ UXAXHXHXKXLX  $ $ $ $ mXIXPXKXHXKXPX9 9 9 9   KXHXAXAXAXPX    $ $ $ $ $ $ $   $ sXGXGXGXsXsXsXsXmXKXKXKXHXHXJX0 * * T.R.T.H.H.H.F.I.M.M.R o.| X.X.I.J.J.S.N.D.J.D.D.D.D.D.D.D.C. .7.7.Y ~ Z h y y ",
"x x x E Z ..w.T /.S.S.S.G.D.G.G.D.S.N.S.S.S.C.dXl.l.x.m P.F.F.F.F.D.J.J.J.H.B.0 * sXVXZXVXZXZXGXZXCXCXCXCXKX  = = ; = = ; ; ; ; = , mXCXCXAXCXAXAXHXj # # # # $ = = < < < sXHXBXGXKXUX  * q 0 0 lXKXHXHXHXHXKXmX  # * f PXHXHXKXKXKXPX= = % # # # % % % sXmXmXsXU.M.x x p p p p x M.t r 3 r r 3 3 3 r DXGXHXAXAXZXAXCXBXmX3 w 0 % % % & IXZXCXVXCXAXj = < = = = = # # # # = = = % % 0 UXGXKXDX    # &   IXIXIXKXKXIX        cXPXUX|.$ # # # MXJXHXHXHXHXHXHXHXHXHXHXHXHXHXHXHXMX5 < % = % % % % cXNXVXVXGXZXx # # # # # # # # # # # # #   SXUXUXUX    #     PXHXAXHXAXKX  # # # % % % % 0 0 n UXCXHXHXPXUX  3 3 3 * mXIXPXKXHXKXUX9 * 0 0 $ UXKXHXHXHXPX  $ % $ $ $ $ $ $ % * sXGXGXKXX   # # $ KXKXKXHXHXPXi % 0 E.R.R.R.H.H.J.D.D.F.k o...o.o.Y.S.S.D.G.D.D.D.D.D.D.B.S.S.C...7.P Y ~ ~ h y y ",
"x x k Z A S Y | /.S.S.S.H.H.H.G.D.S.S.D.Y.I.n dXh.x.gXm J.S.F.D.F.D.D.J.H.H.B.* * sXVXZXZXZXZXGXGXCXCXCXCXAX  = = ; = = ; ; ; ; = # mXCXAXAXAXAXCXAXsX# # # # # $ $ = < 3 mXAXCXHXKXUX  * 0 0 0 lXKXHXHXHXHXKXmX  # * 9 PXGXHXJXKXKXUX  = % $ # # % % = sXcXzXsXU.x x p p p p p x I.t r 3 3 3 3 < % < UXAXCXCXAXZXCXBXBXVX< w % % % % & IXZXVXVXVXCXm = < = = # = # # # # # # # % % 3 UXKXKXDX    & q & IXIXIXKXKXIX        lXPXUXsX% % # # mXJXHXHXHXHXHXHXHXJXJXJXJXJXHXHXHXPX= < % % # % % % SXMXNXVXZXGXj # # # # # # # # # # # # #   SXUXUXUX  $ #     UXKXHXCXCXGX  # # # % % % % * * |.UXCXKXPXUXUX; 3 3 3 * lXUXPXKXHXKXUXj 3 r 0 $ UXKXGXHXKXPX  $ % $ $ $ $ $ $ % % zXHXHXKX    % % 9 KXKXKXHXHXPXf 0 0 E.R.R.R.K.H.H.J.J.F.z (...X.o.I.F.D.F.D.D.D.D.D.D.D.B.S.S.C...T T A ~ ~ R y y ",
"x l D 7.F A Y T } S.S.S.H.H.G.H.H.S.S.N.|.sXsXsXm U./.C.D.J.F.D.D.S.S.J.H.H.N.* * sXZXZXZXZXZXGXGXCXCXCXAXKX  = = ; = = ; ; ; ; $ # mXCXAXCXCXNXmXMXzX# # # # $ $ # < < < sXHXVXPXUXUX  * 0 0 0 sXKXHXHXHXHXKXmX  $ * 9 PXGXKXJXPXIXUX  = % # = # % % % n U.sX).U.x x p p p p p x x t r 3 3 3 3 3 % * UXHXAXAXHXAXCXVXzXmX< % % % % % & IXVXVXVXBXVX{ # % # # # = # # # # # # = # % 3 JXJXKXDX    & q & IXIXIXKXJXIX        lXPXUXsX* % # # lXKXAXAXAXAXHXHXHXJXJXHXHXHXHXHXHXUX= < % # # % % # MXlXlXGXVXZXj # # # # # # # # # # # # #   mXIXUXUXX $ #     UXPXKXHXHXKXX # # # % % % * % % n DXCXKXPXPXUX; 3 3 3 * sXUXPXKXHXKXUXn r r r $ UXPXJXVXVXDX  $ % $ $ # $ $ $ % % lXHXHXKX    % % 9 PXKXKXHXHXPXf % 0 L.R.R.R.K.H.H.T.T.S.M.~.W ^.X.o.{ U.F.D.D.D.D.D.D.D.B.S.N.C...T T Z B Z R y y ",
"l x D 8.8.8.8.8.g.N.S.H.H.H.H.H.H.S.S.N.U.gXgXgXI.F.D.S.J.J.F.D.D.D.S.J.H.R.B.* * sXVXGXZXZXGXZXGXGXMX        # # $ # $ = = = ; $ $ j sXCXCXDX    # $                 $ = 4 $ $ IXUXUX  * 0 0 0 U.HXHXHXHXHXKXzX  * * $ PXJXIX. = , . ; # # % = % % % w < w y M.M.x x p 9 7 7 t x j 9 3 3 ; $ $ % % # . .   m PXKXm   # $ # % # # # & * C.  sXmXkXkXMX.       # # # #         # # # < zXAXGXIX    & % & IXIXPXJXJXIX        sXPXUX|.* # # $ sXJXZXAXAXAXHXHXHXHXGXGXGXFXmXsX|.m = # # #   # # #   #   n VXZXn     9 # # # # # & &         sXIXUXPX9 ; $     UXUXIX  % # # #     # # # # % % # # . . UXPXUX9 3 3 3 * U.IXPXHXKXKXPXm r r r $ UXPXm   $ =             # # # # , U.HXHXKX    % # 9 PXKXHXHXKXPXf 0 0 L.R.R.R.H.J.H.T.T.S.b.b.M.~.X...d.g.C.D.D.D.D.G.D.D.B.S.S.b f.e.0.7.6.0.U t y ",
"x x D 9.9.8.8.8.g.N.S.S.H.H.H.H.G.S.S.F.U.gXgXgX|.S.S.S.S.S.D.D.D.D.S.H.H.R.B.* * sXVXZXZXZXGXGXGXZXFX  # %   UXUXUXIXIXIXDXDXDXDXMXsXsXGXCXDX  # % % mXIXIXUXUXUXUXUXUX# % % $ IXUXUX  * 0 0 0 3 mXzXHXKXKXKXsX  % * $ PXKXJX# % % # lXIXMXmXmXcXlXlXI.w w q n sXmXMXMXMXMXmXzXU.j p b LXFXNXmXlXn $ % 0 r sXPXPXn # % $ U.UXUXIXDXsX# # # . g dXBXCXKXIXJXIXx # # # $ UXPXUXUXUXIXIXmXVXJXIX    & &   IXIXPXJXJXIX        |.PXIX|.* # # # U.JXAXAXAXAXZXZXZXZXZXVXFXcX        . mXmXmXmXMXDXmX# #     mXVXDXPXPXPXn         LXIXLXMXmXMXFXJXKXPX9 ; $     UXUXUX  % % % 9 UXIXIXIXIXIXUX# # # %   IXUXUX; * * * * $ IXPXGXHXKXPXU.3 r r $ UXUXm # # #   UXIXUXUXUXUXUXUXIXIXMXKXKXPX  $ % $ n KXKXHXKXJXPXf 0 * J.R.R.T.H.H.H.T.T.S.F.F.F.~.] | d.o.C.D.D.D.D.D.D.D.N.N.S.b p.u.u.8.8.8.U t y ",
"M.x D 9.9.9.8.8.g.v.S.S.H.H.H.H.D.V.F.V.I.zXgXgX|.D.S.S.D.S.D.D.D.D.H.H.H.R.B.* * sXVXZXZXZXGXGXGXGXIX  # % # IXJXGXGXGXZXZXCXZXVXGXJXZXCXCXDX  # % # sXZXZXGXGXGXJXJXKX$ $ % $ IXUXUX  * 0 0 0 0 p m GXKXKXKXsX  % * $ PXKXUX# % # # U.JXJXJXPXIXJXIXIXDXMXMXIXPXHXZXZXVXVXVXgXm j s n LXJXJXFXLXn   % * * sXHXKXn # # $ n IXJXJXFXcX# # # = . { CXCXCXZXVXGXp # # # $ DXCXZXGXJXHXJXGXVXGXDX    # % & IXIXPXJXJXIX        U.IXIXsX* # # # n KXAXAXAXCXZXZXZXZXZXVXVXNX;       X DXVXFXGXJXJXDXr #     j FXCXZXGXKXn         cXZXJXJXKXJXJXJXJXPXf 3 $     IXUXUX  % % % . UXGXGXGXGXFXJX# # # # X IXUXUX; * * * * $ U.KXGXKXKXPXU.3 * r $ UXUXm     #   UXJXJXJXKXKXJXKXKXJXKXKXKXPX  $ % $ n KXKXHXKXJXIXm.0 * J.R.R.R.T.H.T.T.T.W.S.S.F.M.] ) o.o.I.F.F.D.D.G.D.D.B.N.S.b p.u.u.8.8.6.D t r ",
"x x D 9.9.0.8.8.g.b.S.S.H.R.H.F.{  . .k M.V.C.C.V.S.S.S.S.D.D.C.C.C.D.H.T.R.B.* * sXVXGXGXGXGXGXGXGXIX  # # # IXJXZXZXZXAXAXAXAXAXAXCXZXZXCXDX  # # # sXGXZXHXHXGXJXGXIX  $ # $ IXIXUX  * 0 0 0 * % 3 mXGXJXKXsX  % * $ PXPXUX# & & # n PXGXJXJXHXHXHXHXHXHXJXJXGXHXZXZXVXVXVXzXm x f n IXPXJXJXJXn $ * % * sXHXJXn $ # * 8 UXPXJXJXDX$ # # $ # n AXCXAXAXAXJX3 % # #   DXVXCXHXHXHXGXGXFXFXDX    # % & IXIXPXJXJXIX        I.IXUXsX* # # # 9 KXCXAXAXCXZXZXZXZXZXVXVXNX;       X DXGXGXGXJXJXLXp         PXZXZXZXJXm         sXBXBXCXHXJXJXJXJXJXf 3 ; #   LXUXIX  % % #   UXHXHXHXGXJXJX# # # # 9 UXUXIX$ * $ % % * * sXHXKXPXPXsX3 r r $ UXUXm     $   UXJXJXHXJXJXJXKXKXKXKXKXKXPX  $ % $ n KXKXHXKXJXPXI.* * L.R.R.E.K.K.H.H.H.S.S.S.S.F.M.I.M.n { { { I.D.J.D.S.S.N.N.d p.u.u.0.6.7.U g w ",
"x M.@ 9.9.0.7.w.s.T.T.T.H.K.H.F. .w.w. .n F.V.V.V.F.S.S.D.D.C.g.d.g.I.D.T.T.v.& * sXVXGXZXGXGXGXGXGXJX  # # # DXJXGXGXGXAXAXAXAXAXAXZXZXGXZXDX  # # % U.GXHXGXHXHXHXJXIX$ $ # $ LXUXUX  * * % * * * * ; KXHXKXsX  = * $ IXKXIX# & & # 9 UXGXKXKXKXKXKXKXKXKXJXJXJXHXZXZXVXVXVXzXm x m.I.IXIXJXJXJX|.$ * % < sXHXJXU.$ $ $ $ UXJXJXJXLXp # # $ $ 9 GXAXAXAXAXKX3 % # #   DXVXCXJXHXHXGXZXFXFXMX  # # % & IXIXJXJXJXUX        b IXUXlX* % # $ 9 KXCXCXAXCXZXCXCXZXZXVXNXNX;         JXGXGXGXJXJXLXt #       IXZXZXZXJX/.        m VXBXZXJXJXKXPXJXJXf ; ; $   DXUXUX  % % #   UXHXGXGXGXKXJX& # # # 9 UXUXIX  $ $ $ $ % %   JXHXPXPXsX* * 0 $ UXUXm   # $ $ UXKXJXHXJXJXJXKXKXKXKXKXKXPX  $ * $ U.KXKXHXKXJXPXI.* * L.R.T.K.4X1X@XK.H.J.S.S.S.S.S.F.F.C.w.7.7.{ P.J.R.T.H.S.S.C.p.u.u.8.7.6.D l y ",
"x M.@ q.q.K D D m T.R.R.K.@X@XA.g.w.w. .n V.V.V.V.D.S.D.D.G.I.d.d.d.U.D.R.T.N.* * sXVXGXGXGXGXGXGXGXJX  # # # MXJXGXGXGXAXAXAXAXAXAXGXAXGXZXDX  # # % U.GXZXGXHXHXHXJXIX$ $ # $ LXUXUX  * * * * * $ * $ PXHXKXsX  = * $ IXPXUX# & & # 9 UXGXKXKXKXKXKXKXKXKXJXJXJXHXZXZXVXVXVXzXm x m.I.IXIXJXJXJXsX$ * % < sXGXGXsX$ $ * $ UXJXJXJXFXn   # # $ 9 GXGXAXAXCXJX3 % % # ; DXVXCXJXHXHXGXGXFXFXMX  # # % & IXIXJXJXJXIX        b IXUXlX$ % % $ X KXBXCXAXCXZXCXCXZXZXVXNXNX9 #       JXGXGXGXJXJXLX3 #       UXZXZXCXKXsX        j VXBXZXJXJXKXPXPXJXf ; ; $   SXUXUX  % % #   UXHXGXGXGXKXPX& # # # b UXUXIX  $ $ % $ % % $ DXHXPXPXlX3 * 0 $ UXUXm . $ $ $ LXKXJXHXHXHXHXKXKXKXKXKXKXPX  $ * $ |.KXHXHXKXJXJXM.* * J.R.T.H.yXyX3XH.H.H.S.H.H.G.H.S.S.C.e.8.6.D P.E.R.R.R.R.T.C.f.q.q.w.T K D l t ",
"y M.x R ) ) E R M.H.R.K.@X@X@XD./.g.f.{ b F.V.F.N.D.D.D.G.G.n d.d.o.I.D.R.R.B.& * sXVXVXGXZXZXGXJXGXIX  # # # mXPXGXAXAXAXAXAXAXAXAXGXZXGXGXMX  # % % m GXGXGXGXHXHXKXLX$ $ % $ LXUXUX  * % % * % % % ; UXKXKXsX  = * $ IXIXIX# & & # X UXJXKXKXKXKXKXKXKXKXJXJXJXJXZXZXCXVXNXzX/.I.I.U.LXPXPXPXIXcX8 * 0 * sXZXCXlX; ; 3 9 UXJXJXJXLX|.# # # # 9 GXGXAXAXAXJX; $ % #   FXVXZXHXJXJXGXFXZXFXMX    # %   IXPXJXJXJXIX        8 IXUXlX$ # $ $ $ PXBXCXCXCXCXCXCXVXVXVXVXNXj # #   X FXGXGXGXJXJXFX3 # #     IXZXZXZXJXsX        X BXBXGXJXJXKXPXPXJX9 ; ; $   mXUXUX  # # #   UXHXHXHXJXJXPX& # # $ n UXUXIX  * * $ $ % % # . DXKXPXmX3 * 0 * PXPXsX. = ; ; DXKXHXHXHXHXHXKXKXKXKXKXKXKX  3 * $ sXKXKXHXHXJXIXn.* * E.R.H.K.yXyXiXH.H.H.H.H.H.H.H.H.H.A.e.0.q.%.P.E.R.R.R.R.R.D.{  . .) E E R e y ",
"m.m.l ~ ( / _ E k S.T.H.S.H.S.T.J.F.i C.C.V.F.N.D.D.D.G.G.G.C.{ { { I.S.R.R.B.* * ).VXZXGXZXZXZXGXGXFX  = # $ zXPXHXAXAXHXHXHXAXHXHXHXAXHXHXMX  # % % m HXHXHXHXHXHXKXSX$ $ * $ DXUXUX  * % * * % % % = 9 UXKXsX  = $ $ IXUXIX# % # # X IXJXPXPXPXPXPXKXKXKXKXJXJXJXJXJXGXVXmXzXsXU.I.|.LXPXPXPXIXn * r 0 i sXCXCXmX3 p 9 U.UXJXJXJXJXcX$ # # # X GXGXAXAXAXJX; $ $ $   GXVXVXHXJXJXJXGXFXFXMX    # % $ IXPXJXJXJXIX        8 IXUXcX$ $ $ $ X JXBXCXCXCXCXCXVXVXVXVXVXNXn ; $   X JXGXGXGXGXJXIXp # #     IXZXZXZXGXsXX       X BXBXJXJXPXPXPXPXJX9 ; ; $   mXUXUX  # # #   UXHXHXHXHXJXIX# # # $ m UXUXIX  * * % * * % #     PXPXDX3 * 0 $ UXPXsX; ; ; ; mXPXPXKXKXKXKXKXKXJXKXKXKXKX. 3 * 3 zXHXKXHXHXJXJXd 0 * E.R.H.H.G.G.G.H.H.H.H.H.H.H.H.H.H.G.c m %.#X].E.H.T.T.K.T.D.{ D U ) ~ E z y y ",
"s m.l ~ V / A ) W S.S.S.S.S.S.R.T.T.v.V.V.V.F.D.D.D.D.G.G.G.N.n.m.m.F.S.R.R.B.* * /.VXZXGXZXZXZXGXGXFX  # # $ lXKXHXAXAXHXHXHXHXHXHXHXHXHXHXSX  # % * m JXHXHXHXHXHXKXSX$ $ * $ DXUXUX  * % % * * % % $   . KXzX  = # $ IXUXUX# % # # X IXKXPXPXPXPXPXPXKXKXKXJXJXJXJXJXFXmXsXU.n I.I.I.xXmXmXcXb * 0 0 a a lXCXVXmX9 p f sXUXJXJXJXJXSX8 # # # X GXGXAXAXAXKX$ % $ $   GXVXVXHXJXJXJXGXFXFXMX  # # % $ IXPXJXJXJXIX        8 IXUXcX$ $ $ $ X JXBXCXCXCXCXCXVXVXVXVXNXNXn ; $ . X FXGXGXGXGXJXIXp # #     UXZXZXHXJXsXX         BXBXJXJXPXPXPXPXJX9 $ ; $   mXUXUX  # # #   UXHXHXHXHXJXIX  # # $ m UXUXIX  * * % * r %   # # zXPXDX3 * 0 $ UXPXzX; ; ; 3 9 |.sXlXcXmXmXMXDXIXKXKXHXKX9 3 ; $ mXHXKXHXHXJXIXd 0 & J.R.K.G.D.S.S.S.H.H.H.H.H.H.H.H.H.S.B.v P.*X$XE.S.S.S.S.H.F.{ U K Y ~ ~ R y y ",
"s m.l ~ ^ S I I { b.S.S.S.S.S.R.R.T.N.V.V.V.D.D.D.D.G.G.G.G.D.N.N.V.S.S.K.R.B.* * U.VXZXZXZXGXGXGXGXFX  # # ; lXKXHXHXHXHXHXHXHXHXHXHXHXHXJXSX  # % % m HXHXHXHXGXHXKXMX$ $ * $ DXIXIX  $ * * $ lX# $ = # = MXsX  = $   IXUXPX# % % # 9 IXJXDXmXlXsXsXlXcXmXDXDXFXFXZXVXMXm 7 5 = # # # #   # # % q 0 * x U.MXVXCXMXx p p lXIXIXUXUXIXSX9 # # # X GXGXAXAXAXKX$ % % $   GXCXZXJXJXJXJXGXFXFXMX    # # $ IXPXKXKXJXIX        8 IXUXcX* $ $ $ ; JXBXCXCXCXCXZXVXVXVXVXNXNXn ; = = ; n n U.U.U.n n $ # #     IXGXGXHXKXsXX         BXBXHXJXJXPXPXJXFX9 $ ; $ $ mXUXUX    # #   UXKXHXHXKXJXIX  # # $ m IXUXIX  * * * $ DXI.#   # . PXDX* $ 3 $ UXPXMX> : ; #   #   #     # # % # JXKXKXKXn n I.U.MXHXHXHXHXJXIXm.0 & L.R.K.S.N.N.S.S.G.G.H.H.G.G.G.H.S.S.D.B.L.$X&XR.S.S.N.S.S.I.T P P F ~ ~ R y m.",
"s m.z ~ ^ S P I } b.S.S.S.N.S.R.R.T.N.V.N.N.B.G.G.J.H.J.J.G.N.N.N.N.S.S.K.R.B.* * U.VXVXZXZXGXGXGXZXFX  = # ; lXKXHXHXHXHXHXHXHXHXHXHXHXKXJXDX  # % % m HXHXHXHXHXHXKXmX$ # * $ DXIXIX  $ % * 9 KXmXX # # $   ; = = # $ IXUXUX# % % & b JXGXn # % # # # # # # p LXGXFXVXmXj , , = = # #     # # # % i UXZXVXVXCXVXzX;                 # # # # # X JXGXGXGXGXJX# ; $ $   GXCXZXJXJXJXGXGXFXFXMX    # % $ UXPXKXKXJXIX        $ IXUXlX$ $ $ $ 9 JXBXCXCXCXZXGXZXFXFXVXVXNXm . # # # # # # # # #             UXGXGXGXKXsXX $       BXBXHXJXJXJXPXJXFX9 $ ; $ $ mXUXUX    # %   UXKXKXHXKXJXIX  # # $ n UXUXIX  * * * 9 PXUX9   #   m lX* % 3 $ UXPXKXj j m     # # # # # # # % ; PXKXHXHXm j f 9 MXHXHXHXHXJXIXa % & J.K.H.S.N.N.N.S.S.D.D.D.D.A.A.Z.D.S.S.N.J.$X@XR.S.S.N.S.S.I.T w.7.Y ~ ~ R y m.",
"s m.z B ^ S P I } b.S.S.S.S.S.R.R.T.N.V.N.N.0XaXqXG.J.J.G.G.D.V.N.N.S.S.K.R.N.* * U.FXGXGXGXGXGXGXZXLX  # # ; lXKXHXHXHXHXHXHXHXHXHXHXHXKXJXDX  # % % m HXGXHXHXHXHXKXmX$ # % $ DXPXIX  $ # * f PXJXmX$ $ $ = , , = $ $ IXUXUX# % % & b JXVXn = % # # # # # # # DXGXFXVXlX7 , = = # # #     # # # 0 sXPXVXBXVXCXVXm       # # # $ $ # # # # # # X JXGXGXGXGXKX# $ $ $   GXCXZXGXJXJXGXGXFXFXMX    # # & UXPXKXKXKXFX        & IXIXlX; $ $ $ 9 JXBXCXCXCXZXGXZXFXFXFXVXVXm = #   # # # # # # # #           UXHXGXGXJXsX; $       BXBXHXJXJXJXJXJXJX9 ; ; $ $ MXUXUX    # # X UXHXHXHXKXJXIX  # # % b UXIXIX  % % * n KXPXMX  # # $ n 3 % 3 $ UXKXZXVXMXDX  # # # # # # # # % 9 PXJXHXKXm j x p mXHXHXHXJXJXIXn.% * J.H.H.S.D.D.D.S.D.D.J.J.Y.cXmXlXB.D.D.V.L.$X@XR.S.S.N.N.S.I.w.7.7.Y ~ ~ R y y ",
"y s O F Y T 6.6. .N.H.H.R.R.R.@XR.R.J.J.J.D.aXaXaX-XH.J.J.J.J.J.J.D.J.D.H.K.B.* * U.FXGXGXZXGXGXZXZXLX  # # ; lXKXHXHXHXHXHXHXHXHXHXHXHXKXJXDX  $ % % n GXGXHXHXHXKXPXmX* # % $ DXPXUX  $ $ * 9 PXGXDX= = = = = ; = $   IXUXUX# % % & b GXVXn % % # # # # # #   cXIXFXFXsX7 2 , $ # # # # # # # & u LXPXGXVXVXVXVXj           # # # # # # # # # X JXGXGXGXGXJX$ $ % $ X GXZXGXGXGXGXGXGXFXDXMX    # % $ UXIXPXJXJXJX$       8 UXUXsX$ $ $ * 9 GXBXCXCXCXZXGXGXFXFXFXFXVX/.= # # # # # # # # # #     #   X IXHXGXJXGXsX; $       AXCXZXHXKXJXJXJXFXn ; ; $ $ MXUXUX    # # X IXJXKXHXKXJXIX  # # $ 9 UXIXIX$ % % * n KXKXPX  # # $ ; ; % 3 $ PXKXAXVXBXUX# % # # # # # # % % 7 sXMXKXKXm x M.p mXHXHXHXJXFXIXm.% * J.T.J.J.J.J.J.J.P.F.F.!.sXjXgXkXA.K.T.T.T.R.R.E.T.T.T.J.T.I.w.0.8.P I I ) y m.",
"a p @ 8.8.8.8.6.g.D.H.R.R.R.R.R.R.R.E.L.E.=XaXaXaXqXE.-X#XE.E.E.E.E.L.J.H.K.N.* * U.FXZXZXZXGXGXZXZXIX$ # # $ lXKXHXHXHXHXHXHXHXHXHXHXHXKXJXMX  $ % % n GXGXHXHXHXHXKXcX* # % $ DXPXUX  * $ 3 9 PXGXPX; = = = = = ; $   IXUXIX$ % % & 9 FXVXm x < % # # # # #   U.IXJXFXm 6 2 , ; $ % # # # # # % q SXPXGXCXCXVXVX.       # = = = = = 2 $ # # # X KXGXGXGXGXDX$ $ $ $ j GXZXGXGXGXGXGXFXFXDXMX  # # % $ IXIXKXJXJXFX3       8 UXUX|.$ ; $ ; 9 VXBXBXCXCXGXGXGXGXGXGXFXVXsX= # # $ # # # # # # #   # #   8 IXGXGXGXZXsXX $       AXCXZXHXHXJXGXJXFXn ; ; ; ; DXUXUX  # # $ 9 IXJXKXHXHXJXIX  # # $ 9 IXIXIX8 * % * n KXKXKXn . = = = = = ; $ PXKXAXHXVXzXU.n n n m U.|.|.U.#       mXPXm j m j mXAXAXAXJXFXIXm.0 % E.R.@XR.R.R.Q.P.F.I.I.I./.jXgXmXZ.R.R.R.R.R.R.R.R.R.R.R.E.A.e.0.0.8.6.6.U l y ",
"a s O 8.8.8.6.6.q.N.H.R.R.R.R.R.R.R.H.G.H.H.H.L.#X-X#X-X-X#X#X#X#XE.L.J.H.K.N.* * U.FXZXZXZXGXGXZXZXIX$ $ $ $ lXKXHXHXHXHXHXHXHXHXHXHXHXKXJXMX  $ % % n JXHXHXHXHXHXKXcX* # % $ MXPXUX  * * 3 9 PXGXIXU.; ; , = = ; $   IXUXIX# % % & 9 FXVXmXzX).x p < # #     n IXJXFXn 6 4 2 ; 3 p f p # # # % q sXPXGXCXVXCXVX      # = = : , 2 2 2 $ # # # . KXGXGXGXGXmX$ $ $ $ m GXZXGXGXGXGXFXFXFXDXMX  # # % $ IXIXKXJXJXFX3 #     9 UXUXU.$ ; $ ; 9 VXkXBXCXZXGXGXGXGXGXGXFXVXsX= # # $ $ # % 0 r a a # # #   9 UXGXGXZXZXsXX $       HXCXZXJXHXHXGXGXFXm ; ; ; ; LXUXUX    # $ 9 IXJXKXHXHXJXIX# # # $ 9 IXIXIX8 * % * n KXKXHXsX  = = = = = ; $ PXKXHXHXPXKXUXUXUXIXPXIXIXIXMX# # #   mXPXGXVXCXHXVXAXAXAXJXFXLXm.% % E.R.R.@XR.R.P.I.I./.~.~.W jXgXcXK.R.R.R.R.R.R.R.R.R.R.R.R.A.e.9.9.8.6.6.U y y ",
"d s j 7.6.6.6.7. .B.H.H.R.R.@X@XR.K.H.H.H.H.J.H.J.6X6XaXaXaX0X[.#XP.J.J.H.H.N.* 3 U.DXVXGXZXZXZXGXZXLX$ # # ; zXKXHXHXHXHXHXHXHXHXHXHXHXKXJXcX  # % * n GXHXGXHXHXHXKXlX$ * % $ MXPXIX  * * 3 9 KXGXGXDXlX7 , = = = % $ IXUXUX# % % & $ JXGXGXGXJXDXDXlX# # #   * IXIXJXx 4 3 3 ; n IXJXKXmX  # # % q DXCXZXCXVXJX  #   $ 3 3 4 4 4 4 4 < # # # ; KXGXZXZXZXsX$ # $   sXGXZXZXGXGXGXGXFXFXDXMX  # # % 8 IXPXKXJXJXFXp # #   9 UXUXm $ ; ; ; 9 VXkXBXCXZXGXGXJXJXGXJXFXVXsX; # # # $ sXsXsXlXsXlX# # # # n UXGXGXCXZXsXX ;       KXZXZXGXHXHXJXGXFXm ; ; ; ; IXUXUX  $ # % n PXHXHXHXHXKXIX# # # $ X UXPXIX8 * % 0 n JXHXAXmX  = = $ # $ ;   PXHXHXKXKXKXKXKXKXKXKXKXJXJXsX# # #   MXUXVXsXzXsXgXAXAXHXJXJXIXa % % E.@XR.R.T.E.I.} | ..| ] ~.M.C.G.K.R.K.R.R.R.R.R.R.R.R.R.R.A.e.9.9.8.6.6.U e y ",
"a s j 7.7.7.7.7. .B.H.H.R.R.@X@XR.K.H.H.H.H.J.H.H.6XiXbXbXbXbX0X-XJ.J.J.H.H.N.* * U.DXVXGXZXZXZXGXFXLX$ # # $ zXGXHXHXHXHXHXHXHXHXHXHXHXKXJXcX  $ % * j GXAXGXGXGXHXKXlX3 $ * $ MXPXUX; 3 3 3 9 KXGXGXGXzX7 = = $ $ % $ IXUXUX# % % &   IXJXGXGXZXGXVXsX# # #   & IXIXIX9 3 3 3 3 9 DXKXKXPX;     % % f JXJXZXZXJX  # $ $ p p x p x x x * # # $ 9 JXGXZXZXZXU.$ # $   cXGXGXZXGXGXGXGXFXVXNXMX    # % 8 IXIXKXJXJXNXi # #   b UXUXm $ ; = $ 9 VXkXBXCXZXGXJXJXJXJXJXGXFXsX; $ = % 3 DXMXMXMXMXDX# % % $ U.IXGXGXZXCXzXX ;       KXZXZXGXHXZXGXGXVXm ; ; ; ; UXUXUX  $ # * m PXHXJXHXHXJXPX# # # & X IXPXIX9 * % 0 f KXKXHXHXU.= = $ $ $ ; $ PXHXHXHXKXKXKXKXKXKXKXKXJXJXU.= # =   MXPXDX9 M.x mXHXAXHXJXJXIXa % % E.R.R.R.T.T./...T w...) ! M.F.W.R.R.K.R.R.R.R.R.R.K.K.K.K.A.w.0.0.6.P P U y y ",
"s s j 7.7.P P P  .B.H.H.R.R.@X@XR.K.H.H.H.H.E.L.H.6XaXbXbXbXaXaX-XD.J.J.H.H.N.* * U.DXVXGXZXZXGXGXGXLX  # # $ zXGXHXHXHXHXHXHXHXHXHXHXHXKXJXlX  $ % * 9 GXAXGXGXGXHXKXsX* * * $ MXUXUXX ; 3 3 ; KXJXGXZXmXj U.= $ ; $ $ IXUXUX# % # #   IXGXGXGXGXGXDXU.# # # # & UXIXIX9 3 3 3 3 ; DXKXKXGXm     # # 9 JXJXZXAXJX  # # ; n n n m U.U.I.< $ $ $ 9 JXGXZXZXZXm $ # #   mXGXGXZXGXGXGXGXFXVXNXmX    # % 9 IXIXKXJXJXFXf & &   9 UXUXm   = $ ; 9 VXkXBXCXZXGXJXJXJXJXJXGXFXsX  $ # = 3 DXVXVXVXVXDX% % % $ U.UXZXZXZXZXmXX ; #     KXZXZXZXZXZXHXZXFXU.; ; ; ; IXUXUX  $ # * m PXHXJXHXJXJXPX% # # & X UXPXIX9 * % 0 f KXKXHXHXsX> = $ $ $ = $ PXHXHXKXKXKXKXKXKXKXKXKXJXJXm # # =   MXUXDX. f f mXHXAXHXJXJXIXa % * E.R.R.R.T.T.{ ..w.w...] ! M.F.J.R.K.K.R.R.R.R.R.K.K.K.K.K.C.w.0.0.w.F F ) y y ",
"a s j 7.P P P P  .B.H.H.K.@X@X@XR.K.H.H.H.H.H.R.8X4XaXaXbXbXbXaX-XS.S.D.H.H.D.* * U.DXVXGXZXGXGXZXZXLX  $ # $ sXGXAXGXGXGXGXGXHXKXKXHXJXHXJXcX  % % < 9 GXAXGXHXHXHXJXsX3 * * $ mXIXIX  ; 3 3 ; PXKXHXGXGXVXm ; ; = $   PXPXUX# % # #   UXJXGXGXGXJXDXU.# # # # & UXIXIXi 3 3 * * $ MXJXPXHXMX9 # # % * sXJXZXGXPX# % $ ; MXGXZXZXZXGXlX$ $ $ $ j JXZXZXZXZXn # # $   mXJXGXGXZXGXGXFXFXVXDXmX  # % % f IXPXKXJXJXFXf & # & b IXPXm   # $ ; X BXkXBXCXGXGXGXJXJXJXGXFXVXsX; $ = % w MXVXVXVXZXGX# # % * |.UXGXZXZXZXmXX ; # #   PXZXCXZXZXZXGXZXVXm ; ; ; X UXPXUX  % $ $ |.KXHXJXJXJXJXJX* % % &   UXUXIX9 * % 0 f KXHXAXAXZXmX; = $ $ =   KXHXHXHXHXKXKXKXKXKXJXJXJXJXn = = #   MXUXUXUXUXUXKXHXHXHXKXJXIXm.% & E.R.R.R.R.E./.d.d.o.X.! ! ~.M.J.H.H.K.R.R.R.R.R.K.K.K.K.H.A.w.7.7.T N N ) y b.",
"i s j P P I L I  .N.H.H.K.@X@X@X#XR.H.H.H.H.K.K.aX0X8XiX0X-X-X8X#XS.D.D.H.T.D.* * U.FXZXGXZXGXGXGXGXIX$ % % $ sXJXCXCXCXAXAXCXCXVXNXNXJXJXJXmX$ < < < 9 GXZXAXAXGXHXJXsXr % % $ mXPXPX  ; 3 3 ; PXKXHXHXHXAXj 2 = = $   IXPXUX# % # #   UXKXKXJXJXHXJX).# # # # & UXUXPXi 3 * * * $ mXKXPXKXKXmX  # # 3 9 IXGXGXPX# % $ ; DXJXGXGXGXGXsX$ $ $ $ n GXZXZXCXCXn $ # $   mXJXHXGXGXGXGXFXFXVXMXlX$ # % % $ IXPXJXJXJXFXf # # & n IXKXsX      # j CXBXCXCXGXGXGXGXJXJXJXJXFXsX; ; 3 3 3 mXCXCXZXGXJX# # % * sXUXGXZXZXZXMX9 ; ; #   PXAXCXCXCXZXZXZXVXm ; ; ; X UXUXUX$ % % * sXPXKXJXHXJXKXJXx % % &   UXUXIX9 * % 0 9 KXHXHXHXHXKX9 = ; ; $   PXHXKXKXKXKXKXKXKXKXJXJXJXGX9 = = =   MXUXUXUXUXUXPXHXHXHXHXJXIXm.% & E.R.R.T.H.S.m.W W ] X.X.X.[ ~.!.Q.P.J.R.R.R.R.R.K.K.K.K.H.b w.7.7.T N N ) y y ",
"i s j P G J P P { D.H.H.R.@X&X#X#XE.R.K.H.].#X#XaXaXaXaX8XS.T.E.Q.S.D.D.H.T.D.* * U.FXZXGXZXGXGXGXGXIX# % % $ sXPXZXZXZXGXGXHXZXzXn i n IXJXMX$ 3 < 3 ; GXHXHXHXHXHXJXlXr < % * cXIXUXX ; 3 3 $ PXKXHXHXHXAXm 2 $ = $   IXPXUX# # # #   UXPXPXPXIXPXIX).# # # # & IXPXPXf r * * * $ lXPXPXIXJXPX; $ # $ ; mXHXHXPX# < ; $ DXKXHXGXGXGXsX$ $ $ $ n GXZXZXCXCXn # # $   mXGXHXHXHXGXGXFXFXVXDXsX  # % %   IXPXPXJXJXFXn * # & n IXKXsX        j VXVXVXMXNXDXFXJXJXJXJXJXFXsX; ; 3 r r MXCXCXZXGXJX# # % * sXUXZXZXZXGXDXj ; ; #   PXAXCXCXCXCXZXZXVXm ; ; ;   UXPXUX% 0 % * lXPXKXKXJXJXJXJXU.% % &   UXUXIX9 * % q 9 KXHXHXHXHXHXsX> ; ; ;   PXHXJXJXKXKXKXKXKXHXJXJXJXGX9 < < =   mXUXUXUXUXUXKXHXHXHXHXJXIXm.% * E.R.R.S.S.S.S.F.M.(.X.| | | ] ~./.I.J.K.R.@X@XR.K.K.K.K.R.A.w.w.w.T N N ) y y ",
"s s k I J J P P s.L.R.R.R.&X@X@X&XE.E.#X8XaXaXaXaXaXaXaX8XS.T.E.E.L.J.J.K.T.D.* * ).FXZXGXZXZXZXGXGXPX  # * $ $ . 9 9 9 9 ; ; 2 = < w & LXIXIX$ 7 < w   n 9 9 9 9 9 9 n 4 3 ; ; lXPXPXX ; * 3 ; PXKXHXHXHXHXMXn ; 3 $   PXPXPX< #                     # $ #   # $ UXPXPXf 3 * * * * sXPXIXPXPXUXsX  # $ ; U.PXKXPX# * $ $ DXKXHXHXHXKXsX$ $ # $ U.GXZXZXZXZXn # $ $   mXJXHXHXHXGXGXGXGXZXDXmX$ $ .   &             * q & SXcXKXHXmX                          9 9 9 9 9 sX; 3 3 r r MXCXGXGXGXJX# # % & sXUXGXGXGXGXVXm ; . #   PXCXCXCXCXCXZXZXGXm ; ; ;   PXPXUX$ d 0 % ; 9 n n n n n n M.% # &   IXKXPXn % 0 0 9 KXHXHXHXHXHXKXsX; ; ;   PXHXMX; i 9 f n n m m m m U.3 < < <   cXKXm sXsXsXLXGXHXHXHXJXIXM.% * E.R.T.S.S.H.T.S.b.] | _ | | _ | o.W F.Q.Q.#X@X@X@X@X@X@X@XA.w.7.w.P N N ) y q ",
"s s k Y N Y T T g.L.R.R.R.&X@XE.R.E.#X-X4XaXaXaX8X6X-X8X6XS.S.E.E.#XE.R.K.E.D.* $ sXFXGXGXZXZXZXGXGXJXU.n U.  $ = = = , = , < = = =     mXJXIXUXMX> >   # % % < < < 3 < 3 n sXn sXUXPXX ; * 3 ; PXKXHXHXHXHXHXzX  < 3   KXKXKXzXmXVX.   # # # # # # # # # $ sXlX|.UXPXPXn 0 * $ % * |.PXPXPXPXUXUX  # # ; 9 PXPXUX# * $ $ JXKXKXKXKXKXsX$ # # # /.GXZXZXCXZXx $ $ $   MXHXHXHXHXHXHXGXGXGXZXDXDXmXjX.   # # # # #   # % * IXGXJXHXDX                        # < = = = 2 sX: 3 3 r 4 DXGXGXJXKXKX# # # % U.UXGXHXGXGXJXU.;   #   PXCXCXCXCXCXZXGXGXn ; ; ;   PXKXHXVX/.f   < % < % % % % % % $ UXDX9 UXKXPXsX% q q 9 KXKXHXHXHXHXKXDX3 ; ;   PXGXDX4 t 6 < < ; ; ; $ 3 * r 3 9 ; X cXPX        lXHXHXHXHXJXIXM.0 % E.&X&X&X*X*X@XE.V.W [ _ | | | ....W I.I.U.Y.R.@X@XR.K.K.K.A.w.w.w.T N N ) y q ",
"s x R Y N Y T T g.H.K.R.K.@X@X#XK.4X0X4X4X0XaXaXS.v.v.S.D.S.J.E.#X#XE.R.K.E.D.* # sXDXGXJXGXZXZXGXJXJXsXFXKX# = = = : , = = < < =   IXU.DXJXPXJX. mXzX; % % * * * * 3 3 3 sXPXUXFXPXIX9 ; * *   PXHXHXHXHXHXHXmX  < *   HXHXHXHXHXAX      # # # # # # # #   UXUXIXIXUXPXI.0 * $ % 3 |.PXUXUXUXUXUX    # $ ; UXPXUX# * $ $ JXKXKXKXKXHXsX$ # # $ sXGXGXZXCXVXf % $ $   DXHXHXHXHXHXHXGXGXGXJXGXZXGXjX. # # # # # # # # % 0 JXZXJXHXUX          #             # = # = < < sX: ; 3 w 4 GXGXJXKXKXKX$ # # & n UXGXGXHXHXGXU.;       PXCXCXCXCXCXAXGXKXj ; ; $   UXHXAXCXsXDX  < < < < < = % < %   DXPXIXKXKXPXsX% q q ; KXKXHXHXHXHXKXDX; = ;   PXGXJX7 - > = = 3 3 ; 3 < < w 9 UXIXmXPXKX    & & sXKXHXKXKXJXIXM.0 % E.@X@X$X@X$X&XE.F.~.] ] X.X.| ..| ) } ] ] I.E.&X@XK.K.K.L.I.w.w.w.T N N ) y q ",
"y x W w.I J I w.g.G.K.K.K.@X@XR.-XnXnXnXbX4X4X-XJ.v.b.N.S.S.S.E.#XE.R.E.K.K.D.$ # sXFXVXGXGXZXZXGXGXGXZXAXKX# = < < ; ; = = = = =   PXZXHXHXHXHXHXJXMX= % % * < = 3 < < 3 m AXZXGXHXKX9 ; $ *   PXKXHXKXKXKXHXIX  < *   KXGXHXAXCXAX  #   # # # # # # # # $ UXHXKXKXKXKXU.* % $ $ * U.PXPXUXUXUXKXm   # $ . PXUXUX% * $ $ PXKXKXKXKXHXzX  % % # lXGXGXZXCXVXp % % $ X GXHXHXHXHXHXHXHXGXGXGXGXGXGXdX  # # # # # #   # % a VXZXGXHXPX                      # # # # = < 4 lX: < w 3 3 KXJXJXKXKXKX9 # # # i UXGXGXHXHXJXsX  #     PXCXCXCXAXGXGXGXKXn ; ; $   PXHXHXAXAXKX  < w < < = = = < %   sXKXKXGXHXKXsXq q q * KXHXHXHXHXHXKXDX; * < # PXJXAXdXdXdX. % < 3 $ 3 * 0 w $ MXKXHXHXPX  * b.% sXKXHXKXJXJXJXm.* & E.@X@X&X$X$X$XQ.Q.I.s y M.~.[ | | ......o.~.Q.E.R.K.K.R.H.I.d.w.7.G N N ) y q ",
"s x W 0.9.8.6.6.g.D.H.H.K.R.R.@X[.nXnXnXvX0X-X-X6Xv.b.D.J.J.T.#X#X#XR.E.K.K.D.* # sXDXVXGXGXAXGXZXAXAXZXCXKX# < 3 < ; ; ; = = = 3   PXGXGXGXHXHXHXGXPX2 * % < 3 3 3 % 3 * 9 HXCXAXCXKXn ; ; $ ; PXKXHXKXKXKXKXUX. < *   KXGXAXGXAXZX  # # # # # # # # # < $ IXHXKXKXKXKXsX* $ # $ $ m UXUXUXUXUXPXDX    ; ; PXUXUX, % 3   UXKXKXKXKXHXMX  * % $ mXGXZXZXCXNXf % #   sXGXGXGXHXGXHXHXHXGXGXGXGXGXVXk   # % # # # # # # # m.JXCXGXHXPX                    # # # # # = < 2 zX. : < 4 3 KXGXGXHXKXKXn # # # $ UXGXGXHXHXHXsX  #     JXCXCXCXAXGXGXGXKXn ; ; ;   PXGXGXAXVXKX  < w * $ $ $ % % % 3   JXGXGXHXKXlX* * % * PXKXHXHXHXKXKXDX; ; #   IXGXGXBXBXjX. % 0 * * 3 * r 3 * n KXGXHXKX  I.U.U.mXKXHXKXJXJXJXM.% & L.R.@X&X*X$X*X$X&XW.b.b.b.~.] [ [ _ | | | ~.P.E.K.K.L.K.H.C.f.0.0.0.0.8. .y b.",
"s s M 0.9.9.9.8.g.S.H.H.K.K.K.H.[.nXbXbXaXD.D.D.P.v.v.P.-X-X#X#X#X#XE.E.K.E.D.* # sXDXVXGXGXGXGXZXAXAXZXCXKX9 n n f 9 9 9 f f 9 9   PXGXGXGXHXHXGXGXJX; p f f 9 9 9 9 p 9   VXHXHXHXKXj 9 m sXsXKXHXHXHXKXKXPXDX. n U.U.KXGXZXGXVXMX. = $ ; ; ; 9 9 9 3 i 3 LXHXHXKXKXKXcX;     n U.cXPXPXUXUXUXPXIX9 n n j PXUXIX  9 n m PXJXKXKXGXHXDX9 n n j IXGXZXZXVXmXsXU.n j MXHXHXGXHXGXHXHXGXGXGXGXGXGXCX.   # ; ; * $ $ # $ 3 9 GXCXGXZXKXn U.U./.sXsXsXsXsXsXU./.sX/.sXsXsXsXMXsX/.U.U.m GXGXGXHXHXHX/.; .   X UXGXGXHXHXAXzXm m m sXJXZXCXAXAXGXGXGXKXmXsX;     KXGXGXAXCXGXm )././././.sXsX/.I.9   JXGXGXHXGXsX9 U.sXU.PXKXHXHXHXHXKXmXsXlXmXsXJXGXZXCXCXzX> p n n U.U.U.n x 9 X JXGXAXVXPXUXIXIXUXKXKXHXJXJXJXm.% & J.R.@X@X*X<X:X<X<X#XF.b.b.M.~.Q ! ` ) ( [ Q P.T.K.K.L.K.H.C.f.0.0.9.9.9.q.s b.",
"s x M 8.9.9.9.8.f.D.H.H.H.K.H.H.G.9XqXaXqXv.b.N.N.v.v.J.-X#XE.E.E.H.S.S.K.K.D.* # sXFXVXVXGXGXGXAXAXAXGXAXGXGXGXHXGXGXGXJXGXGXGXGXGXGXHXGXGXGXHXGXHXHXHXKXKXGXGXGXGXZXZXZXHXHXHXHXHXHXHXZXHXHXHXGXHXHXHXHXHXHXHXHXJXGXGXJXGXGXGXGXGXGXGXJXJXJXJXJXGXGXGXGXGXGXGXGXGXGXGXGXGXGXZXAXAXHXHXHXKXKXKXKXKXHXGXGXGXGXKXJXJXJXJXGXGXGXGXKXKXHXHXHXKXKXKXHXGXZXGXZXZXZXZXZXZXGXZXZXGXAXGXGXGXGXZXZXGXGXGXZXGXGXGXGXGXGXGXFXFXFXGXFXGXGXGXZXZXGXGXGXGXGXGXGXGXGXGXGXGXGXGXGXGXGXGXZXZXZXZXZXGXGXGXGXGXGXGXGXZXGXZXZXZXAXGXGXGXZXZXZXZXZXZXCXCXCXCXCXGXGXGXHXHXHXPXPXPXGXGXAXAXAXGXGXGXGXGXGXGXGXGXGXGXHXHXJXGXHXHXKXKXKXJXHXJXHXHXHXHXHXHXGXJXKXKXKXHXHXGXZXGXGXHXGXHXJXJXJXJXGXGXGXGXGXJXGXGXGXHXJXHXHXHXKXKXJXJXJXIXm.% & P.R.@XR.&X*X*X$X$X&XT.T.S.b.b.M.~.~.] ] ] ~.F.T.H.K.K.K.H.C.e.0.0.9.9.9.q.l 0 ",
"s x W 8.8.9.8.8.g.D.H.H.H.H.H.H.S.P.P.qXqXF.N.N.N.N.v.N.T.S.S.S.S.S.S.S.H.E.D.% # sXSXcXmXGXGXHXZXAXAXGXGXGXHXHXGXGXGXGXJXJXGXGXGXGXGXGXGXGXGXGXGXGXHXHXHXGXHXHXHXGXGXGXHXGXHXGXGXGXGXGXGXHXHXHXHXHXHXHXHXHXJXGXGXGXGXGXGXGXGXHXGXGXGXGXJXGXJXJXJXGXGXGXGXGXGXGXGXGXGXGXGXGXGXGXAXHXGXHXHXKXKXKXKXGXGXHXGXGXGXGXGXGXGXGXGXGXGXGXHXHXJXGXGXJXJXJXGXHXGXGXGXGXGXGXZXZXZXZXGXGXGXGXGXGXZXZXGXGXGXGXGXGXGXGXJXJXJXJXJXGXGXGXGXGXGXGXGXGXGXGXGXGXGXGXGXGXGXGXGXGXGXGXGXGXJXJXGXGXGXGXGXGXGXGXGXGXGXGXGXGXGXGXGXGXZXZXAXZXZXZXGXGXZXZXZXZXCXZXZXZXGXGXJXHXHXHXHXHXGXGXGXHXGXHXGXHXGXGXJXJXGXGXJXJXHXHXHXHXHXHXHXHXKXKXHXHXHXHXGXGXHXHXJXJXKXJXJXHXHXHXGXGXGXHXHXJXJXJXJXJXJXJXGXGXGXGXZXZXGXGXGXGXJXJXKXJXKXJXJXDXs % & J.R.T.S.S.S.H.T.R.R.T.H.S.b.b.m.~.~.] ] ! M.F.J.L.H.H.K.T.C.e.0.9.9.8.9. .s m.",
"s x W 6.8.8.8.8.g.S.H.H.H.H.G.S.S.F.F.D.V.N.N.S.S.N.N.S.S.S.S.S.S.S.S.S.S.T.S.# # lXvXqXY.DXJXJXZXAXAXGXGXGXGXGXGXGXGXGXJXHXJXGXGXGXGXGXGXGXGXGXGXHXHXHXJXGXJXJXJXGXGXGXHXHXHXHXHXGXGXGXGXHXHXHXHXHXHXHXHXHXHXGXGXGXGXGXGXGXGXHXHXHXJXJXGXGXGXGXGXGXGXGXGXGXGXGXGXGXGXGXGXGXGXGXAXHXHXHXHXKXKXKXHXGXGXGXGXGXGXGXGXGXGXGXGXGXGXGXJXJXGXGXGXJXJXJXGXGXGXGXGXGXGXGXZXZXGXGXGXGXGXGXGXGXZXZXGXGXGXGXGXGXGXGXJXJXJXJXJXGXGXGXGXGXGXGXGXGXGXGXGXGXGXGXGXGXGXGXGXGXGXGXGXGXJXJXGXGXGXGXGXGXGXGXGXGXGXGXGXGXGXGXGXGXGXZXZXZXZXZXGXGXZXZXZXZXCXCXZXZXGXGXJXHXHXHXHXHXGXGXGXGXGXGXHXHXHXHXJXJXGXGXGXGXJXJXHXHXHXHXHXHXKXKXHXHXHXHXGXGXHXHXGXJXJXJXJXJXHXHXGXGXGXGXJXJXJXJXJXJXJXJXGXGXJXGXZXGXGXGXGXGXGXGXSXSXLXvXxXvXm.% & D.H.S.S.S.S.S.S.S.H.S.S.S.N.b.m.M.~.~.~.~.M.F.J.J.J.J.H.T.C.e.0.0.0.8.8. .s y ",
"y m.W 7.7.7.6.6.g.L.R.@X].P.Y.U.I.F.F.W.F.F.J.#X%X@X@XE.E.T.T.E.#X].L.L.H.H.D.# # 9XW.W.S.nXlXY.DXGXGXHXGXGXJXJXJXJXJXJXKXJXJXHXGXGXGXGXGXGXGXGXGXHXHXHXJXJXJXJXJXHXGXGXGXHXHXHXGXGXHXHXHXJXJXJXHXHXHXHXGXGXGXGXGXJXGXGXGXGXGXGXGXGXJXJXGXGXGXGXGXGXGXGXHXHXGXJXGXGXGXGXGXGXGXGXZXZXGXJXJXJXHXHXJXGXJXJXGXGXGXGXGXGXGXGXGXGXJXGXGXGXGXGXGXJXJXJXGXGXGXGXGXGXZXZXGXGXGXGXGXGXGXGXGXGXGXGXGXGXGXGXGXGXGXGXJXJXJXJXJXJXJXJXGXGXGXGXGXGXGXGXGXGXGXGXGXGXGXGXGXGXGXGXGXGXGXGXGXGXGXGXGXGXGXGXGXGXGXGXGXGXGXGXGXZXGXGXGXZXZXZXZXZXZXZXZXZXZXZXZXGXGXGXHXJXJXHXHXHXGXJXGXJXJXJXHXHXHXJXGXGXGXGXJXGXJXJXJXHXHXHXJXHXHXHXHXHXHXHXHXHXHXHXGXGXJXGXJXJXJXJXGXGXGXJXJXJXHXJXJXJXJXJXGXGXJXJXGXGXGXGXGXGXGXFXaXaXvXQ.9X9Xn.# & J.&X@XK.4X1X1X@X#X&X@X#X%X%X%X-XQ.Q.Q.Q.Y.sX|.|.L.L.E.E.E.P.f.0.0.P B B M m.b.",
"m.M.W I I I 7.7.g.].@X].].Y./.(./.I.J.H.H.J.L.=X;X$X@X@X@XE.K.:X4X{.{.].@XR.F.% # qX5XW.S.nXvXqXSXHXHXGXGXGXJXJXJXJXJXJXJXJXJXHXHXHXGXGXGXGXGXGXGXHXHXHXGXGXJXJXJXHXHXHXHXHXHXJXJXJXHXHXGXJXJXJXHXHXHXHXJXJXGXGXGXGXGXGXGXGXGXGXGXGXGXGXGXGXGXGXGXJXGXGXJXJXGXJXGXGXGXGXGXGXGXGXGXGXGXGXGXJXJXJXJXGXGXJXGXGXGXGXGXGXGXGXGXGXGXGXGXJXGXGXJXJXJXGXGXGXGXGXGXGXGXGXGXGXGXGXGXJXGXGXGXGXGXGXGXGXGXGXGXGXGXJXJXJXJXJXJXJXJXJXJXJXJXGXGXGXGXGXGXGXGXGXGXGXGXGXGXGXGXGXGXGXGXGXGXGXGXGXGXGXGXGXGXGXGXGXGXGXGXGXGXGXGXGXGXGXGXGXZXZXZXZXGXZXZXZXZXGXGXGXHXJXJXHXHXHXGXJXJXJXHXHXHXHXHXHXJXJXJXJXHXHXHXHXHXHXHXHXJXHXJXHXHXHXHXHXHXHXHXJXJXJXJXJXJXJXJXJXJXGXGXJXJXJXJXHXHXJXJXJXGXGXGXGXGXGXGXGXGXGXGXFXvXvXvXQ.9X9Xv.& & L.&X&X].,X,XeXK.K.@X$X$X$X$X$X$XK.K.@X@X[.fXfXcX[.E.#X#X&XP.w.7.7.F Z B E M.b.",
"m.m.W J I I 7.7.g.].].].@XY./.(.{ I.S.T.H.H.K.=X%X].#X#XR.R.K.:X,X{.{.].].R.S.# # xXaX9Xv.nXvXqXSXJXJXHXGXGXJXJXJXJXJXJXJXJXJXHXHXHXGXGXGXGXGXGXGXHXHXHXKXKXJXJXJXHXHXHXHXHXHXJXJXHXHXHXGXJXJXJXHXHXHXHXGXGXGXGXGXGXGXGXGXGXGXGXGXGXGXGXGXGXGXJXJXJXGXGXGXGXGXGXGXGXGXGXGXGXGXGXGXGXGXGXGXGXGXGXGXGXGXGXGXFXFXFXFXFXFXFXFXFXFXGXGXGXGXGXGXGXGXGXGXGXGXGXGXGXGXGXGXGXGXGXGXJXJXGXGXGXZXGXGXGXGXGXGXGXGXJXJXJXJXJXJXJXJXJXJXJXJXGXGXGXGXGXGXGXGXGXGXGXGXGXGXGXGXGXGXGXGXGXGXGXGXGXGXGXGXGXGXGXGXGXGXGXGXGXGXGXGXGXGXGXGXGXZXZXZXZXZXZXZXZXZXGXGXGXHXJXJXHXHXHXGXGXJXJXHXHXHXHXKXJXJXJXKXKXHXHXHXHXHXHXHXHXHXHXJXJXHXHXHXHXHXHXHXJXJXGXKXJXJXJXJXJXJXJXGXJXJXJXJXHXHXGXGXJXGXGXGXGXGXGXGXGXGXGXGXFXnXnXnXN.9XqXn.# & E.$X@X@X,X,X,XK.K.@X$X$X$X$X$X@XK.K.K.@X[.gXgXfX[.E.E.@XR.P.w.6.6.F Z B W M.m.",
"m.m.W J I I 7.7.g.].].].$XU.dXh.o./.T.T.H.H.H.J.@X#X#X#XR.E.K.%X:X}.:X].].E.W.# # % & # & vXqX9XqXxXxXxXxXxXxXxXxXxXxXxXlXqXqXlXxXxXxXxXxXxXxXxXxXxXxXxXxXxXxXxXqXqXqXqXqXqXqXqXqXqXqXqXqXqXqXqXqXqXqXxXxXxXxXxXxXcXcXcXxXxXxXxXxXxXxXxXxXxXxXcXxXxXxXxXxXxXxXxXxXxXxXxXxXxXxXxXxXxXvXvXvXvXvXvXvXvXcXvXxXxXxXxXxXxXxXxXxXxXxXxXxXxXxXxXxXxXxXxXxXxXxXxXvXvXvXvXvXvXvXvXvXvXvXvXvXvXcXcXcXvXcXcXxXxXxXxXxXxXxXxXxXxXxXxXxXxXxXxXxXxXxXxXxXxXxXxXxXcXcXcXcXcXcXcXcXcXcXcXcXcXcXcXxXxXxXxXxXxXxXxXxXxXxXxXxXxXxXxXxXcXcXcXcXcXcXcXcXcXvXvXxXxXxXxXxXxXxXxXxXxXxXxXqXqXqXqXqXqXqXqXqXqXqXqXxXxXxXxXxXqXqXqXqXqXqXqXqXqXqXqXxXxXxXvXvXvXvXvXvXvXvXvXvXvXvXcXvXvXvXxXxXcXcXcXcXcXcXcXNXSXSXSXSXSXSXSX9X9XqX& # & i % # -X$X@X@X1X3X4XK.H.R.$X$X$X@X@X@XK.K.R.E.[.NXgXgXP.E.E.E.R.P.w.7.7.F Z B M M.m.",
"m.m.W G I P P w.s.].].].].C.n k /.I.Q.T.H.H.H.J.L.#X#X#XE.R.K.H.G.G.G.G.K.K.S.# % % # # % Y.Y.!.9X0XqXqX9XqX9XqXqXqXqXqX9X9X9X9X9X9X9X9X9X9X9X9X9X9X9X9X9X9X6X9X6X6X9X9X9X9X9X9X9X9X9X9X9X9X9X9X9X9X9X9X9X9X9X9X9X9X9X9X9X9X9X9X9X9X9X9X9X9X9X9X9X9X9X9X9X9X9X9X9X9X9X9X9X9X9X9X9X9X9X9X9X6X-X-X9X9X9X9X9X9X9X9X9X9X9X9X9X9X9X9X9X9X9X9X9X9X9X9X9X9X9X9X9X9X9X-X-X9X9X9X9X9X9X9X9X9X9X9X9X9X9X9X9X9X9X9X9X9X9X9X9X9X9X9X9X9X9X9X9X9X9X9X9X9X6X6X6X6X6X6X6X6X6X6X-X6X-X-X-X6X6X6X-X9X9X9X9X9X9X9X9X9X9X9X9X9X9X9X9X-X-X-X-X-X-X-X6X6X-X-X6X-X6X6X6X9X6X9X9X9X9X9X6X6X6X6X6X6X6X6X6X6X6X6X6X6X6X6X6X6X6X6X6X6X6X6X6X6X6X6X6X6X6X6X6X6X9X9X9X9X9X9X9X9X9X9X9X9X9X9X9X9X9X9X9X0X0X0XqXqXqX9X9X9X9X9XJ.Q.9X& # # % % % #X$X@X].].K.K.K.R.@X$X$X@XE.L.K.H.K.K.K.L.|.|.|.J.E.R.R.&XA.w.7.7.Y Z Z M M.m.",
"m.M.W I I I T T s.].].].].F.F.F.F.F.T.T.T.T.H.T.H.E.#X#XR.R.K.H.J.H.H.H.K.K.D.# # % # # % Y.I.Y.9X9XqX9X9X9X9X9X9X9X9X9X9X9X9X9X9X9X9X9X9X6X6X6X6X6X6X6X6X6X9X6X6X9X9X9X-X9X9X9X9X9X9X9X9X9X9X9X9X9X9X9X9X9X9X9X9X9X9X9X9X9X9X9X9X9X9X9X9X9X9X9X9X9X9X9X9X9X9X9X9X9X9X9X9X9X9X9X9X9X9X-X-X-X-X-X9X-X-X9X9X9X9X9X9X9X9X9X9X9X9X9X9X9X9X9X9X9X9X9X9X9X9X-X6X6X6X6X6X9X9X9X9X6X6X6X6X6X6X9X9X9X9X9X9X-X-X9X9X9X9X9X9X9X9X9X9X9X9X9X9X9X9X9X6X6X6X6X6X6X6X6X6X6X6X6X6X6X6X6X6X6X6X-X-X-X-X6X6X6X9X9X9X9X9X-X-X-X-X-X-X6X6X6X6X6X6X6X6X6X6X6X6X6X6X6X6X6X6X9X6X6X6X6X6X6X6X6X6X6X6X6X6X6X6X6X6X6X6X6X6X6X6X6X6X6X6X6X6X6X9X6X6X6X6X6X6X6X9X9X9X9X9X6X-X-X9X9X9X9X9X9X9X9X0X0X0X0X0XqXqXqXqX0X9X9X9X9XS.Q.-X& # = w % & E.$X@X].K.K.K.R.@X@X$X%XK.L.L.L.J.K.K.E.E.J.D.G.J.L.E.@X&XA.w.7.7.N Y U W M.m.",
"m.M.W U Y T 7.w.s.].$X$X@XD.F.F.F.W.T.T.T.R.R.R.K.K.E.E.E.K.K.H.H.K.H.H.K.K.J.& % q % % 0 m.m.C.Y.9XY.Y.Y.Y.Y.Y.Y.Y.Y.Y.Y.Y.Y.Y.Y.Y.Y.Y.F.F.F.F.C.F.F.F.F.C.C.C.F.F.F.F.F.F.P.F.Y.Y.Y.Y.Y.Y.Y.Y.F.F.F.F.Y.Y.Y.Y.F.F.F.F.F.F.Y.Y.Y.Y.Y.Y.Y.Y.Y.Y.Y.Y.Y.F.F.F.F.F.F.F.F.F.F.F.F.F.F.F.F.F.F.F.F.F.F.F.Y.Y.Y.Y.Y.Y.Y.Y.Y.Y.Y.Y.Y.Y.Y.Y.Y.Y.Y.Y.Y.Y.Y.Y.Y.Y.Y.Y.P.P.P.F.Y.Y.P.P.P.F.F.F.F.F.F.F.F.F.F.F.F.F.F.F.F.Y.Y.Y.Y.Y.Y.Y.Y.Y.Y.Y.F.F.F.F.F.F.F.F.D.S.S.S.N.S.S.N.F.F.F.F.F.P.P.P.P.!.!.!.Y.Y.Y.Y.Y.!.!.Y.Y.Y.Y.P.P.P.P.F.F.F.F.F.F.F.F.P.P.P.P.P.Y.P.P.P.Y.P.P.A.F.F.F.C.F.F.F.F.F.F.F.P.P.F.F.F.F.F.F.F.F.F.F.F.F.F.F.F.F.F.F.F.F.F.Y.Y.Y.Y.Y.Y.Y.Y.Y.Y.Y.Y.Y.Y.Y.Y.Y.P.F.F.P.P.Y.Y.Y.Y.9X9Xv.P.Q.% # % C.q & J.@X@X].].K.R.@X@X@X$X].J.L.L.K.K.K.K.E.K.J.J.J.J.L.#X$X&XY.e.0.0.7.7.7.U M.b.",
"m.M.D 0.0.8.6.7.g.].$X$X].J.S.S.J.T.T.T.T.R.R.R.E.E.E.E.R.@XR.K.K.K.K.K.K.K.L.Q.Q.N.% % * # # # # # $ = % = = = % % < < < % * * < < 3 ; % % % % < = 3 3 % < < % , , ; ; % $ $ $ $ $ = % % % $ $ % % * * * * * * % % % % % * % * % % % % % % % % % * * * * * * % % % % % * * * * * * * * * * * * * % * * % % * % % % % % # # # # % % % # # # % % % % % * % % % % % * % % % % % % % % # # # # # % % % % % # # # # % # # # # % % % % % % % % % % % * % * % % % % % % % % % * % % % % % % % % % # $ # # # % % % * % % * * % % < < < < * * % % % % % % % % % % * * * $ $ $ $ % % * * * * $ $ * * % % ; ; $ 3 * * * * * 3 $ $ * $ $ = % % % % = = ; % % % % % % % % % % * $ * < % % # % % % % % $ $ $ # * & % # # P.#XL.L.@X@X@X@X@X@X].].$X].].L.K.K.K.K.K.K.L.K.L.H.H.J.#X=X*X=XA.e.0.0.8.6.6. .x b.",
"s x @ 0.0.0.8.7.g.L.@X].].J.J.J.T.T.T.T.R.R.R.R.E.E.R.@X#X#X@XR.K.K.K.K.K.K.R.R.T.v.% * % # # # # # # # # # # # # # # # # # # # # # # # # # # % $ $ $ $ $ $ $ $ ; ; ; ; $ $ $ $ $ $ % % % % $ $ % % % % % < 3 % < % % % % % % % % % % % % % % % % * * % 3 3 3 * % % % % * % * * % % % & % % * * % % < * % % * % * % % % # # # # # = = = # # # # % % % % % % % % % $ $ $ % % % # # # # # # # # # # # # # # # # # # # # # # # # # $ % % % % % % % * * * % % % % % % % % % % % % % # # # # # % # # $ # # # # # # # $ $ $ = $ = = = $ # # # $ # $ $ = = = $ $ % # # $ # $ $ $ $ $ % % % * % % % * * $ $ * * * * * * * * $ $ ; ; $ = % % % % % $ $ % % % % % * * * % * % * * % % # % % % # $ $ $ $ $ ; = = % # # N.=X=X@X&X@X@X@X@X@X].].[.0X[.L.K.K.K.K.K.K.K.K.E.E.T.T.#X1X%XE.A.e.0.0.8.8.6. .s b.",
"M.M.D 0.8.0.0.8.g.P.K.K.R.T.T.H.T.T.T.R.T.T.T.R.R.K.K.].[.[.-XK.K.R.R.R.R.R.R.R.N.q q u v.0 % % % * * % * * * % % % * * * & * * * * % * * * * & * $ $ * & & & % * % % % % % $ % % % % % * * * * 0 0 0 0 0 0 0 0 0 0 0 0 0 q q q 0 0 q q u u 0 0 0 0 0 0 0 0 q q q 0 0 0 0 0 0 0 q q q q q q q q q q 0 0 0 0 0 0 0 0 0 0 0 % 0 % % % % % % * * * 0 0 0 q q * 0 0 0 0 0 0 0 * 0 0 0 0 * 0 0 0 0 0 * * * * * * * * * 0 0 0 0 0 0 0 0 0 q q q 0 q q q u 0 0 0 q 0 0 0 0 0 0 * % % & & * & & & * * * * 0 0 0 * * * * * % % % % % % % * * % * * * * * * * * * * * * * * * * * * * * * * * * * * 0 0 0 * * 0 0 0 0 0 0 i i 0 0 0 0 * 0 * * * * * 0 0 0 0 0 0 0 0 0 0 0 0 0 i a 0 0 0 0 0 0 0 0 0 * * * * * * 0 a * v.#X$X@X$X@X].@X].[.vXnXSXNX0XL.K.K.K.K.K.E.E.R.E.K.K.E.E.E.K.T.A.e.u.u.8.8.6. .x m.",
"x M.@ 0.8.0.8.0.g.G.K.K.K.K.K.K.L.T.T.T.T.T.R.R.T.K.K.[.SXSXSXvX[.@XK.R.R.R.R.R.K.L.J.J.F.m.a a a a a a a a a a a a a a a d d d d d n.a a a a a d d n.n.n.n.n.n.v.n.n.n.n.v.b.F.F.F.V.F.F.F.V.V.V.N.v.n.n.n.v.n.n.n.n.n.n.n.V.N.N.N.V.V.V.v.v.v.n.n.n.n.v.v.v.v.v.b.b.v.n.v.v.v.v.v.v.v.n.V.v.v.v.v.v.v.N.V.V.V.V.V.V.N.V.V.N.V.V.V.V.V.V.N.N.N.N.N.N.V.V.V.V.V.V.V.n.n.m.m.m.m.m.m.m.m.m.m.m.m.m.m.n.n.n.n.n.v.n.b.b.b.b.b.v.v.v.v.v.v.v.v.v.v.v.v.v.m.v.m.n.n.n.n.n.n.v.n.m.v.b.b.b.b.v.b.b.b.b.b.b.v.b.b.b.b.b.b.V.V.V.b.b.b.b.b.b.b.m.b.v.b.v.m.v.v.m.m.m.V.V.m.m.m.V.V.V.m.m.n.n.n.n.n.n.n.n.n.m.m.m.m.m.m.m.d a a a a a a a a a a a m.m.m.n.a a n.n.v.v.n.v.v.v.v.n.n.n.a a a a a a a a a 0 a i u J.L.L.K.R.@X$X@X@X].[.vXNXNXNXnX[.E.K.K.K.K.K.K.E.].#X#XE.E.L.T.E.T.A.e.u.u.8.8.6. .s m.",
"x x @ 0.0.0.9.0.g._.K.K.K.L.L.P.G.J.T.T.R.R.K.K.K.#X].[.SXNXSXSXqX#XK.K.R.R.R.R.K.K.H.D.V.a r r r y y r r r 0 r r 0 i i i i i a a a i a a a a a a u a a a a a a a a a d u u u n.n.n.v.n.n.n.n.n.d a d a u u a d d d d d d d d C.C.C.n.n.n.n.n.n.n.n.n.n.n.n.v.v.v.v.v.v.v.v.v.n.v.v.n.n.n.n.v.v.n.v.n.n.n.n.n.n.n.n.n.n.N.N.N.N.N.N.N.v.v.N.v.v.v.v.v.v.v.v.n.n.n.m.m.m.m.n.n.n.v.n.m.n.m.m.n.n.a a a n.n.n.n.n.a n.m.m.m.n.n.n.m.m.m.n.n.n.m.m.n.n.n.n.n.n.n.n.n.d d d d d d v.v.v.v.v.v.m.v.v.n.v.v.v.n.n.n.m.m.v.n.n.n.n.v.v.v.v.n.n.v.n.v.v.v.v.v.n.m.m.n.n.n.n.m.n.n.n.n.m.n.n.n.n.n.n.n.n.n.n.n.n.n.n.m.n.n.d s a a a a s i s a a d d d d d d d d d d n.n.n.d n.n.a a a i i i i i i r i i r r r u G.].].@XE.@X@X@X@X[.aXSXNXFXNXaX4X@XK.K.K.K.K.K.K.L.[.[.[.L.L.E.K.T.A.e.u.u.8.6.6. .s v.",
"x x @ 0.9.9.0.0.s.G.K.K.K.|.fXk.gX|.H.R.H.H.H.H.H.bXaXaXSXFXDXFXNX0X].R.R.R.K.K.K.K.H.N.v.a a a a a a a u u u u u u u u u u u v.v.d u u d d d d d u v.u v.v.v.v.v.v.v.v.v.v.v.v.v.v.v.v.n.d n.n.d d d d d d d n.n.n.n.n.N.V.V.N.N.V.V.V.V.N.N.N.N.N.N.N.N.V.D.B.N.N.B.B.S.D.D.S.N.N.N.N.N.N.N.N.v.v.v.v.v.v.v.v.v.v.v.v.v.v.v.v.v.v.v.v.v.v.N.N.N.v.v.N.N.N.v.N.N.N.N.N.v.v.v.v.v.v.v.v.v.v.v.v.v.v.v.v.v.v.v.v.v.v.v.N.N.N.N.v.v.v.v.v.v.v.v.v.v.v.v.N.N.N.N.N.N.N.N.B.B.B.B.B.B.D.B.D.B.N.N.N.N.N.N.N.N.N.N.N.N.N.N.B.N.B.B.B.B.B.B.B.N.N.N.N.N.D.D.N.N.N.D.F.F.F.F.F.F.F.F.F.F.D.F.V.F.V.N.V.V.n.n.n.n.n.V.N.N.N.n.n.n.a a d d a a d n.d n.n.n.d n.v.n.n.N.N.N.N.N.N.N.N.n.N.n.d d d d u u u d d d v G.K.].@XR.@X@X&X@XvXNXFXNXNXnXaXpXiXK.K.K.K.K.K.R.[.ZXVXVX|.K.K.T.H.A.e.0.0.7.7.7. .m.b.",
"x x m f.e.w.w.q.s.L.R.R.K.sXz.a.l.%.T.R.R.H.H.H.G.aXaXaXnXnXSXFXNXvX[.L.R.R.K.K.K.K.K.K.L.L.L.L.L.L.L.J.J.J.J.J.H.H.H.H.H.H.T.T.T.J.J.J.J.J.G.J.J.J.G.G.K.K.L.K.K.H.H.H.E.&X#X$X#X#X#X#X#X#X#X#X].].].].].].L.P.P.P.P.L.L.L.L.L.L.L.L.K.].].].].].].].].].].@X$X*X*X*X*X*X*X$X*X$X$X$X$X$X$X$X$X$X$X$X$X*X*X*X<X*X<X*X*X*X*X*X*X*X*X*X*X=X*X*X*X*X$X$X$X$X$X$X$X*X*X$X*X*X*X*X*X&X=X*X*X*X*X*X*X*X*X*X*X*X*X*X*X$X&X&X@X@X&X&X@X#X#X@X@X@X@X@X#X#X#X@X&X@X@X#X#X@XR.K.#X@X@X@X@X@X$X$X*X@XK.].].].].].$X@X@X@XK.K.].].].@X@X@X@X@X@X@X@X@X$X$X].@X].].].].].K.R.R.L.L.L.J.J.J.J.L.K.K.K.K.K.G.G.H.H.H.K.K.K.K.R.@XK.K.K.L.H.L.R.K.K.K.K.K.L.K.L.K.L.K.K.K.K.K.K.K.K.G.G.H.J.J.J.J.J.J.P.P.P.P.P.P.L.L.J.J.L.].@X@X@X@X&XG.SXNXSXvXvXbXyXpXiXK.R.R.K.K.K.K.A.kXkXkXsXJ.L.R.T.A. .K U Z Z M R M.m.",
"x x j M M U K K { J.R.R.K.s.z.a.l.%.T.R.R.H.H.H.H.aXaX4X-X[.xXLXmXSXqXL.K.R.K.K.K.K.K.K.K.L.L.L.E.E.K.K.K.K.K.K.K.K.K.K.K.K.K.R.E.H.H.K.K.K.L.L.L.K.K.K.K.K.K.K.K.R.K.K.R.$X$X$X$X@X@X@X@X@X@X@X].].].].@X@X#XE.E.L.P.P.L.L.L.K.].].].].].@X@X@X@X@X@X@X].K.].$X*X*X*X*X$X@X@X$X$X$X$X$X$X$X$X$X$X$X*X$X*X*X<X<X<X<X<X<X<X*X*X*X*X*X*X*X*X*X*X*X*X*X*X*X*X*X*X*X*X*X$X*X*X*X*X*X*X*X*X*X*X*X<X<X<X<X<X*X*X*X*X*X*X*X*X*X*X*X*X$X$X$X$X*X$X$X*X*X*X*X*X*X$X$X&X@X@XR.R.@X$X$X$X$X$X$X$X*X@XH.G.K.].].$X$X$X$X$XK.K.K.].@X@X@X@X@X@X@X@X@X$X$X$X@X@X@X].].].].].@X@XE.R.R.R.H.H.K.K.K.K.K.K.K.K.K.K.K.K.K.R.R.R.@X@X@XK.K.K.K.K.@X@X@X@X@X@X@XR.@XR.R.R.K.K.K.K.K.K.K.H.J.K.H.H.K.J.J.J.L.L.L.L.L.L.L.K.L.L.L.].@X@X@X#X#XqXSXSXvXaXaX8X@X8X8XK.K.K.K.K.K.K.A.kXkXkXsXL.K.R.T.C.} ..T | ) ~ Q M.m.",
"x x k Z A Y T T { G.K.R.K.sXk.k.k.|.R.R.R.K.H.H.H.H.L.J.E.-XqXvXlXJXUXxXE.K.K.K.K.K.K.H.L.R.E.E.R.R.].K.K.K.R.R.H.H.H.H.H.T.E.E.E.J.T.R.R.E.L.L.L.L.L.L.L.K.K.K.T.T.H.K.R.$X$X&X$X$X$X].$X#X%X%X#X@X#X@X@X@X&XE.E.I./.U.L.E.R.L.G.G.G.L.$X@X@X@X@X@X@X@XK.H.K.*X*X*X*X*X@XK.K.K.*X*X*X$X$X$X$X$X*X*X*X*X*X*X*X*X5X*X*X*X5X5X*X*X*X*X5X5X*X*X*X*X*X*X*X*X*X*X*X*X*X*X*X*X*X*X*X*X*X*X*X*X*X*X*X*X<X<X<X*X*X*X*X*X*X*X*X*X*X*X*X&X*X*X&X*X*X*X*X*X*X*X*X*X&X&X&X&X&XR.R.&X&X&X&X*X&X&X&X*X&XJ.J.R.R.@X$X$X$X$X@XS.H.H.@X@X@X@X@X@XR.R.@X@X$X$X$X$X$X@X].K.K.K.@X@X@X#XP.Y.I.I.J.E.K.K.K.K.K.K.K.G.F.Y.Y.P.T.T.R.R.R.R.R.R.R.R.R.R.R.R.R.R.R.R.R.@X].].K.K.J.K.H.H.H.H.G.G.J.J.T.T.L.L.L.L.L.L.E.E.L.J.J.J.H.K.T.R.R.@XG.nXNXSXSXqX%X@XR.H.T.K.K.K.H.H.K.R.G.|.NXcXcXqXL.K.R.T.F. .T P K ) ~ Q M.m.",
"x x k Z A Y T T { G.H.R.L.D.C.v Y.P.R.R.R.K.K.H.H.L.L.L.J.L.P.9XlXIXUXLXL.K.K.K.K.K.H.H.H.K.#X].#X[.L.L.L.K.K.R.R.K.H.H.H.E.E.E.E.J.L.]._.$.$.$.G.L.].L.L.L.K.E.T.T.K.R.@X$X$X$X$X$X].'.$.=.=.'.[.#X#X#X@X@X&XE.Q.W _ ] Y.E.R.L.G.D.D.L.&X@X$X$X@X@X@X@XK.H.H.&X*X*X*X*X&XH.H.R.*X*X*X*X*X*X*X*X*X*X*X*X*X*X*X*X*X*X*X*X*X*X*X*X5X*X*X*X*X*X*X*X*X*X*X*X*X*X*X*X*X*X*X*X*X*X*X*X*X*X*X*X*X*X*X*X<X<X*X5X5X*X*X*X*X*X*X*X*X*X*X*X&X&X*X*X*X*X*X*X*X*X*X*X*X&X&X&X&X&XE.&X&X&X&X&X&X&X&X&X&XE.E.R.@X$X$X$X$X$X@XK.H.H.R.@X@X$X@X@XT.R.@X$X$X*X$X$X<X@XH.S.S.S.K.#X@X#XI.] ( W I.E.K.E.R.K.K.K.L.P.{ ] ] /.!.Q.R.R.R.@XR.R.R.R.R.R.R.R.R.R.R.R.K.'.&.$.$.$.Z.G.K.K.K.H.G.J.J.J.T.K.L.[.P.P.P.P.P.P.L.J.J.J.J.J.H.R.R.@X9XSXNXNXnX[.#X#XT.R.R.K.K.K.H.H.H.K.E.J.J.D.J.J.T.R.R.R.F. .T P Y ) ~ R M.m.",
"x k k Z A Y T T { G.H.J.T.S.S.S.S.D.R.R.K.K.K.H.H.L.L.L.J.L.L.P.|.IXPXIXL.T.K.R.K.K.H.H.L.K.].].A.sXsXsX%.|.L.R.R.K.H.H.H.E.E.E.E.T.J.'.=.&.&.&._.L.].L.L.L.E.E.T.K.K.K.@X$X$X$X$X%X'.2.-.+.-.$.[.#X#X#X@X@X&XE.Q.] ( [ Y.E.@XK.G.G.D.J.#X@X&X&X$X@X@X@XR.H.H.&X*X*X*X*X&XH.H.@X*X*X*X*X*X$X*X*X*X*X*X*X*X*X*X*X*X*X*X*X*X*X5X*X*X*X*X*X*X*X*X*X*X*X*X=X=X=X=X&X&X#X#X#X#X#X#X#X#X#XE.E.E.E.E.E.E.E.E.T.T.T.E.E.E.&X&X&X&X&X&X&X=X=X=X*X*X*X*X*X*X*X*X*X*X&X&X&X&X&XR.&X&X&X&X&X&X&X&X&X&X@X@X@X@X$X$X*X*X*X&X#X#XR.R.@X$X$X$X@XR.R.@X$X$X$X@X$X<X@XG.S.S.D.J.#X#X#XU.] ( W I.E.K.E.@X@XR.K.E.P.W _ [ W !.Q.E.E.R.@XR.R.R.R.R.R.R.@X@XR.R.T.G.$.-.+.-.$.D.J.K.K.K.H.J.G.J.J.T.E.L.P.cX|.lXsX[.P.L.J.J.J.J.L.L.R.@X@XqXSXSXSXxXL.H.H.H.R.R.K.K.K.H.H.K.T.R.K.T.T.T.J.H.K.R.T.A. .T T Y ) ) W M.m.",
"x k k B A Y 7.w.s.G.R.R.R.R.R.E.T.T.R.R.R.K.|.|.[.K.L.L.L.E.E.L.|.IXIXLXL.T.R.R.K.K.K.K.H.L.L.P.U.gXx.hXkXjXP.R.R.R.H.H.J.J.E.E.L.L.Z.'.2.+.O.-.c G.L.L.L.E.E.R.R.T.K.E.@X$X$X$X$X].$.+.+.+.-.$.[.#X#X#X#X@X@X@XE./.] ^.Y.&X&XR.H.J.G.H.#X&X&X*X&X$X$X$X@X&XK.=X*X*X*X*X*X&X&X*X*X*X*X*X*X*X$X*X*X*X*X*X*X*X*X*X*X*X*X5X5X5X=X-X#XE.L.J.D.N.v.v.v.v.v.0 0 0 y y y r r r 3 4 4 r r r r t t r r r r r r r r r r r r y y y 0 y y a a a b.b.b.N.N.N.F.F.D.J.J.E.E.E.E.T.E.&X&X&X&X*X*X*X&X&X&X$X*X$X$X$X$X*X*X$X*X*X$X$X$X&X$X$X$X&XR.@X$X$X$X*X$X$X*XR.H.H.J.J.H.&X&X&X!./.) /.F.T.R.@XR.R.R.E.P.I.] | | ) I.!.Q.E.E.E.R.R.R.R.R.R.R.@X@XR.H.R.K.$.-.+.+.$.D.G.L.L.K.L.J.G.J.J.L.E.Q.A.JXGXGXHX|.Y.P.J.J.L.L.L.K.R.@X@XxXSXDXSXqXL.E.T.E.R.R.R.[.0XqX0X[.K.R.R.T.T.T.T.H.R.@X@XA.d.w.w.Y U U W M.b.",
"x k @ l.0.0.9.0.g.L.@X&X$X$X@X$X@X&X&X@X@XxXgXgXcXP.L.E.L.E.E.E.A.LXIXLXE.R.R.R.R.@X@X@X@XL.Y.Y.U.gXhXhXhXjX-X=X*X@XK.H.J.S.L.E._.$.$.$.-.+.&.-.A.G.G.G.L.E.E.E.R.E.R.E.&X=X&X@X].].$.+.+.+.-.&.$.[.P.J.G.L.@X$X&XQ.I.F.E.*X*X$X@X@X@X&X&X*X&X&X*X$X&X&X&X*X*X*X*X*X*X*X*X*X*X*X*X*X*X*X*X*X*X=X&X&X&X#XE.E.E.E.J.S.N.v.u 0 0 % < < < < , = , 1 1 1 1 1 1 1 1 1 1 1 1 1 - - - 1 - - - - - - - - - 1 1 1 1 5 7 5 5 l l g g g g g g g g l 1 t l l l t t t t r y a a n.b.N.N.D.D.J.J.J.J.J.E.E.#X#X#X$X$X*X*X*X*X*X*X$X&X&X*X*X*X*X&X&X*X$X$X$X*X$X$X@XR.R.E.E.E.&X&X&XQ.M.Q I.Q.T.E.E.H.L.L.F./.] ) A S ) W I.Y.Q.Q.E.E.E.@X@X@X@X@X@XE.T.T.L.K._.>.+.+.&.$.$.$.L.R.L.J.G.J.J.#X#XQ.A.ZXCXCXAX|.Y.Y.P.L.].].].K.R.@X@XnXLXFXLX0X@X@X@X@X@X@X#XnXNXNXNXxXL.E.R.@X@X@X@X@X@X@X@XA.e.u.0.8.8.8.K x m.",
"x x @ p.u.0.9.8.g.L.@X&X$X$X&X&X@X&X&X@X@XlXgXgXcXP.L.E.E.E.E.#XA.LXJXIXE.R.R.R.R.@X@X@X@X[.sXsXs.gXx.hXhXjX-X*X$X$XR.H.H.S.L.K.$.2.&.&.O.+.-.-.c c c c ].#X&X&X#X#X&X#X&X@X@X@X].].$.+.+.+.-.-.$._.G.D.D.D.].*X*X5XE.E.R.*X&X&X$X$X*X*X*X*X*X*X*X*X*X*X*X*X*X*X*X*X*X*X*X*X*X*X*X*X*X*X*X*X$XL.F.S.N.b.b.v.v.v.q 0 r r w < 1 , - - - 1 - - g g g g g g g g g g g g g g o o o o o o o o O O O O O o o o o o o o o h h h h h h h h g g g g g g g l l l l l t t t t t a a i i u a q 0 u a n.v.D.F.L.$X$X*X*X*X*X*X*X$X&X&X*X*X*X*X*X*X*X*X*X*X*X$X$X$X@X@X@X@X@X&X&X&XS.b.m.F.W.T.T.T.J.J.J.I.~.] _ A S A W /.I.P.P.P.Q.E.@X@X@X@X@X#X#X].Z.Z.G.$.+.+.+.+.O.&.=.].E.L.J.J.J.L.-X4X-X|.ZXNXZXZXsXsXlXP.E.].].].K.@X@X#XSXLXFXLXqX@X@X@X@X@XR.].SXNXNXVXqXE.E.E.@X@X@X@X@X@X@X@XA.p.u.u.9.8.8.K x m.",
"x n @ p.9.0.9.0.f.P.@X@X@X@X@X&X&X@X@X@X@XxXNXNXmXP.L.L.L.L.L.#XA.LXJXLXL.E.E.R.R.@X@X@X@XP.dXh.h.x.hXx.x.gX9X=X&X$X@XK.K.H.K.K.$.,.+.O.O.+.+.-.&.&.&.&.`.%X&X=X=X=X&X&X&XJ.L.E.]._.=.+.+.O.$.=.$.A.D.D.P.D.J.$X*X*X*X*X*X*X&X&X$X&X*X*X*X*X*X*X*X*X*X*X*X*X*X*X*X*X*X*X*X*X*X=X=X=X-X#XE.E.Q.F.m.m.y y y y l l l l l l g h h h h h R R R R W W ) ) ) Z U U U U U Y Y Y Y Y Y I I T J T T T T T T T T T T T T T T T T Y Y Y Y U U Z Z M M M M M R R R R R R k h h h l l l l l g 1 1 t t t s m.m.F.P.L.#X#X&X&X#X&X&X&X@X*X*X*X*X*X*X*X*X*X*X*X*X*X$X$X$X&X&X@X&X&X&X#XQ.E.&X&XE.Q.J.D.D.F.M.W ] V V C V ) W I.Y.F.F.F.P.#X%X%X%X#X%X%X.X=.&.&.+.+.+.+.+.+.+.=.].].E.E.E.E.#X=X-X9XcXBXVXZXCXjXjXmXP.L.E.#X].].@X@X].SXIXFXLXqX#XE.@X@X@X@X].SXFXNXSX0XE.@X@X@X@X@X@X@X@X@X@XA.p.u.u.9.9.8. .x m.",
"x k k p.9.8.0.0.g.L.@X@X@X@X&X@X#X@X@X@X@X[.A.A.G.L.L.L.L.L.L.].|.IXIXLXL.R.E.E.R.@X@X@X@X].g.h.f.h.h.dXdXjX|.&X&X@X@XK.].K.K.K.$.4.,.-.-.>.,.-.&.&.&.&.$._.E.#X#X#X&X=XE.S.D.J.L.[.$.-.-.&.$.A.P.P.J.J.J.L.E.=X*X*X*X*X*X*X*X&X*X*X*X*X*X*X&X&X*X*X*X*X*X*X*X*X=X&X#XE.J.N.v.u q 0 0 0 0 w w w 1 g g g g h h R R M M M Z Y Y Y Y Y Y J J J I I I I I I I I I I I I I I I I I I I I I I I I I I I P I I I I I I I I I I I I I I I I I J J J I J J T T T Y Y T T Y U ) ) ) ) ) ) ) W W W W R x x m.m.m.m.m.n.m.v.V.F.J.Q.E.&X=X*X*X*X*X*X*X*X*X*X*X*X&X$X$X$X&X&X&X&X&X&X&X&X$X#XJ.D.F.D.F.V.x Q E E ~ Z W W I.Y.F.F.F.F.#X%X%X].K.K.Z.2.-.&.&.-.-.&.$.$.$.$._.#X#XE.E.#XE.#X=X-X0XcXkXBXZXNXjXjXmXP.L.E.#X#X@X@X@X].SXLXJXLXvX#XE.R.@X@X@X@X0X9X|.[.9XE.#X#X@X@X@XR.@X@X@X@XA.l.p.u.0.8.8.K x m.",
"k n k p.0.8.0.7.g.L.@X@X&X&X&X%X-X].R.R.R.K.L.J.L.L.L.L.L.L.].[.nXSXSXLXL.E.E.E.R.@X@X@X@X].s.h.f.h.{ /./.sX[.&X@X@XR.K.K.K.K.K._._.$.$.=.&.-.&.&.&.&.&.$.Z.J.J.J.J.E.E.E.S.D.J.L.G.'.$.$.$.A.A.A.P.J.L.L.L.E.&X*X*X*X*X*X*X*X&X*X*X*X*X*X*X*X&X*X*X*X*X*X*X<X=X=XQ.S.b.v.0 w , = - = , - - - g o h O M M Z Z Y Y Y J J J J G J G G J G L I L L I I I I I I L L L I I I I I I I I I I I I I I I I L L L L L I I I I I I I I I L I I L I I I I I I I I I I I I I J J Y Y Y Y Y Y Y U U Z Z Z h h l l l l t s s m.s m.b.V.F.T.E.=X=X=X*X&X&X&X*X&X&X$X&X$X*X$X$X$X$X&X$X$X*X*X&X#XS.F.D.S.D.V.M.M.k R R E W W I.Y.F.F.F.F.L.].K.G.K.K._.2.-.&.&.&.$.c c Z.A.A.L.E.E.E.#X#X#X#X#X-XqXfXmXsXsX|.gXgXlXP.E.E.#X#X@X@X@X#XxXSXIXJXSXL.E.@XR.R.R.R.K.L.L.#X-XE.#X#X@X@X@XR.@X@X@X@XA.l.u.u.6.7.6.K x m.",
"k k k q.P P P P s.L.@X$X&X&X&X%XaXaX8X1X1X&XR.R.R.E.E.L.E.K.].qXLXNXvXqXE.R.T.E.R.@X@X@X@X@XU.sXdXdXU.Y.Y.Y.Q.#XL.L.L.G.J.J.J.J.P.G.A.A.D.Z.2.&.+.-.&.&._.G.J.J.J.J.J.L.|.Y.Y.A.F.P.C.C.b C.D.D.F.J.L.E.E.#X#X#X*X*X*X*X*X*X*X*X*X*X*X*X*X&X&X$X&X=X-X-X-X-XQ.P.V.M.l l g h h R R M W W M ) ) U Y Y I G G L L L I I I I I I I L I I I L L G G G G G G G G G G L L L L L I I I L L I I I I L L L G L L L L L L L I I I I I I I I I I I I I I I I I I I I I I I I I I J J J J J J J J Y J F Y U Z U Z Z D W W W W k x x x M.M.m.F.F.N.N.N.v.S.&X&X&X&X*X*X*X*X$X$X$X&X&X&X*X*X&X#XD.D.S.S.D.S.V.F.I.x l k M.I.F.!.F.D.B.B.G.K.K.G.G.]._.2.-.&.O.O.$.c C.C.A.P.P.Q.L.E.#X].#X#X-X-X9XlXY.P.P.U.sXsX|.E.E.L.#X#X#X@X@X@X].qXLXJXLXL.#X@XR.R.R.K.R.E.E.-XqXaXqX0XaXaX#XR.R.R.@X@XA.q.0.0.I Y F U x m.",
"x k k K P P P P s.L.@X&X$X&X@X@XqXqX0X$X*XR.R.R.R.R.E.K.K.K.0XvXNXSXvX[.E.R.T.T.R.&X%X@X%X@X-X9X|.|.Y.P.P.P.P.L.L.L.H.J.P.|.|.|.U.A.F.D.F.A.=.*.2.$.$.'._.G.D.D.D.D.D.P.lXsXlX|.V.V.C.C.d C.D.F.P.L.E.#X#X#X%X=X*X*X*X*X*X*X*X*X&X&X=X&X=X#X#X#XQ.n.0 r r r y t g R W ) ) Z Z J I I I I I I I I I I I L L L L I I I I I I I I I I L L G G G G G G G G G G G G G G G G G G G G G G G G G G G G G G G G G G G G J G G G G L L L L L L G G G G I I I I I I I I I I I I I I J J J J J J J J J J J J I I J I I I J Y U ) ) W W R k l l p s m.m.V.E.&X&X&X#X#X$X$X*X*X*X$X$X$X*X*X*X&XR.&X*X@XR.S.S.S.S.m.y m.m.F.Q.J.G.xXxXxXG.K.K.G.G.]._.$.$.$.O.O.$.c C.C.C.C././.U.P.[.[.[.].L.P.L.P.P.L.P.|.qXqX9X[.#X#X#X#X#X#X#XR.L.9XSXDXFXxX[.#XR.R.R.R.R.R.@X-XqX0XqXqX0X0X1XK.K.K.@X@XA.w.7.8.Y Y F ) s m.",
"x x k K P P P P s.L.@X&X$X$X@X].nXnXnX0X=X&X&XR.R.R.E.K.L.-XvXSXNXSX9X[.E.R.T.T.R.&X:X:X:X#X-X-X[.[.P.P.P.P.P.P.J.J.J.J.P.sXg.g.sXA.P.P.P.D.c $.$._.Z.Z.G.G.D.D.D.D.D.[.lXfXfX|.V.F.C.C.C.C.D.D.P.L.#X#X#X%X%X=X*X*X*X*X*X*X*X&X#XQ.Q.P.F.F.V.m.m.y t t e e l g h Z Z N F N H J G G I I L L L L L L L L L L L L I I I I I I I L I L G G G G G G G G G G G G G G G G J J J G G J G J J I J J J J J J G J G G G G G G J J G G I I I I G G G G I I I I I I I I I I I I I I J J J G J J G J J I I I I I I I I J J F F U Y Y Y U ) g l g j x x m.F.S.Q.Q.F.P.&X$X*X*X*X&X&X&X*X*X*X*X*X7X7X5X@XH.T.T.W.v.m.m.F.F.F.J.G.+XfXfXA.K.K.G.G.G.G.A.A.$.$.$.$.A.C.C.C.C.{ d. .U.P.P.P.P.P.P.L.P.L.L.P.P.Y.P.P.[.#X#X#X#XE.E.E.E.E.[.xXDXDXLXP.].#X@X@X@X@X@X&X0XaXqXvXvXvXbX0XK.K.K.@XR.A.w.0.0.I H Y ) x a ",
"x k k K P P P 7.s.K.&X*X$X$X4XnXFXFXJXbX8XiX1X&XE.R.R.R.-XvXSXFXFXvX#XE.T.T.T.T.T.E.4X4X4X:X#XL.L.L.L.J.P.P.P.J.J.J.J.J.A.g.e.e.g.m P.P.P.D.D.G.D.Z.Z.B.P.P.J.J.H.J.J.L.xXxXxXP.D.J.J.D.D.J.L.L.].#X#X#X#X#X%X=X=X5X*X*X5X&X&XQ.m.m.M.l l e l l l h h O h h R M Z J J F G G G G G G L L L L L L I L L G L L L I I I I I L L I I I L G G G G J H H H H H H H H J J G J J J J G G G I G G L J J J G G G G G G G G G J H G G J J G L L G G G G I I I I I I I I I I I I I I J J J G J J J J J J J J J J J I I J J J J J J J J Y Y Z U U U U U W l l M.m.s m.P.J.J.D.S.D.#X#X&X*X*X*X*X<X7X5X5X&X&X@XR.T.J.J.T.T.T.E.L.qX+X}.L.L.].].G.L.[.G.F.A.C.C.A.A.A.C.C.C.g.w.w. .I.Y.P.P.L.J.L.L.L.L.L.L.L.P.L.[.[.#X#X#X#X#X@XE.E.E.9XDXDXDXcXP.#X@XR.].].@X#XqXvXxXSXLXFXLXSXK.K.K.K.K.A.w.7.w.I J F M x m.",
"x k k U F P 7.7.s.H.R.&X*X;X0XLXKXPXFXbX4XaXqX0X#XK.E.T.qXnXFXFXSX[.#XE.T.T.T.T.E.L.4X4XyX4XK.K.J.L.R.L.L.P.P.P.L.L.J.P.U.g.e.e.g.m A.A.P.D.D.G.G.G.Z.B.G.L.#X=X=X=X=X=X%X%X%X=X&X$X*X=X#X#X&X&X%X#X#X#X#X#X%X%X=X=X=XE.S.V.m.m.l l g g g g g h h Y Y Y Y J Y Y J G G L G G G G G G L L G L L L L G G G G G L L L L L L L L L G G G G G G G H H H H H H H H H H J J J J J I I I I I I I G G G G G G G H H H H G G G H H G G G J J J J J J J G G G J I I I I I I I I I I I J J J J J J G G J J J J J J J J J J J J I J J J J J Y J J J J J M h l l l g 6 t t a m.m.V.Q.#X=X=X*X*X*X5X<X7X5X*X*X*X*X*X&X*X*X*X*X*X*X=X%X=X*X*X*X*X@XE.#XD.C.V.V.V.F.F.F.I.U.m g.7.w.K { U.I.J.J.L.L.L.L.L.L.L.L.L.Q.].#X#X#X#X#X#XE.L.E.E.L.SXDXDXSX0X#XE.E.L.aX[.xXxXxXqXLXLXIXIXSXK.K.K.R.K.A.w.7.w.I J F D s y ",
"x x W T F I 6.7.s.H.R.@X*X*X:XnXnXnXaX#X=XxXnXcXxXP.G.L.vXSXFXSXSXP.Q.E.L.H.J.G.G.Z.:XyXyX8XK.K.J.L.T.L.L.L.[.].].].L.[.|.q.e.0.g.%.|.+X|.F.G.G.G.G.G.G.D.J.K.=X;X<X*X*X=X*X*X=X$X*X*X*X$X*X*X*X*X&X#X#X#X#X%X=X=X*X=XS.y y t l g g O O R R R R M Y G J J J J J G G G G G G G G G G L L L L L L L G G G G G I L L L L G L L L G G G G G G D D D U U Y H N N N  .dX .U U U K K K  .T  .d...J J F F F F F N N H F K K F N H F K K K K J J G G G G G J J I J G I I I I I I I J J J J J J J J J J J J J J J J J J J J J J J J J J J J J J J J M h h h g o g g - l x x M.P.Q.-X=X=X<X*X5X<X7X5X&X*X*X*X$X$X*X*X*X;X*X*X*X*X*X*X*X*X*X&X#XE.D.F.V.V.C.F.F.F.%.s.s. .7.7.K { { I.L.P.L.L.L.L.L.L.L.L.L.L.L.#X%X#XL.P.P.L.G.L.E.L.vXLXDXSXxXL.G.G.Z.nXSXSXxXaX9XqXxXnXSXnXK.R.K.R.R.A.w.w.e.I F F D x a ",
"x k D 0.6.0.9.e.g.E.*X&X$X*X$X@X#X@XR.R.6XnXFXZXGXNXcXxXvXSXnXqX[.E.E.-XvXLXLXLXLXLX[.%X4X%XE.T.T.T.L.R.%X%X%X%X%X].].[.|.q.e.e.s.fXfXfX|.P.P.J.G.G.G.G.G.G.L.=X=X=X=X*X*X*X*X*X*X*X*X*X*X*X*X*X=X&X#XQ.Q.P.P.P.P.F.C.x h k W W U U T T T T I T T J J J J J J G G G G G G G G G G G G G G I I I I I G L G G L G G G G G G G J J G G G F D IXPXIXIXIXIXg.N N N { UXUXPXPXIXPXPXPXPXPXIXUXAXN D HXPXKXKXB B B B AXUXUXg.Z Z dXKXPXPXAXF H H H J J J J G J J G J I I T T I I J J J J J J J J J J J J J J J J J J J J J J J J J J J J J J J J Z ) | Y T T ...... .....} /.I.Q.Q.Q.Q.Q.W.T.5X&XE.*X$X*X*X$X*X*X*X*X*X*X*X*X*X*X*X*X*X#XQ.W.D.D.F.D.J.T.J.D.s.i.i.D K K D { { Y.P.L.#X%X#X-XL.E.L.L.J.L.L.E.#X[.SXSXLXLXLXG.].#X].vXLXDXcXvXSXSXNXSXSXSXaXqXE.E.K.K.R.@X@X@X@X@X@XA.f.e.0.e.8.0. .p y ",
"x x D u.u.u.u.e.h.E.@X@X@X@X@X@XR.@XT.E.9XnXZXZXHXGXNXNXvXaX-X#XE.E.E.-XxXFXFXFXFXFX[.L.L.R.E.R.R.R.R.#X%X:X:X%X].%X].#X|.m m %.%.fXfXcX[.#X#X#X#X].].].#X%X%X=X*X*X=X*X*X*X*X*X*X*X*X*X*X*X&X&X*XQ.V.s t t < < < - W ) U U U Y J J I I I I I I I I J G G G G J G G J J G G G G G G G G L G I I I I G I I I I I I G G J G J J H G G F jX@ IXPXIXIXIXIXsXB N N W UXUXPXUXPXPXPXPXPXPXIXUXHXN M KXPXPXKXB B B M HXUXUXg.M M dXKXPXKXAXF N N F H H J J J J J I I T ..h.h.d.T J J J J G J I I I I J J J J J J J J J J J J J J J J J H J H J J J T I I I I T I I I I T T } k y y t r y m.b.V.F.F.#X%X=X&X*X<X*X*X*X*X*X*X*X*X*X*X*X*X*X&X6XR.L.E.#X&X*X&X#Xs.p.i.{ k k m U.U.[.-X#X%X=X%X%XE.E.E.E.E.E.L.E.#XqXSXNXNXDXSXP.E.#X$X].9XnXvXSXNXNXMXDXDXSXqX0XE.E.E.R.R.R.@X@X@X@X@X|.l.p.u.0.9.9. .p r ",
"M.x D u.u.u.u.u.h.E.@X&X@X@X@X@X@XR.R.@X-XSXJXJXJXJXFXFXxX-X6X&XE.E.E.-XvXFXFXFXFXFX[.L.K.E.E.E.@X@X@X#X%X:X:X:X].%X%X%X[.D.A.P.|.fXfXxXL.&X&X=X$X%X%X%X%X%X=X%X*X=X=X*X*X*X*X*X*X*X*X*X*X#XE.E.E.F.m.1 - - 1 1 1 g ) Y J F F G G G I I I I I I I J J J G G G G G G J J G G G G G G G G I I I I I I G F jXjXjXh.g.T K K F H F F G G F CXCXIXPXIXIXIXIX{ Z B V M UXUXUXUXPXPXPXIXPXIXIXIXHXB M KXIXKXKXB B M M KXUXUXg.M M dXKXPXKXAXN N N N F F H J J J J T ..jXAXHXHXVXjXT J J J J J I I I I J I I J J J J J J J J J J J J J J H H J J J J I I I I I I I I I I I J U h l g g g g l x M.M.F.#X#X&X&X*X7X<X<X*X<X<X<X<X<X*X*X*X*X*X*X*X*X=X&X$X*X$X*X#XsXl.k.m M.F.I.I.Y.[.#X%X%X=X=X=XE.#XE.E.E.E.L.#X#XqXSXNXNXNXvXP.#X#X@X%X&X[.xXSXNXNXMXSXDXSX0X=X@XR.R.@X@X@X@X@X@X@X@X|.l.p.u.u.u.9. .t r ",
"M.x D p.u.u.0.p.k.R.@X@X@X@X@X@X@XR.R.R.@XL.[.[.[.|.|.SXSXvX0X#X#X#XE.-XvXSXSXnXSXSX-XR.E.R.#X#X@X&X&X#X%X%X:X:X%X%X:X:X#XH.H.T.[.aXaX8X@X&X=X%X%X%X$X%X%X%X%X%X%X=X=X*X*X*X*X*X*X*X*X5XQ.a y q a t g h O O O O O R ) Y J G G G G G G J J J J J J J J J J J J J J G G J G G G G J J J J T T d.h.h.d.F U PXIXIXIXJXJXGXGXW U H H H F jXgXkXLXIXPXPXIXPXkXhXY V M HXPXKXKXPXPXPXKXPXJXPXJXBXB M KXUXIXHXB M M M PXUXUXg.M M g.KXIXKXBXN N N N F F F H H H O s.IXIXIXIXIXIXUXK I J J H M BXCXBXBXCXkXjXdXh.d.d...T T J J J J G G H H H H H J J J J I J I J J J J J J H Y Z ) ) ) U Z ) ) W W M.!.!.F.Q.Q.8X5X5X*X<X*X<X<X<X<X*X<X*X*X*X*X*X*X*X*X*X*X*X&XA.U.I.F.F.F.F.P.[.[.%X%X%X=X=X=X&X&X#X#X#X#X#X#X&XqXnXnXnXvX9X[.[.#X#X#X[.xXNXFXFXSXnXqXqX[.%X%X@X@X@X@X@X@X@X@X@X@X@X|.l.p.p.u.0.0. .x y ",
"x x @ P 7.P K K s.R.@X@X@X@X@X@X@XR.@XR.R.@X#X#X#X-X-XxXIXFXSX}.0X4XE.E.L.L.R.K.L.L.E.R.#X&X&X&X&X&X=X=X=X-X-X-X#X#X1X1X=XH.H.T.T.H.T.H.T.&X=X%X%X%X%X%X%X%X%X%X%X=X;X*X*X*X$X$X*X=XT.F.n.t 1 l g W M Y Y Y Y Y Y Y Y H J G G G G G G J J J J J J J J J J J J J J G J J G I J T jXjXBXCXCXAXAXZXBXh.M Z PXIXPXPXJXJXJXJX. U N H H K AXCXAXGXZXCXGXKXHXCXkX..V B Z B B Z KXKXKXKXO M B M B B D KXUXPXKXB M M M PXIXIXg.M M dXPXPXKXBXN N N N N F H F F B . zXIXIXIXIXIXIXUXU T T Y A M CXAXAXHXHXHXHXHXKXPXPXPXPXdXJ J J J J G H H H H H J J J J J J J J J J J J J J J J J Y Y J J Y Y A ) z l l l y y b.b.b.=X<X<X<X<X<X<X<X<X*X*X*X*X*X*X*X*X*X$X@XT.S.F.F.F.F.F.F.P.[.-X-X-X-X-X-X=X=X=X=X&X=X&X=X&X&X#X#X#X].].#X#X#X@X].[.SXNXFXFXxX[.=X=X=X=X%X%X&X@X@X@X@X@X@X@X@X@X@XA.q.w.w.K K U D x m.",
"x x @ 7.P P K K { R.@X@X@X@X@X@X@XR.R.R.@X&X&X&X#X-X&XqXJXZXFXcXxXaXE.E.T.E.R.E.E.E.E.@X#X&X&X&X&X&X=X=X=XK.H.T.T.T.=X1X=X#X#XR.H.S.S.H.H.#X=X*X=X%X%X%X%X%X%X%X%X=X%X%X%X%X%X*X*X=XN.t g h h h M Z A N H J J J J J J J H G G G G G G J J J J J J J J J J J J J J I  . .d.h.dXjXVXVXGXGXGXGXZXVXBXdXM U PXIXPXIXJXJXJXPX  d.F H H d.GXAXCXD D D  .{ HXKXBXh.| A N N N N KXKXKXKXM B N N N B D KXUXUXHXB M M M PXIXIXg.M M dXPXIXKXBXN N N N N F N N N B { PXIXIXIXIXIXIXKX .h.h.Y A M CXCXAXZXGXZXHXKXUXUXUXUXUXjXH F K K K K F H H H J J J J J Y J J J J J J J J H J J J J J J H H H A ) z l g g g e t y y =X<X<X<X<X<X<X<X<X*X*X*X*X*X*X*X*X*X&X@XT.S.S.F.F.F.F.P.P.[.].L.L.G.G.G.E.=X=X*X*X*X=X=X*X&X#X#X#X#X#X#X].#X#X[.xXNXFXFXFX0X-X=X=X=X%X%X%X&X@X@X@X@X@X@X@X@X].@XA.d.w.w.T U U W x s ",
"x M.k P 7.P K K { R.@X@X@X@X@X@X@X@X@X@X@X&X&X&X#X#X[.qXIXGXFXFXFXSXG.E.T.E.E.R.E.@X@X&X@X@X&X&X&X&X&X=X=XH.T.T.T.T.#X=X=X%X%X*XR.T.T.T.E.&X#X=X=X=X=X%X%X%X:X%X%X=X-XL.V.V.V.V.D.V.k ) | Y Y Y J J J H J J J J J J G G H J J J J J J J G H F J H H J J J J J H J g.JXJXJXJXJXJXGXFXFXJXJXJXGXZXkXgXD U HXIXJXKXKXGXJXKXKXh.N N H h.AXCXBXZ A A A Z CXKXHXAXjXN N N N N AXKXKXHXD B N N N N D KXUXUXAXB M M M PXUXPXg.M M dXKXPXKXBXN N N N N N N N N dXUXUXPX .}  .g.gXCXCXBXBXY A B BXCXCXCXCXHXHXPXUXUXUXUXUXjXN g.HXPXPXPXg.N H H J J J Y J Y J J J J H H H H H J J J J J J H J H Y Z ) ) W ) ) ) } } W 9X=X#X#X#X#X#X#X&X*X*X*X*X*X*X*X*X*XT.R.R.T.S.F.P.E.Q.#X#X$X].G.G.G.D.D.L.&X&X=X&X=X=X=X=X=X&X&X#X#X#X#X].].[.SXFXFXFXFXFXxX-X=X=X=X%X&X%X#X@X@X@XR.R.R.@X@X@X@XA.q.w.w.T U U W x m.",
"x M.m w.7.P P K { L.@X@X@X@XR.R.@X@X@X@X@X%X$X&X[.nXSXSXJXZXVXVXFXFX[.-X#X#X@XL.].#X#X@X#X#X#X#X&X&X=X=X=XH.T.J.J.H.-X=X=X%X%X%X#XR.@X@X&X=X=X=X=X=X=X=X=X=X=X=X=X-XV.y 1 1 1 1 t t W Y J I J J J J J J J J J J J J H H H G H J J J H J J J F J Y H J H J J J H H D JXJXJXJXJXJXJXJXGXJXGXJXGXBXkXjXjXd.jXBXjXg.g.g.AXKXHXgXF N H h.CXBXBXM A A N Z jXPXKXGXjXA N N N N BXKXKXAX{ Z N N N N g.KXPXUXCXB M M M PXUXUXg.M M gXAXKXHXBXN N N N N N N N B BXPXKXAXY A A Z U BXBXBXBXA A V | Z B dXBXBXCXKXUXUXUXUXUXdXM s.AXPXPXPXU N N H Y J Y Y T Y Y Y Y H H H H H H J J J J J J J J J Y Y J T T I I I I T } s m.m.a a m.m.F.P.=X=X=XE.=X*X*X<X*X=X=X=X&XE.E.E.*X*X$X$X$XL.G.G.G.D.D.L.#X#XE.E.E.E.#XE.#X#X#X#X#X#X#X[.qXFXFXJXFXFXFXFXNXNX0X-X=X%X#X#X#X#X#XR.R.R.R.R.@X@XR.A.q.w.q.P K U W M.m.",
"x M.m w.7.P P K { E.@X@X].@XK.K.K.K.K.H.K.K.%X#X[.LXFXFXGXFXJXFXFXSX|.9X].G.G.Z.Z.Z.H.H.G.G.G.G.G.G.G.H.E.H.T.T.T.H.#X=X&X=X%X%X&X@X@X@X#X=X=X=X=X=X=X=X-X#X-X-XQ.V.t l g g g g l l W A J G J J J J J J J J J J J J H H G G G G J J J J J h.h.h.h.T J H J J J H H D KXJXJXJXJXJXJXJXAXCXCXkXjXjXkXjXgXh.h.x.h.K T K AXKXKXBXU H H h.BXBXBXZ Z A A Z h.PXKXJXjXA N N N N kXKXKXAX} Z N N N N g.KXPXUXCXB M M M PXUXUXg.M M gXAXKXKXBXN N N N N N F N M AXJXJXCXY A A A Z AXBXCXBXA A C S A N dXBXBXBXAXUXUXUXUXUXdXM s.HXKXKXKXM N N H Y .. . .U U U U Y Y H H H H H J J J J J J J J J Y J J I I I I I T T } m.m.y t t x x M.C.F.F.F.S.=X<X<X<X=X<X<X*X*X$X@X@X*X*X$X$X$XG.G.G.D.D.D.G.G.D.S.S.S.S.G.S.G.J.J.J.J.L.L.[.|.JXGXJXFXFXFXNXNXmXxXP.J.H.H.H.L.K.L.H.H.L.H.K.K.K.R.A.w.w.w.T U U W x s ",
"M.M.k w.7.P P P { J.R.R.].K.K.K.K.K.K.K.H.L.[.0XcXNXFXFXSXnXaX}.}.nXSXSXG.G.Z.Z.Z.Z.G.H.H.G.G.B.B.B.B.B.B.S.T.T.J.J.H.J.R.=X$X=X&X&X&X&X&X=X=X=X=X=X=X=XL.b.m.a s h R M M M M Z ) ) ) U Y J J J J J H J J H J J J J H J G J J J H H J J I kXAXCXkXU F H G G w.f.x.hXBXGXHXHXjXdX} U Z A Y T f.x.jXgXgXgXf.l.f.I I T BXHXKXAXU N Y h.BXkXBXU A A N N g.PXKXHXVXZ N N N H jXHXHXAX .N N N N N h.KXPXPXjXB M M M PXUXUXg.M M gXAXKXHXBXN N N N F F F N M AXIXIXBXY A A B Z AXAXAXBXA V N N N N gXBXBXBXBXdX~ E M o.M M g.HXPXKXKXB N N Z Z g.KXKXKXHXHXHXHXCXU H H H H J J J J J H J H J J Y J J I I I I I Y W z W W ) U U ) R x x x M.F.=X1X1X6X5X7X<X<X*X*X*X*X*X*X$X$X@XG.D.D.G.G.G.G.D.D.D.D.G.G.G.J.H.H.J.J.J.J.G.A.SXJXPXLX0X[.0XvXNXNXNXlXA.L.L.L.L.L.L.J.J.J.H.H.H.H.T.A.q.7.w.T U U W x m.",
"M.M.{ e.7.0.8.8.g.L.@X@X].].].].].].].].K.Z.cXNXNXNXcXvXaX3X2X2X;XnXFXFXxXG.G.G.G.G.G.H.K.G.Z.B.B.B.B.B.D.H.R.R.T.T.H.H.E.=X=X=X=X&X&X*X&X=X1X=X#XQ.E.L.C.M.l k h Z H J I I P I J H H H H F H H H H H H H H H H H H H J J F J F F H F H J kXCXAXBXd.F H J T kXBXkXkXkXkXd.Y A A A A A A A T f.h.gXgXjXgXh.l.f.T T T BXHXHXAX .H Y h.BXBXBX .A A N N  .PXKXHXVXZ N N N H jXHXHXAX .Z N N N N gXKXIXIXjXB M M M PXUXUXg.M M jXAXKXAXkXN N N N F F F N M BXJXJXjXY A A B D AXAXAXCXY N N N N N jXBXBXBXBXdXV V Z Z Z M g.HXPXKXCXN N N Z D g.KXKXKXHXHXHXHXAXU H H H J J J J J J J H H J J J J J J J J J J Y Y Y Y Y Y J Y Y R z l x x I.Q.Q.F.F.Q.7X<X5X*X*X*X*X*X*X*X$X$XH.H.K.L.].].G.G.G.G.G.G.H.K.K.K.K.K.K.].K.Z.cXLXIXLXqX1X=X=X0XSXNXVXVXcXY.A.[.G.[.].].].L.L.L.L.].@XA.e.0.e.P F F D x s ",
"M.x D 6.6.0.8.0.g.].%X;X;X;X;X;X:X3X3X4X4X0XSXNXNXNXNX4X$X$X<X7X;XLXFXFXLX[.].].].].].].].#X#X#X#X#X%X#X#X=X1X=X$X#X#X@X#X=X=X=X=X=X$X=X=X*X=X=XN.n.n.n.x x O R E Z H J I I I I J F J H H H H H H H H H H H H H H H H d.dXd.U F F H F H H jXZXCXCXh.F H F d.HXKXCXhXhXx.Y A N A N N N N N T d.x.jXgXgXgXx.x.f.T T T BXJXJXZX .H Y d.BXBXBXo.A A N N U PXKXHXVXZ N N N H jXKXHXAX .N N N N N gXKXPXPXdXB B M M UXUXPXg.M M hXCXHXCXjXN N N N F F N N M BXKXJXjXA A Z Z D AXAXAXBXY N N N N N hXkXBXBXBXo.S A Z Z Z M gXHXPXKXBXN N B dXBXBXHXHXHXHXHXHXHXCXZ H H H J J J J J J J H H H H J J J J J J J J J J J J Y J J Y Z R R M M W W M.m.M.m.P.5X<X*X*X*X*X*X*X*X*X$X$X#X#X=X*X1X1X=X#X#X#X#X@X%X].#X%X%X%X%X$X].[.LXFXJXLXqX:X*X&X-XqXNXVXVXBXs.%.|.'.[.[.].].].].%X%X%X%X|.e.0.0.7.P P D x x ",
"m.x W w.7.0.0.e.k.].$X$X].].].;X:X:X0X}.|.fXNXVXNXFXSX].@X&X*X<X$XLXFXIXLXlXvXvXxXvX%X1X$X&X*X*X*X*X=X<X1X7X7X1X*X&X=X=X=X=X=X=X=X=X=X=X=X=X1X-Xp t x x x R Y Y Y Y H J J J J J J H H H H H H H H H H H H H H H H H H dXPXZXCXgXU N H H N h.AXAXCXjXZ H F h.PXKXHXK Y A A A N N N N N N N T d.h.jXgXgXgXx.x.f.T T T BXHXAXAX .Y Y d.BXkXkXh.N N N N U HXHXHXMXZ N N N H dXHXHXAX .N N N N N gXHXPXPXdXB B M M PXUXUXg.M M hXBXAXBXdXN N N N N N N N M BXKXIXdXA A A Z  .HXAXCXBXY N N N N N hXkXkXkXkX| A A Z Z Z M BXKXUXPXjXB Z  .AXAXAXAXHXHXJXKXKXKXAXD T H H H F dXkXBXkXh.H H H H H J H H J H H H H H H J J J Y Y Z Y T w.w.w...k M.M.C.Q.6X=X=X5X5X<X<X*X<X<X*X*X*X*X*X1X1X1X1X*X;X;X;X1X1X$X1X1X;X4X:X}.qXcXLXJXIXLXxX%X#X#X$X#XxXVXVXCXl.f.s.|.|.}.[.[.[.[.%X%X%X%X'.e.e.0.6.6.6.K x s ",
"m.x { 0.0.0.e.e.k.].$X$X].].K.].%X].fXs.5.k.k.k.lXxXvX#X$X$X$X$X$XnXLXLXcXLXFXSXLXnX[.1X1X=X=X=X<X<X<X<X1X7X7X1X=X*X$X$X=X=X=X=X=X=X=XB.u v.D.A.W W W { { M J G J J J J J J J J J H H H H H H H H H H H H H H N N N N g.PXZXCXBX .U N N N U BXBXBXBXU H F dXKXKXHX .A A A N N N N N N N N Y ..h.jXgXjXjXgXx.d.Y Y T BXAXHXBX .Y Y T BXkXkXjX . . . . .VXKXKXMXZ N N H H h.HXHXAX .B N N N N gXHXKXJXdXB B M M PXUXUXg.M M hXBXAXBXh.N N N N N N N N M BXPXIXdXU Z M M s.HXGXAXBXZ N N N N N hXkXkXkXkXZ A A A A A M BXKXPXKXh.B Z kXCXAXBXg.| } o.dXjXBXCXZXAXY H H T kXVXZXZXjXY H H H H J J J H H H H H H H J J J J I T I P 7.7.7.U W W W W M.b.v.a v.*X<X<X<X<X<X<X*X=X=X=X1X1X1X1X;X;X1X1X1X1X3X3XyX3X1XnXSXFXIXSXSXSXSXqX$X&X=X*X#X|.FXNXmXl.p.l.s.|.|.[.[.[.[.#X%X%X%X|.e.p.e.8.8.8. .x s ",
"n n D e.e.e.e.e.k.].;X;X].G.L.-X9X[.gXi.i.i.p.s.9X-X-X#X$X$X$X$X$X#X0X0X|.LXFXSXLXnX].1X1X=X=X=X1X1X1X1X1X7X7X1X=X=X%X%X=X=X=X=X=X=X=Xu i i u n U U Y T } M J J J J J J J J J J J H H H H H Y .. .U U U U U  .Z N N N  .PXGXCXBXh.U A A A D BXBXBXBXU H F dXKXKXHX..A N N N N N N N N N N Y T h.jXjXjXjXgXjXdX . . .BXAXAXkXd.Y Y T BXBXBXHXHXHXKXPXPXPXKXPXDXZ N N N H h.HXHXAX .Z N N N N gXHXJXJXdXB B M M PXUXUXg.M M hXBXCXBXh.N N N N N N N N M BXPXIXPXPXKXKXPXUXHXHXAXCXZ N N N N N hXkXkXkXkXN N N N N N M CXKXKXHX..B M CXCXBXBXg.S S A B B kXGXHXCXY H H d.BXVXZXZXjXY H H H H J J J J H H H H H H J J J J I I I I P 7.7.Z U Y Y } k p p x C.&X<X<X<X<X<X<X*X=X=X=X1X1X1X1X;X;X1X1X1X4X8XyXyX3X%XSXNXVXJXxX0X4X4X%X*X*X*X*X@X[.lX|.|.l.p.p.s.s.|.|.[.[.].%X%X%X%X'.p.p.u.8.8.8. .x s ",
"n n D e.e.e.0.0.k.].;X;X%XG.G.[.s.s.k.e.e.e.e.g.[.-X#X$X@X&X&X&X*X$X$X$X9XIXFXFXFXnX].1X1X-X=X=X1X1X1X1X1X8X7X1X=X=X=X=X%X=X%X%X=X%X#Xn.p j j k Y I I I T Y J J J J J J J J J H J H H H H H  .KXPXJXJXPXIXIXIXO Z N N U AXAXAXBXkXdXU Y Y U BXBXAXBXh.Y Y h.KXKXHXdXA A N N N N V V B N N Y h.jXkXkXBXBXBXBXHXHXAXHXCXCXBXU Y Y Y Y BXBXBXKXIXUXIXIXUXPXPXPXDXZ N N H H h.HXHXAXg.Z N N N N jXHXJXKXg.B B M M UXUXUXh.M M kXBXCXBXh.N N N N N N N B M kXIXUXUXUXUXUXUXUXPXHXAXBXB N N N N N kXkXkXkXkXN N N N N N D HXKXKXBXU B D AXAXCXBX .S S S A Z AXCXZXCXY Y Y jXZXZXGXZXdXY H N N H Y Y Y J H H H H H H J Y Y J J J J J I T T Y T I I T U R W k I.#X<X<X<X<X<X<X<X*X=X=X1X1X1X1X=X=X1X1X1X:X8X4X8X4X%XLXFXSXLXqX*X*X*X*X*X*X*X*X$X%X[.[.|.l.p.p.e.t.5.s.|.[.#X%X%X%X%X|.p.p.p.9.8.8. .p y ",
"n n D e.0.0.0.e.k.{.;X;X;X].].|.q.0.e.0.7.0.0.g.P.#X#X@X&X&X&X$X$X*X$X$X[.LXIXLXLXSXL.J.H.J.J.L.1X1X1X#XG.G.G.H.G.H.G.K.%X=X=X-XQ.P.V.k W U T U Y I I I J J J J H H H H H H H H H H H H H A Z KXPXJXPXPXIXIXUX. M N N B HXAXAXAXBXgXg.U Z U jXBXAXBXkXF Y g.KXHXJXjXA N N N N N V B B B A d.kXkXBXBXBXBXAXAXHXHXHXKXHXgXZ Y Y H H ..AXBXBXKXIXUXUXIXUXPXPXPXDXZ N N H H h.KXGXGXg.N N N N N jXHXKXKXg.Z B M M PXUXUXh.M M kXBXCXBXh.N N N N N N N B M kXPXUXUXUXUXUXUXUXPXHXAXBXZ N N B N N kXkXkXkXkXN N N N N A g.AXHXHXkXZ Z  .CXAXCXBXU S S S A g.AXCXZXCXY H Y BXZXGXGXGXgXT H N N N BXjXdX .Y H Y Y H H J Y Y J J J J J J J J Y T I I T Y T ..U k Q.&XL.L.=X<X<X*XH.J.H.J.J.J.L.L.#X:X1X1XK.J.H.H.R.K.SXLXLXLXaX$X*X@X$X$X$X$X$X$X%X[.[.|.e.e.e.0.0.i.i.s.|.%X=X1X:X1X'.l.p.u.9.8.8. .p a ",
"n n D e.0.0.0.e.k.{.>X2X>X;X;X'.f.0.0.0.0.0.0.g.Y.#X#X$X&X&X$X$X$X$X$X@X-XvXcXvXvXaXE.J.J.J.H.J.1X1X1X#XG.D.G.G.G.G.G.H.=X=X=XJ.i 0 x O ..T I I J J J J J F H H H H H H H H H H H H H N N jXCXPXPXIXIXIXIXIXJXzXjXN N Z HXAXAXAXBXkXx.q.d.U dXkXCXAXBXF Y ..KXJXJXjXA N N N N B B M } M B d.kXkXBXBXCXCXAXAXHXHXHXKXHXO M A A A Y d.HXBXBXKXPXUXIXIXUXPXPXPXDXZ N N N N h.HXHXHXg.Z N N N N jXHXKXKXg.B B M M PXUXUXh.M M kXBXCXBXh.N N N N N N F M O BXPXUXUXUXUXUXUXUXPXHXAXBXZ N N N N Z kXkXkXkXjXN N N N N Z jXAXHXHXh.Z B jXCXAXVXBXY S S S A jXAXCXCXAXY H ..BXZXZXZXGXBXT N N N F HXGXCXBXh.H H H H H J J J J J J J J H J J Y I I I J Y T w.Y W s v.b.u #X<X<X*XS.D.D.J.J.J.L.L.#X:X:X1XH.J.S.H.H.K.aXqXqXqX4X=X&X#X#X$X@X].].].].].].m 7.7.7.w.0.u.i.j.'.1X1X1X:X1X[.l.p.p.9.8.8. .s a ",
"n n D e.0.e.0.e.k.:X;X>X2X2X2X}.s.q.D q.7.7.7.q.Y.#X#X#X#X&X$X$X$X$X$X@X].L.L.L.@X=X&XH.J.H.J.J.=X1X1X#XJ.H.H.H.H.J.H.K.=X*X=XN.r - h M Y I G G J J H H H H H H H H H H H H H H H H N N N dXPXPXPXJXJXPXPXZXZXBXkXU N N CXAXZXGXCXCXkXgXk.K  .BXAXAXAXU Y T HXJXAXCXY A S Y d.jXHXKXAXM B d.kXBXBXBXAXAXAXHXHXHXHXHXHXO M B A N N h.AXCXAXKXKXPXUXUXUXPXPXJXVXZ N N N N h.HXHXHXg.Z N N N N jXHXKXJXg.A B M M PXUXUXh.M M kXBXAXBXh.N N N N N N F M O AXUXUXUXUXUXIXPXUXHXAXAXkXB A A N N U kXkXkXkXh.N N N N N M CXAXHXCXU A Z BXCXAXCXBXS S S S U BXHXCXCXBXY Y jXZXGXGXHXGXAXT H N A U HXCXAXGX..A N N N Y Y Y J Y Y Y J H H H H N H H H H J w.w.Y _ X.k y q E.<X<X*XS.D.D.J.J.J.L.L.L.%X%X1XJ.J.J.H.H.H.6X#X#X#X#X&X$X&X$X@X].].].@X].].L.m 7.6.7.P q.i.i.j.}.1X1X1X1X1X[.l.p.p.0.8.8.D s m.",
"n n @ K P 7.7.w.s.%X;X;X<X<X<X;X|.s.q.K 7.7.7.q.U.!.9X-X#X#X$X$X$X$X$X$X@X@X@X#X@X=X=XL.K.L.K.E.#X&X#XT.H.H.H.H.H.H.K.K.=X*X=Xv.3 g [ Z Y J J J J J J H H H H H H H H H H H H H N N N jXCXCXIXZXg. .U U D gXZXCXCXh.N N dXHXHXGXCXCXAXBXBXjXD kXAXAXCXU H Y CXAXAXCXY Y d.kXCXHXAXAXAX{ M ..BXBXBXBXBXAXAXHXHXHXHXAXBX{ B N N N N h.AXAXAXD Z M M M M VXPXKXHXZ N N N N h.GXGXGXg.Z N N N N jXHXKXJX .A Z M M PXIXUXdXM M kXBXAXBXh.N N N N N N H M O AXUXPXCXdXdX} { s.HXAXAXkXB V B N N Y kXkXkXkXd.N N N N Z D BXAXHXAXZ N Z BXCXCXCXjXS S S S  .BXHXCXCXjXA Y AXZXHXGXGXGXAXU H N Y jXHXHXZXAXU A N A A | Y Y Y Y Y Y H H H H N N H H H Y Y w.w.Y S _ W r q G.*X*X*XH.D.G.J.J.L.L.L.L.%X%X=X#X#X#X#X#X#X#X#X#X#X#X&X$X&X&X@X@X].].@X].@XL.m K P P T { s.%.|.4X1X1X1X1X<X[.f.p.e.P P T } m.b.",
"n n k U F J I T s.%X$X;X<X<X<X;X%X[.%.s.q.7.q.q.{ /././.Y.#X$X$X$X$X$X$X$X$X@X@X@X%X%X#X6X8X4X-X1X1X1X1X=X=X%X%X%X=X=X&X=X<X1Xu $ g _ S A J J J J J H H H H Y Y Y Y Y Y U U } U A N N HXPXJXIXBXZ Z B N N h.ZXZXZXkXH N  .AXJXGXZXAXAXAXAXAXU gXAXAXCX .Y Y BXAXGXCX| Y h.kXCXHXAXAXAX .M U BXBXBXBXBXAXAXHXAXAXCXBXBXdXZ H H A A h.AXAXAX .A Z V B B JXPXKXJXZ N N N N h.GXGXGXg.Z N N N N jXHXPXJXg.A Z M M PXIXIXdXM M kXBXAXBXdXN N N N N N H M O HXUXPXjX) ) Z M dXHXAXAXjXB V B N N T kXkXkXkXT N N N N Z s.AXAXHXCXZ N Z BXBXCXAXo.S S S A h.BXHXZXCXD A U HXGXGXGXGXZXCXU H N U BXAXHXZXBXZ N A A A dXdXg...| Y Y H H H N N N H H H Y Y w.w.Y _ _ ) r * G.*X*X*X&X#X@X#X#X#X%X#X%X1X1X1X1X1X=X*X&X#X&X#X&X#X#X&X&X*X*X$X@X@X@X].[.Y.Y.m  .T K  ./.U.[.[.:X1X;X;X*X*X[.q.0.0.P H H } m.b.",
"n n { F J J I P s.#X*X*X<X<X<X<X;X;X=X|.W W M D { X.X.X.(.U.-X%X=X$X$X$X$X$X$X$X@X%X=X1X4X8X8X1X1X1X1X1X;X;X*X=X1X1X1X1X=X<X=Xu * g _ A A J J J J J H H Y Y Y dXjXVXCXHXKXPXKXjXA N N HXUXPXJXHXN N N N B U ZXHXZXBXZ N U HXAXHXAXHXHXHXHXHX .D AXAXCXdXY H jXZXZXHXdX..x.kXAXAXAXAXHXjXM Z kXkXkXkXgXg.jXBXgXhXgXkXkXkXh.J H A Y d.AXAXAX .A A V V B CXPXPXKXZ N N N N dXGXHXAXg.Z N N N N kXHXPXKXdXZ M M M DXUXIXdXM M kXBXHXCXh.N N N N N N F O O HXIXPXjXV ~ ~ Z dXHXHXAXjXB B A A A d.kXkXkXhXU N N N N M kXAXAXAXBXZ A U BXAXAXCXZ S S S A jXCXGXZXCX .A  .ZXZXZXZXZXZXZXjXT H g.BXCXCXAXh.N A N N ..AXAXZXBXjXjXd.Y N N N N N H H H H Y J Y A _ _ ] w 0 G.*X*X*X*X*X*X*X*X*X;X:X,X,X:X1X1X1X1X=X%X$X&X$X$X&X@X#X&X*X*X*X#XQ.U./.(.X.(./.{ { { m -X-X#X=X%X=X1X;X*X5X[.e.8.9.P H H ) m.F.",
"n n { U J F I I s.%X$X*X<X<X<X;X<X*X*X[.I.M.I././.] [ [ X.] /.9X-X$X$X$X$X$X$X$X$X$X*X;X1X3X3X3X1X1X1X1X;X;X*X*X*X1X<X<X=X<X=Xu # h / C A Y Y H H H H H Y Y ..jXBXGXJXIXJXJXJXCXB B N dXKXPXJXJXZ N N N B B HXHXZXBX .N N CXAXHXHXHXHXHXHXJXCX{ AXAXAXjXY Y d.CXZXGXVXo.h.h.h.jXHXAXHXAXM Z kXkXkXkXkX .dXjXx.hXx.jXkXkXkXU H A A ..AXAXAXg.A V V V B CXPXPXKXM N N N N dXKXHXGXg.Z N N N N kXHXPXKXdXB M M M MXIXPXdXB M kXBXHXAXh.N N N N N N N O O HXUXPXdXV ~ ~ Z dXHXHXAXjXB A A A A h.kXkXkXhXB N N N N M BXCXAXAXgXZ A g.BXAXHXdXB V S S B BXAXCXCXBXA Z jXZXZXZXZXZXZXZXkXT Y jXCXAXCXBXd.H U A  .CXAXAXCXCXCXBXBXhXY N N N N N H H H H A Y S / _ [ < 0 G.*X*X*X*X*X*X*X*X*X<X1X3X,X3X1X1X1X1X=X=X%X=X=X&X=X&X&X=X*X=X!./.W ] (.} X./.).I.I.I.Y.-X%X%X%X=X=X=X=X*X*X[.e.6.8.L H F U V.S.",
"n n { U Y J P P s.%X$X*X<X<X<X*X*X*X%X-X9X9X9X9XsX(.] [ _ _ X./.9X=X$X$X$X&X$X$X$X$X$X;X1X3X3X3X1X1X1X;X;X;X*X=X;X;X1X=X=X*X*Xu = h C C A Y Y Y H H H H H Y d.jXBXGXJXJXJXJXJXHXU B N  .HXPXJXFXU A N N N B CXHXHXZXdXB N kXAXHXHXHXHXHXHXHXKXjXAXAXZXBXU N K CXGXJXCXo.d.Z M D HXHXHXHX .Z jXkXkXkXkX .h.gXx.hXx.jXkXjXkXZ Y A A  .AXCXCXg.A A A A A CXUXPXKXM Z N N N dXHXHXGXg.B N N N N kXAXKXKXjXZ M M M MXPXPXdXB M kXAXKXCXh.N N N N N N B o O KXUXUX} ^ ~ ~ M jXHXAXAXjXB A A A N h.kXkXkXgXB N N N N D BXCXBXCXg.Z A dXCXHXGX) S V V S Z BXCXCXBXBXA Z VXZXZXCXZXZXZXZXkXT Y CXAXAXAXjXd.U BXCXAXHXZXCXZXCXCXBXBXjXN N N N N N N H H H A N S V _ [ < q J.*X*X*X*X*X*X*X*X*X<X<X3X3X3X:X1X1X1X=X=X=X=X=X$X*X&X=X=X*X#X/.X._ ] (.(./.U.Y.9X9X9X-X%X=X%X%X%X=X=X=X<X*X[.w.6.6.J Y H U F.S.",
"m n { U Y F 7.7.s.%X*X*X<X<X;X=X*X*X=X1X:X:X:X:X6XP.Y./.] [ [ X./.-X=X*X$X$X$X*X$X*X*X;X<X<X1X1X1X1X1X;X%X%X;X*X;X<X*X1X=X*X=Xu < h / C V Y H H H H H H H Y h.kXBXVXGXJXJXJXJXJXCXZ N U CXJXJXJXjXA N N N N dXAXZXAXBXZ A g.AXHXHXHXCXKXKXKXKXHXVXAXCXAXZ A Y BXAXGXZXdX..B B M AXHXHXHXdXZ h.kXkXkXkX ...h.x.hXhXgXkXkXkXdX..A A U BXAXAXdXA A A A A BXPXPXPXM Z N N N dXHXHXHXg.Z B B B B kXAXKXAXVXdXdXdXgXBXKXKXh.B M kXAXKXBXd.N N N N N N M o O UXUXUX} / V V Z jXHXAXAXjXV V V N N hXkXkXkXh.B N N N N s.BXBXBXAXU A N kXHXKXHXB C V A V  .BXAXCXBXdXS D HXZXCXZXCXHXGXCXBXh.U CXZXCXBX .K D KXUXUXKXBXCXBXCXBXBXCXjXU A N N N H H A N N A A S ~ [ ] w q E.*X*X*X*X*X*X*X*X*X*X<X1X3X,X:X1X1X1X=X=X=X=X=X=X*X$X$X*X#XY.X.| _ ] U.!.-X-X-X4X0X4X%X=X=X%X=X=X=X*X*X*X*X[.q.w.w.Y A Z W V.S.",
"I.n s.e.e.0.8.0.s.%X*X<X<X<X=X=X=X=X=X%X:X%X%X%X%X=X%X-XI.^.[ [ (./.-X=X*X$X*X$X*X*X*X*X;X<X<X<X1X1X1X1X=X=X*X*X;X<X<X=X*X*X=Xv.3 h ~ ~ B Y H H H H H Y Y Y hXkXkXBXCXAXHXHXAXZXBXU N N jXGXGXGXBXA N V V N Z HXHXJXHXg.N Y jXHXHXHXdXVXKXKXHXHXAXHXZXAXD Z Y BXAXGXZXjXA V B M BXHXKXGXBXZ  .kXBXkXkXd.U d.h.hXhXx.kXkXBXBXjXA A U BXAXAXjXA A A N A jXPXPXPXM Z N N N dXHXHXHXg.M B B B B jXBXHXZXAXHXHXZXZXZXAXBXd.N M kXAXKXkXw.B B B Z jXCXO o @ UXUXUX) _ / V Z jXAXAXAXjXB V V N N kXBXBXkX .B B N N Z gXBXAXBXBXZ A Z BXHXHXAXZ S S A A dXAXAXBXBXU A dXAXZXZXZXCXZXZXCXCXjXdXCXCXBXkXK T dXPXPXPXHXU o.h.kXCXAXCXBXBXd.N N d.kXjXh.U N A S S R l l m.N.#X*X*X*X*X*X*X*X<X*X<X<X<XtXyX3X1X1X1X=X=X=X=X=X*X*X*X*X-X)./._ _ _ (.!.-X%X=X=X:X:X4X%X=X=X=X=X=X*X*X*X*X*X[.l.p.p.e.6.0.d.v.W.",
"n n D 0.0.0.8.0.g.%X*X<X;X<X=X=X=X=X=X%X%X;X%X%X%X%X%X%XP./.] [ X.X.).-X*X$X*X*X*X*X*X*X;X<X<X<X<X1X1X1X=X=X*X;X;X<X=X=X<X*X=XS.i g o o M Y H H Y Y Y | Y ..hXkXkXkXdXU Z M Z o.h.A N N g.GXGXGXCXZ N N V V B HXJXJXJXjXB H h.HXHXHXjXD HXKXHXAXZXHXZXAX .Y Y jXAXGXZXkXA V B M jXHXKXHXCXZ U kXBXkXkXd.Z ..f.hXhXx.jXkXBXBXjXA A Z BXAXCXjXA A A N A jXUXPXPXD Z N N N dXHXHXHXg.M B B B B g.BXHXHXJXHXGXGXJXHXCXhX..A M BXHXKXAXCXHXKXJXPXPXPXO o @ UXUXUXZ S / V Z jXAXAXAXjXB V V N N kXBXBXkXU B B B N Z BXBXAXBXkXZ A Z BXAXAXCXA S S A B kXAXAXBXBXZ Z BXAXZXZXZXjXCXZXZXBXkXBXZXBXBXkXK T jXUXKXPXCXA V Z Z ..dXBXCXCXh.N N jXHXAXBXh.N A A S z b.b.m.D.#X*X*X*X*X*X*X*X<X*X*X<X<X3X3X1X1X1X1X1X=X=X=X=X=X*X*X*X9X(.[ _ [ [ /.-X#X=X=X*X;X:X-X%X=X=X=X=X=X*X*X*X*X*X|.l.u.u.u.9.9.q.V.S.",
"I.n D 0.0.0.9.0.k.%X<X;X*X=X=X*X*X*X=X%X;X;X;X%X%X%X%X%X%X[.I.] X.X.(.Y.*X*X$X$X$X$X*X<X*X<X;X<X<X<X1X1X;X;X;X<X<X=X<X<X*X*X$XR.v.< < - R Y H Y S S U BXBXkXBXkXx.Y N A V V V V V V A N Y BXHXCXCXo.A V V V B CXKXPXKXHXB Y Y AXHXJXBXU dXBXHXHXHXHXHXZXjXM Y d.BXGXGXAX| A B M  .HXKXKXHXM Z jXBXBXBXg.) U d.kXkXx.x.kXCXCXCXB N B BXAXAXBXB B A A A d.PXPXPX{ M N N B dXKXKXKXdXM B B B B B B B HXJXPXPXPXJXKXBXY Y A B jXAXKXKXPXUXUXUXUXIXUXO o s.PXUXHXA S V C Z jXAXAXCXjXB B B N B BXCXBXBXM B B B N Z BXBXBXBXkXZ N  .BXBXBXh.A S S S M BXBXBXBXjXA Z AXCXZXBXBXU jXHXHXCXBXAXZXAXBX .Y | KXPXKXJXjXC V C _ Y dXAXBXBXh.A A BXPXKXCX .A S S _ z q y V.L.*X*X*X*X<X<X<X<X*X*X*X<X<X3X3X1X1X=X1X1X1X1X=X*X*X=X*X&XI.[ _ ( Q /.!.&X&X%X%X*X%X%X=X=X=X=X=X*X*X=X*X*X*X*X|.p.p.p.u.u.9.d.V.S.",
"n n D e.0.0.9.9.k.%X<X;X<X<X=X=X=X=X<X;X;X;X;X%X*X%X$X%X$X].!.~.[ X.(.).9X=X=X=X=X=X*X*X1X5X@X4X3X1X;X*X=X1X<X<X<X<X<X<X*X*X$X&XN.r < = O Y | | _ _ } BXKXKXHXjXT A A N V V V V V V V A N d.GXCXCXjXZ V N N A  .KXPXKXHXM A A jXHXHXHXD Z A CXPXHXHXHXZXCXD A Y jXGXAXAXdXS B M M HXKXHXHXM M h.AXCXBXh.Z Z  .kXkXhXx.jXCXAXHXM B B BXHXAXCXM B V A A U PXPXPX{ M N N B h.KXKXPXjXM B B B B B B B HXKXKXKXKXJXHX .A V V B dXAXKXKXKXUXUXUXUXUXUXO o gXPXIXBXS V V S Z jXAXHXAXdXB B B B B BXAXAXBXM B B B N M BXBXBXkXg.Z B jXBXBXBXU A V S B  .BXAXBXBXo._ Z AXCXZXBXdXY h.CXKXHXBXAXAXAXBXU | U KXKXKXJXdXC V V V V V B A A A A U AXKXHXAXU A S A S Q w w V.@X*X*X*X*X<X<X5X<X*X*X*X<X<X3X3X8X#X#X#X1X1X8X1X=X*X@X0XY.] / [ ] !.Q.6X&X&X=X%X$X%X%X%X=X=X=X=X=X=X*X*X*X<X*X|.p.p.p.u.u.u.g.V.S.",
"I.n D e.0.0.0.9.k.].<X;X<X<X<X<X=X=X<X;X;X;X;X%X%X%X$X$X$X$XQ./.] [ [ [ U.#XR.@XR.R.R.R.R.R.R.4XiX1X*X*X*X;X<X<X<X<X<X<X*X*X*X$XF.0 < = O | | | _ _ ) CXKXKXHXjXY A A A V V V V V V V A A Z AXAXZXkX .A N N A D HXPXKXHXD N A  .KXHXHX .U A g.HXHXHXHXHXAXg.A A  .HXAXAXkX..M M O jXKXHXHXM M g.HXAXBXh.Z Z U kXkXhXh.h.CXZXAXM B B BXAXHXCXM B V A A Z KXPXPXs.M N N B g.HXKXPXjXM B B B B B B M HXJXPXKXKXIXBXZ A V V B g.AXHXKXPXUXUXUXUXIXIXO O kXPXPXjXA V V V Z jXHXHXAXdXB B B B Z BXAXAXBXM B B B N M BXBXBXkXU Z M jXBXBXBXB V V A B g.BXBXkXBX| _ U AXZXCXkX .S  .BXHXAXkXAXAXAXjXY | d.KXKXJXJXdXC V V V V V V C C N Y jXHXHXHXBXZ V S A A Q w 0 V.$X*X<X*X*X5X<X<X<X*X*X*X*X<X3X:XK.K.L.L.=X1X8X1X$X@XR.lX(.[ _ ( M.9X6X1X5X&X%X%X$X=X%X%X=X=X=X;X=X=X*X*X*X<X*X|.p.p.p.u.u.u.g.F.S.",
"n n @ u.9.0.0.0.k.{.;X;X<X;X;X=X;X;X1X1X;X;X;X*X*X*X$X$X7X7X&XY./.' ' ( ^.Q.@X@XR.R.R.R.T.T.R.%XyXyX$X=X*X<X<X<X<X<X<X<X&X6X&X&XD.0 = # O | | _ _ _ _ jXPXKXKXBXU N N N A A A A V V A A A B AXAXCXVXjXA A A N B jXPXHXHXgXY Y Y HXKXKXVXU A Y g.dXHXHXAXAXCXB S ..dXBXBXBXCXCXBXjXjXHXKXAXM M U AXHXAXjXZ E Z kXkXhXh.h.BXCXCXM B V BXKXGXAXM B V V A B AXPXPXsXO B V B o.HXJXHXdXB V B V V V V B U U U U  .U Z A V V V V X.jXCXCXHXPXPXPXUXIXKXO O AXUXHXo.S V V V Z jXKXHXHXdXB B B B Z HXHXHXCXM B B B N U AXAXAXkXZ Z g.BXAXBXBXB V V V M jXBXBXkXkXZ Z dXZXZXBXdXA S | kXBXCXAXAXZXZX) / / h.HXKXKXHXgXo.B V V V V V V V S T BXAXKXAXBXA A S A S W w q N.*X5X5X&X&X5X7X7X7X<X<X*X*X*XyX:X].T.H.T.=X=X*X$X$X@XE./.[ ( / ] b.E.1X7X*X=X=X=X=X=X%X%X:X:X1X:X;X%X*X*X*X<X<X[.l.p.p.p.u.u.g.V.S.",
"I.I.@ e.0.e.0.e.s.;X;X<X;X;X:X:X4X1X:X1X1X<X1X1X1X1X<X<X<X<X7XS.F.^.' ' ] P.&X&X@X@X&XR.R.R.T.@X8X1X$X*X<X<X<X<X<X<X<X=XV.& q v.n.0 # # h | _ _ _ _ _ } KXKXJXBXh.N N A V V V A A A A N V A CXHXCXZXBXZ A N A A M PXPXKXAXU Y A BXHXPXKX{ A A B jXHXHXHXZXAXB A | V jXBXAXAXHXHXHXHXHXHXCXM M M CXHXHXjXM E Z gXkXkXh.h.jXBXBXg.B V jXAXAXVXM V V V V S dXdXdXM M V V V V ^ V V V V V V V V V V V V V V V V V V V C C C V V C ^ V V B M M W dXdXM M dXCXo.A C V C V Z jXPXPXJX .B B B B U HXHXKXCXB B B B N g.KXHXAXg.Z B h.CXAXCXBXB V V V M CXkXkXkXgX_ Z BXZXHXBX| A S U jXBXBXCXAXAXCXB C C _ BXAXKXPXHXBXdXg.M V V V V V V dXBXKXHXAX .S S S _ _ Q w y b.S.J.P.Q.Q.6X1X1X1X=X=X*X=X$X3X%X&XE.L.K.$X*X*X*X*X$X@X/.[ ( ( Q F.T.8X7X<X*X1X1X1X<X<X1X:X:X:X4X4X4X;X<X<X<X=X|.l.p.p.e.e.e.g.F.S.",
"I.n k K P T w.q.s.;X;X<X;X:X}.fXqX0X4X3X1X1X1X<X<X1X<X<X<X<X<X6X=X(.' ' [ Y.=X=X=X=X*X&X&X*X&X@X=X%X=X<X<X<X<X<X<X<X1X-Xi # w , < 2 % # O | E ] _ _ _ } AXKXZXAXkXN N N V V V V A A N N V V jXHXAXHXAX .A A A A Z HXPXJXHXU Y A jXHXIXPXjXZ A A } HXHXHXZXCXM A A V x.kXAXHXHXAXAXAXAXAXBXM M M BXHXHXjXM E Z h.kXkXdXU dXdXdX| V V ) U Z M V V V V V C V Z B V V V V V V V V V V V V C C V V V V V V V V V V V C C C C C C C ^ ^ ^ ^ ^ ^ ) ) Z B ~ ) ) ) / C V C C B o.HXHXHXZ B V B B U KXKXKXjXB B B B A dXPXKXHX .Z B  .CXAXCXjXB V V B  .BXkXkXkXh._ M CXHXHXBXA A S Z jXBXCXAXAXAXAXV C C C | h.HXHXAXCXAXAXBXB V C V V A kXCXKXKXBXZ C / ~ ~ ~ R w w m.m.F.F.F.Y.Q.E.#X].#X=X<X=X*X3X=X&X@X#X#X*X*X*X*X*X*X&X(.[ ( [ U.Q.T.5X7X<X<X<X7X<X<X<X<X1X:X4XsXfXfX:X<X;X;X1X|.q.e.e.K F F { S.S.",
"n I.m T T T T q.%.>X>X>X>X{.|.k.k.sX0X0X1X1X<X<X<X<X<X<X<X<X<X7X7X/.( ( [ Y.&X=X*X=X<X<X<X<X<X<X<X<X<X<X<X<X=X#X#XE.Q.|.g.} } ..Z W - = . g g ! ^ / / _ BXCXAXZXHXY N A A V N V V V N N V N  .AXHXHXHXjXA A A A B dXKXJXHXdXU A  .HXIXKXHXZ S S M CXHXCXBXBXdXA A V Z M o.AXHXHXHXHXAXBXkXM M M jXjXjXo.V ~ V A Z / / / / C C C V C C C C C C C C C C / C C C V V C C C V V V V V C C C C V V C V V V V V V V C C C / / C C ^ ^ ^ ^ ^ ^ ^ ^ ^ ^ ^ ^ ^ ^ ^ ^ ^ C ^ V V V V V / V V V V V U KXHXHXdXB B V B A BXIXKXHXZ Z B B kXBXCXAXHXHXjXdXCXHXBXBXkXo.Z { GXHXJXBXA S S Z jXBXCXCXAXCXjXC C V V C B AXAXKXHXKXHXh.V V V C V Z AXKXKXKXo./ C ( h z z z e l Q W { { { { m.C.C.A.P.-X1X1X1X7X<X<X<X=X<X<X<X<X*X*X<X-X] [ ( [ Y.7X7X7X7X<X<X<X<X<X<X<X<X4X}.|.k.p.k.[.;X;X;X:X|.g.e.e.P F F { F.N.",
"I.I.m T T T T q.%.>X>X>X>X}.s.p.e.k.s.0X:X1X<X<X<X<X<X<X<X<X<X<X7X).[ ( [ Y.=X5X*X=X<X<X7X7X<X<X<X<X<X<X<X<XL.V.n.n.n.k w.T T T Z ) R l = w l ] ^ / / _ h.BXAXAXHXdXN N V N N N V N N N N N B jXHXHXHXBXB A V A A Z KXJXKXAXU A Y CXPXKXHXD A S B B  .AXBXBXkXZ A V Z ~ Z BXBXBXBXjXdX..| V V V _ _ / / / / / / / C C C C / C / C C C / / / C C C C C C C C C C C C C C C C C C C C C C C C C C C V V V V V V C / / / / / ^ ^ ^ ^ ^ ^ ^ ^ ^ ^ ^ ^ ^ ^ ^ ^ ^ ^ C ^ C C V V C C C C C C C C Z Z Z Z V V V V A BXPXPXAXZ V V V d.BXAXHXJXJXJXKXPXPXKXkXhX| M VXHXHXHXg.S S S Z jXBXBXBXCXAXo.V V V V C B BXAXHXPXHXBXh.h.d.S S A g.HXHXPXBXZ / C ( h l l z z R _ Y Y I T ..7 i f C.[.6X8X1X1X7X7X7X1X<X<X<X<X<X*X*X<X-X] [ [ [ Y.7X7X7X<X<X<X<X<X<X<X<X1X|.k.k.e.p.e.'.;X;X{.:X|.g.e.e.T F F { F.N.",
"I.I.m U T T T q.s.>X>X>X>X}.s.p.0.e.g.|.:X<X<X<X<X<X<X<X<X<X<X7X7X).[ ( [ Y.=X5X5X=X1X<X<X7X<X<X<X<X<X<X<X*XD.m.f f f @ w.7.T I Z _ E z = < g ] / / / / | jXHXHXHXBXN N V V N N V V N N N N B U HXHXHXBXZ V V V A Z KXKXJXHXg.A Y jXPXKXHXdXZ A Z V U AXBXBXkXZ V V V V Z h.o.o.| _ A S S V V C / / / C C / C / / / C C / / / / / ^ / / / / / C C C / / / C / C C C C C C C C C C C C C C C C C / / / / ^ ^ / / / / / / / / / / ^ ^ ^ / ^ ^ ^ ^ ^ ^ ^ ^ ^ ^ ^ C ^ C C C C C / C C C C C C C / / C C C C V S BXCXAXjXV V V V A jXAXJXJXJXJXJXPXPXHXkXg._ M HXGXHXHXU S V S Z jXBXCXCXBXBXZ V V V V V B } jXkXBXHXHXAXh.T S A A kXKXGXKXg.B / C ( h l e z Q E Y J J I I | t f n b [.6X1X1X7X7X7X1X1X<X<X<X<X<X*X*X*X-X] [ [ ] 9X7X7X7X<X<X7X<X<X<X<X<X<X|.k.p.e.0.f.'.{.>X{.:X|.g.e.e.T Y U { V.S.",
"I.I.m U U T T q.s.{.>X>X{.|.s.e.e.e.f.|.1X1X<X<X<X<X<X<X<X<X<X7X7X/.[ ( [ Y.=X5X1X1X1X1X1X1X<X<X<X<X<X<X1X=XC.{ D D D K 7.7.7.I A _ Z R = * 1 W C / / / _ A BXKXHXHXZ N V V N N V V N N N N V V CXKXHXAXjXB A B A U jXHXPXAXdXA S o.KXHXAXHXZ V B B Z CXBXBXkXU A C C C C V V V V C C C / C C C / / / C C C C / / / / / / / / / ^ ^ / ^ / ^ / / / / / / / / / / / / / / / / / / / / C C C C / / / / / / / / / / / / / / / / / / / / / / / / / / / / / ^ / / / ^ / ^ C / C C / C C C C C C / / / / / / / / / V V V C C C V V V B AXKXPXIXPXPXIXs. .B S S { HXJXKXBXS V V B U kXBXBXBXBXdXV V V V V V V V V B  .KXPXHXg.h.A A M PXUXKXHXZ V / ( ( g e e Q E E H J I I T .. .g.g.s.|.9X6X6X6X8X7X<X1X<X<X<X<X*X*X*X<X-X] _ [ ] Y.7X<X<X<X<X<X<X<X<X<X<X<X|.k.e.e.e.e.|.{.>X>X{.|.f.e.e.F Y Z W V.N.",
"I.n { e.w.0.0.e.s.,X>X>X>X|.k.e.s.s.s.|.4X<X<X<X<X<X<X<X<X<X<X7X7X(.[ ( [ 9X=X7X<X<X1X<X1X<X<X<X<X1X].P.D.D.m x.l.f.e.w.7.7.7.I A S Z W - % 1 W / / / / S C dXPXJXJXh.N V V V N V V V N N V V V dXAXKXCXAXgXh.dXgXhXkXBXVXCXg.S S _ jXHXHXZXD Z V V V Z Z Z Z A C C C C C V C C C C / C C C C / C / / / C / / / / / / / / / / / / / / / / / / / / / / / / / / / / / / / / / / / / / / / / / / / / / / / / / ^ ^ / / / / ^ ^ / / / / / / / / / / / / / / / / / / / / / / / / / / C C C C / C / / / / / / / / C V V C C C C C V V CXAXKXPXKXJXKXM C C C Z BXKXJXKX .S C V V U kXBXBXBXBXZ S V B B B B V V V B h.HXPXKXd.Y S Z D UXPXKXkXC / ( ( ( g e e R E ~ H I I I I P w.p.p.l.sX!.F.v.d D.1X1X<X<X<X<X<X<X<X<X<X-X] [ [ [ Y.7X7X<X<X<X<X<X<X<X<X<X<X}.m @ f.e.e.sX,X,X>X4X|.l.p.p.0.6.7.q.C.V.",
"I.n D u.e.0.0.0.s.,XwX>XwX+Xk.p.s.|.|.0X1X<X<X<X<X<X<X<X<X<X<X7X6X] ( ( [ -X5X7X<X<X<X<X<X<X<X*X&X[.A.n I.I.m x.e.f.e.7.7.7.7.T A A S W . % 1 E / / C / S C o.IXKXKXkXZ V V N N V V V N V B V V V jXAXCXCXkXBXBXBXBXBXCXBXBXg.S C C ) AXHXHX) B V V V V V C V C C C C C C C ^ C C C / / / C C / / C C C / / / / / / / / / / / / / / / / / / / / / / / / / / / / / / / / / / / / / / / / / / ^ / / / / / ^ ^ / ^ / / ^ ^ ^ ^ / / / / / / / / / / / / / / / / / / / / / / / / / / / / / / / / / C / C C C / C C C C C C C V C V V | X.o.dXdXjXCXM C C C Z HXJXPXAXZ S V V V M kXBXBXCXBXA S V V V V V V B V B dXHXPXKX .| S Z dXUXUXKX ./ / ( / ( g e e Q ~ _ Y I I I P P w.l.l.l.s.f i p j A.3X7X<X<X<X<X<X<X<X<X<X=X] [ [ [ ).7X7X<X<X<X<X<X<X<X<X<X<X[.|.s.g.f.f.sX,X,X>X,X|.l.p.p.0.9.9.q.C.V.",
"I.I.{ e.u.0.0.0.s.{.>XwX>X'.sXk.|.0X6X4X1X<X<X<X<X<X<X<X<X<X7X9X).( ( ( ] -X5X<X<X1X<X1X1X<X<X&XY.{ D  . . .g.l.e.f.w.w.7.7.7.T A A S ] . * < R C / / / / C U PXKXHXCXd.V V B N V V Z ) ) } M B C ) CXCXHXVXGXGXGXZXZXZXCXBXo.S C C / / _ V V V V C C C V C C C C C C C / / / ^ / / / / / / / / / / / / / / / / / / / / / / / / / / / / / / / ^ ^ / / / / / / / ^ / / / ^ / ^ ^ ^ ^ / ^ ^ ^ ^ ( / ^ ^ ^ ^ ( ^ ^ ^ ^ ^ ^ ^ ^ ^ ^ ^ ^ ^ ^ ^ ^ / / / / / / / / / / / / / / / / / / / / / / / / / / / C C C C C C C C C C C C / C V C ^ ^ ^ ^ ^ _ V S S S Z KXPXPXVXZ S V V V jXBXCXBXBXh.A dXHXdX) S A S V B Z kXHXIXKXU A C M BXPXUXKXB / ( ( ( ~ g 1 1 ! ( S Y J J I I T T e.l.l.g.dXg.g.g.sX0X4X:X1X7X<X<X<X<X<X<X5X~.[ [ [ /.1X7X7X<X<X<X<X<X<X<X<X<X1X:X4X}.0X0X4X3X3X>X,X|.l.p.p.u.9.9.q.C.m.",
"I.I.{ p.p.e.0.u.k.,X2XrX>X>X,X4X4X4X1X1X1X<X<X1X<X<X1X<X<X<X-X/.(./ ( ( /.6X<X<X1X1X<X1X1X<X;X[.{ D K 7.w.w.w.p.p.e.L L L P P I Y Y A ] . = = h / / / / / C Z HXKXKXCXgXA V V V V B AXKXKXGXjXB B V Z } PXBXJXGXGXHXZXZXZXkXd.S C C / / C C C V C C C C C C C C C C / / / / / / / / / / / / / / / / / / / / / / / / / / / / / / / / / / / / / ^ / / / / ^ ^ / / ^ / / / ( ( ( ^ ( ( ( ( ( ( ( ( ( ( ( ( ( ( ( ( ( ( ( ( ( ^ ( ( ^ ^ ^ ^ ^ ^ ^ ^ / ^ / / / / / / / / / / / / / / / / / / / / / / / / / / / / / C C C C C / C C V V C ^ ^ ^ ^ / / C C C ) jXjXjXo.A S S S B BXAXAXBXBXU Y BXKXPXHX} A S A Z d.kXHXKXHXZ S C D AXPXKXCXV ( ( ( ( ' h 1 < E ( S J I J T J Y Y f.l.c.x.f.d.w.w.g.sX|.v -X<X<X<X<X<X<X<X7XM.^.[ [ ^.6X1X1X<X<X<X<X<X<X<X<X<X<X2X2X3X3X3X3X2X3X>X3X|.l.p.p.u.u.u.q.C.b.",
"I.I.{ p.p.u.0.u.k.,X2XrX2X2X2X3X3X1X1X1X1X<X1X$X&X&X=X=X=X-X/.] [ / ( [ ).5X<X<X1X1X1X=X1X<X[.|.q.K K 7.7.w.w.p.u.e.L L I P L I H H A ] . = = h C / / C / C C CXKXKXBXAXZ V V V N A CXJXGXZXjXB V V V V DX .JXJXJXHXZXHXkXgX..S C C ^ / C C C C C C C C C C C C C C C C / / / / / / / / / / / / / / / / / / / / / / / / ( ( ( ( ( ( ( ( ( ( ( ( ( ( ( ( ( ( ( ( ( ( ( ( ' ' ' ' ' ' ' ' ' ' ' ' ' ' ' ' ' ' ' ' ' ' ( ( ~ ( ( ( ( ( ^ ^ ^ ^ ^ ^ ^ ^ ^ / / ^ ^ ^ / / / / / / / / / / / / / / / / / / / / C C / / / C C C / C C C C ^ ^ ^ ^ ^ ^ / C C C _ M M M _ S S S S Z BXCXGXBXjXA U CXPXHXHXdX| A Y U hXkXHXHXHXB C S g.BXPXKXdXC ( ( ( ( ' h 1 < E ^ S J I I I I J T e.z.c.x.w.T 7.7.e.s.m 8 [.1X7X7X<X<X<X7X7Xb./.] _ ] ).9X6X<X<X<X<X<X<X<X<X<X2X2X2X2X2X7X3X3X3X,X3X|.l.p.p.u.u.u.q.C.b.",
"n m @ p.p.u.u.0.k.,X2X2X2X2X2X7X7X7X7X<X<X7X7X$XE.L.#X-X)./.[ ( ( ( [ /.=X7X<X<X1X1X=XP.-X-X|.s.w.p.e.e.P I P e.9.0.L L I I L I H H A ] . # < h C / C / / C / o.HXAXJXPXVXA A V V V dXGXHXHXCXZ A V V C V C CXBXjXo.) / / / V ^ ^ ^ / / ^ C C ^ C / / / / / / / / C C / / / / / / / / / / ^ ^ ^ ^ ^ ^ ( ^ ^ ^ ^ ^ ( E E ! ` ` ` ! ! ! ! ! ! ! ! E ! ! E ! ! ! ! ! ! ! ! ! ! ! ! ! ! ! ! ! ! ! ! ! ! ! ! ! ! ! ! ! ! ! ! ! ` ` ` ` ` ` ` ` ~ ~ ~ ~ ~ ~ ~ ~ ~ ~ ~ ~ ~ ~ ~ ~ ~ ( ^ ^ ^ ^ / / / / / / / / / / / / / / / C C / / / / / / / / / / / / / / / V ~ ~ ~ S S S S S U BXCXZXBX .S Z CXKXAXBXBXjXh...hXkXBXCXHXdXC V V kXBXKXjXB ^ ^ ( ( ( ~ Q 1 w R / S J I I J I I T e.p.l.e.T T 0.9.8.e. .s.%.0X7X5X7X<X<X7X<X*X5X).] ] | (.).-X%X%X%X<X<X7X2X2X2X2X2X<X3X3X3X3X3X2X3X|.l.p.p.u.9.9.5.C.m.",
"n m m K q.q.0.0.s.:X<X<X<X<X<X<X<X<X<X<X5X7X-X9XY.U./.(.[ [ ( ( ' ~.I.9X7X7X7X7X7X<X1XY.I.U.{ { w.e.p.e.7.I L 0.9.6.L I I I I J H H A ] . # < o C C / / / / / S o.AXUXPXKXA A S V V Z KXGXJXAX..A V V C V V V V V ^ ^ ^ / ^ ^ V ^ ^ ^ ^ ^ / / / / / / / / / / / / / / / / / / / / ^ ^ ^ ^ ^ ^ ^ ( ^ ( ( ( ( ( ( ( ' ! ! ! ` ` ` ! ! ! ! ! ! ! ! ! ! ! ! ! ! ! ! ! ! ! ! ! ! ! ! ! ! ! ! ! ! ! ! ! ! ! ~.~.~.! ! ! ! ! ! ! ! ! ` ` ` ! ! ! ! ! ` ! ! ! ! ! ! ` ` ` ` ! ! ! E ' ( ( ( ( ^ ( ^ ^ / / / / / / / / / / / / / / / / / / / / / / / / / / / / ( ~ ~ / S S S S S S | o.dXjXZ C Z kXBXCXAXAXAXCXBXBXkXCXBXjXV V V B dXdXM V C ^ ^ ( ( ( ' Q 1 w z ( S H J J J J J Y w.8.8.7.T T 9.9.u.0.7.0.i.fXQ.S.1X7X7X7X7X7X7X9Xl ] _ _ ! ~.(.dXsXlX9X1X<X1X<X<X<X<X<X<X1X1X1X2X1X[.e.0.0.K K K D C.V.",
"m m m K P 7.8.0.s.:X<X<X<X<X<X*X*X*X5X*X*X7X9XsX(.(.(.[ _ _ ( ( ] M.S.-X7X7X7X7X1X1X-X/.{  . . .T e.e.e.P I I 0.8.7.G J J J J N N A S ] . = < o / / / / / / / C Z CXPXPXKXZ Z Z Z U  .HXGXJXAXo.A V V C ^ C ^ C ^ ^ / / / V V ^ ^ ^ / ^ / / ^ / / / / C / C / / / / / / / / / / / ^ ^ ^ ^ ^ ( ( ( ( ( ( ( ( ( ( ( ' ! ! ! ` ` ! ! ! ! ! ! ! ! ! ! ! ! ! ! ! ! ! ! ! ! ! ! ! ! ! ! ! ! ! ! ! ! ! ! ! ~.! ~.~.! ! Q Q Q Q Q ! ! ! ! ! ! ! ! ! ! ! ! ! ! ! ! ! ` ` ` ! ! ! ! E ' ( ( ( ( ( ( ( ( ^ / / / / / / / / / / / / / / / / / / / / / / / / / / / / / / / S S S S S C C B Z _ _ / Z jXh.BXAXHXJXJXHXAXBXBXjXZ C V V V B B V V V ^ ^ ^ ( ~ ` z 1 w l ' C H H H H H H Y I 7.7.P T T 8.9.9.0.7.6.0.k.C.S.8X7X7X7X7X7X7XS.y /._ / ~ [ o.dXdXdXsX-X<X<X<X<X<X<X<X<X<X;X<X<X;X[.e.0.0.K Y F { I.C.",
"m m m K P 7.6.0.s.%X<X<X<X*X*X*X*X*X*X5X5X5XI.(.X.| _ _ / / ' ^.).W.S.=X7X7X7XL.N.V./.U T w.w.T T P P P T Y H H H A A A N A A S S S C ) R - = - h ~ ( / / / ^ V V } KXPXIXKXKXKXKXKXKXGXGXGXjXU S V V C C C C ^ ^ ^ ^ ^ ^ ^ ^ ^ / ^ / / / / ^ ^ ^ ^ / / / / ^ / / ^ ~ ~ ~ ~ ' ( ( ( ~ ~ E ~ ` ` ` ` ` ~ ` ` ` ` ` ' ! ! ! ! ! ! ! ! ! ! ! ! ! ! ! ! ! ! ! ! ! ! ! ! Q Q ~.~.~.~.~.~.~.Q Q Q Q Q Q Q Q ~.z z z z z z z z z ~.~.! ! ! ~.~.! ! ! ! ! ! ! ! ~.~.~.! ! ! Q Q Q Q ^.' ` ` ` ` ` ` ` ` ~ ~ ~ ~ / / ( ( ( ( ( ( ( / / ^ / / / / / / / / / / / / / / _ / / / / / / ^ ^ V / / / C V Z HXPXPXPXPXPXPXHXBXo./ V V V V V V V V V ^ ^ ^ ( ! Q z 1 h R ~ ^ C S S S S S A A A A Y Y I L P 6.7.J 7.0.e.} dXlXv.q H.7X7X7X&XS.!.^.! ] _ | o.o.o.(.U.%X5X<X*X*X*X*X*X$X*X*X;X<X[.e.9.u.K K P { C.C.",
"m m m K P P 7.0.s.%X*X*X*X*X*X*X*X&X*X*XQ./.{ } _ _ S C ~ R l M.Q.*X5X<X<X7X7XS.# . T T T w.w.Y T I I T T J N S S S S S S S S C C / / C ^ o , 1 g ) _ / / / V V V B CXHXKXPXKXKXKXKXKXKXKXJXBXU S C C C C C C ^ ^ ^ ^ ^ ^ / ^ / / ^ / / / / / / / ^ ^ ^ / / ^ ^ ^ ( ~ E ! ! ! ! ! ! ` ! ! ! ! ! ! ! ! ! ! ! ! ! ! ! g g g g - - g g g g g g g g g g g g l l g g g , , - = = = = = = = = # # # # # # # # % % # = % % = < < < < < < 1 1 1 1 - - - - = = = = = = = = # # # # g ~.` ` ! ` ` ` ` ` ` ` ! ! Q ` ` ` ! ! ! ! ! Q ' ^ ^ / / / / / / / / / / / / ( ( / / / / / / C V ^ V / ^ ^ / V dXHXKXPXPXPXJXPX} ) _ / C V V V V V V V V ^ ^ ^ ^ ` z l g R V V ^ / C C C S S S A A A A Y I P 7.6.P H T 8.e.| ..o.y q J.<X7X7X7X5X5XS.W.M.' ^ ( _ [ [ (./.9X*X*X*X*X*X*X*X*X*X*X<X[.e.9.u.K K K D C.m.",
"m m m K P P 7.q.s.%X<X<X*X*X*X*X*X*X*X-XU.X.| ) _ _ / _ ] x m.u E.<X<X1X7X7X7XB.  . I I T w.T B Y Y J J T J Y S S S S S S S S S S _ / / ^ h , < - ) _ / / / / V V V o.AXVXKXIXKXKXKXKXKXKXPXjXZ S C C C C / C / / / / / / / / / / / / / / ^ ^ ^ ^ ( ( ( ( ( ( ^ ( ( ' ! ! ! ! ! ! ! ` ! ! ! ! ! ! ! ! ! ! ! ~.~.~.~.1 # # # # # = = = = = = = = = = = = = = = < < < % < < % % % % % % # # # # # # # # % % % % % % % % % % % % % % % % # # # # % # # # # # # # # # # % # % g ~.` ! ! ! ! ! ! ~.! ! ! ! ~.^.^.! ! ! ! ! ! ! ( ^ ^ ( ^ ^ ^ ^ ( ( ( ( ( ( ( ( ( / / / / _ / / / ( ( / / ^ ^ ^ B M ) X.dXjXVXAX} ( / / V jXjX| | V V V V ^ ^ ^ ^ ` h e g R V ^ ^ S S S C S S S A A A Y H J P 6.6.I A T 8.0.Y | X.y q H.<X7X7X7X<X<XS.b.b.` ( ( ( ( [ X.] Y.&X*X*X*X*X*X$X*X*X*X*X[.e.9.u.K K K { C.m.",
"m m { q.7.7.e.e.s.%X*X*X*X*X*X*X*X*X=XU.] _ | ) ` ! E W Y.-X&XR.=X<X<X<X<X7X7XB.  O T Y Y T Y S S Y Y Y N A S S S S S S S S S S S S _ / ( g - < . ] [ ] [ ^ ^ ^ ^ ^ B ) O KXKXKXKXKXHXjXM ) B / C C C / / / / / / / / / / ^ / / / / / / ^ ^ ^ ^ ^ E E E E ~ ~ ` ' ' ' ` ! ! ~.! ! ! ! ! Q Q ~.~.Q Q Q ~.~.~.~.~.~.~.= # # # # # # # = = # = # # # = % % = = = = < < % % % % = % % % % % # # # # # # % % % % * * * % * * * % % % % % % % $ % % % % % % % % % # % % # # # # g ~.~.~.~.! ! ~.~.~.~.Q z l g ~.^.^.~.~.~.~.! E ' ( ' ` ` ~ ` ! ! ' ( ( ( ( ( ( ( ( ( ( ( / / / / / / / / ^ ^ V V ^ ^ / ( _ _ [ _ ( / / | KXPXZX .B ^ ^ ^ ^ ^ ( ( ! g w 1 R V ^ ^ / S S C C S S S A A A Y Y H H H H A H P T | | X.w q H.<X7X<X<X<X<X&X=X&XM.! E ` ` ] X._ ^.Y.-X*X*X*X$X*X*X$X*X<X[.l.a.a.e.e.p.{ C.V.",
"m m D a.p.u.p.p.k.%X<X<X*X*X*X*X*X*X#XW V _ [ ] /.I.m.n.D.$X<X<X<X<X<X<X<X<X7XD.; R Z ~ ~ Y A S _ S A S S S S S S S S S S S S _ / C C / ( g = = - R h h ~ ^ ^ ^ ^ ^ V ^ M MXjXdXdXdXdX(.[ ( ^ ^ V C C C / / / ^ / / / / / ^ ( ( ^ ( ( ~ ( ( ( ( ( ` ! Q ! ! ! ! ! ! ! ! Q Q Q Q ! Q Q Q - - - = = = = = = = < = = e # # # # # # # # # # # # # # $ $ % % % % = ; < < < * % 3 * % % % % % % % % % % % * * * * * * * 0 0 u 0 0 0 * 0 0 0 0 * * * * * & * % % % % % % % # % & = l l 1 1 < < < = < < < % % < ~.~.Q Q z z z h Q ` ` ! ! ! ! ! ~.! [ ' ' ' ` ' ( ( ( ( ( ^ / / / / / / / / / / V ^ ^ ^ ^ ( ( / / ( / / / dXPXKXAX} / ^ ^ ^ ^ ~ R R g 1 w 1 h V C V / / / / S S S _ S S S S S C S S A A Y S _ E [ [ e q K.<X7X<X<X<X<X<X<X<XQ.y w y w ~._ _ [ ] Y.&X*X*X*X$X$X*X*X<X[.z.a.a.u.a.a.s.C.V.",
"m m s.a.u.u.u.p.k.%X<X<X*X*X*X*X*X*XP.] / [ W I.!.S.S.v.B.&X<X2X<X<X<X<X<X<X<XG.3 O R R ` _ S _ _ S S S S S S S S S S S S S S _ _ _ / / ( g = = - h g h ( ^ ^ ^ ^ ^ ^ V V B B V V V V V ^ / / / C / / C / / / / / / / / ( ^ ( ( ( ( ' ~ ` ` ` ~ ~ ! ! ! ! ! ! ! ! ! ! Q - g g h z z z l = # % % % % % % % % % % < % # & q q q & & & & & & 0 0 0 0 0 q q & & & & * q q u u u u v.v.v.v.v.v.v.B.B.v.v.B.B.B.B.B.B.B.B.D.G.D.D.D.D.D.D.G.P.G.D.D.D.D.D.D.v.B.v.u u u v.B.B.B.0 % < % % % % % % % % % % % < Q z z l g g 1 - Q ` ! ! ! ! ~.~.~.~.^.` ` ` ! ` ( ( ( ( ( ( / / / / / / / / / / ^ ^ ^ ^ ^ / / / ( / / / _ jXPXKXCXM ^ ( ( ( ( ~ h z l 1 < < h C C V / C / / S S S S _ _ S S / C C S S S A A _ R R W e q E.<X7X<X<X<X<X<X<X<XR.v.v.N.N.I.( [ [ [ Y.#X*X*X$X$X$X*X*X*X[.z.a.a.i.a.a.s.C.V.",
"m m 5.a.u.u.u.p.k.%X*X*X*X*X*X*X*X*XU.[ _ ] F.Q.=X<X5X&XR.$X<X<X<X<X<X<X<X<X<X&Xv.M.e g E ( ( ~ ` _ / / S S S _ _ S S S S S _ S S S / / ^ h h h h g g h ( ^ ^ ^ ^ ^ ^ ^ ^ ^ ^ ^ ^ ^ ^ ^ ^ ^ ( ^ / / / / / / / / / / ( ( ( ~ ' ' ' ' ' ` ! ! ! ! ! ! ! ! ! ! ! ! ! ! ! Q = # = , , , 1 < # # % % % % % % % % % % % #   D.-X-X-X-X-X#X#X#X].L.K.K.K.K.K.K.].K.K.K.K.@X$X$X*X*X*X*X$X$X$X$X$X$X$X$X$X$X$X$X$X$X$X$X$X@X$X$X@X].].].].].].].].].].].].@X@X@X@X@X@X@X$X$X$X*X=Xq 0 0 0 % % % % % % % % % % < e e w < w < < = Q ` ! ~.! ! ~.~.~.~.Q Q ` ` ` ' ( ' ' ' ' ( ( ( ( ^ ^ ^ / / / / ^ ^ ^ ^ ^ ^ ^ ^ ^ ^ ( / ( dXHXAXBXB ( ( ( ( ( ` z l g g h R E ^ / C C C S / S S S S S _ S S C C C / ~ ~ ~ / ( g e l m.q #X2X<X<X<X<X<X<X<X<X$X*X*X@XR.v.k [ [ [ U.&X*X*X*X$X*X*X*X;X[.z.a.a.u.a.a.s.C.v.",
"n m @ e.0.0.0.0.k.%X*X*X*X*X*X*X*X$X/.( ( ^.b.B.<X<X2X<X<X<X<X<X<X<X<X<X<X<X<X*XQ.m.< e h R ! z Q [ _ / / / / _ / S S S _ _ _ _ S S S C V V V V E g g h ( ^ ^ ^ ^ ^ ^ ^ ^ ^ ^ ^ ^ ^ ( / ( ^ ( / / / / ^ / / / / / ( ~ ~ ` ! ! E ` ` ! ! ! ! ! ! ! Q Q ! ! ! ! ! ! ! ! Q = % = = = = = = % % % # # % % % % % % % % # & B.R.K.K.L.L.K.K.K.K.H.H.H.G.H.H.H.H.H.H.H.H.H.R.@X$X$X$X$X@X@X@X@X@X@X@X@X@X$X$X$X$X*X$X$X$X$X@X&X@X@X@X@X#XK.R.E.#XK.K.K.R.R.R.@X@X@X@X@X@X@XR.R.E.q q w 0 0 0 0 0 0 * * * % * * 3 0 3 3 < < < , Q Q Q Q Q Q Q z z z z Q ! ! ! ` ` ` ` ! ! Q ! ` ~ ^ ^ ^ ^ / ( ( ( ( ( ( ( ( ^ ^ ^ ^ ( ( ^ ^ ~ B B ( ^ ( ' ' ' ` h e g E ^ ^ C / / / C S C S S S _ _ / / / / / C C C ~ E ! E R e y M.F.J.=X<X<X<X7X7X<X<X<X<X<X<X<X*X&XB.x [ [ [ /.-X*X&X*X$X*X$X<X$X].q.8.9.0.p.a.{ C.V.",
"n m @ K 7.w.0.e.s.=X<X7X<X;X<X<X;X%XW ( ( ] D.#X7X<X2X<X<X<X<X<X<X<X<X<X<X<X<X*XQ.% , w 1 z z e h [ _ / / / / / / _ S S _ S S S S S S C C C V V E o g h ( ^ ^ ^ ^ ^ ^ ^ ^ ^ ^ ^ ^ ^ ^ ( ( ^ ( / / / / [ [ _ ( ( ( ( E ` ! ! ! ! ! ! ! ! ! ! ! ! Q l l z z z z z z z z z = # % % % = % * u u u u u u u v.v.v.u u u q & B.@XR.E.E.L.L.L.K.K.K.K.K.K.K.H.H.H.H.K.K.K.K.R.$X$X$X$X*X*X*X*X*X*X*X*X*X*X*X*X*X*X*X$X$X$X$X&X&X@X@X@X@X#X@X@X#X#X#X@X@X@X@X@X@X@X@X@X@X&X&XR.R.E.q u u v.B.B.D.D.D.D.D.G.G.J.v.3 * 3 3 3 3 < , g g e l 1 g g 1 1 1 1 Q ! ! ! ! ! ! ! ! ! Q ! ` ~ ^ ^ ^ ^ ( / ( ( ( ( ( ( ( ( ( ( ( ( ^ ^ V V ^ ^ ^ ( ' ' ' ' ` h e g E C C ^ ^ / / C S / S S S S S S / / / C / / / E R z z l y m.m.V.J.1X7X7X7X7X<X7X2X7X<X<X<X<X<X<X1XY.[ [ [ /.-X1X1X8X3X3X3X3X1X_.l.u.u.w.F K { C.V.",
"m m m K P w.0.e.sX4XuXiXuXuXtXtXtXyX/.( ( (.9X<X2X<X2X<X<X<X<X<X2X<X<X<X<X<X<X*XH.J.E.S.q w % q < Q ` ' ~ ~ / / / / S S S S S S S S S C C C V V ~ g g h ( ^ ^ ^ ^ ^ ^ ^ ^ ^ ^ ( / / ( ( / ( ( ( ( ( ( ~ E E E E ` ` ! ! ! ! ! ! ! ! ! ! ! ! ! ! z # # % % # # % % % % < = % % % % % = ; B.@X$X$X$X$X$X*X*X*X*X*X*X*X$X$X$X$X$X$X%X%X$X$X$X$X$X$X$X$X$X$X$X$X$X;X;X*X*X<X<X*X<X;X2X<X*X*X*X*X*X*X*X*X<X<X*X$X8X%X$X$X*X$X$X*X;X;X*X;X*X;X;X*X*X*X*X*X*X$X*X*X*X*X*X*X*X*X=X=X=X*X*X<X<X<X;X;X;X<X<X<X<XD.r r 3 3 * 3 3 r % w w w w w w w w < < z ! ! ! ! ! ! ! ! ! ! ` ` ' ' ' ' ' ' ` ~ ( ( ( ( ( ( ( ( ( ( ( ^ ^ ^ ^ ^ ^ ( ( ' ' ' ' ` h < g ~ C ^ C / / / / S S S S S / C C / / ( E ` E g 1 , w t r F.J.E.#X#X1X7X7X7X2X7X7X7X7X<X<X<X<X7X7X7X-X[ [ [ /.-X1X4X8X4XtXtXtXtX}.l.u.u.w.F F { V.V.",
"m m m K P 7.0.e.sX8XuXiXuXtXtXtXtX3X/.( ( (.-X1X2X2X2X2X<X<X2X2X<X<X<X<X<X1X1X1X<X<X<X5Xq * & & % l Q ! h E ( / / / / / / _ S S S S S S S C C V ~ h g h ~ E M ( ( ( ( ^ ^ ^ ( ( ( ( ( ( ( ( ( ( ( ( ( ` ! ! ! ! Q Q ! ! ! Q Q ! ! ~.! ~.! ~.! ~.z # # # % % % % % % % % a u a u 0 8 * * u @X@X@X@X].@X$X$X$X*X*X*X*X*X*X%X%X%X%X;X;X*X*X%X%X*X*X*X*X;X;X<X;X;X<X<X<X<X<X<X;XiXpXuX;X*X*X<X<X2X<X<X<X<X<X*X$XaX0XyX1X;X<X1X1X1X1X;X;X1X1X1X=X=X=X*X*X*X*X*X*X*X*X*X*X*X*X*X*X*X*X*X*X<X*X*X*X<X;X;X<X<XB.i i i i u u v B.% < w w w < < < < % = Q ! ! ! ! ~.! ~.Q Q z Q ! ! ! ! ! ! ! ! ! ' ' ( ~ ~ ( ( ( ( ( ( ( ^ ^ ^ ^ ^ ( ( ( ' ' ` ` g < g ~ ^ ^ ^ / / C S _ S S S _ / / / / / ( Q ` Q - , , , 2 3 G.<X<X<X<X<X<X<X<X2X2X2X2X<X<X1X<X<X7X<X7X9X[ [ [ /.9X8X1X8X4X3XuXtXtX}.l.u.u.w.F K { V.N.",
"m m m K 7.7.0.e.sX1XuXuXtXtXrX3X7X1X/.( ( (.-X1X2X2X2X2X<X2X2X<X<X<X<X<X7X1X1X1X<X<X<X&X& u u u % l z z e R ( / / / / / / _ S S S S S S S S C V ~ h g g h h E ( ( ( ( ( ^ ^ ( ( ( ( ( ( ( ' ~ ~ ` ` ` ` ! ! ! ! ! ! ! ! Q - 1 g z z Q Q Q ~.~.~.z # # # % q % % % & % & G.G.G.G.G.G.B.u B.@X@X@X@X$X$X*X*X*X$X*X*X*X=X=X%X:X:X:X:X:X;X;X:X;X;X;X;X;X<X;X<X;X;X*X;X<X<X<X<X;XiXtXtX<X*X*X*X<X<X<X<X<X2X<X$X$X4X0XyX1X1X1X<X1X1X;X;X;X1X1X1X1X=X=X*X*X*X*X*X*X*X*X*X*X<X<X*X*X*X*X=X=X=X=X%X%X*X;X;X;X<XB.d v.B.B.B.G.].].& < < < < < < < % % < z Q z z z z g g g 1 < ~.~.~.! ! ! ! ! ! ` ' ' ~ ~ E ~ ~ ( ( ( ( ( ^ ( ^ ^ ^ ^ ( ( ` ! ! ! h < g ~ / ^ / / / C S S S S / / ( ( ( ( ( ` z Q Q - , < = $ * B.;X<X<X2X<X2X2X2X2X2X2X2X7X7X1X<X<X<X7X7X9X[ [ [ /.9X1X1X1X1X1X3XtXrX}.l.u.u.7.F K { V.v.",
"m m m K P 7.0.q.sX1X<X1X:X;X;X%X<X=X/.[ [ [ Y.-X<X<X2X2X2X2X2X2X2X7X7X7X7X<X<X<X<X<X<X$XK.].].B.& M.l w w g ` ` ! E ( ^ / / / S S S S S S S S C ^ R g g g z ~ ( ( ( ^ ^ ( ^ ^ ( ( ( ( ( ( ' ` ! ! ! ! ! Q ! ~.~.~.~.~.~.~.= # # # # # = = = = , < r i i d d d d d b V.B.<X<X<X<X<X<X<X;X;X;X*X*X$X$X$X*X*X*X*X$X=X*X;X1X:X:X:X:X:X:X:X:X:X:X:X1X1X1X1X:X:X;X%X%X=X<X<X<X<X;XrXtX3X*X*X*X*X<X<X<X<X7X<X<X$X$X1X3X4X1X1X;X<X<X*X%X=X=X;X1X1X;X=X=X=X*X*X*X*X*X*X=X;X3X1X1X<X<X<X<X<X<X1X1X=X=X<X<X<X<X<X%X;X;X;X;X;X;X;X<Xv.n.n.N.N.N.N.N.D.S.u < # = $ % % < % % % < ~.~.~.~.~.~.~.~.! ! ! ! ! ! ! ` ' ' ' ' ' ( ( ^ ^ ^ ^ ^ ( ( ' Q g l l e R ~ C / / C C C / / / / / ( ~ ~ ~ E R g r y y r a V.G.P.P.G.;X2X2X2X2X2X2X2X2X2X2X2X7X<X=X<X<X7X7X7XsX[ [ [ ).-X1X1X1X1X1X1X2X2X}.p.u.u.K U U m N.N.",
"m m D q.7.q.0.e.sX;X<X<X:X:X:X;X<X=XY.[ [ [ /.9X1X3X2X2X2X2X2X2X2X2X<X7X7X7X<X<X<X<X<X<X<X;X].u A.m.w w w w e w w z ' ( ' ' ( [ _ S S S S S _ C C E h g g h ~ ( ( ( ( ( ( ( ( ( ~ E ` ` E E ! ! ! ! ! ! g g l z z M.~.~.~.= # # # # # # # # # % % i d d d d d b b b C.B.<X<X<X<X<X<X<X;X;X;X;X;X;X;X;X*X*X*X*X*X=X1X:X4X4X4X:X%X%X%X%X%X-X[.}.}.[.}.:X:X:X:X=X%X1X<X1X<X<X<X2X2X;X1X=X%X;X<X2X2X2X2X2X<X$X$X;X<X;X;X<X1X<X<X=X%X%X=X=X1X1X%X%X=X-X[.[.%X*X$X=X*X3XiXtXtX1X<X<X<X<X<X1X<X<X<X<X<X<X2X<X<X2X2X<X<X<X<X<X<XG.N.N.B.D.D.D.G.H.H.u % $ % % % < < % < * * M.~.~.z z z z z z Q ~.~.~.~.~.! E ! ! ! E ' ( ( ( ^ ^ ( ( ( ' h e w e l ~ ^ C C C C C C / ~ ( ( ' ~ ` ` R z < 0 0 0 a C.u Z.].$X;X;X;X2X2X2X2X2X2X2X2X2X2X2X7X<X1X<X<X7X7X9Xo.[ [ [ U.6X1X1X1X1X1X1X<X2X}.l.p.u.P K K D C.V.",
"m m q.l.p.e.e.f.fX:X<X;X;X;X;X;X<X=X9X] [ [ X./.6X3X2X2X2X2X<X2X2X2X2X2X2X<X<X<X<X<X<X<X<X;XG.v ].N.q 0 q q y w w ~.^.' ^.' ' ~ _ S S S S _ _ S / E h g g h ~ ( ( ( ( ( ( ( ' ( ` ! ! ! ! ! ! ! ! ! Q Q 1 % % % < < < < e = # # # # # # # # % % % i d d d d v C.C.C.C.B.;X<X<X<X<X<X<X;X;X:X;X;X;X;X;X=X*X*X*X*X;X1X:X:X0X4X:X:X:X:X:X%X[.|.}.'.'.}.}.:X:X:X1X%X1X1X<X<X<X1X:X;X1X1X%X[.[.1X2X3X2X2X2X<X*X<X<X<X<X<X<X<X2X1X%X%X%X=X;X1X1X[.[.[.|.|.|.[.%X*X=X=X1XtXtXtX1X1X<X1X1X1X<X1X1X2X1X1X2X3X3X<X2X2X<X<X<X<X<X<XG.N.D.D.D.D.B.B.D.J.u * = = = % % % % * * * = 1 = = = < = = l ~.~.~.~.~.~.Q Q ! ` ! ! ' ( ( ( ^ ^ ( ( ( ' h e e e z ( ^ C C C C S C / ~ ~ ( ` ` E E h l r * 0 0 v.V.G.].$X$X$X;X<X2X2X2X2X2X2X2X2X2X2X2X<X<X1X<X<X7X1XsXX.[ [ [ ).6X1X1X1X1X1X1X1X2X}.z.a.p.p.0.0.g.n.V.",
"m m D p.p.p.p.e.k.:X<X;X:X;X;X;X<X=X9X^.] X.X.] |.4X3X2X2X2X2X2X2X7X2X2X2X2X<X2X<X<X<X<X<X;X2X2X>X%Xv.q v.N.q % % < , - g g l g _ A A S S S S _ / ~ h 1 g h ~ ( ( ( ( ( ~ ~ ~ ~ ! ! ! ! ! ! Q Q Q Q z z 1 % w % % % q q % & & & & & & q & * * 0 q u B.B.B.B.B.B.B.D.D.B.;X<X2X<X;X:X}.|.|.+X}.,X;X;X=X*X*X;X;X;X;X1X1X:X4X4X:X:X:X:X%X[.Y.sXcXsXfX|.}.:X:X:X:X1X1X1X1X1X1X;X%X;X1X1X0XLXPXnXvXvXvXvXvXxX;X<X;X<X<X<X<X<X<X<X;X%X=X=X1X1X-XsXs.s.s.s.m I.-X*X*X=X1X3X3X3X7X1X1X1X1X<X<X<X<X2X2X2X,X0XqX0X}.4X<X<X<X<X<X<XK.G.G.G.Z.Z.G.G.G.H.B.q q q & & & & q q q q % # # < w < w e l l l l l l M.z ~.` ` ` ` ' ' ( ' ( ~ ( ' ' ' R 1 e 1 R V V C S S S S S C E R ! ! h g g g 1 0 u G.G.G.Z.].;X2X2X2X2X2X2X2X2X2X2X<X<X<X<X2X2X<X<X<X1X1X4X|.} [ [ [ ^.9X1X1X1X1X1X1X1X2X2X}.z.a.a.u.u.u.q.f m.",
"m m D l.l.p.p.p.k.:X1X1X:X:X<X<X1X;X9XQ ] X.X._ X.).sX0X7X2X2X2X2X2X2X2X7X7X7X2X2X2X2X<X2X2X2X2X2XH.v.$XuX#Xq q 0 q % % % w w g _ A A S A S _ _ / ~ h 1 e g ' ( ( ' ' ( ~ E E E ! ! ! Q h z h h h z h g 1 w w e g 1 w q q B.=X1X=X=X%X%X$X=X=X=X=X%X$X;X;X;X;X;X;X;X*X*X<X<X2X2X;X4XkXkXkXkX}.3X1X=X=X*X:X{.,X:X;X1X1X1X:X1X:X:X:X:X:X-XU.sXCXCXBXsX|.[.[.[.4X4X4X1X1X1X1X1X:X1X3X3X4XLXJXFXGXFXGXFXFXvX:X<X<X<X<X<X<X<X;X;X1X;X%X%X%X-X[.kXhXhXc.x.@ I.-X=X=X=X1X3X3X3X3X1X1X3X:X4X:X7X2X2X2X2X}.NXkXBXNXNX;X<X<X<X<X<X<X<X2X2X2X2X2X2X2X>X<X1X1X1X;X1X1X1X<X<X<X#X% # # x M.z 1 < w < < < < < < e z ! ! ! ~.! ! ! ! ` ( ' ' ' ' h 1 e 1 ! ^ / C S S S S S S E h l l e w e r r a u ].;X;X;X1X2X2X2X2X2X2X2X2X2X3X1X1X1X1X1X1X7X1X1X1X=X9XsXo._ [ [ ^./.-X6X1X1X1X1X1X1X2X2X}.z.a.a.u.u.u.g.m.m.",
"m m D l.l.p.p.l.k.:X2X2X3X3X2X1X1X1X-XY./.X._ _ _ (.} /.6X2X2X2X2X2X2X2X1X9X0X2X<X<X2X2X2X2X2X2X2X].2XuXrX].u v.v.a % % 0 w e g _ Y Y Y A S _ _ / ( h 1 e g ' ( ( ' ' ' ' E E E ! ! ! Q g - - - - 1 g 1 e e l Q ~.~.% q q Z.<X<X<X<X<X<X<X<X<X<X<X<X<X<X<X<X<X<X<X;X<X;X<X<X2X2X2X0XkXhXhXkX}.,X1X=X1X;X{.aXaX:X1X1X1X1X:X:X:X:X:X:X;X[.U.sXCXVXBXsX|.[.[.[.-X-X-X1X1X1X1X1X1X1X1X3X4XqXnXFXGXGXGXFXFX[.<X<X<X<X<X<X<X<X$X%X%X%X%X%X].-X[.BXkXkXkXx.@ I.-X=X1X=X1X3X1X1X1X1X1X:XbXnX4X7X2X2X2X2X}.NXkXkXkXNX%X<X<X*X<X<X2X2X2X2X2X2X2X2X2X2X>X<X<X<X<X<X<X<X<X<X<XK.% # % l ~.~., < < < < % % % w < l ~.~.~.~.Q Q ~.` ' ( ' ' ' ' Q 1 e 1 ! ^ ^ C S S S S S C ~ h l y t r r i B.u u ].;X<X1X1X2X3X3X3X2X3X2X2X3X4X-X1X1X<X7X7X7X1X1X=X9XI.o.| _ [ (./.9X=X7X7X1X1X1X1X3X2X2X}.c.z.z.u.u.u.g.m.m.",
"m m D p.p.p.p.l.gX3XrXrXtXuXuXuXtXuX7X8X8XU.] _ _ [ _ _ /.).9X-X-X6X-X-XI.X.X.-X7X7X2X2X2X2XrXrXuXuXuXrX;X%X].D.B.J.u * 3 < g ) A A Y Y S A _ _ / ( R 1 e g ~ ' ' ` ` ` ` ~ E Q h z z M.e = < = = 1 1 e e e z E ` ~.w q q B.<X<X<X<X<X<X<X<X<X<X<X<X<X<X<X<X<X<X<X<X<X<X<X2X2X2X,X+XhXhXhXkX}.:X1X=X=X=X{.yXyX:X:X:X:X:X:X:X:X=X8X4X-XU.m { CXVXVXsX|.|.|.|.|.0X9X-X4X4X4X1X1X:X1X1X3X4XxXGXGXGXFXFXSX].=X=X<X<X;X<X;X:X%X#X#X[.-X-X[.[.A.kXhXkXhXh.@ m |.9X-X=X1X1X1X1X1X1X1X:XbXbX0X3X1X2X2X2X}.NXkXkXBXNX1X<X<X*X<X2X2X2X2X2X2X2X2X2X2X2X2X<X<X<X<X<X<X<X<X2X<XS.% # # - ~.~.1 w < < < < % < < < # = < < < l Q Q ! E ! ` ` ` ! R e w 1 ~ ( ^ C S S S S S C A R y m.m.n.u B.8X1X%X:X;X3X3X1X3X3X3X3X3X3X3X3X|./.).9X-X6X6X6X6X9X)./.(.X._ _ [ Q M.!.3XrXrXtXrXrXtXtXtXrXrX}.c.a.a.p.p.u.q.C.n.",
"m m { l.p.p.p.e.s.:X>X;X>X3X2X3X3X3XuXuX2XH./.^.[ [ ( _ [ [ [ ] ] ] ] ] ] | | ).6X<X<X<X<X<X<X<X<X*X*X*X<X<XL.G.K.@XG.v.w t o Y J H Y Y Y A S _ / ( R 1 1 g ` ~ ` ` ` ! ! ` ~ ! - < < 1 < = = = < 1 l l l l z Q ` Q 0 q m.D.1X<X<X<X<X<X<X<X<X<X<X<X<X<X<X<X<X<X<X<X<X<X<X<X<X2X3XyX+XfXfXxX}.3X1X=X=X=X,XyXyX:X4X:X:X:X:X:X:X%X%X-XsXg.g.d.BXVXBXgXgXfXsXsXsX|.|.0X0X0X4X4X:X4X1X1X1X4XaXIXIXIXGXPXLX[.=X=X<X<X;X%X-X|.[.[.|.Y.|.sXfXmXNXkXhXhXe.e.w.d.s.|.[.-X=X1X1X1X1X1X1X1XaXaXaX3X1X2X2X,X}.+X+XqXaX0X%X<X*X*X<X<X<X<X<X2X2X2X2X2X2X2X2X<X<X<X<X<X<X<X<X<X<XD.% % % = ~.~.l l l l l l e e # # # % w w < l Q ! Q Q ! ! ! ` ! Q e e 1 ~ ( ( / S S S S S F 0.{ x N.J.H.J.B.K.;X;X;X1X1X1X1X1X1X1X1X1X1X1X=X(.[ [ (././././.(.[ [ _ _ _ / [ ~.M.b.P.<X2X2X2X3X3X,XtXtXrXtX}.c.a.p.e.e.e.q.C.n.",
"m m @ K 7.q.q.q.%.{.].].].].].@X$X$X$X$X*X#X!.).] [ [ ( [ _ _ _ [ _ _ _ [ _ _ (.-X5X5X5X*X*X5X5X5X*X5X*X*X*X#X=X*X$X%XD.w e h T 7.I Y Y Y A S _ / ( R 1 e g ~ ~ ~ ~ E ! ` ~ ~ ! - < < w e = = = 1 l l z l l z Q ` Q % M.M.D.1X7X7X7X7X7X<X<X<X<X<X2X<X<X<X<X<X<X<X<X2X<X*X@X$X;X1X4X}.[.[.[.:X:X;X=X=X=XyXpXyX:X1X:X:X:X:X:X:X%X#X-XsXg.d.e.jXkXkXgXjXkXgXgXfXsXsX|.|.|.0X4X4X4X1X1X1X4X0XqXqXaXqXqX0X%X=X=X<X<X;X].0XsXsXsXsXsXgXkXAXBXkXhXhXhXe.w.w.q.g.m [.-X%X1X1X1X<X1X1X1XaXbXbX,X:X<X;X;X:X}.:X].%X$X;X*X*X$X;X;X<X<X2X2X<X2X2X2X2X2X<X<X<X<X<X<X<X<X<X<X7XB.M.M.l g Q z l l l l l l e e # = = = < < < l ~.~.Q Q E E ` ` ` Q e e 1 ' ( ( / S S S S A 9.0.{ M.D.#X$X%X%X=X*X<X<X*X*X*X*X*X=X=X*X*X<X<X#X(.[ _ [ [ [ [ [ _ _ _ _ _ _ [ (.).W.W.T.$X;X<X$X$X$X$X$X$X$X$X'.e.u.u.7.P K D C.n.",
"m m m K P 7.7.q.s.{.].].].].].].@X$X*X*X*X*X5X=X)./.~.^.~ _ / _ / / _ _ _ _ _ ] -X5X5X5X5X5X5X5X*X*X*X5X*X*X<X<X<X=X*X@Xb.e M 7.6.6.I Y Y A _ _ _ ( R g 1 z h z z ~.Q Q z R R Q 1 w w e e w e l l l l l z l l ! ` ! ] ] m.v.1X2X2X2X2X2X2X<X<X<X2X3X>X>X2X<X<X<X<X<X<X<X$XE.E.@X%X%X%X%X%X%X1X1X1X1X1X<XaXaXyX4X4X:X:X:X:X:X:X%XQ.Y.sXg.w.e.f.kXkXf.x.kXkXhXhXhXhXhXgXsX|.[.-X4X1X1X1X1X1X<X<X7X1X<X<X<X*X*X<X<X%XK.|.gXk.hXhXhXhXhXkXkXc.l.c.c.w.w.w.w.g.U.9X=X:X1X1X1X1X1X1X1X:X4X0X4X1X1X1X;X;X;X;X;X$X$X$X$X$X$X$X*X1X1X2X2X<X<X2X<X2X2X7X<X<X<X<X<X<X<X2X2X1Xv.r ~.` E Q z l l l l e l l l e 1 1 = < < < l l M.z z Q ! ! ! ! Q g e g ` ^ / S S S S A 7.u.p.{ s P.%X$X;X%X;X<X;X<X*X*X*X*X*X*X*X*X*X*X*X-X(.[ _ _ _ _ / _ _ _ _ _ ) W Q Y.6X7X5X*X*X*X*X#X#X&X&X@X@X$X$X[.f.0.9.7.L L K I.C.",
"m m m K P 7.7.q.s.{.].].].].].].#X=X=X*X*X*X<X7X6Xb.v.v.).] _ / / / / / / [ ] /.-X5X5X5X5X5X5X5X*X*X5X5X*X*X<X<X<X<X=X-X!.l R w.6.6.w.Y Y S S _ _ _ [ ' ^.^.< y y z ! ! 1 < < = < w w e e e l z z l e l M.M.z ~.^.' ' ] y u 4X7X7X2X2X7X2X<X<X<X>XaXaXyX>X;X<X<X<X<X<X<X&X@X#X#X%X%X%X:X:X:X:X:X1X:X:X:XaXyX4X4X4X4X1X1X:X:X%X%XY.U.g.d.w.0.e.hXhXc.c.kXBXBXkXkXkXhXk.%.[.[.-X:X1X1X1X1X7X1X<X<X1X<X<X<X<X=X<X<X@XZ.|.gXhXhXhXhXBXAXAXBXkXkXhXc.w.d.w.q.g.U.9X[.-X4X3X3X1X3X1X1X:X4X4X4X4X1X:X:X:X:X:X;X*X*X$X$X$X$X$X$X<X<X<X2X<X<X2X2X2X7X7X<X<X<X1X<XiXuX7X7X1Xu % ~.' ~ ` ! z z z l e l l l e e 1 < < = = = < < < w e l e e g h ! ! ! ' / / C S S S H u.u.p.dXa P.-X%X1X;X1X*X*X=X*X*X=X=X=X*X=X*X*X*X<X=X/.] _ ( ( _ _ _ _ _ _ [ M.w 0 b.6X7X7X*X*X*X*X&X#X#X&X#X#X$X$X[.e.0.9.7.L L D C.C.",
"m m m q.P 7.7.q.s.{.].].].].$X%X%X=X=X=X*X*X<X7X&XS.H.*X9X/.] ] ) ~ ~ ` W /.Y.Y.6X5X5X5X5X5X5X5X*X*X5X5X*X*X<X<X<X1XJ.F.).W M 7.6.8.0.Y _ S S S _ ( ( ( ' ! 1 b.b.l ~.~., < < < w w w e e e l z z l l l M.M.~.! ` ' ' ] a u 1X7X2X2X2X3X}.}.}.:X>XyXaXyX<X<X<X<X<X;X<X<X$X@X$X%X%X%X%X:X:X:X:X:X:X4X3X4XyX4X4X4X4X4X:X:X:X:X-X-XU.{ g.q.w.0.e.hXhXc.c.kXCXCXkXkXhXc.s.%.[.[.-X:X1X1X1X1X1X1X<X<X1X<X<X<X<X1X<X1X@XZ.|.gXc.c.c.hXkXCXGXAXBXBXkXc.w.w.w.q.g.dXsXY.[.[.3X3X3X3X2X1X,X4X4X4X4X4X4X:X:X:X%X;X*X*X*X$X$X$X$X$X<X<X2X2X<X<X2X2X2X7X7X<X;X4X:X2XuXuX7X2X1Xu 0 ~.' ~ ` ! Q Q Q l l l l l e < < < < # = # % % < < w e w w e h ' ' ' ( / / C S S S H 0.u.l. ./.|.9X%X:X;X1X=X=X=X*X*X=X=X=X*X*X*X*X*X*X*XY.).] ` ` ] ] ] ] ] ] /.F.b.b.N.Q.7X1X=X=X=X=X=X&X&X&X#X#X$X$X[.e.0.9.7.L F D C.C.",
"m m m K P 7.7.q.s.{.>X;X,X,X,X,X,X4X1X<X<X7X7X7X7X7X7XuX%XI.M.M.x M.M.M.m.F.-X=X=X=X5X5X5X5X5X5X5X5X5X5X5X5X*X<X<X1X0 g | J J T w.w.T A S S S S _ ( ( ( ( ` e e e l l 1 < < < < < < < 1 e e l l z z z z Q ! ` ` ` ' ' ` y u 1X2X2X2X2X3X+Xk.fX'.3X,X,X3X<X<X<X<X1X<X;X3X:X;X1X1X:X:X:X:X4X:X:XyXyXyXyXyX4X4X4X4X4X4X:X:X4X-X[./.{  .f.w.w.w.e.hXkXkXhXkXBXBXx.e.e.q.s.U.[.[.-X:X1X1X1X1X1X<X<X<X1X<X<X<X1X1X1X1X$XZ.|.sX .d.w.7.c.hXkXkXhXCXkXc.7.w.w.w.w.e.f.@ n [.2X2X3X3X3X:X4X4X4X4X4XyXyX}.:X:X:X:X1X<X<X;X;X].{.,X3X2X2X7X7X7X2X7X2X7X7X7XiXaXaX3XuXuX7X2X=Xu 0 ~.' ' ` ! ! ! Q z Q z l l 1 1 1 < < < < < = = < 1 - 1 - e e h ' ( ( ^ / / / S S S A P 9.6.T Y o.sXP.-X-X1X=X=X1X<X<X<X=X=X=X=X=X*X*X*X*X*X6XM.x M.M.M.M.M.M.M.Q.7X7X7X7X5X7X1X1X1X1X1X4X4X;X%X=X%X;X;X[.q.8.9.P L L D C.n.",
"m m { K T 7.7.q.s.eXrXtXwXeXeXtXeXtXrX2X2X7X7X7X7X2XrXrXH.v.b.b.b.V.b.b.m.D.#X<X1X1X<X<X<X<X1X1X<X<X*X*X*X*X<X<X>X-Xr g T J J Y Y Y S S S _ S S _ ( ( ( ( ' z Q ! z < < w e e l z z z z z z z Q Q ! ! ! ! ` ` ` ` ' ' ! q u =X2X2X2XrX>X}.fXfX}.,X1X1X1X1X<X<X<X1X2XyXaXaX,X1X1X:X:X3X3X,X3XaXaXaX0XyX4X4X4X4X4X4X8X4X4X-X/.{  .K e.p.e.w.7.e.x.kXkXhXhXkXkXl.6.7.K m I.[.-X4X:X1X1X1X1X1X<X<X<X1X<X<X<X<X<X<X1X%X%XC.b n g.T w.c.c.c.z.i.hXhXl.w.e.e.e.e.p.l.g.sXsX0X4X8X3X3X3X4X4XyXOXaXaX+XOX4X4X4X1X1X1X1X;X;XiXOX+XyX7X7X7X7X7X7X7X7X7X7X7X3XyXiX3XrXuXrXuX1Xq w ! ' ` ~ E ` ` ! ! ! Q z z l l l z l l l l l l g g g - Q ! z h ' ( ( ( / / S C S S S H 8.6.I N T (.C.-X-X1X1X;X1X1X1X1X1X1X;X<X<X;X;X;X;X*X-XC.M.M.M.M.M.M.I.M.Q.7X7X7X2X7X7X7X7X7X7X7X>X3XtX3XtX2XrXwX}.l.0.0.P L L D n n.",
"m m @ K T 7.0.0.s.,XtXeXtXeXeXtX3X3X2X2XrX2X2X2X2X2X7XrX*XH.T.E.#X#XE.E.E.L.%X<X;XuXiXtXtXtXyX3X3X3X3X<X<X;X<X;X>X[.3 h Y H H A A A S S S S S S _ ( ( ( ( ' ! ! ` Q < w w l l z Q Q Q Q Q Q Q Q Q ! ! ! ! ! ` ` ` ` ` ! u u %X2XrX2X2X>X:X0X0X4X1X1X<X7X1X<X<X1X<X,XaXaXaX,X,X,X,X3X3X3XrXtXbXnXaXaX0XyX4X4X4X3X1X1X-X-XsX} U T 7.0.p.e.0.0.e.q.p.l.l.l.l.c.l.6.6.K m I.[.-X4X:X1X1X1X<X1X1X1X<X<X<X<X<X=X<X<X;X1X=XP.V.I.o...w.z.z.z.c.i.p.p.e.w.w.0.e.e.e.p.f.d. ./.|.4X2X3X4X4X4X4X+X+X+X+XOXyX4X4X3X3X3X<X<X2XyXOX+XaX7X7X7X7X7X7X7X7X7X7X7X3X3X3X3XuXuXrXrX5Xu r ! ` ` ` ` ` ` ! ! Q Q Q Q z z z z z z z l l l g 1 e 1 R ` E ` ' ( ( ( / / / S S S S A P I H A T  .f -X4X1X1X1X1X1X1X1X1X1X3X3XyXyXyXiXiX3X=XQ.Q.Q.Q.Q.Q.Q.-XQ.-X7XrX2X2X2X7X7X2X2X7X7X2X2XtXrXrX2XrX2X}.l.p.p.6.7.7. .n n.",
"m m D p.e.e.0.p.k.,XrXtXtXtXtX3X3X3X3X7X7X7X2X2X2X2X7X2X2X2X2X2X2X2X2X2X<X<X<X<X<XrXpXtXtXtXtXtXeXeXeXtXeXtX;X<X>X[.x O Y H H A A S A S S S S S S / ( ( ( ( ' ` ` Q - - 1 g g z z Q ! ! ! ! ! ! ! ! ! ! ! Q ! ! ! ! Q M.v.u %X2X2X2X2X2X<X1X1X3X1X1X1X;X<X<X<X<X3X>XaXaXaX,X,X,X3X3X3X3XrXtXnXNXNXNXNXnX4X4X8X1X1X1Xv.0 } Y J I P P 7.6.6.6.6.6.9.p.p.p.c.hXz.8.6.K @ I.[.:X4X:X1X1X1X<X1X<X<X<X<X<X<X<X*X*X1X1X:X;X%XP.n  ...q.z.z.a.0.0.7.7.w.w.T 7.w.I T w.K T Y ) I.-X1X,X3X4X4X}.NXkXkXfXfXaX4X4X3X1X7X7X2X2XaX+X+XyX7X7X7X7X3X7X7X7X7X7X2X2X2X2X7XuX7XuX2X5Xv.0 z Q Q Q ! ! ! ! ! ! ! Q Q Q Q Q Q Q z z z g g g 1 g g h ` ' ' ( ( ( ^ / / / / / S S S A A S Y w.o.x P.-X:X1X3X3X3X3XyXtXtXiXyXyXyXtXtXtX3X2X1X1X1X1X1X<X1X<X<X<X7X7X2X2X2X7X2X2X2X3X2X7X2XtX3X2XrX2X>X}.z.a.a.p.p.u.g.C.v.",
"m m D p.p.p.p.p.k.,XrXtXtXtXtX3X3X3X2X7X7X2X2X7X2X2XrX7X2X2X2X2X2X2X2X2X<X<X2X<X2XrXpXtXtXtXtXuXtXyXtXtXtXtX2X<X;X|.k M d.e.0.H S S S S S S _ S / ( ( ( ( ( ( ' ' ! Q Q Q Q ! ! ! ! ! ! ! ! ! ! ! ! ! ! ! Q l l g l l m.v.v.].2X2X2X7X2X1X1X1X1X3X1X<X;X1X;X%X=X1X{.yXOXyX4X,X,X3X3X4XaXyX0XSXNXNXNXNXSX0X4X1X3X3X1Xv.0 W Y Y Y J I P 7.7.7.6.6.6.6.6.7.hXhXc.z.z.z.D m [.-X4X:X1X1X1X1X1X1X<X<X<X<X<X<X<X1X1X1X1X:X:X].m c.c.z.z.z.z.8.6.7.7.w.w.T I T Y Y T Y Y A ) W P.1X2X3XyXyX0XBXkXkXNXNXfXaX0X4X7X7X7X7X2XaXaXaXeX2X<X<X@XG.K.1X7X7X7X3X3X3X2X3X7X7X2X7X1Xu y y l l l l Q ! ` ` ` ` ! ! ! ! Q Q Q Q z z z z h h z z Q ` ' ( ( ^ ( ^ / / C / C S S S C S H e.0.d.x P.-X1X:X3X3X3X3XtXyXtXyXyXtXyXtXtXyX3X2X<X1X1X1X<X<X<X2X2X<X7X2X2X7X7X7X7X2X2X3X3X7X2X3X3X2X2XrX2X}.z.a.a.p.p.u.g.C.n.",
"m m D p.p.p.p.u.k.,XrXtXtXtXrX2X2X2X2X2X2X2X2X2X2X2XrX7X7X2X2X2X2X<X<X<X<X<X<X<X2XtXpXtXtXtXtXtXtXyXtXtXtXtX<X;X;XU.W ) f.p.p.I S S S S S S _ / ( ( ( ( ( ( ( ( ~ ` ` ! ! ! ! ! ! ! ! ! ! ! ! ! ! ! ! ! ! ! e w < # < !.v.v.L.2X2X2XuX<X1X2X2X3X2X1X<X1XK.Z.B.B.G.4X}.}.4X4X,X,X3X3XyXbXxXfXNXNXNXNXNXSXqX:X3X3X1X=Xv.a W ) Z Z A Y Y T P 7.7.7.6.6.6.7.kXBXhXz.z.z.g.m [.-X4X4X1X1X1X1X1X1X;XyX,X;X1X<X1X1X1X1X1X=X-X[.s.c.hXc.z.z.z.8.6.7.7.w.7.Y H Y Z Y Y U Y ) ) W F.1X3X3XtXyX0XNXkXBXNXNXNXcXvX4X7X7X7X7X2XpXaXyXiX1X<X#XB.v.B.%X3X7X7X3X7X2X7X3X3X7X2X7X=Xq q q q y y l Q ! ` ` ` ` ` ` ` ! ! ! ! ! ! ! ! ! ! ! Q ! ! E ' ( ( ^ ^ ^ / / C / / C S S S A w.u.u.d.x Y.-X1X:X3X3X3X3XyXyXtXyXyXyXtXtXtXtX3X<X<X1X1X1X1X<X1X<X<X2X2X2X2X7X7X7X7XuXrX3X2X7X2X3X3X2X2XrX2X}.z.a.a.p.p.u.g.C.v.",
"m m D p.p.p.p.p.k.{.rXrXrXrXrX2X2X2X2X2X2X2X2X2X2X2X2X2X2X2X7X<X2X<X<X<X<X<X<X<X2X2X<X<X<X<X<X<X>X,X>X,XtXtX<X;X].m W ) f.p.p.w.A S S S S _ / / ( ( ' ~ ~ ~ ~ ` ` ! ! ! ! ! ! ` ! ! ! ! ! ! ! ! z Q ~.Q ! Q l w % < * -X3X4X].3X3X2XuX2X3X2X2X2X2X1X1XL.B.B.v B.P.-X4X:X:X:X1X3X3X3X0XNXNXNXkXNXfXaXaXaX4X3X3X3X2X1X#X-XY.l z ~.~.^.~ C A T 7.7.7.7.7.q.kXkXhXp.p.a.l.s.Y.-X4X4X1X1X8X8X3X3X2XyXyXyXaXyXyX;X1X1X1X-X|.sXf.hXkXc.c.c.z.7.w.w.T T P T A _ ~ ~ E W W W I.Y.L.1X3X3XtXtXeXbXSXbXcXVXkXBXZX0X7X7X7X<X2X1X<X<X2X#XD.P.A.v u F.-X1X7X1X3X3X3X1X3X3X3X2X2X3X7X3XG.* < e Q Q Q Q z z z z Q ! ! ! ! ! ! ! ! ! ! ! ! ! ! E ' ' ' ( ( ( ^ / / / / / / / C A w.u.u.f.j Y.-X:X1X1X1X1X:X3X3X3X1X;X;X<X<X;X<X2X<X1X1X1X1X1X<X1X2X2X2X7X7X7XrX7X7XuXtXuX2X2X2X2X2X3X2X2XrX2X}.z.a.a.a.p.p.g.C.n.",
"m m D p.p.p.p.p.k.,XrXrXrXrXrX2X3X3X3X3X3X1X1X1X2XrX2X2X7X2X2X2X<X<X<X<X<X<X<X<X1X<X*X*X*X*X*X*X=X=X*X%X=X*X;X$X].{ ) Z T p.p.w.A S / / / / / ( ( ' ' ` ` ` ` ` ` ! ! ! ! ! ! ! ! Q ! ! ! ! ! Q # % % < e e r 0 % < 0 [.3X2X1X2XyXtXtX3X3X2X2X2X2X8X@XJ.9XxXvXP.P.B.-X:X:X1X3X3X3XyXaXNXfXfXkXkXxXeX,X,X3X3X3X3X1X1X<X;X#XV.b.b.m.m.E ^ C T P P P P P K f.e.7.7.w.p.p.e.s.9X-X:X;X1XaX0X0XiX<XtXyXyXyXyXpXyX1X;X%X|.g.l.z.c.c.l.p.z.z.7.w.T T T I T A ) ` ! l m.V.P.&X5X<X1X3X3X3XrX3X3XtXtXxXBXkXkXNX4X7X7X7X7X2X<X<X<X;XJ.F.A.SXLXxXu F.-X1X1X1X1X1X1X1XiXiX2X2X2X2X2XG.* % r w < % % % % % % ~.! ! ! ! ! ! ! ! ! ! ! ! ! ! ! ! ! ! ` ` ' ( ^ / / / / / / C C w.u.p.d.k U.|.-X%X%X:X:X%X=X=X$X$X@X$X$X$X$X<X1X1X1X1X1X1X1X<X3X2X2X2X2X2X2XiX6X[.[.[.[.#X-X=X3X2X3X2X2X2XrX}.c.a.p.p.p.p.q.C.V.",
"m m D p.e.0.0.0.k.,XrXrXrXrX2X7X#XJ.B.B.v.v.v.N.=X<X<X<X2X<X2X2X<X<X<X<X<X<X<X<X1X;X=X=X=X=X&X&X=X=X&X#X=X=X;X].].{ Z A Y w.w.T S _ _ ^ ( ( ( ( ( ~ ~ ` ` ` ` ` ` ! ! ! ! ! ! ! Q R Q Q Q Q ! Q % % % % w w 0 C.B.u 0 [.3X2X2X<XyXyXyX3X7X2X2X2X3XL.B.D.nXSXSXP.V.V.-X:X1X1X3X3X3XyX0XfXfXfXkXkXaX,X3X3X3X3X3X1X<X;X;X;X%XJ.L.L.b.a E ^ C T P P P P I T P P I I w.0.u.p.f.|.[.:X;X3XiXyXyXyX7X3XyXpXyXyXpXtX1X1X%X|.f.p.p.0.7.P P 7.w.P P T T I P T A ) ` ! l N.E.&X*X<X<X2X2X3X3X2X3X2X2X2XxXNXkXkXNX4X3X3X7X<X<X;X<X<X$XD.D.[.SXSXSXb n.P.=X1X1X1X1X1X1X3X3X3X2X2X2X2XD.& & u 0 * % % % % % < ~.! ! ! ! ! ! ! ! ! ! ! ! ! ! ! ! ` ! ! ` ~ ( ^ ^ ^ / / ^ / / C A ....| W /./.Y.-X%X:X%X%X:X;X$X%X#X#X*X=X*X1X1X1X1X1X1X1X1X1X2X2X2X7X2X2X2X%X& & & q q q q v.=X3X3X2X2X2X2X}.l.p.p.0.6.6.q.C.C.",
"m m { 7.6.6.6.6.s.,XrXuXuXrXrX7Xq 3 4 r r r r m.9X[.[.[.%X%X1X1X1X<X<X<X<X1X1X3X3X3X3X3X1X1X1X4X4X4X:X%X%X;X1XP.f ) A S _ / _ / ^ ( ( ( ( ( ( ( ' E E ! ! ` ` ! ! ! ! ! ! ! ! ! ! z z z z z z z % % % % * 0 * ].;X%XJ.#X3X2X2X2X3XuXuX2X3X2X2X3XB.N.N.9XSXSXSXnXY.B.-X-X-X1X3X3XyXtXtX}.OXfXfXfX}.,X2X3X3X3X1X1X<X;X;X;X;X].].%XN.m.E C C Y I P P I I Y T Y Y N Z U K K  .{ F.4X3X3X3X3X3X7X1X1X3XyX3X3X;X1X1X1X-X/.s.g.g. .T J J J J J Y Y T I I Y A / ~ ! x J.*X<X<X<X<X2X2X3X3X2X2X2X2X2XOX+X+X+XOX3X3X3X2X2X<X%XL.K.G.D.C.nXIXSXSXlXC.u D.-X1X1X1X1X3X1X3X3X2X2X2X2X1X1X2X7Xq 0 3 = = # # $ ~.~.~.~.~.z z z Q Q Q ! ! ! ! ! ! ! ! ! ! ! ~ ( ^ ^ ^ ^ ( ^ ^ ^ ^ ^ ( ( [ | } I.Q.%X:X1X:X3X3X;X*X$X;X3X3X3X3X3X1X1X1X1X1X1X2X2X2X3X8XiXyX8XqXY.m.m.y y s r y L.7X2X2X2XrX2X}.f.0.0.6.P 7.K I.C.",
"m m { 7.6.6.6.6.s.3XuXuXuXrX2X7X& $ . j m U./.sXn f 9 9 9 9 i u v C.-X1X1X3X3XtXtXtXtXtXrXwXtXtXtXtXrXwX>XrX2XN.1 _ Y Y _ / / ( ( ( ( ( ( ( ( ( ` E E ! ! ` ` ! ! ! ! ! ! z g g g 1 - - - 1 1 6 # * & % * * u ].>X>X1X3X2X2X2X3X2X3XrX2X2X2X4XB.u qX9XnXLXLXSXLXSXSX9Xv.v.G.4X3X3XtXtX,XyX0XyXyX,X,X3X3X3X3X3X3X;X:X;X;X;X].;X;XD.m.W / C A J I Y Y Y _ | | _ ~ E E R R z x V.4X2X2X2X2X3X2X1X1X3X3X1X1X=X1X:X-X9Xm.x n I.M.W | | Y Y H Y Y Y Y I J A ( ~ ! s L.1X<X<X<X<X3X3X3X3X3X3X3X3X3X>X,X3X3X3X3X3X7X3X<X1Xu q u 8 LXIXIXLXSXLXSXSXnXC.F.-X1X1X1X3X3X3X3X2X2X2X2X2X2XrX3X& $ $ & & u v B.$ % % % w w 0 % w Q ! ! ! ! Q Q ! ! ! ! ! ! ` ( ( ( ( ( ^ ( ^ ^ ^ ( ( / Y T  .I.Q.4X3X3X2XtXtXtXrXrX>XtXtXtXrX2X3X3X3X3X3X3X3X].D.B.u u u 8 u n.sXgXgXdX{ . 0 G.3X2X2X2X2X2X}.f.q.e.6.L P D I.V.",
"m m { 7.6.6.6.6.s.3XrXuXrXrXrX7X& # O hXkXjXgXgXm X ; ; > > ; ; 9 9 P.%X3X3X3XrXtXtXrXrXrXwXwXtXtXwXwXrXrXrX2XD.e _ Y Y _ ( / ^ ^ ^ ( ( ' ( ( ( ` E E ! ! ` ` ! ! ! ! ! ~.~.1 < < , % % # # = % C.u B.B.u u u ].>X>X,X>X>X>X2X2X2X2XrX2X2X3XB.v.N.bXSXSXSXLXSXSXSXSXaXv.v.-X3X3X3X3X3X3XyXyXyX4X,X,X,X3X3X3X3X3X,X:X;X;X:X:X;X;XD.n.W _ S S Y Y S _ _ ) ) ) ) E Q Q Q z z l m.%X2X2X2X2X2X3X3X3X3X2X;X<X;X1X4X0X|.I.n m U.M.W E ) ) A A A Y Y Y J Y A ( ~ E s L.1X1X<X<X1X3X3X3X3X3X3X3X3X3X2X3X3X3X3X3X3X3X3X<X<XB.u u A.SXSXLXLXSXLXSXSXSXA.v.F.-X1X1X3X3X3X3X2X2X2X2X2X2XrX2Xu B.Z.].,X3XtXiX& & & & * * * * e Q ! ! ! ! Q Q ! ! ! ! ! ! ` ' ( ( ( ( ( ^ ^ ^ ^ ( ( _ T 7...M.Q.4X3X3X3XtXtXtXtXtXwXtXtXtXtX3X3X3X3X3X3XtX$XB.u u i i i p d d zXkXhXl.g.. * G.3X2X2X2X2X2X}.f.e.0.7.P K { C.V.",
"m m { 7.6.6.6.6.g.3XrXrXrXrXrX7X&   O l.hXkXhXBXIXsX|.sXsXmXIXj n n P.-X-X6X8X8X3XtXtXtXtXtXtXtXtXtXrX2X2XrX3XS.e _ Y Y | ~ ( ( ( ( ( ~ ~ ~ ` ` ` E E ! ` ` ! ! ! ~.~.~.~.~.l < = = $ # # # # # P.G.].;X>X>X:X>X>X>X>X>X>X>X>X2X2X2X2X2X1XB.F.P.E.bXnXSXxXSXSXnXSXSXSXP.P.8X3X8X3X3X3X3X3X4X3X3X,X3X3X3X3X3X3X3X3X3X3X:X:X3X3X1XJ.m.W / / / / / ^ ( ~ E Q Q M.z z ! ~ _ Y ) k L.3X3X2X3X3X3XyXyX4X3X1X1X;X;X4X|.|.s.s.s.m x z z z h z h W ) A Y Y Y A ^ ( E s L.4X4X1X3X3X3X3X4X4XyX3X3X3X3X2X3X3X3X3X3X3X3X1X].].bXvXqXqXaXbXvXvXnXnXnXSXSX0X-XD.B.-X1X3X3X3X3X2X2X2X2X2X2X2X2X2X2XrXrXrXrXrXiX* * * * * * * & x ! Q Q Q Q Q Q ~.~.~.! ! ! E ' ( ( ' ~ ' ( ( ( ( ( ( S 7.7...M.P.8X3X3X3XtXtXtXtXrXrXtXtXtXrX,X:X%X].L.L.P.D.n.f 9 j n m m sXzXVXc.c.p.d.o * G.3X2X2X2X2XrX}.f.0.0.7.P P D A.F.",
"m m { P 7.6.6.6.g.3XrXrXrXrXrX7X&   W p.u.u.k.BXIXPXKXKXKXKXJXX n m I.Y.i 9 8 u 4XtXtXtXwXtXtXtXtXtXrX2X2XrX3XS.l _ J Y | ~ ( ( ( ( ( ~ ~ ` ` ` ! ! ! ! Q z z g g g 1 1 1 1 < * & & & & & & $ $ D.L.L.;X>X>XwX2X2X>X2X2X2X2X2X2X2X3XtXiXZ.v.8X8X8XqXSXSXvXnXSXSXxXSXSXnXnX#X6XB.8X3X3X3X3X3X3X3X3X3X3X3X4X4X4X4X3X3X3X3X3X3X;X:XD.n.W / ^ ^ ^ ^ ( ~ ! Q M.z M.l x ! V H J Y W J.3X2X3X3X3XyXyXyX4X3X3X1X1X:X4X|.s.s.s.s.m x l M.l l e e l Q E Z A A S ^ ( E s J.4X4X4X4X4X4X4X4X4X,X3X3X3X3X2X3X3X3X3X3X3X3X#XN.v SXLXLXaX0XbXvXvXvXvXvXvXxX0XiX8XJ.v.8X8X3X3X3X3X2X2X2X2X2X2X2X2X2X2X2X2X2X;X=X0 0 0 & 8 u u & , l l l l l e 1 l l l z z Q E ` ' ` ` ` ' ' ( ( ( ( ( | 7.7...M.P.8X3X3X3X3X2XtX3X2X2XtXtXtXrX%XG.V.d d f f f x p mXIXIXIXUXIXUXKXq.8.6...k * G.3XrX2X2XrXrX}.f.e.e.7.P P D A.F.",
"m m { P 7.7.6.6.5.,XrXrXrXrXrX7X&   W 0.u.u.k.AXPXKXKXAXCXBXCXsXs.s.sX/.o . j 9 4X2X2X2X>X>X2X2X2XrX2X2XrXrX3XS.l | J Y | ~ ~ ( ( ( ~ ~ ` ` ` ` ! ! ! z , < = < < % % % = % # & 4X:X].].G.G.B.B.].#X].:X2XrXrXrXrX>X2X2X2X>X2X>X>XtX4XD.u D.8X7X7XqXSXSXqX9XvXSXvXnXSXSXSX-XW.B.3X3X3X3X3X3X3X3X3X3X,X,X4X0X4X4X4X3X3X3X3X:X:X:XL.V.W ( ^ ^ ~ ~ ` ! Q z M.M.M.x x Q Z H L I W J.3XrX3X3X3XyXyXyX4X3X3X3X3X:X}.|.s.5.t.s.U.x z M.l l t y e z ! ~ Z V V ^ ( E m.L.4X,X4X4X3X4X4XyXeX,X,X3X3X3X2X2X2X2X2X2X2X1X6XD.v SXIXIXbX-X-XaXbXbXvXvXnXvXaXiX3X4XB.D.-X8X2X3X3X2X2X2X2X2X2X2X2X2X2X2X2X$X].%XB.G.K.$X:X,X1X& * % % % % % % % < < % < g Q E ` ` ` ` ` ` ' ' ' ' ' ' _ 7.7.} M.P.8X3X3X3X3X2X2X3X2X2X2XtX>X:XB.v.f 9 j { { { { { zXUXUXUXUXUXUXAX0.8.6...k r G.3XrX3X2XrXrX}.l.e.e.7.L P { A.F.",
"m m { P 6.6.6.8.q.,XrXrXrXrXrX7X&   W 7.8.9.0.q.x.hXkXkXBXBXAXHXKXHXBXkXh.f.f.g.-X%X].3X2X2X2X2X2X2X2X2X2XrXrXS.l _ _ _ ( ~ ~ ( ( ( ~ ~ ~ E ` ` ! ! ! z # $ % % % % # % % % % & ,X2X>X2X2X2X2X2X2X2X2X>X2X3X2XtXtXeX,X,XrX>X>X>X>X3Xu v.v.8X8X7X7X8XqXqX-XS.Q.aXL.bXxXSXFXSXnXnX4X8X4X3X3X3X3X3X3X4X3X4X|.s.|.0X4X4X4X3X3X1X:X2X%XP.W ( ^ ^ ~ E Q z M.M.m.m.m.s M.M.) Y L J } F.3XrXtX3X,XyX4XyX4X3X3X3X,X,X}.|.s.5.i.s.|.x M.M.l l s s d m.k W ~ V V C ^ E m.L.4X,X3X3XtXtXyX4X4X}.,X,X,X,X3X2X3X3X2X2X1XG.vXnXxXLXIXIX#XJ.D.[.[.4X4X4X4X4XiXyX3X3X4Xu u 6X3X3X2X2X2X2X2X2X2X2X2X2X2X2X2X2X2X2X2X2X2X2X2XrXrX& & % % % % % * 0 0 % % < l ! ` ` ` ` ! ` ` ` ` ' ' ' ' ' / / ~ M.P.8X3X3X3X3X3X2X2X2X2X2XG.u C.sXj s.kXkXkXkXBXZXHXHXVXgXhXkXgXx.0.6.6.P | h r L.7XrXrXrXrXrX}.l.p.p.7.L P D A.F.",
"m m { p.p.u.9.9.i.,XuXuXrXrXrX<X&   M w.6.6.6.8.u.hXBXAXHXHXKXPXIXBXBXBXp.z.z.x.8 u v 1X2X2X2X2X2X2X2X3X2X2X2XS.e ` ' ' ~ ~ ~ ~ ~ ~ ~ ` ` ! Q Q z z z 1 % * u u u & & & & & & & :X2X2X2X2X2X2X2X2X2X>X2X2X2X2XrXrXrXtXtXrXwX2X3XK.B.D.S.6X7X7X7X7X8X&X-XQ.S.S.Q.S.9XB.SXSXFXFXSXv B.N.1X3X3X3X3X3X,X4X'.5.f.s.|.0X4X3X3X3X1X,X3X%XL.k ) ( ) E z x C.F.D.P.D.n.C.I.M.) Y G J } J.3XtX3X3X3X3X3X3X3X3X3X3X3X3X}.|.s.i.i.s.|.U.).M.M.M.C.G.G.[.A.M.z W E ) ` Q m.L.8X,X,X,XeX,XeX}.sXs.%.|.}.4X1X1X1X1X3X%XJ.B.SXLXLXIXIXIXG.Q.P.P.[.}.}.}.}.{.4X3X3X3X4X6XQ.B.B.4X3X2XrX2X2X2X2X2X2X2X2X2X2X2X2X2X2X2X2X2X2X2X2X& & & & u v B.B.B.N.q % w l Q ! ! ! ! ! ! ` ` ` ' ' ' ' ' ( ' ` l P.8X3X3X3X3X3X3X2X2X2X2XH.q u sXk.x.hXkXkXBXBXHXKXGXVXkXhXc.9.9.8.6.7.Y X.k r L.3XrXrXrXrXrX}.l.p.p.u.u.u.q.A.F.",
"m m D a.p.p.u.9.i.,XuXuXuXrXrX<X&   W T P 7.8.9.9.c.BXHXHXHXHXKXPXgXKXKXf.c.c.hX9 8 u 1X2X2X2X2X2X2X3X3X3X2X7XS.e ` ' ( ~ ~ ~ ~ ~ ~ ` E E z 1 w = % = % u C.P.[.[.[.[.].].G.Z.B.2X2X2X2X2X2X2X2X2X2X2X>X>X2X2XrXrXrXrXrXrXwX2X4Xu q S.=X7X7X7X7X7X8X=X-XQ.S.S.Q.S.9XZ.SXFXSXSXSXqXP.N.1X1X3X3X3X3X,X}.s.i.0.i.sX0X4X3X3X3X3X3X,X;X#XM.R k k x C.P.-X1X1X%X[.P.A.|.{ U J J J } P.1X2X3X3X3X3X3X3X3X3X3X3X3X3X}.sXs.i.i.s.|.).).M.M.M.P.].{.].G.C.x g g k k I.N.L.8XeXyXyX4XyXyX+Xk.q.q.5.%.4X:X:X1X:X[.P.Q.B.LXLXDXIXIXLXG.Q.P.F.[.[.}.4X4X,X3X4X1X1X3X1X=XS.q B.1X2X2XrX2X2X2XrXrXrX2X2X2X2X2X2X2X2X2X2X2X2X2X%X-X%X:X;X1X1X;X;X].B.0 t l g g g h z Q ! ! ` ` ' ` ' ' ' ' ( ~ l P.8X3X3X3X3X3X3X3X2X2X2XR.u u sXx.z.c.hXhXhXc.kXAXBXkXc.z.a.8.8.6.7.I Y [ h 3 G.3XrXrXrXrXrX}.l.a.p.u.u.u.5.A.F.",
"m m { a.a.p.u.u.l.}.rXuXrXrXuX7X&   W S A T 8.9.9.0.l.x.c.f.k.kXKXUXUXUXBXkXhXgX9 u u 3X2X2X2X2X2X2X2X3X3X3X2XJ.y ~ ( ' ~ ` ' ` ` ` ` ` ! 1 * % % % # & B.].].{.;X>X>X>X2X2X2X2X>X>X2X2X2X>X>X>X2X2X2X2X>X>X>X2XwXtXeXOXOXwXwXK.v.q T.*X*X7X7X7X5X6X-X[.[.P.P.D.F.C.P.vXLXFXSXSXnXqX9X%X=X6X3X3X,X,X}.e.u.u.u.s.|.4X3X3X3X3X3X3X2X,XG.d v.v.v.L.:X;X;X;X:X:X].A.n  .K F J H } P.1X7X7X<X7X3X3X3X1X1X1X:X,X,X4XsXs.i.i.s.0X9X).I.I.I.[.{.{.{.].G.m.r y 3 u 0XyXyXtXyXyXyXyXyXyX+Xq.0.9.0.s.}.:X:X:XP.m.9XqX[.IXLXSXLXLXSXG.D.D.P.P.[.}.}.4X3X3X3X1X1X1X:X$X#Xu u ].2X>XoX{.>X2X2XrXrXrX2X2X2X2X2X2X2X2X2X2X2XrX2X2X2X2X2X2X2X2X2X;X%XL.C.3 , = = = = z ~.` ! ` ` ` ` ` ` ' ' ( z P.8X3X3X3X3X3X2X2X2X2X2X@Xu u m hXkXAXHXHXHXBXhXp.p.u.u.u.u.8.6.6.I Y _ ] z * G.3XrXrXrXrX2X}.z.a.a.u.u.u.e.C.N.",
"U.m { a.a.p.u.u.l.}.uXuXuXuXuX7X&   W _ S T 6.8.8.8.8.9.9.9.u.l.kXKXJXHXk.kXkXs.9 u v 3X2X2X2X2X2X2X3X3X3X2XrXQ.y ` ' ' ' ~ ` ` ! ! ! ~.^.z # % * # # # v ].[.:X>X>X>X2X2X2X2X>X>X>X2X2X>XyXbXaX,X3X3X2X2X2X>X>XtXyX+XfX+X,X:Xv.v.v.E.R.T.&XT.T.Q.Y.|.|.|.Y.Y.u n.C.:XaXaXSXLXFXFXJXnX0Xv.V.=X;X2X,X}.q.u.0.e.s.|.yXyX3X3X,X,X,X3X;XK.B.B.B.K.1X:X:X:X;X:X:X[.Y.m  .I F F H { Q.7X2X2X<X<X<X<X<X1X1X;X:X:X:X-XsXs.i.l.s.0X4X0X9X[.[.].{.{.{.].].[.L.B.v P.:XtXtXtXtXeX,XeXyXyX+Xe.0.0.e.j.,X1X1X%XN.u C.SXLXFXSXnXnXaXaXZ.v.u u d A.[.}.4X4X:X1X1X1X%X%X%X#XF.u B.:XOX+X+XoX2XrX2XrX2X2X2X2X2X3XiXyX>X2X2X2X2X2X2X2X2X2X2X2X2X2X;X;X%XY.< = . =     z ~.~.Q Q ` ` ` ` ` ' ' ' z P.8X7X3X3X3X3X3X2X2X2X2X*Xv.u X gXkXBXAXCXVXCXhXu.u.u.9.9.8.6.6.7.J S [ ] h * G.tXrXrXrXrX2X}.z.a.a.p.u.u.i.b B.",
"I.U.{ a.p.u.u.u.l.}.uXuXuXuXuX7X& . W _ _ Y 7.7.6.6.6.u.u.u.u.u.p.c.hXc.0.h. .o f d v 3X2X7X2X2XrX2X2X3X2X2XrXQ.y ` ' ' ' ` ` Q z z z ~.~.z % & & & # $ B.].[.:X,X2X2X2X2X2X2X>X>X>X2X2X>XyXxXbX,X,X3X2X>X2X2X>XwX+Xj.j.+X{.G.u v.S.H.T.W.W.J.Q.I.U.U.U.|.I.P.u n.P.4XaXaXxXnXFXFXFXLXqX8 d Q.%X2X>X{.%.s.s.s.+X}.tX3X3XyXyXyX3X,X,X:X:X:X:X].:X>X:X:X:X:X:X[.U.{ K F F H Y { Q.7X2X<X<X2X2X2X2X1X;X<X1X:X:X}.sXg.z.z.k.0X4X}.}.}.}.{.{.{.{.].].,X4X:X4X4X,XtXtX,XtXyXeXeXeXeX}.s.s.j.j.+X,X1X%XL.F.V.lXSXJXLXLXnXnXbXaXG.n.u a 0 C.|.|.|.}.-XL.L.L.G.G.H.H.S.v.u %XOX+X+XoXrXrX2XrX2X2X2X2X2X2XiXaXeX2X2X2X2X2X2X2X2X2X2X2X2X2X2X1X%Xu % #     8 & < e e w 1 z ! ! ` ` ' ' ' z P.8X7X3X3X3X3X3X2X2X2X2X*XB.0   sXkX5.c.hXBXkXz.u.u.u.9.8.7.I I I Y _ ( ] h * G.3XrXrXrXrX2X}.z.z.a.p.u.u.i.b B.",
"m m @ z.p.0.8.0.k.,XuXrXrXuXuX7X&   E _ / A L P P 7.7.6.9.9.9.9.9.u.u.u.0.M o 7 f B.Z.2XrX2X2X2XrX3X2X2X2X2X2X-Xy ` ' ' ' ` E g % * % % % # 8 4X3X4X-XP.].;X;X,X>X2X2X2X2X2X2X>X>X>X>X>X>X,XOXOX,X,X3X3X,X,X>X>X>X+X+X+X+XG.u q J.T.R.W.S.I.I.I.{ { /.U.I.f V.u n.A.iXtXpXaXbXxXFXNXFXFXLX* 0 B.3X2X2X,X,X,XeXtXeXrXrXtXyXyXyX3X,X,X>X>X,X,X3X3X,X,X,X3X,X-X|.g. .T K U U } I.#X7X2X2X>X>X2XwX{.{.{.{.>X:X:X-XsXg.l.a.k.0X}.}.}.}.}.{.{.{.,X:X:X,X,XeX,X,X,X,X,X,X,XtXtX,X,X3X3XtXtXtX2XrXrX2X#XN.Y.vXNXFXLXbXbXnXbXyXpX1Xv.u 0 r s sXsX/.sXsXI.Y.Y.P.P.P.P.F.v.u G.].yXaX,XrX3XrX2X2X2X2X2X2X2XyXyXeX2X2X2X2X2X2X2X2X2X2X2X2X2X2X2X3XtX3XuXrXuX4X# & % q q w g Q ! ` ` ' ' ' z P.3X7X3X3X3X3X3X2X2X2X2X<X].u i   zXhXp.u.p.p.9.u.9.9.8.8.L J Y Y S / ( ` g * G.3XrXrXrXrX2X|.l.i.p.8.6.6.q.C.S.",
"m m @ K 7.6.6.7.s.,XuXuXuXuXuX7X&   R / _ A P P P P 7.7.8.8.8.8.8.9.9.u.K o - t d B._.rX2X2X3X2X3X3X3X3XrXrX2X-Xy R ` ` ` ` ` g & % % % % # 8 4XrX2X2X>X>X>XrXrXrX2X>X2X2X3X3X2X2X>X>X>X>X,X{.eX>X>X>X>X>X>X>X>X>X{.{.{.{.Z.u q S.S.J.F.I.W /.{ { { /.s m.a N.0X-XL.iXuXuXtXyXaXLXNXFXNXFX0 r v.3X2X2X>X>XrXeXwXeXrXtX3XyXyXyX3X,X,X,X,X,X,X,X,X,X,X,X:X0X|.{  . .T  .W I.Y.[.2XrXrXwXOXOXOXXXXX XOXOX{.,X{.,X|.s.q.p.k.fXj.s.|.}.}.}.,X,X,X,X,X,XtX3X,X,X,X,XtX,X,XyXtXtXtX3X2XrXrXrXrXrXrX3XJ.n.Y.vXNXNXFXbXuXpXpXpXpX2X].[.P.C.s t y M./.(./.U.U.U.I.I.Y.F.V.u Z.>X>X,X,X,X,X3XrXrX2X>X>X>XrXrXwXrXrX2X2X2X2X2X2X2X2XrX2XrXrXrXrXrXrXrXrXrXrX%X& & % % q % 1 Q ! ` ` ` ' ' z -X8X7X3X3X3X3X3X3X2X3X3X1X=XV.$ $   . K 9.u.9.8.9.8.9.6.6.P J J Y C ( ( ` g * G.3XrXrXrXrXuX}.p.u.u.7.P P K I.P.",
"m m m K 7.6.6.6.s.,XuXuXuXuXuX7X&   R ( / A I P P 7.7.7.6.6.8.8.8.9.9.u.O . - g f C.Z.>XrX2X3X3X3X3X3X3XrXrX2X6Xa h R R Q z Q g # & & & & $ 8 4XrX2X2X>X>XrXrXrXrXtXtX3XtX3X3X2X,X,X,X,X,X{.oXwXwX>X>X>X>X>X>X>X>X{.{.{.>XB.0 q F.S.F.I.I.W k { { { m s y m.B.8XiX4XiXpXiXtXpXiXbXvXSXNXFXu q u 3X2X>X2X2X2X,XeXeXtXtX3X,XyXyX3X,X,X,X3X3X,X,X,X,X,X,X4XsX{  . . . . .m F.[.eXwXwXrXoX+XXXOX+X+XOXXXOXoXeX{.{.[.U.{ e.k.k.i.t.sX|.|.}.,X,X,X,X,X,X,XtX,X,X,X,XtX,X3XtXtXtXtX3X2XrXrXrXrXrXrX3XD.n.Y.nXNXNXDXbXuXuXuXuXuXuX3X4X-XF.m.y b.M./.(.(./././.U.U.I.I.F.u Z.:X2X3X,X,X,XtXtXwXwXwXwXwXwXwXwXwXwX>X2X2X2X2X2XrX2XrXrXrXrXrXrXrXrXrXrXrXrX%X& & q q q & , z z z R E ' ' z 9X4X7X3X3X3X3X3X3X3X3X%Xu v.C.j ; = . D 8.9.9.8.8.8.8.6.7.I J J Y C ( ( ` g $ D.3XrXrXrXrXuX}.p.u.u.7.P P K I.F.",
"m m m q.7.6.6.6.q.{.rXrXrXrXrX1X&   R / / A I L P P 7.7.6.6.6.8.0.e.l.5.. 5 g W { j Z._.{.,XrXrX3X3X3XtXrXrX2X1Xv.Q Q Q g e e , d [.].].Z.v u 8XrXrX2XrXrXrXtXtXtXtXeX}.eX2X,X,X,X,X>X>X,X{.{.oX,X{.eX>XwXwXwXwXwXwXwXwX{.B.q m.m.F.F.M.k ~.M.I.M.M.m.b.m.V.-XpXpXtXiXtXuXuXpXuXtXuXaXSXSXa 0 u 2X2X3X>XrXrX3X,X3XtXtXtXtXtXtXtX,X,X,X3X3X,X,X,X,X,X:XU.o..... .{ { U.P.P.eXoXwXwXwXoX+X+XOXaX+XOXOXOXeXeX,X,X:XE.P.U.s.p.u.p.s.dXsX}.:X,X,X,X,X,X,XtX4X,X4X4X4X4X4X,XeXtXtXrX2XrXrXrXrX2X2X3XN.a Y.nXnXnXnXiXuXuXuXuXuXrXpXpXiX0XP.0 b.b.y M.Q /./././.U.I.I.I.u B.,X,X,X,X,X,XeXtXtXeX{.OXOXoXeXwXwX>X2X2X2X2X2XtX{.OXeXrXrXrXrXrXrXrXrXrXrXrXuX3X2XrXrX2XB.3 : : ; 5 7 l z x [.3X3X3X3X3X3X3X3X2X2XK.& % k dXO 0 6 o  .f.f.e.8.8.6.6.7.I J J H / ( ( ` g $ B.tXrXrXrXrXuX}.p.u.u.7.P P K I.P.",
"m m m q.7.7.6.6.q.{.rXrXrXrXrX7X&   R / / S J L P P P 6.6.6.6.6.q..     = 1 g (.dXdXx u [.[.3XrXrXrXtXtXrXrX>X3XN.1 l 1 < w 0 3 b ].>XwXwX>X3X3XrXrXrXrXwX>X>X>X>XOXfXfX+XeXeX{.{.{.{.{.{.{.{.OX+X+X+X+XoXwXwXwXwXwX>X{.>XG.u a m.m.M.M.~.M.b.b.b.m.m.b.P.G.aXaXpXiXiXiXiXuXpXuXuXtXrXtXaXa q q 3X3X,X3X3X3X3X,X3XeXeXeXyXyXyXyX3X3X,X,X,X,X,X,X,X:X-X/...T T  .{ U.[.}.{.wXoXwXwXwXwX{.{.{.{.{.>XeXeXeXeX,XeX>X$X&XQ.sXi.u.u.f.h.sX}.:X,X,X,X,X>X,X4X4X4X4X0X|.|.|.|.|.4X3X3X2XrXrX2X2X2X2X8Xv.0 u 9X9X;X>XuXuXuXuXuXuXrXpXpXpXpXiX9XN.b.b.y y M.M.k /./.x s a a B.,X,XeXeXeX,XeXeX,X|.j.j.j.3..XoXoXwX>X>X>X>XrX,X+X+X+X{.>X>X>X>X>X>X2X2X2X2X2X2X2X2X>X>Xu 8 & $ $ $ 3 * i V.].3X7X3X3X3X3X3X3X].].].I.m dXd.{ g e - = = . f.8.6.6.7.P I J J H C ( ( ` g $ B.tXrXrXrXrXrX+Xp.u.u.7.P P K I.P.",
"m m m q.P 7.6.6.q.{.rXuXuXuXuX7X&   R / / S J I L L P P 6.6.6.7.D < % < j . o dXMXjX{ > U.U.-XtXrXrXtXtXrX>X2X;XB.% w % * q q B.B.[.rXwX>X>XtXrXrXrXrXrXwXwX>X>X>XOXfXj.fXOXeXOX}.}.{.OX{.{.{.'.t.t.t.j.}.eXwXwXwXwXoXoX>X{.G.a y y M.M./.M.m.m.b.m.b.N.[.aXaXaXaXaXaXaXiXpXtXuXuXtXrX:XD.y 0 q 4X3X3X3X3X3X,X,X3XeXeX}.sX+X+X0X,X,XyX,X,X,X,X,X:X:X-X{ ..T T  .{ |.}.{.{.oXoXwXwXwXwX>X2X2X2X2X>XeXeXoXeX,X}.,X;X*X&X|.q.q.e.f.h.dX}.:X,X,X,X,X,X-X9X0X0X|.U.s.s.g.g.s.}.4X4X3X2XrXrXrXrXrX#Xu q q q b.aXiXuXuXtXtXtXtXpXpXpXpXpXpXiXD.b.b.b.b.0 M.I.M.M.y r i a B.,X,XeXeXeXeXeX,X}.s.t.t.t.t.2.OXoXoXeXeX>X>XeXeXfXfX+XoXeXwX>X>X>X>XrXrXrXrXrX>X>XwXwX>X:X].].8 $ $ $ * * J.%X3X3X3X3X3X3X3X8Xu u & zXjXkXhXdXh e < w < . d.7.6.6.7.P I J J H C ^ ( ` g $ B.yXrXrXrXrXrX+Xp.u.u.7.P 7.K I.F.",
"m m m K P P 6.6.q.{.rXrXrXuXuX7X&   R / / S H J G L L P w.w.w.d.O % w % } d.} PXIXPXCXs.@ X v 4XtXtXtXtXtX2X>X1XL.0 q q q 0 u ].{.:X>XwXrXrXrXrXrXrXrXrXwXwXwX>X>XOXfXj.fXOXOXOXOXOXOXOXOXOX X2.i.i.p.i.|.OXtXwXwXoXoXoXoX{.{.N.m.y y w y w 0 0 a m.V.Q.#XaXaXaXaXnXSXSXbXiXyXiXiX8X-XP.v.a 0 & 8X2X,X,X3X3X3X,X,XyXeX}.k.k.k.|.4XyXyX4X,X4X,X,X,X:X[.{ ..T .. .{ |.|.'.'.}.}.OXeXwXrX2X2X2X2X2X2X,XeXeX4X}.}.}.[.[.|.|.{  .s.g.h.h.sX|.|.:X:X:X-XU./.sXsX/.{ d.w.w.e.s.|.0X0X4X3X2XrX2X2XrX#Xv.q q q q qXaX8X4XaXbXbXbXbXaXaXpXpXpX8XS.S.b.b.b.q y y y w 0 !.D.B.Z.,XeXeXeXeXeXeXeX}.s.p.p.u.e.%..X XoXOXoXOXoXoXoXfXfX+XoXwXwX>X>X>X>XrXrXrXrXrXwXwXrXrXrXrXrX2Xv u u u u v %X<X2X3X3X3X3X2XrX].b 9 s.x.kXAXAXCXg.DXj w w l W D U T I L J J J H / ^ ^ ` g * Z.yXrXrXtXrXtX+Xe.u.u.6.P P K A.D.",
"m m { K P P 6.8.q.OXrXrXrXrXrX7X&   R ^ / C A N H H Y M o o - - < w w = } z.kXIXIXIXPXHXkXsXC.-XyXyXtXtXtXtX>X,X].u B.G.Z.B.B.,X,X,XeXwXrXrXrXrXrXrXrXrXrXwXwXwXtX,X+X+X+XOXOXOXOXOXOXOXOXOXOX%.e.e.u.p.s.}.eXeXoXoXoXoXoX{.{.D.q & # #   & v.F.S.F.S.Q.E.0XaXaXaXnXFXIXSXaXaXiXqXq u u v.}.4X,X,X>XrX3XtX3XeXyXOX+X+X+Xk.k.k.sX4X,X,X,X3X4X,X,X,X:X[.{ | Y T  . . .s.s.s.s.s.s.s.+X,X2X2X2X2X2X>X>X,X}.sXg.g.g.s.q.q.s.{  . .f.f.f.f.h.sX:X:X:X-X/././././.} d.w.w.q.s.sX|.|.4X3X2X2X2X2X2X1X%X-X4X0Xq q b.Q.aXbXnXSXSXSXnXaXpXpXiXE.F.F.F.F.b.b.y w w < < G.,X4X4X,XeXeXeXeXeXeXeX}.k.l.e.e.e.5.2..XOXOXOXOXoXoXoXOXOXOXeXtXwX>X>X>XwXwXrXrXrXrXrXrXrXrXrXrXrX;XG.$X*X$X@XK.;X2X2X2X3X3XtX3XrXZ.m VXHXkXBXAXHXAXkXMX. w y w w y l E A H H H J A / ^ ^ ` g $ Z.tXtXtXtXrXtX+Xe.0.p.7.P P K A.D.",
"m m { w.P 7.8.8.i.OXrXrXrXrXrX7X&   R ^ / / A A N A S o e 1 e e e g h R g.BXHXPXPXIXIXIXCXk.X d B.4XtXtXtXtX,X,X:X%X;X;X;X].].,X,X,X>XwXrXrXrXrXrXrXrXrXrXrXwXtXeXeXOXOXOXOXOXOXOXOXOXOXOXOX|.gXkXgXhXp.s.|.eXoXoXoXoXoXoXoX{.[.P.F.* & % a F.P.S.v.N.Q.J.G.aXaXaXnXLXIXSXaXiXiX0Xu 0 0 u }.oX>X,X,XrX,XtX,XeX}.+X+XfXs.k.e.q.s.}.}.:X:X4X4X,X,X:X-X|.{ Y Y Y T K K T q.d.q.q.q.f.s.:X2X2X2X2X2X>X>X,X|.g.e.w.w.w.w.w.q. . .K d.d.d.f.f.sX:X:X:X[.U././././.} w.w.w.e.q.s.s.|.}.3X2X2X2X2XrX2XtXtXtX3Xq q q qXaXaXbXLXLXSXbXpXuX8X6XS.F.F.F.F.F.V.b.y y r i _.{.,XeXeXeXeXeXeXeXeXeX}.k.l.h.dXgX5.2..XXXXXOXOXoXoXoXOXoXeXeXtXtXwX>XrXwXrXrXrXrXrXrXrXrXrXrX>X>X>X1X2X2X2X2X3X3X2X2X2X3X3X8X[.].P.cXAXHXCXCXHXHXHXBXsXw y w w w b.y g E B N H H S ^ ^ ^ ~ g * Z.tXtXtXtXtXtX+Xp.u.p.K P P D A.D.",
"n m { e.7.0.9.u.i.OXrXrXrXrXrX7X&   h ^ / / C C ( E h e w e e g g ] o.o.jXBXAXBXkXjXx.f.q.7.D . f & 4XtXtXtXeX,X>X2X>X>X>X>X{.,X,X,XeXeXeXrXtXtXwXwXrXwXeXeXeXeXeXeXeXeXOXOXOXOX.X+X+XOX+X}.s.gXFXNXZXl.s.|.eXOXoXoXoXoXoXoX{.{.{.].G.D.v.a q u N.W.S.S.S.S.-X3XuXiXbXnXnXiXiXiXqXq 0 i u }.,X,XeXeXwXwXtXeX,XOX+X+Xk.f.e.w.e.s.|.[.4X4X4X4X,X,X:X4X|.{  .U Y Y I T T K K K w.q.q.d.s.|.[.,X2X2X>X,X}.s.w.7.w.w.d.q.g. .{ { { /.W o.f.f.dX:X>X{.{.|.U.U.U.U.{ w.w.w.e.q.5.j.+X}.3X3X2XrX2XrXrXrXwX>X%Xv.b.v.!.9XaXaX0X4X0XiX8X=XQ.W.F.F.F.F.F.F.m.a u N.F.A.[.{.{.,X,XOXOXOXoXOXOXOX+Xk.x.JXIXKX5.3.2.=.=..XOXOXoXeXeXeXtXeXeXtXtXtXtXtXrXrXrXwX3XtXrXrXrXrXrXwXwX>X>X>X2X>X2X2X2X2X3X2X3X& $ & j D e.x.hXhXkXBXBXkXdX(.(.W R g l e g g h E S A S C C ^ ~ g $ Z.tXtXtXtXrXtX+Xa.a.p.u.u.u.q.I.V.",
"b n { p.p.p.u.p.i.oXwXrXrXrXrX2X& # o / ^ ( E R g 1 < e e e g R M V S A J P 7.6.6.6.8.8.6.7.7.D > b 0XtXtXtXeX,X,X,X,X,XoXoX{.,X,X,XeXeXeX,XqX|.|.}.eXeXyXyXyXyXyXeXeXeXeXeX}.|.s.s.j.%.|.s.s.gXJXDXBXp.5.|.}.+X+X+XOXOXoXoX{.{.{.].].G.N.# % # b.S.S.F.F.S.J.&X7XuX7X1X3XiXv u u u d C.[.4X,X,X,XeX,XtXeXeXOXOX+X3.s.k.q.q.q.s.|.0X0X0X4X4X,X,X:X-X|.s.s.s.} } } U U U U T T T T T .. .s.4X2X,X>X,X}. .w.w.T { |.|.|.P.P.L.Q.Q.I.{ f.f.gX:X,X:X{.[.[.[.[.|.s.d.w.w.e.q.j.3.+X}.,XeXeXwXwXwXwXwXwX>X>X%XL.B.& 0 q -X6X6X8X=X6XH.S.F.F.F.N.F.F.a % & P.%X].{.}.{.{.{.OXOX+X+X+X+X+X+X3.x.x.JXUXKXq.k.j.r.j.j.3.+XOXeXeXeXeXeXtXtXtXtXtXtXtXtX0XsX/.0XeXrXrXrXrXrXrXrX>X>X>X2X2X2X2X3X>XrXrXD.  U.d.7.6.8.8.6.6.7.7.P J H N B B E R g 1 - . o o h E ( ( ( ~ . * Z.yXtXtXtXrXtX+Xa.a.a.u.u.u.q.I.N.",
"b n D a.i.p.p.p.k.oXwXrXrXrXrX2X& # g E E h g - < w 1 e 1 g R M B Z Y H G P P 7.6.6.9.8.8.6.7.q.O sXxX4X4X,XtXtXtX,X,XeXyXoXoXeXeXeXeXeXeX4X/.o.} |.}.yXyX4XyXyXeXeXeXeXeXeX}.s.g.g.k.g.g.f.e.k.JXCXkXp.q.s.s.s.s.s.s.|.OXoX{.{.{.].].].D.q & & v.F.S.P.S.S.F.E.7XuX7X<X8X8Xv.q u P.[.[.}.}.,X,X,X,X,XeXeX,XOXXX+X3.3.j.s.s.s.%.|.}.|.}.}.4X,X,X:X[.|.|.s.s.{ /.{ { { { { { { } ........{ 0X3X,X,X:X|. .T w. .Y.-X-X#X=X%X&X&X#XY.{ d.f.gX}.>X:X:X}.}.}.}.0XsXg.g.g.k.t.j.3.+XOXOXoXeXwXwXwXwXwXwX>XrX,X;X%Xq 0 q !.9X6X6X-X6XW.S.b.F.F.F.V.a * # & P.,X{.{.}.{.{.{.{.}.j.j.j.r.r.r.t.l.l.VXUXAXe.e.e.i.i.i.k.s.|.eXeXeXeXtXtXeXyXtXtXtXyX4XsX} X.sX4XrXrXrXrXrXrXrX>X>X2X2X>X2X2X3XtXyXiX[.  sXq.6.8.8.8.6.6.6.7.P I G H B B B M h g - . . . . g h h R Q - 0 Z.yXtXrXtXrXtX+Xz.a.a.u.u.u.q.I.N.",
"b b D a.a.p.a.a.k.oXwXrXrXrXrX2X& # = < w < w w w % e - g h W Z U U J G L L L P 6.6.9.9.9.e.f.x.BXKXcX  8 [.tXyXyX3X,XOX+XOXOXOXOXyXeXeXtX|.X.| ..sX|.4XyX4XyXyXeXeX,X,X,X,X}.g.d.w.x.z.l.l.p.f.kXc.c.hXhXhXl.p.p.l.q.%.OXOXoXoX}.{.%X:X%XJ.v.N.v.b.F.S.S.S.S.K.8XiX8X#XQ.u & & q 9X}.}.{.{.,X,X,X,X,XtX0X|.+X+X+X3.3.3.3.%.%.+XOXOXOXOXOXyXeX,X4X}.}.|.|.|.|.'.'.[.Y.Y.Y.Y.Y.Y.{ ...... .0X2X>X>X:X|. .P w. .Y.4X,X,X,X,X,X,XoX}.|.f.h.k.}.,X,X,X{.,XeXyXOX+X3.3.3.3.3.3.3.3.+X+X+XOXoXoXwXwXwXwXwXwX>XwX1Xv.b.v.m.b.Q.-XE.Q.S.V.b.F.F.V.m.u C.C.u P.>X>X>X,XoX{.{.{.}.s.i.i.u.u.a.hXhXhXkXBXhX9.0.p.c.z.u.e. .sX,XwXeXeXeXeXeXtXtXtX3XqXsXdXh.| (.qXtXrXrXrXrXeXyX>X>X>X>X,X,XtXtXZ.8 & cXNXjXx.e.0.0.0.8.6.7.7.7.P P I J H _ ~ R h g g l w # % % % % q q 0 D.yXtXtXrXrXtX+Xz.a.a.u.u.u.q.A.N.",
"b b D a.a.a.a.a.k.eXwXrXrXrXrXrXu & 0 3 < w w w w M.).zXsXsXsXdXg. . .K P P P P 7.7.e.hXkXAXAXZXJXGXsXX   c yXyXyX,XoXOX+X.XOXOXOXOXyXeXeX|.X.....g.sXsX4XyXyXeXeXeX,X,X,X,X}. .T T f.c.c.c.l.e.a.z.c.hXhXhXz.p.a.a.q.s.}.OXoXoXOXOX,X,X,X%X].[.u q 0 0 a n.N.D.-XqX9Xu q u [.[.B.[.OX{.oX{.,X,X,X,X,X,XsX(.s.fX+X3.3.3.3.2.+X+XOXOXOXOXOXyXeXeXeX4X}.}.}.}.'.'.'.[.[.[.P.P.P.P.{  ..... .0X2X>X>X{.|.K T T o.U.4XeX,X,XeXeXeXOX+X+Xs.sX|.,X,XtXtXtXtXtXtXyXOX+X+X+X3.3.3.3.3.4.+X+XfXXXoXwXtXwXtXtXwXwXtX,XB.B.B.u y u F.J.Q.S.b.m.m.F.F.i 8 P.%X%X4XeX,X,X,XoXoX{.}.}.s.p.u.u.u.c.kXkXkXkXBXc.u.p.c.hXc.e.T | sX{.wXeXeXeXeXeXeXeX4X|.sXdXg.o.X.X.sX4XtXtXrXtXeX+XoXtXwXtXeXyXeXyXv 9 $ FXFXGXVXkXhXhXc.x.e.e.e.w.w.7.T T ..(.sXsXsX).).).r # % # & & u P.[.[.3XtXtXtXtXtX}.z.a.a.a.u.u.5.A.v.",
"b n D a.a.a.a.i.k.eXwXrXrXrXrXrX].[.L.B.b i r w w m.).sXsXsXsXsXsXg.g.d.e.e.e.f.hXhXkXBXAXHXHXZXHXGXsX    }.aXaXaXeXOX+X3.+XOXOXOXOXyXyX4XsXX...d.g.X.} 0XyXeXeXeXeX,X,X,X,X}. .T T  .c.c.z.p.e.p.z.c.hXhXhXz.l.p.e.K s.}.OXoXoXoXoXeXeX{.:X{.[.u & * $ r n.V.V.D.N.N.u * 8 4XeXyXyXoXoXoXoXeX,X,XeXeX{.sX(.o.sX+X3.3.3.+X+X.X+XOXOXOXOXOXOXeXeXeXyX,XZ.v '.OX'.'.}.[.[.[.[.[.[.{  .| ..} 0X2X>X>X{.'.K T T o.|.}.eX,X,X,XeXoXOX+X+X|.[._.{.,XtXtXtXtXtXtXyXOX+X+X+X+X2.3.3.3.4.+XfXfX+XoXwXtXwXtXtXtXeXwXtX4X4X4XB.0 0 b.Q.P.F.V.m.m.n.r . $ A.>X{.,XeXeXeX,XeXOXOXOX}.s.f.e.u.p.c.kXkXkXkXkXc.u.p.hXhXz.7.T } sX{.wXwXeXeXeXeXeXeX4X/.} o.o.o.X.X./.0X4XtXtXtXeX+XoXoXwXeXeXyXyXyXu f X JXGXGXZXBXkXkXkXkXc.x.l.l.f.e.f.d.g.dXsXsXsXsXU.U.* $ 0 u P.4X,X,X,X,X3XtXtXtXrXwX}.z.a.a.i.u.u.5.C.u ",
"I.n { z.p.p.p.i.j.eXwXrXrXwXwXwXwXwXwX{.].].Z.B.q q I.sXsXsXsXsXsXg.g.f.l.l.l.x.kXBXBXCXCXHXGXZXAXAXmXzXNXxXqXqX0XyXyXOX.XOXeXOXOX}.0XsXsXo.X.o.o.X._ ] 0XeXtXeXeXeXeX,X,X{.}.{  . .U w.e.0.0.7.8.u.p.z.x.f.K T Y Y U s.}.oXoXoXoXOXOXOX{.{.}.}.[.A.v $ d C.P.C.i i f 8 $ 8 ,XwXeXoXOXOXOXeXeXeXeXeXeX4XsX/.sX|.+X+X+X+X+X.X.XOXOXOXOXOXOXOXeXeXeXeXeX]._.}.OX}.OX}.}.}.}.}.}.|. . .U } { 4XwX>X>X{.[.{ U ..d.s.|.yXoXeXeXOXOXOX+X+X}.%X%X:X>XtXyXyXyXtXeXyXOXXXXX+X+XXX+X+X+X+X.XfXNX+XoXrXrXtXwXwXeXtXtXeXeXeXwXH.v.0 0 V.F.F.V.V.C.8 & & 8 [.,X,XeXeXeXeX,XyXyXOXOX}.|.}  .T P P q.u.0.0.0.0.9.0.e.0.7.T } } sX{.wXwXeXeXeXeXeXeX4X{ X.o.o.o.X.X.(./.sXqX4X,XeXyXeXwX,X,XyX4X4X0Xb %.s.CXGXGXGXVXBXBXBXBXkXc.c.k.l.i.f.f.g.dXsXsXsX).).C.u u q & u ;XrXwX,X,X,X3XtX3XtXtX}.z.a.a.p.p.p.5.A.C.",
"b n @ K K 7.8.0.j.eXwXwXwXwXwXwXwXwXwX>XZ.v Z.{.{.].B.I./././.dXdXdXh.f.f.l.l.c.kXkXBXCXCXCXAXHXHXZXVXZXBXgX# # u 3XtX,X,X,XeXeX4X|./.X.X.X.~ ' ^.^.[ ] 0XeXwXeXeXeXoXoX{.{.{.|.m m U 7.7.7.7.7.6.8.0.8.w.Y Y Y Y Y U { OXoXoXoXOXOXOXOXOX}.}.{.}.}.}.u * * r 3 p 8 A.A.[.4X,XeXeXoXeXeXoXoXeX,XeXeX>X,X0X|.0X}.}.}.}.}.}.OXOXOXyXoX{.OXOXOXeXeXeXeX{.{.{.{.}.}.[.}.OX}.}.}.}.sX .U U W n 4XeXwX>X{.[.j W } ..g.sXOXoXeXoXyX4X}.}.}.}.:X%X:X;X>X,X3X,X:X,X,XoXoXyXoX{.{.OXOXOXOX}.}.aXOX{.wXwXwXwXeXwXeXtXtXtX>X2X].v C.C.n.I.C.m.m.* B.4X4X,X,XeXeXeXeXoXoXoXyXOXOXOXOXY.W ] | Y Y T u.u.9.8.9.8.9.6.w.T W /.|.|.{.wXwXeXeXeXeXeXeX4XW ] ( ' ' ` (.X.X.o.(.0X,X,X>X,X,X,X,X4X& q 9 BXkXkXkXZXJXHXCXBXBXBXBXkXhXc.z.l.l.f.f.g.dXzXzXsXI.* Z.>X>X].Z.].:XeXeXeX,X,X,X,X,X,X,X'.5.q.q.P P P K m C.",
"b n @ K K 7.8.0.j.eXwXtXwXwXwXwXwXwXwX>X{.{.wXoX{.{.G.= g h R R E W  .d.f.l.l.x.kXkXkXBXBXBXkXkXkXkXkXVXkXBX; # u 3XwX>X,X,XeXeX}.sXX.X.X.(.~ ' /.(.^.] 4XeXwXeXtXeXeXeX{.{.{.'.A.C.{ 7.7.7.7.7.6.8.8.8.w.Y U U U U D s.OXoXOXoXOXOXOXOXOXOX}.}.}.{.{.v 3 3 3 3 ; 8 {.,X>X,X{.,XeXoXoXoXoXoXwX>XwXwXeX,X,X4X:X:X}.}.}.:X,X{.{.{.{.;X{.yXOX{.{.>X{.{.{.{.{.].Z.G.G.].OX4X}.}.0XsX .U U m A.4XeXwXeX{.{.n W } ..d.s.OXoXeXeXyX4X[.[.G.].:X%X%X<X;X,X,X,X:X>X>X>X>X>X>X>X>XwXeXeXwXeXeX{.>X2XrXwXrXwXeXeXeXeXwX3X>X{.{.{.`.P.* & * i 0     ].tXwXeXeXeXeXoXoXoXoXyXyXoXoX{.[.I./.] ) ) T u.u.8.8.0.8.9.8.7. .W n [.}.}.wXwXwXeXeXeXeXeXyX).(.^.^.^.` (.X.X.X.X.4X,X3X3X,X,X,X,X4Xq % 9 kXkXkXhXBXkXkXkXkXkXkXkXhXx.x.x.f.f.d.o.} (.W Q z <   8 wX>X{.{.{.;XwXeXeXyX4X,X,X,X,X,X}.q.e.0.P P P K m C.",
"b n @ K K 7.8.0.s.OXoXoXoXwXwX>XwXrXwXwXwXwXwXwXoX{.Z.0 l z ` ` ` ' ' ' ' / Z Z U U K P 7.6.6.6.6.6.8.z.z.hX. 0 B.3X2X3X>XeXeXyX|.} o.o.o.X.` /.4X4X4X4XeXwXwXwXtXoXOXOXOX}.`.}.[.|. .w.7.P I T 7.0.0.8.w.U k U.U.|.|.'.OXoXOXOXOXOXOXOXOXOX}.}.oX}.{.v 8 8 8 $ $ v {.>X>X}.}.|.}.oXoXoXoXoXwXwXwXwX>X>X>X>XwX>X,X,X3X,X>X>X>X>X>X>X>XyXOXyX{.{.{.{.{.{.{.].].G.G.].4XOX}.}.|.s.} } { A.}.eXeXeXwX{.,X[.m { o.d.s.+XOXoXeX,X4X[.P.P.4X,X:X%X:X;X,XOXoX,X>X>X>X>X>X>X>X>XrXrXrXrXrXrX>X>XrXrXwXrXwXwXwX>X,X,X,X+X+X+X{.{._.& i 0 & Z.Z.8 Z.tXwXwXeXeXoXeXoXoXoXyXyXoXoXoX>X}.}.|.I.W K u.u.7.7.w.7.0.0.e.T { U.`.oXXXoX XOXoXeXeXeXtXtX4X4X9X|.U.M.X.(.o.o.X.4X,X,X,X,X,X,X,X,Xu % # BXx.f.w.w.w.P P P P P K F B ^ ( ~ ~ ` ` ^.` ` ` z w   & eXwXwXwXoXoXwXeXeXeXeX{.}.OXOXOX'.f.e.e.P P P K n C.",
"n m @ K K 6.8.0.s.OXXX+XXXXXoX>XwXwXwXwXwXwXwXwXwX].u u B.m.Q ` ' ' ' ' ( ( ^ C S S H I L 7.6.6.6.6.8.u.p.D 3 q B.3X2X2X2XtXeXOX|.} [ _ _ [ ] |.tXwXwXwXwXwXwXwXeXOXfXfX+X.X{.}.}.|.{ T I H N A A T T T T } M.[.}.'.'.OXOXOXOXOXOXOXOXOX+XOXOXOX}.`.{.}.}.'._.[.[.[.{.>X>X|.sXg.|.}.wXeXeXwXwXwXwXeXeXeXeXwXwX>X,XeXyX,X>X>X>X>X,X,X>XyXOXyXeX{.{.eXeXeXeX,X,X,X,X,XyXyX4X}.0XsXm m A.}.,XeXeXeXwXwXwX{.'.|.dXg.s.+XOXoXeX,X,X4X[.[.,X,X,X,X,X,XOX+X+X{.{.{.>X>X>X>X>X>XrXwXwXrXrXrXrXrXrXrXrXrXrX>XrX2X,X,X0X+X+X+X{.{.].A.B.B.v ].eX,X,XeXeXoXeXoXoXoXoXoXoXoXoXoXoXoX{.{.oX{.I.W U 7.P U Z Z U | U | _ W |.`. X.XXX+X+XOXeXeXeXwXwXwXwXeX,X,X|.] [ [ [ ] 4X,X,XeXeX,X,X,X,Xv.q % g (...T I I I J H H H H A ^ ' ' ' ' ' ` ^.` ` ! x u     ,XwXwXwXwXwXwXeXeXeXoXOX+X+X4.XX2.q.q.q.P P P K n C.",
"m m @ q.K 6.8.0.k..XXX4.4.XX X{.wXwXwXwXwXwXwXwXwX_.].tXtX].l ~.` ' ' ' ' ( ^ / S S H I P 7.6.6.6.6.8.u.s.. r q N.,XwXwXeXeXeXOX|./.( ^ [ [ /.0XwXwXwXwXwXwXwXwXwXOXfXj.j..X}.}.}.[.{ Y H A C / ~ _ S Y A } M.'..X X X XOXOXOXOXOXOXOXOX+X+X.X.XoXoXoXoX{.`.{._.{.{.>X>X,X|.s. .sX}.eXeXeXwXtXwXtXtXtXtXtXtXtXeXeXeXyX,X,X>X>X>X,X,X>XyXOXyXyXeXeXeXtXtXeXeXeXeXeXeXeXyXyX}.0X[.A.A.'.eXeXeXeXeXwXwXwXwXOX}.|.sXfX3.OXoXoX,X,X,X,X,XeXeXeX,X,X,XOX.X+X{.{.{.,X>X>X>XrXrXrXtXtXrXrXrXrXrXrXrXrXrXrXrXrXrX3X3X}.+X+X+X{.{.{.}.}.].[.{.eXeXeXeXoXoXOXOXOXoXoXoXoXoXoXoXoXoXoXoXoX{.I.W A Y A _ ~ E ] ) [ [ [ } |.`. XXX+X.X+XOXeXeXwXwXwXwXwXwXwX>X}./.[ (.X.X.4X,X,XeXeX,X,X,X,XB.q q w dXT T I I J J H H A A C ( ' ' ' ` ' ` ` ^.` ! Y.4XZ.  eXwXwXwXwXwXwXeXeXoXOXOX+X+X4.XX3.f.q.e.P P P D n C.",
"m m D q.K 0.e.e.k.XXXX4.4.4.XXoXwXwXwXwXwXwXwXwXwXtXtXtXwX].& w Q ` ` ` ' ( ( / S A J P 7.7.7.7.7.7.D m 3 r 0 n.N.,XwXeXeXeXeXoX}.sX' ' [ ^.0XyXwXwXwXwXwXwXwXwXwXoX+XfXfX+XOX}.'.'.{ Y A S V ~ E ( _ _ _ } x [.OXOXOXOXOXOXOXOXOXOXOX+X+Xj.j.2..X XoXoXoX{.,X{.{.{.,X,X,X}.sX .sX}.eXwXwXwXtXtXtXtXtXtXtXtXeXeXtXeXtXtXeXeX>X2X>X>XwXyXyXyXeXeXtXtXyXtXtXwXwXwXwXwXeXeXeXeX,X{.{.{.{.oXoXeXeXeXtXwXwXwXwXwXoXOX+X+XOXoXeX,X,X,XeXeXeXeXeXtXtXtXoXoXOXoXoXwXwXwXwXrXwXwXrXrXrXrXrXrXrXrXrXrXrXtXtXrXrXtXeXtXOX+X+XOX>X>X,X,X,X>X,X,XeXeXeXeXOXOXk.k.j..XoXoXoXoXoXoXoXoXoXoXoXOX|.{ _ A S _ ] Q ~.! ] ] [ } |. X X+X3.3.fXOXoXeXwXwXwX>XeXeXeX,X{.|.W W ] ] 4X,X,XeXeXeX,X,X,XD.& & 0 /.(. .J I J H Y A S C ^ ( ' ' ^.^.^.~.~.M.l l B.uXrXwXwXwXwXwXwXwXeXoXOXOXXX+X+X+X+X+X3.f.e.e.7.P P D m n ",
"n n @ D D f.p.p.k.+XXX+XXXXXXXtXwXwXtXwXwXwXwXwXwXwXwXwXwXZ.q & I.sXlXsXdXdXg.....T f.f.l.l.l.l.e.h.. i d A.'.'._.eXwXwXeXeXoXoX}.}./././.).4XtXtXwXwXwXwXwXwXwXwXoX+XfXfX.X{.{.{.}.{ A A _ W h h _ _ S _ } n |.OXOXOXOXOXOXOXOXOX.X+X2.j.i.i.j.+XOXOXoXoXwXwXwXoXwXwXwXwXeX}.|.0XyXtXtXtXtXtXtXtXtXtXtXtXtXtXtXtXtXtXtXtXtXtXtXtXtXtXtXtXyXtXtXyXpXpXpXtXtXtXrXrXtXtXtXtXwXtX>X>X{.{.{.oXeXeXeXtXtXtXwXwXwXwXeXOXOXOXoX{.>X,XeXeXtXtXtXtXtXtXtXeXoXoXoXeXeXrXrXtXrXrXrXrXrXrXrXtXtXtXtXtXtXtXtXtXtXtXtXtXtXeXOXOXoXwX,X,X,X,X,X,X,X,XeXeXeXOX+Xz.a.z.+X.X XoXoXoXoXeXwXoXOXOXOX|./._ _ _ _ W I.I.M.~.] [ } '. X.X+X+X.XOXoXeXeXwX>X>X>XwXwXwXwXoX}.|.U.U./.4XeXeXeXeXeX,X,X,X_.Z.[.8 & & g d.T w.d.g.g.o.o.(.(.(.(.(./.).).).b.% # & iXrXrXwXwXtXwXwXtXeXoXOXOXOXXX+X+X+X+X3.p.i.p.P P P K m n ",
"b b @ c.l.l.l.l.k.OXoXOXOXoXoXwXwXwXtXwXwXwXwXwXwXwXwXwX{.].u 8 P.[.|.sXsXs.dXh.x.x.c.hXhXhXk.l.i.g.j * 8 A..X.XOX,XwXeXeXoXoXoX{.{.9XqXqX0XtXtXtXrXrXwXwXwXwXwXwXoX}..X.X.X X`.`.'.U.} ) { A.A.n ) ) ) ) { |.}.}.OXOX XOXOXOXOXOX+X3.j.j.i.i.5.3.+XOXOXoXoXwXwXoXwXwXwXwXtXtX4X4X4X3X4X4XyXyXyXtXyXyX4X4X4X,XyXtXtXtXtX,X,X,X:X:X:X3X3X3X,XeXeX,X{.].].%X%X,XtXrXtXrXtX3X,X,X3X,X,X{.{.oX{.eXeXtXyXyXyXtXtXeXeXeXoXoXoX{.,X,XeX4X4X:X:X:X,X,X4X,XoXOXyX:X:X{.{.{.:X,X,XtX3XtXtX3X4X:X:X:X:X,X3X,X:X%X[.].[.[.[.}.oXwXeX>X>X>X,X,X,X,XeXeXOX+X%.i.p.i.3.2..XoXoXoXoXwXwXoXOXOXOXOX|.) ] ] ] I.[.'.I.I.~.(./..X X X+X.XoXoX{.>X>X>X>X>X>XwXwXwXwXoX,X}.}.}.}.,XeXeXeXeXeX,X,XeXyXyXyXu & & = dXh.h.gXgXgXgXgXgXdXdXdXsXsXsXsX|.m.u 8 & :XrXrXwXtXtXtXwXwXeXoXoXoXoXOXOXOXOX.X3.z.a.p.e.e.e.q.m n ",
"b b @ z.z.l.p.p.k.OXwXwXtXtXtXrXwXrXwXwXwXwXOXOXoXoXoXoXoXoXoX`.Z.N.q Y.sXs.dXh.x.x.hXhXhXhXk.k.s.{ 9 9 $ 8 XX.X.XoXwXwXeXoXoXoXoX{.oXeXOXeXeXeXeXeXeXwXwXwXtXwXoXoXoX.X.X.X.X X X X|.I.I.`.oXoX'.f x M.x m .X X.XOXOX XOXoXoXoXOX+Xk.i.i.p.e.q.5.s.+XOXoXoXoXwX{.wXwXeXwXwXtXv.u u 8 8 $ 8 Z._.{.].v 8 & 8 8 u u ].].v u u u u u u u 8 u B.].].G.B.B.v u u u B.].{.]._.v u u u B.].{.{.{.,X,X>XZ.u u 8 8 8 u Z.].{.oXoX{.{.{.].v u 8 8 8 8 u u v Z._.Z.u u u u u u u u u G.G.].B.B.B.B.v.v B.Z.].Z.B.C.v v d B.Z.,XwXwX>X>X>X>X>X,XwXeXOX+Xs.f.p.p.p.p.i.j.oXwXwXwXwXwXwXoXoXOXOXOXx M.M.M.'..X X.X'.'..X.X X X X.XOXoXoXoX>X>X>XwX>XwXoXoXoXoXoX>X{.>X>XwXwXwXeXeXeXeXeXeXOXOXOXOXv & & % /.U.U.gXgXgXgXgXgXgXgXdXsXsX/.I.f v {.oXoXoXoXwXwXoXOXoXOX.XOXoXoXwX>XwX>X>X>X>X+Xz.a.a.p.a.a.q.m n ",
"b n @ z.a.p.l.p.k.}.eXtXtXtXwXrXwXrXrXwXwXoXfXfX+XoXoXoXoXoXoX`.Z.m.q b.mXs.h.g.h.h.x.hXhXjXo > ; 7 9 $.$.$..X.XXXOXoXoXoXoXoXoXoXoXoXeXoXoXoXOX+X+X.XoXoXoXoXoXoX X.X=.=..X.X.X X X.X[.'. X X X'.f x k k m .X.X.XOX X XoXoXoXoX}.+Xk.p.p.u.0.0.0.s.|.OXoXoXwXwXeXeXwXeXwXtXyXu u 8 b 9 9 8 _._._._.Z.n n n b A.D.G.Z.G.lXsXsX|.U.U.|.|.|.v Z.Z.Z.B.c c c 8 v Z.].].].].v v 8 u B.Z.{.,X,X,X>X>X].u C.b + 8 8 Z.Z.{.{.{.{.{.{.Z.u n %.+ 8 9 u u v v Z.c cXlXU.b b b 8 8 u N.B.G.A.A.A.8 8 v A.v Z._._.c v u u b B.eXwXwXwX>X>X>XoXoXoXoXOXsXg.e.e.e.e.e.0.l. XwXwXwXwXwXwXoXoXoXoX{.M.k k n '..X.X.X X.X X X X X X X.X.X X X X X X X XoXoX+X4.XXoX>XoXwXwXwXwXeXeXeXeXoXeX{.oXXXOXOXv A.Z.u % % % zXgXgXgXgXgXdXs.s.sXsX/.f 3 9 $.oXoXoXoXoXXXXXXX X.X.X.XoXoX>X>XwXwXwXwX>X+Xz.a.a.a.a.a.q.m b ",
"b n @ z.a.a.p.p.k.}.eXeXtXtXwXrXrXrXrXwXwX XfXfX+XoXoXoXoXoXoX`.Z.& & % zXdXdXh.h.h.dXg.g.{ g 2 3 ; ; +X2.2..X=.XXOXoXoXoXoXoXoXoXoXoXoXoXoXOX+X3.3..X XXX*..XoX XXX=.4.=..X.X.X.X.X.X.X.X=.=.=.'.m m m m %..X.X.XOXOX XoXoXoXoX}.+Xk.p.p.u.0.0.w.g.|.OXOXoXwXeXeXeXwXeXeXtXyXu 8 b FXFXmXb Z.Z.Z._.Z.IXUXIXLXb B.B.Z.B.cXUXUXUXUXUXUXUXIXu B.Z.Z.v xXLXFXFX8 Z.Z.].]._.nXIXLXSXv Z.{.{.{.{.>X{.].u v LXIXIXn v Z.].{.oX{.{.].B.u + IXIXFX9 8 u B.v v v IXUXUXUXIXUXUXUXu v.v.B.xXIXIXLXNXlXA.A.Z.A.[.SXmXmXI.d B.,XwXwXwX>X>X>X{.OXoXoXOXsXg.f.e.e.e.e.p.z..XwXwXwXwXwXwXoXoXoX X X|.m m %.%..X=.=..X.X X X X X.X.X.X.X*.*.*.*.*.*.*.XX.X3.1.4.oXoXoXwXwXwXeXeXeXoXoXoXoX{.oXXXXXOXOX+XOXv % % % /.{ { sXs.sXsXsX{ { { k A.c 8 _.oXoXoXoXoXXX+XXX XOX.X XoXoX>X>XwX>X>XwX>X'.z.a.a.a.a.a.q.m f ",
"n n @ z.a.l.p.p.k.}.eXeXeXwXwXrXwXwXwXwXwXoXXXXX XoXoXoXoXoXoX{.{.{.[.b h h h Q R R R h h g t a 3 X X 2.*.*.=.2.2..X.X=.=.=..X.X XOXoXoXoXoXoXoX+X3.4.,.<.#.4.XXXX4.2.=..X.X.X.X.X.X=.=.=.2.2.2.2.2.%.2.2.-.2..X.X.X.X.X.XoXoX{.{.+Xs.s.w.w.T w.d.s.|.4XeX,XoXeXeXeXwXeXwXwXeXu 8 n PXPXIXc v Z.Z.Z.Z.IXUXUXIXv B.S.G.B.xXUXUXUXUXPXUXUXIX& B.B.B.u sXPXKXPX8 B.Z.].].].LXPXPXDXv Z.{.{.{.{.{.{.].u u IXPXIXm u B.Z.{.oX{.{.].B.u 8 UXUXUXsX8 i v v c 8 IXUXUXUXUXUXUXIXu v.v.S.b IXKXPXPXFXA.A.B.v 8 UXPXPXn u v {.wXwXeXwXwX,XOX+X.XoXOX+X|.%.g.w.7.w.e.k.}.rXrXrXoXoXoXoXoXXX4.*.4.,.&.-.2.2.2.2.=..X.X.X XXXXXXXXX*.*.*.*.*.*.*.*.*.*.3.1.4.oX{.oXoXoXoXOX.X.X.X+X+XXX.XXXXXXXXXXXXX.Xc u 0 0 1 g h h R R R R z z z k $. X X X XoXoXoXoXXXXX+X XoX XoXoX>X>X>X>X>X>XwXwX'.z.z.a.a.a.a.q.m b ",
"n n @ l.p.0.0.0.t.OXeXeXeXeXeXwXwXwXwXwXwXoXoXoXoXoXoXoXoXoXoXoXoXoX{.v e e e g l l g l l y i I.$.2.2.2.*.=.=.=.4.4.3.3.4.1.1.4.4.XXoXoXoXoXoXoXoXXX4.,.#.#.,.XX.X.X.X.X.X.X.X.X.X.X.X.X=.2.2.2.2.2.2.2.-.-.4.2..X2.3.3.3. XoXoXoXOXOX%.g.d. .s.sX|.}.,XoXeXeXeXeXeXeXeXwXwXtXu 8 I.PXPXPXm v Z.Z.Z.Z.IXUXUXIX8 v.u lXlXUXUXUXUXUXUXUXUXPXLXSX8 u u sXPXKXPXc Z.Z.].].].LXPXPXLXv Z.{.{.{.{.{.{.].u u IXPXIX|.u B.Z.{.oXoX{._.v u 8 UXUXUXlX8 0 8 IXIXIXPXUXUXUXUXUXIXJXsXU.u u 8 UXKXKXKXPXb b u u 8 UXKXPXU.u v {.wXwXeXeXwXoXOX+XOXoXoX X.X.Xs.w.7.w.%.fX{.rXrXwXOX+X+X XoXXX4.,.,.,.&.-.-.2.-.2.=..X.X.X XXXXXXXXXXX*.*.*.*.*.*.*.*.*.4.4.XXoX{.oXoXoXXX4.4.4.4.4.+X+X+XXX*.XXXXXX X X.X'.'.c 9 1 g g g g g g g l e 7 $. X X X XoXoXoXoXoXoXoXoXoXoXoXoX{.>X>X>XwXwXwX{.'.z.p.p.a.p.p.K m n ",
"n n @ K q.q.0.0.t.OXwXwXeXeXwXwXwXwXwXwXwXoXoXoXoXoXoXoXoXoXoXoXoXoX{.v w w e e e e t t y m.V.8 -.&.&.-.*.=.=.=.=.4.fXfX3.1.j.1.4..XoXoXoXoXoXoXoXoXXX,.1.1.,.XX.X.X.X.X.X.X.X.X.X.X.X=.=.=.=.=.2.=.2.2.3.:.-.2.2.2.1.1.3.OXoXoXoX{.oX.XsXh.s.%.+X}.OXOXoXoXoXoXoX{.,XeXeXwXeXu u |.PXPXPXA.B.Z.Z.Z.v SXUXUXUX8 u b UXUXPXIXSXSXSXSXSXmXKXPXUXb u u |.PXKXPXb Z.Z.].].].LXPXIXLXv Z.{.{.{.{.{.{.].u u IXPXPX|.u B.Z.oXeXoX{._.v u 8 PXPXUXlX8 0 8 IXUXUXNXFXIXIXIXIXGXKXIXcX  & 8 UXKXPXKXIXmXsX8 8 & IXKXPXU.u v {.wXwXwXwXwXoXoXOXoXoXoXoXoX Xs.w.7.g.'.OX{.rXrXwX+X3.4.XXoXXX4.,.,.&.,.2.2.2.2.2.=..X.X.X XOXOXXXXXXX*.*.*.*.*.*.*.*.*.*.XX XoX{.oXoXOX4.3.,.4.4.4.j.fX+XXX*.XXXXXX X XXX.X$.$.c 9 e e e e e e w r r b $. X X X XoXoXoXoXoXoXoXoXoXoXoXoXoXoXoXoXoXwXoXoX.Xe.0.0.7.P K D m n ",
"n n @ K K 6.8.8.t..XoXoXOXoXoX X+X.XOXoXoXoX{.{.{.oXoXoXoXoXoXoXoXoXoX_.a a y 0 0 y a a a B..X=.&.&.-.&.=.=.=.2.2.fXfXfX3.3.3.j.3..XoXoXoXoXoXoXoXoXoX.X4.4.+XXX.X.X.X.XOXOXOXOXOX.X.X.X.X.X.X=..X=.2.2.2.2.3.2.+X4.j.j.2.OXoXoX{.{.oX{.{.'.'..XOXOXOXoXoXoXoXoXoXoXoXoX{.{.{.v u |.PXPXKXn v Z.Z.Z.Z.nXUXIXUX& u 8 PXUXKXsXB.G.G.G.D.lXIXPXPXb u u |.PXKXPXI.Z.].].].].LXPXKXLXv Z.{.{.{.{.{.{.].v.u IXKXPXsXu B.Z.eXOXOX}.Z.v u 8 PXUXUXcX8 8 8 UXUXIXlXu B.B.N.v UXIXPXxX  * 8 IXKXPXPXPXKXKXUX$ & SXJXKXsX8 v {.wXwXwXwXwXoXwXoXoXoXoXoXoXoX.Xs.s.%.{.>XrX>XrX>X+X4.+XXXXXXX4.4.4.,.2.2.2.2.2.2.=..X XOXOXOXOXOXXXXX+X+X+X+X4.4.=.XXXX.X X XoX{.{.oX.X=.3.3.4.4.4.j.j.fX+X4.XXOXOX+X.X X.X=.$.$.$.i r r 0 r r 0 0 u '.'. X XoXoXoXoXoXoXoXoXoXoXoXoX.X+X2.2..XoXoXoX X X2.e.0.e.7.P P K m n ",
"n n @ q.K q.0.0.t..XXXXX.X2.4.4.1.j.3..X XoXoX{.{.{.`.`.`.`._._._.oXoX{._.Z.Z.c c c c $._..X*.&.&.&.-.2.=.=..X.X=.fXfXfX+X=.=.2.XX XoXoXoXoXoXoXoXoXoXc 8 8 8 8 8 8 8 8 8 8 8 8 & & _.`. X X.X.X.X.X.X.X`.`. X.X+X3.3.3..XoXoXoX{.{.{.{.{.{.}.OXOXOXOXoXoXoXoXoXoXoXoX{.{.{.,XB.v |.PXPXKXb B.B.Z.Z.Z.cXUXUXUX8 u & IXPXKXlXv Z.G.G.G.lXIXPXPXn u u |.PXKXPX|.Z.].].{.].SXKXKXLXB.Z.{.{.{.{.{.{.].B.u IXKXPXlXv B.Z.yXxXnX0XZ.v u 8 UXUXUXmX8 8 8 UXUXIXlXv Z.G.H.v IXUXPXlX& & 9 IXPXPXPXPXUXUXPX$ & cXKXKXsXu v ].wXwXwXwXwXwXwXoXoXoXoXoXoXoXoXoXoXoXoXwX>X>XrXwX=.4.4.1.3..X X X`..X=.2.2.=.2.2.=.'.'.|.8 8 8 8 X X 8 8 8 8 8 8 8 8 v `.{.{.{.{.oXoX X X.XXX.X X=.3.j.fXfXfX.X XoX.X.X.X.X=.=.$.$.$.c c c c c c c c }. X X X X`.`.{. XoXoXoXoXoXoX.X3.1.1.j.1..X X.X=.*.-.e.0.e.7.P P K m n ",
"n n @ K K 0.0.0.r.XXXX4.=.3.1.1.1.y.j.4..XOXoX{.{._._._.Z.Z.Z.v _.oXoX X`.`.`. X X X X X X*.*.&.&.&.&.2.=..X.X.X=.fXfXfX.X.X X'. X XoXoXoXoXoXoXoXoXoXv 8 8 8 8 0 8 0 u i i 0 * 3 * }.}.'. X X X X X.X X`.`.{..X+X3.3.3.+XoXoXoX{.{.{.{.{.oXOXOXOXOXOXoXoXoXoXoXoXoX{.{.{.{.{.B.v lXPXPXKXn B.Z.Z.Z.c cXPXPXUX8 u & IXPXKXlXv Z.G.G.G.lXIXPXPXU.u u |.PXKXPX|.Z.].].].].SXKXKXIXB.Z.{.{.{.{.{.{.{.B.u IXKXPXlXB.B.Z.aXvXNXxXZ.v u 8 UXUXUXmX3 8 8 UXUXUX|.v Z.G.H.v UXUXPXlX& & b UXPXPXPXUXUXUXDXmXn cXKXKXlXu u ].wXwXwXwXwXwXwXoXoXoXoXoXoXoXoXoXoXoXwX>X>X>XrXoX3.1.1.y.1..XoXoX{.}..X=.2.2.2.2.=.'.A.b ; ; ; . . ; ; 9 9 9 9 9 9 f b }.`.{.{.{.{. X X X X X X`.`.3.j.j.fXfX.X XoX X.X.X X.X=.$.$.$..X X X X XOXOXOXOX X`.`.$.c c `.`.`.oXoXoXoXOX.X1.1.j.y.j.=..XXX=.*.3.e.0.e.0.P P K m n ",
"n n @ K K 0.u.i.t.2.4.4.4.,.1.1.1.j.j.j.=. XoX{.'.Z.Z.[.|.|.A.b }.oXoXoX`. X X X X X X X.X*.*.&.&.=.=.=..X X X.X.X+X+X+X.X X`.'. X XOXoXoX{.Z.Z.Z.].Z.V.v.v.d d u u q 0 0 u d d a C.v.u v  X X X X X X X XoX X.X3.j.j.j.j..XoX{.{.{.{.oXoX`..XOXOXOXOXOXoXoXoXoXoXoXoX{.{.{.{.Z.v cXUXUXKX|.b v v c NXVXPXPXUX8 u & PXPXPXcXv Z.G.H.G.lXIXPXPXU.u u |.PXKXPX|.Z.].].].].SXKXKXUXv Z.{.{.{.{.{.{.{.B.v IXKXPXcXB.B.v nXSXNXvXc v u 8 PXPXUXDX* * 8 IXUXUXqXB.B.G.H.v UXIXPXlX& * b UXUXPXLXLXUXPXPXPXzXcXJXKXcX8 v ].wXwXwXwXwXwXwXoXoXoXoXoXoXoXoXoXoXoXwXwXwXwXrX{.3.j.y.y.j.=.oX{.{.{..X2.2.2.2.=.=.%.7 g o > > > > 9 9 j j j j j x f f b c A.Z.c '. X X X.X}.{.{.`.2.3.3.+X+X X X{.oX X`.`.=.&.=.=.=.=.=.*. X X X X XoXOXaXxXqX|.A._._._.`.`.oXOXOX2.3.3.1.j.j.4.=.*.4.-.:.e.e.e.0.P P K m n ",
"n n @ K K 0.u.u.t.2.4.4.4.4.,.,.4.-.1.j.=. XOX}.'.v v xXLXLXLXLXSX}.`.`.`. X X X X X X X.X=.=.=.=.`.`..X XoX X.XXX+X+X+X+X X'.`. X X XoXoX,XN.D.D.B.N.V.C.lXSXSXLXIXIXIXIXIXIXLXLXSXv.u v  X X X X X X.X.X X X=.3.j.j.j.j..XoX{.OXoXOX X X.X.X.X.X.X.X.X.X X XoXoXoXoX{.{.{.{.Z.v b SXPXHXAXGXGXFXFXKXKXPXUXIX8 u & IXPXPXcXZ.G.G.H.H.lXUXPXPX|.u u |.KXKXPX|.Z.].].].].SXKXPXUXv Z.{.{.{.{.{.{.{.B.v IXKXPXcXB.B.v IXPXGXSX|.v u 8 PXPXUXIX* * v IXUXUXqXB.B.G.H.v IXIXKXcX  0 n UXPXIXSX8 U.PXPXPXPXlXKXKXmXu u ].wXwXwXwXwXoXoXoXOX X XoXoXoXoXoXoXoXoXoXwXwXwXoX3.j.j.j.j.=.OXOX.X.X.X=.=.=.=.=.=.c 4 g zXPXDXDXDXDXDXDXMXmXmXzXsXk k k m j 9 c '.=.=.=..X.X`.`.=.4.1.2.2.2..X.X X{.{.{.'.=.&.=.=.=.=.=.=. X XOXOX{.`.}.qXIXIXIXSXqX'.v c _.`. X X=.=.=.2.4.4.2.2.4.4.4.:.p.e.p.0.P P K n b ",
"n n @ K K 8.u.u.t.4.4.4.,.4.4.*.*.*.*.4..XoXOX}.|.b v xXUXPXIXIXLX[.c v _. X X X X X X X.X.X=.=.'.`.'. X XoX X.X.X.X.X2.2..X=..X.X=..X XoXwXu v.v u v.v.qXLXLXIXIXIXIXIXIXUXUXIXSXSXv.u v  X X X X.X2.%.%.2.*.&.-.-.:.:.3..X.X.X.X.X.X.X.X.X+X+X2.3.j.:.2.2. XOXoXoX{.{.{.{.{.Z.u u f PXCXAXAXAXHXHXHXKXIXcXb u v.8 IXKXPXcXv G.G.K.K.lXIXPXPX|.u u |.PXHXPX|.G.].].].].SXKXPXUXv Z.{.{.{.{.{.{.{.Z.v IXKXPXcXv v.v IXKXKXGX|.u u 8 IXPXUXUX* 8 c UXUXUXlXB.Z.Z.H.v IXIXKXcX  0 n UXPXIXSXu U.UXPXPXMXDXKXKXcXu v _.wXwXwXwXwXwXOX+X3.2.2.4.=..X X X X X X X X X X.X=.-.-.-.4.=.=..X2.2.=.=.=.=.=.=.=.c t g dXJXJXKXPXPXPXUXPXPXPXKXVXjXzXsXsXsXj c .X=.=.=.=.=..X.X2.,.-.2.2.=..X.X X`. X`.'.=.&.=.=.=.=.=.=..X.XOX_.Z.Z.G.-XIXKXKXIXSXxXY.Y.A.'. X X.X.X.X=.2.2.2.4.4.-.,.:.l.p.p.0.P P D n f ",
"n m D K K 0.u.i.i.4.4.4.4.4.4.*.*.*. X X X`._.vXIXIXPXIXIXUXUXUXIXc I.|.|.+XOX.X.X X X X.X.X=.=.$..X.X XoX X X X X X.X=.,.,.,.&.=.=..XOX].iXF.nXIXIXIXLXLXLXIXIXIXLXIXIXIXIXLXLXSXbXN.u v  X X X X=.%.q.q.5.-.-.4.-.;.;.3.3.3.3.3.3.2..X.X.X2.3.j.t.t.t.t.r.2.OX XoX{.{.{.{.{.].C.n.u LXNXAXHXHXHXHXHXPXIX8 v B.S.8 IXUXIXNXZ.G.K.K.G.lXPXPXPX|.u u |.PXKXPX|.Z.].].].].nXKXPXPX8 Z.{.{.{.{.{.{.{.G.v IXKXKXMXu v.v IXPXKXJX|.u u 8 IXUXUXUX$ 8 c UXUXUXxXZ.Z.Z.G.B.IXIXKXSX8 0 b UXPXIXSXu q lXIXKXPXPXKXKXmX8 v _.wXwXwXwXwXwX.Xj.t.j.j.j.2.2..X X X X.X+X4.4.4.4.4.4.3.3.,.,.,.:.j.j.3.=.=.=.=.=.=.c t g dXKXHXAXHXIXPXPXPXKXKXKXKXKXKXHXKXHXj b '..X2.2.=.2.2.2.-.-.=.=..X.X.X.X.X2.4.=.=.=.&.&.=.=.=.=.=.$. XqXvXqX[.[.|.IXIXPXIXIXFXLXIXIXA.}..X.X.X.X.X=.=.2.4.4.,.,.r.l.p.p.e.K F D n x ",
"n m D p.p.u.p.a.z.4.4.4.4.4.4.*.*.*. X`._._.B.b UXUXUXUXIXIXUXIXIXLXUXUXUX|.  8 _.`. X X.X.X.X=.=.=.*..X X XoX X X.X=.=.>.<.<.-.&.=..Xc u J.F.lXUXUXUXIXIXIXIXIXIXLXIXIXLXaX8X8XiX8XN.u u OX X=.*.2.:.g.d.s.:.-.-.-.;.;.-.3.3.3.3.3.2..X.X.X=.2.2.j.j.r.j.j.2. X XoXoX{.{.`.}.`._.Z.B.& i PXHXHXHXKXGXJXqXv Z.Z.B.8 UXUXIXNXZ.K.G.K.G.lXIXPXKX|.u u |.PXKXKX|.Z.].].].].vXKXPXPX8 Z.{.{.{.{.{.{.{.H.v IXKXKXLXu v.u IXKXHXHXlXu u 8 IXUXUXIX8 u v UXUXUXvXZ.Z.Z.G.B.IXIXKXLXb 0 n IXPXUXSXu u v.|.PXKXKXKXKXmX8 v _.wXwXwXwXwXoX.Xj.t.j.:.2.2..X.X X X X.X+X4.4.4.4.4.4.4.,.,.,.-.:.j.j.:.2.2.=.=.=.$.b l h M q.e.e.x.AXGXgXAXJXGXGXKXKXKXHXKXKXj 9 9 c $.+X2.2.2.-.2.2.=..X.X.X.X.X.X4.>.,.2.&.&.=.=.&.=.=.$.`._.SXUXIXPXPXIXIXUXIXIXUXIXIXPXUX9XC.[.'.'..X.X=.=.2.2.2.-.,.r.l.p.p.p.0.0.q.m n ",
"n m D a.a.p.p.a.z.2.*.4.4.4.4.*.*.*.OXnXnX|.v c UXIXSXcXcXxXcXcXvXLXIXLXIXlX$ 9 _. X X X.X.X=.=.=.*.*.=. X XoX X X.X=.&.>.>.>.&.&.=..Xv * N.F.lXUXUXUXUXUXUXIXIXIXIXUXIXLXiX7X8X7X6XS.u u  X.X*.*.2.:.s.g.s.-.-.-.-.;.;.3.3.3.3.3.3.2..X.X.X.X.X=.2.2.%.2.2..X XoX`.{.`.{.'.OX`._._.Z.d a mXHXHXHXJXNXn _._.Z.Z.Z.8 UXUXIXNXv G.G.K.K.lXIXPXKX|.v.u |.PXKXKX|.Z.].].].].xXKXPXIX8 Z.{.{.{.{.{.{.{.H.v IXKXKXLXu v.u IXHXHXAXlXu q 8 IXIXPXIX8 u v IXUXUXnXZ.G.Z.G.B.IXIXJXLXb u b UXPXUXSXu u u I.HXHXPXPXKXmXu v _.wXwXwXwXwXoX.Xj.j.:.2..X.X.X.X X X X.X+X4.4.4.4.4.4.4.4.4.,.,.:.:.1.-.2.2.2.=.=.$.b g h U P 6.8.x.BXKXkXAXKXKXJXKXKXKXHXHXHXj f 9 8 '..X=.2.-.2.-.2.=.=.=..X.X.X.X2.,.,.-.&.&.=.=.=.=.=.$.`._.SXPXUXIXIXIXLXsX|.U.I.I.U.IXUXSXC.n.A.A.'.=.=.=.2.2.2.-.-.j.l.p.p.p.u.u.q.j n ",
"n m 5.a.a.a.p.a.z.2.*.*.*.*.*.*.XXXX`.vXIXUXUXUXIXlX  0 0 0 0 a F.qXxXIXUX|.  8 |.OX X.X.X.X=.*.2.-.4.=. X X X X X.X=.2.,.>.-.-.&.*.+Xu 0 N.P.|.IXIXIXLXLXSXLXnXnXbXnXnXbX8X5X5X5X5XW.u v '.=.*.&.-.-.-.-.-.-.-.2.2.2.2.3.NXNXNXNXfX.X.X.X.X.X.X.X.X.X.X.X X`.`. X`.{.{.`.`.`.`._.$._.B.m.x DXKXHXKXlXv Z._._._.G.u UXPXPXSXZ.H.H.H.G.lXPXKXKX|.v.v.|.IXKXKX|.Z.].].].].xXAXJXPX8 Z.{.{.{.{.{.{.{.G.v LXKXHXIX|.I.8 PXKXHXGXNXsXj X PXIXUXIXu u v LXIXUXSXv Z.Z.Z.v LXPXHXFXc u f UXPXUXSXu u u c LXIXKXPXPXmXu v _.wXwX>X>X>XwX{.'.'.'..X X X.X X X.X.X.XfXNXfXfXfX+X+X4.4.4.4.2.,.-.-.-.2.2.2.2.=.$.n h R Z P 6.6.0.l.c.e.z.c.c.c.hXhXkXkXkXjXk n 9 $ c '.2.2.2.2.2.2.=.=.=..X.X.X.X=.=.2.2.=.&.2.2.=.=..XZ.A.qXxXmXIXSXm cXb 0 q 0 q q Y.UXPXIXSXY.9X[.'..X=.=.=.2.2.2.-.:.l.l.l.p.u.u.q.j f ",
"m m 5.a.a.a.a.a.z.=.*.*.*.=.XXXXXXXX{.|.UXUXIXcXlXlX& 0 0 0 0 q q q b LXLXLXIXLXLX|.A.$.$.$.2.2.,.-.&.'. X X X X X.X=.=.-.,.,.2.$.=.+Xu & u P.qXIXLXLXSXSXSXSXaXaXaXpXiX7X8X5X5X5X5XW.d u c 2.2.-.-.-.-.-.2.2.2.2.2.2.2.+XIXIXIXFXcXfXfX+X.X.X X X X X.X.X`.`.`.`.`.{.`.`.`.`.`.`._._._.Z.f sXPXHXKXlXv Z._._._.].u IXIXPXNXv v B.A.|.mXKXPXKX|.B.B.|.IXKXKXsXA.Z.Z.A.|.VXAXHXIX8 Z.{.{.{.{.{.{.{.K.v LXJXHXJXPXUXIXPXUXPXJXHXVXzXgXKXUXUXPX8 u v LXIXUXIX|.lXxXcXSXPXIXPXLXn a 8 IXPXUXSXu u u u   c KXPXPXcX8 v _.wXwX>X>X{.{.{.{.{.{.{.`.oX X X.X+X+X+XNXJXJXIXIX+X+XXX2.=.=.2.4.2.2.2.2.2.2.2.2.%.x h R Z I P 6.6.6.8.8.u.u.u.u.u.a.a.a.l.D k /.;   8 +X'.+X4.2.2.2.=.=.=..X.X.X X X.X&.=.=.&.=.$.'..XOXu LXUXIXUXIXi 0 & * 0 q * % * |.IXIXIXIXLXlXY.Y.|.'.=.2.2.2.2.-.:.p.l.l.p.u.u.q.x f ",
"m m 5.a.a.a.a.p.z.=.*.*.*.+X+X0XaXyXK.qXUXUXIX8 $ * 0 * * * * 0 0 a q SXIXIXIXIXUXlXb c 8 8 4.&.,.-.$.$.+X=.=. X.X=.=.=.&.-.-..Xv Z.+XlXA.B.P.|.IXLXLXnXnXSXSXbXaXaXiX8X5X5X5X5X5X5XQ.d 8 c 2.-.-.-.-.-.-.-.2.2.2.2.2.+X+XIXIXJXFXNXfXfXfX.X.X X X X X.X.X`.`. X X X`.`.`..X$.`.`.`._._._.u sXJXHXKXlXv Z._._._.K.v IXIXKXJXLXIXLXLXLXFXKXPXPXm B.B.A.KXKXKXUXFXLXLXIXUXAXAXHXIX8 Z.{.{.{.{.{.{.{.].v IXKXKXPXPXJXJXmXlXmXKXHXKXKXKXKXJXmXlXb v u cXIXUXUXIXIXIXIXIXPXIX|.NXA.a 8 IXIXUXSXu u u u 8   PXPXPXcX8 v _.wXwXwXwX{.{.oXoXoXoXoXoX X X X+XfXfXNXFXIXIXPXLX+X+XXX.X=.=.=.=.2.2.&.2.2.2.2.%.%.j R E A I L P P 7.6.6.9.u.u.u.u.a.c.kXjXO W /.X %.|.|.8 '.2.2.2.2.2.=.=..X.X.X.X X'.=.=.=.&.=.+ u [.0XxXIXUXFXUXlX* 0 * % * * * % < u I.C.lXIXIXFX|.b U.|.+X2.2.*.2.2.:.l.l.l.p.u.u.q.j f ",
"%.%.5.a.a.a.p.a.z.=. X X XOX8 # F.bXaXSXUXPXIXf 3 0 0 * * * * 0 0 n.u A.LXPXIXPXPXIXvXq 0 8 2.-.-.2.=.$.3.1.4.=.=.2.2.2.&.2.2.'.N.B.|.IXUXvX-XY.q v.B.bXaXaXaXpXpXpXuX8X5X5X5X5X5X5XW.n.8 8 2.-.-.-.-.-.-.2.2.2.2..X.X.X+XIXJXPXFXNXNXfXfX.X X X X X X X`.`. X`. X X`.oXaXfX`.`.`.`._._._.u lXKXHXKXlXB.Z._.`.].].Z.|.  mXPXPXUXIXIXIXKXJX8 8 v Z.B.v 8 $ MXUXUXUXUXUXUXUX|.b b B.v {.{.{.{.{.{.{.].v 8 $ X PXKXKXKXn & & 9 UXPXPXKXHXsX$ * C.B.v.8 SX  LXIXUXUXIXIXIXDX& & u u 8 IXIXUXvXu u u u 8   PXKXHXlXu v Z.wXwXwXoXoXoXoXoXoXoXoX{.{.{. X+XfXNXVXJXJXJXJXJX+X+X.XXX.X=.=.=.=.2.2.2.2.2.2.%.c j h E B H H G L L L P 8.u.u.u.u.a.g.@ k . k g.CXVXVXX * 8 +X2.2.2.2.2.=.=.=.3.3.=..X2.2.2.2.2.8 # !.vXmXIXIXIXIXU.r 0 * * * * * * * 0 b.b.Y.IXPXIXIXUXlX&   c =.=.&.-.:.l.a.l.p.p.u.q.n f ",
"m %.s.z.a.a.p.a.k..X X X XOXv $ V.SXLXUXUXIXUXb & & 0 * * * 0 0 0 d u u NXPXIXPXUXUXSXq 0   2.-.-.-.2.2.3.1.,.=.*.*.&.&.2..X+X|.v.S.qXUXUXnX6X9Xb.b.v.pXpXpXpXuXpXuX7X8X5X5XT.5X5X5XW.n.8 8 2.,.-.-.-.2.2.2.2..X.X.X.X.X+XIXIXPXFXNXNXNXfX.X X X X X`. X`.`. X X X X`.oXaXXX`.`.`.`.`._._.v mXIXHXHXlXB._.`.`.`.].Z.0 0 sXIXUXUXPXPXIXPXKX8 & Z._.Z.v q & cXUXUXPXUXUXUXPXcX& u Z._.{.{.{.{.{.{.{.{.Z.3 3 j KXKXKXKXsX& q & DXPXPXKXKXmX& 0 B.G.B.u 0 0 LXPXUXUXUXUXUXIX& q q u 8 IXUXIXlXu u u u 8 8 UXPXPXcXu v Z.wXwXoXoXoXoXoXoXoXoXoX{.{.{. X.X+XfXNXFXJXPXPXPX+X+X.X.X.X=.=.=.=.2.2.2.2.2.2.%.c > R E V H H H G G G P 8.8.8.8.9.l.{ > = g CXjXBXCXJXsX& c +X2.2.2.2.2.2.=.2.1.1.&.=.2.2.-.2.+X8 # V.nXcXIXIXIXLXlXsX9 $ 0 0 0 0 0 0 0 v.v.Y.LXIXPXUXUXIX& & + =.=.=.2.:.z.l.l.l.e.e.q.m m.",
"m m @ K q.e.u.p.k..X X X XOXv $ u nXLXUXIXUXUXsXmXlX& * * * 0 0 0 LX|.cXIXJXFXSXLXnXvXq 0   4.-.-.-.-.,.-.,.,.&.*.&.*.&.$.u v qXN.v.vXUXIXLXqXlXb.b.v.pXpXpXpXuXiX7X7X5XT.T.T.5X5X5XW.n.8 8 2.,.-.-.2.2.2.2.2..X.X.X.X.X+XIXJXJXFXNXNXfX+X.X X X X X X X X X X`. X`.`.OX X`.`.`.`.`.`.`._.v mXFXJXIXlXB._.{.`.`.{.Z.u u U.JXIXLXLXLXIXPXKX9 v ].{._.Z.q & DXLXLXLXLXLXLXLXvX8 u _.`.oXoXoX{.{.{.{.{.Z.u p j KXKXKXHXsXq v.& m KXHXHXKXDX9 u v _._.v u u LXIXIXMXmXcXcXLX* q q u $ nXnXlXb u u u u u c LXFXFXzXd v _.oXoXoXoXoXoXoXoXoXoXoX{.{.{.`. X+X+XfXfXNXDXDXJXfX.X.X.X.X.X=.=.=.2.2.2.2.2.2.%.b > R B V N H H H J G P 7.7.6.6.0.l.{ > . j CXD BXCXAXmXb |.b 8 +X2.-.2.2.=.2.3.1.2.2.2.-.-.-.2.X # b.vXvXIXIXUXPXIXIXLX& 0 0 0 0 0 0 8 lX|.SXIXPXPXUXUXUX& & + =.=.=.2.:.e.0.0.P P 7.K n f ",
"m m @ K P 7.u.u.k..X X X XOXv   & T.iXiXaXUXUXPXIXLX8 0 0 0 0 0 q SXUXUXUXUXIXvXaXqXb.q 0   2.,.-.-.>.,.,.-.&.&.&.&.&.*.c 0 q lXSXsXLXIXUXPXPXPXq q B.iXiXpXuXuX7X7X7X5X5X5XT.5X5X5XW.b.* 8 +X3.,.2.2.2.2.2..X.X2..X+X+X+XNXNXFXNX+X+X+X=..X.X=.2.2.=..X X`.`.`. X`.oXoXoXoX X`.`.`.`.`.`.v 8 8 8 & & v _.`.{.`.`._._.Z.  8 0 & & & &   & 8 _._.`.{.{._.8 i u u u 0 0 0 0 q u v {.oXoXoXoX{.{.{.{.{.{.Z.b i 0 u u u u u v.u 8 & & & & & 8 G.].`.`.`._.B.8   % & q q * & u u B.u * * u u u u u B.Z.v u 8 8 8 8 u v _.oXoXoXoXoXoXoXoXoXoX`.`.`.`.`. X.X=.=.=.nXDXFXFX+X.X=..X.X=.=.=.2.2.2.2.2.2.2.%.b g Z C A A A A N H N J L L I w.f.x.D . . { KXHXHXAXCXCXGXU.  & +X2.2.2.2.2.&.-.-.-.-.-.-.-.-.2.X & v.W.8XbXSXLXIXUXIXSX& q 0 0 0 0 0 d UXUXUXUXIXxXxXxX|.& & + =.=.&.2.:.i.0.0.6.7.7.K n f ",
"m m @ q.7.6.9.u.t..X X X XOXv   & T.iXiXaXIXUXUXUXLX& u u u u b v IXUXUXIXPXIXqX8X8XS.0 q   4.,.,.,.,.,.-.-.-.-.&.&.&.*.'.q 0 sXVXLXLXIXUXPXPXPXSX!.b.b.T.6XiX7X7X7X7X5XT.T.T.5X5X5XW.b.* & 2.3.;.:.:.-.-.2.-.-.3.:.:.:.:.:.3.3.2.2.=.&.=.=.2.:.;.;.-..X X X X X XoX XoXoX X X XoXoX`.`.`._.8 8 & & & v {.`.{.{.`.`._._.v v v 8 8 8 8 8 8 v ].`.`.`.{.{.Z.v 8 v v v v v u 8 v _.`.oXoX{.oX{.{.{.{.{.{.].Z.B.v u u u u u v u u u u u u u u Z.`.`.`.`.`.].8 & & & & q q & v Z.].Z.v v v v v v v v Z.v 8 8 8 & 8 8 v _.oXoXoXoXoXoX{.{.oX X XXX=.*.=.*.*.*.=.4.3.3.3.3.3.,.,.-.-.-.-.-.-.-.-.-.2.2.2.%.9 g Z S S S A S S S S A J G T O j k O { jXAXGXKXKXKXHXHXCXsXsX0 |.3.:.-.-.-.2.-.-.-.-.-.-.-.-.2.X $ q W.7XiXaXLXUXUXUX|.I.I.A.b b b b b IXUXUXIXIX0X-X&XN.* & 8 =.=.&.2.j.e.0.0.6.P 7.K n f ",
"m m @ q.7.6.9.u.t..X X X XOXv   & T.5XT.S.SXIXIXUXIXLXIXIXIXIXIXIXUXIXLXSXSXvX0X8X=XQ.0 q   2.,.,.,.,.-.-.-.-.-.-.&.&.*.=.* & lXZXIXIXIXUXIXPXPXLX9Xv.W.W.S.6X<X1X5X&XT.T.T.T.5X5X5XW.N.& & 3.3.<.<.;.1.;.:.;.;.1.1.j.1.:.:.:.:.;.;.-.-.-.-.;.:.+.<.-.=. X X X XoX X X X X X XoXoXoX`.`.oXoXyXyXyXyX4X{.`.`.`.`.`.`.`._._._._._._._._._._._.`.`.`.`.{.`.`._._.`.`.`.`.`.`.`.'.`. XoX{.{.{.{.{.{.{.{.{.{.`.`.'.'.`.`.{.{.{._.]._._._._._._._.`.`.{.`.`.`._.Z.4XyXeX4X,X,X{.{.{.`.`._._._._._._.`.`._.'.'._._._._._.{.{.oXoXoXoXoXoXoX X X.X4.*.*.*.*.&.&.,.1.1.,.>.1.1.<.<.<.<.<.;.;.;.;.;.-.-.2.2.%.9 - Z S A A S C V C V A J G ..o e - g { gXAXHXKXKXKXKXJXCXVXzXI.X %.:.:.;.-.-.-.-.-.-.-.-.-.-.2.X $ q W.5X5X8XnXSXnXIXUXIXUXUXUXUXUXUXIXLXIXnXvXaX8X7X5XS.* $ 8 2.=.&.-.r.e.0.0.6.P 7.K n f ",
"m m @ q.7.7.9.u.i..X X X X Xv   & J.5XW.W.W.W.T.xXIXIXUXUXUXUXUXUXUXIXSXD.v.v.T.#X&XQ.q *   4.,.,.,.,.-.-.-.-.-.2.=.=.=.+XSXSXLXIXUXIXUXUXUXIXPXIXaXT.S.Q.b.S.W.Q.&X5X&XT.T.T.5X5X5XW.S.q & +X3.<.;.<.:.:.:.:.:.:.j.j.j.1.:.:.:.:.:.:.;.-.-.-.-.-.2.2.'.'._._._._._.c c c v v v Z.Z.Z._._._.Z.Z.v Z.Z._._.`.`._._.Z._._.Z._._._._._._._._._._._._._._._._._._.`.`.`.`.`. X X X X{.{.{.{.{.{.{.{._.].]._._._._.'.'.`.`.`.`.`.`._._._._._._._._.{.{.`.`.`.`._.{.{.{.{.{.{.{.`.`.`.`.`._._._._._._._._.$.c c c c c c c c Z.$._.Z.c c Z._._.'.'.'.'.$.=.=.,.<.1.<.1.<.<.1.<.1.<.<.;.:.;.;.;.;.-.-.2.2.c 9 . Z A A A S S C C V S Y Y | . w g o { f.BXJXPXKXPXKXKXGXHXHXMX%.%.3.3.3.-.-.-.-.-.-.-.-.-.-.=.X $ v.T.5X5X5X5XW.5XLXUXIXUXUXUXUXUXUXUXIX|.v.b.b.R.1X5XS.& $ 8 =.&.*.-.r.e.0.0.7.P P K n f ",
"m %.5.7.7.7.9.u.i..X X X X Xv   & S.T.W.W.W.W.6XSXIXLXLXIXUXUXUXIXLXLXvXJ.S.S.J.T.E.Q.q 0   3.,.>.,.,.-.-.-.-.&.4.c c c vXIXUXUXUXUXUXUXUXUXUXUXLXaXH.aXD.v.b.b.N.Q.T.T.T.T.T.5X5X5X5XW.q & %.3.;.<.;.:.:.1.:.2.=.j.j.1.1.1.1.:.:.:.:.;.;.-.2.2.=.'.Z.u 8 8 8 8 8 * * $ 8 8 8 8 8 u d v B.B.B.C.B.Z.Z._._._.Z.8 8 8 b v Z.Z.A.Z.Z.v v v v v v v v v v v v B.Z._.`.`.`.`. X`.`.`.{.{.`.{.`.`.}.Z.A.Z.Z.A.A.A.Z.A.[.'.{.`.`.`.`._._._._.Z.v b v u v `.`.`.`.{._.B.B.B.B.Z.{.`.`.`.`.`.`.c c v v v v Z.c v v v v v v v v v v v v d d u u C.v C.C.v $.$.*.2.-.1.1.1.1.<.>.<.1.;.-.,.:.:.:.:.;.-.-.2.2.c $ > Z Y A A S C C C C ~ R h g g k K 7.q.e.hXBXAXKXPXPXPXPXKXKXJXPXm b 8 $.-.-.-.-.-.-.-.-.-.-.=.8 & v.T.5X5X5X5XT.8XIXUXUXUXUXUXIXIXLXLXSXqX9Xb.b.b.W.W.S.& $ 8 =.&.*.,.r.e.0.0.6.P P K m x ",
"m %.5.7.7.7.9.u.i..X X X X Xv $ & H.5XW.W.W.W.S.S.v.v.P.0XbXLX[.9XP.D.S.H.S.T.#XT.T.Q.q 0   3.,.>.>.,.-.-.-.-.-.4.c c c xXIXUXUXUXUXUXUXIXnXnXbXaXaXaXaX0Xu b.b.b.W.T.T.T.T.T.5X5X5X5XW.q & %.3.;.1.<.1.:.1.:.2.2.j.j.j.j.1.1.:.:.:.:.;.;.-.&.&.=.$.v 8   $ $ $ $ $ 8 9 9 8 9 9 b b b v v b 8 9 c v v Z._._.c 9 9 9 c v B.v b b 8 8 8 8 8 8 8 8 8 8 8 8 v v v _._.`.`.`. X`.`.`.{.{.`.`.`.Z.[.|.c c c c c v B.A.A.A.]._.`.`._._.A.c c v v u u u A._.`.`.`._.[.v v B.v _.{.`.`.`.`.`.`.v 8 8 8 8 v c b 8 8 8 8 8 8 8 8 8 v u v 8 u u u C.sXlX|.v c $.$.=.2.,.1.1.1.,.,.>.,.4.2.-.:.:.;.;.;.-.3.3.3.c $ . Z Y Y A S C C C C E o y e M.O 0.8.8.9.u.e.f.hXCXAXCXGXGXHXJXKXm b b $.-.-.-.-.-.-.-.-.-.-.2.+ $ v.T.5X5X5X5XW.5XnXnXSXSXLXSXqXv 8 u u q S.S.S.S.W.W.b.& $ 8 =.2.*.,.r.i.0.0.7.P P K n x ",
"m m 5.q.7.7.9.u.i..X X X X Xc   & S.5XT.T.W.W.W.W.S.S.5XaXaXqXv.S.T.H.S.H.K.R.*X$X$X-Xq &   3.,.,.>.,.-.-.-.&.4.$.c |.SXSXIXUXUXIXLXSXSXaXpXpXpXpXpXpXpXaX8Xv.v.v.b.S.T.W.T.T.T.5X5X5XS.q $ %.3.1.1.<.:.1.1.<.;.-.-.;.:.-.;.-.-.-.2.2.-.-.&.=.=.=.$.u 0 mXUXPXPXPXPXPXPXPXKXKXPXPXPXlXu u 8 PXPXKXxXv Z.Z.Z.v IXPXPXSX8 u u 8 PXKXKXKXPXPXPXIXPXPXPXPXKXJXsXc c _.`.`.`.`.`. X`.`.`.`.`._.B.& LXUXUXPXPXPXPXUXSXA.B.G._._._._._.lXUXUXIXIXUXIXIXu B.Z._._._.|.LXLXSXnX|.`.`.`.`.`.`.`.SXIXIXIXUXb d d U.PXPXPXPXPXIXIXIXPXPXPXIXv v u cXUXUXUXlXZ.$.`.`.=.2.,.,.,.4.2.=.$.=.=.;.;.:.<.;.;.-.3.3.3.c   . ) Y Y A S C C ^ ^ h < b.y l D 7.6.6.8.8.6.8.u.a.z.z.c.BXHXHXVXsXsX|.+ 2.-.-.-.-.-.>.>.>.-.2.8 & b.R.5X5X5X5X5X5XT.5X5X6XB.B.S.S.S.b.b.b.S.W.W.W.T.R.J.* $ X 2.,.*.,.r.e.e.0.7.P K K k x ",
"n m 5.p.p.u.u.u.i.,.*.*.*.XXc   & S.T.W.W.W.W.W.W.S.W.&X*X5Xq q S.R.H.H.H.=X*X;X;X;X6X& q   3.,.>.,.,.2.2.2.=.=.$.c SXSXFXLXIXIXIXLXnXbXiXiXiXpXiXpXpXpXuXuXiX3X=Xv.v.q v.b.v.S.J.Q.&XS.& & $.4.<.1.1.;.1.1.>.-.2.&.&.&.&.&.&.=.=.=.=.=.&.&.=.=.=.$.u 8 lXUXPXPXPXPXPXPXPXKXKXPXPXPXcXu u 8 PXPXKXcXv Z.Z.Z.Z.LXPXPXLX8 u u u KXKXKXPXPXPXPXPXPXPXKXPXPXJXlXv c _.`.`.`. X`.`.`.`.`._.aXc u & cXPXPXPXPXPXPXIXLX|.v B.Z._._._.c mXPXUXUXUXUXUXUXu v.V.v Z.Z.|.PXKXPXIXb Z.`.{.{.`.`.'.xXIXPXJXJXf i u m PXPXPXPXIXPXIXIXPXPXPXIXb u u mXUXUXUXlX_.$.`. X X X=.=.=.=.=. X X=.=.>.;.;.1.;.:.:.3.3.+Xc   . ) | A _ _ ~ R h g w w w W T 7.P P 6.6.6.7.8.9.u.u.u.l.BXCXkXhXhXhX|.c c &.-.-.-.,.>.>.>.,.=.8 & v.&X7X7X7X7X5X5X5X7X7X6Xq q S.S.S.b.b.b.S.W.W.W.W.T.Q.& $ X 4.,.,.,.j.p.p.u.8.8.8.K j x ",
"n n D p.p.u.u.u.i.<.,.,.*.XXc   # S.5XT.T.T.T.W.W.W.T.&X&X5Xq q v.T.R.R.@X%X:X1X<X<X6X& %   3.,.>.>.-.=.'.'.=..Xc c LXLXLXLXSXLXIXSXbXaXiXiXiXiXiXpXiXuXiX8X2X2X8XN.y 0 * r r * q m.b.b.* & $.4.1.<.<.;.;.;.;.-.2.&.=.=.=.=.=.=.=.=.*.*.&.&.=.=.=.$.u u lXUXPXPXPXPXPXPXPXKXKXPXPXPXNXu u 8 PXPXKXcXv Z._._.Z.LXPXPXLX8 u u 8 PXKXKXPXPXPXPXPXKXKXPXPXPXJXlXc c _.`.`.`. X X X X`.`.Z.lXIXI.  NXPXUXPXPXIXIXKXIX|.v B.Z._._.Z.c GXPXUXUXUXUXUXIXu B.v v v v |.PXKXKXJXb v `.`.{.{._.|.lXIXJXJXKXu i u m PXIXIXPXPXPXPXPXPXPXPXIXb u u mXUXIXUXlXZ.$.`. X X=. X X X=.=. X X=.=.;.;.;.#.;.-.;.3.3.+Xc   ; ) | _ E R g e w w l z h w.6.P P P 7.7.6.7.6.8.9.9.9.l.hXhXc.c.hXhX|.8 c O.&.-.-.>.>.>.>.,.2.X & v.&X7XuX7X7X7X7X7X7X7X5Xq q S.S.S.S.W.W.T.E.E.E.-X-XQ.& $ X 4.,.,.>.j.i.a.u.u.u.u.q.k n ",
"n n @ p.p.u.u.u.i.:.,.,.*.*.c   & P.6X6X6X5X5X5X&XR.T.&X&X&Xq % q T.R.E.#X=X1X1X1X1X6X& q   2.>.>.>.>.2._.[.'.nXSXnXLXLXLXnXaXnXnXbXiXiXiXiXiXiXiXiXiXiX3X3X3X3XiXv.a r 3 < 3 < 3 3 < * b 8 $.3.<.<.<.;.;.;.;.-.2.&.=.&.&.&.=.=.=.=.=.=.=.&.=.=.=.$.u u cXLXDXMXmXmXPXKXPXHXMXMXMXDXcXu u 8 PXPXKXcXv Z.Z._.Z.SXPXPXIXc u u 8 KXKXKXKXIXIXIXLXIXIXIXLXIXLXxXc c _.`.`.`. X`. X X`.`.B.b IXUXKXPXLXIXIXIXLXLXLXSXxXv B.v c SXLXmXJXIXUXUXUXPXUXIXb 8 m |.v B.I.PXKXKXPXPXKXPXFX}.c LXPXPXPXPXKXKX9 9 i m PXPXPXIXIXIXIXIXIXLXLXSXb u u NXUXIXPXlX_.$.`. X=. X X X X X X X X X=.;.>.-.;.;.>.;.:.3.+Xb   $ g h l l l y w w < E ~ E T 7.P L P 7.7.7.6.6.6.6.6.8.8.8.0.9.e.l.hXmXsXcX%.%.c 2.,.>.>.>.,.2.8 & b.5X7X7X7X7X7X7X7X7X7XE.q q S.S.S.H.T.L.E.E.E.#X#X#XQ.& $ + 4.,.,.>.j.a.a.i.u.u.u.q.j x ",
"b n @ p.p.p.u.u.i.;.,.,.,.*.c   & J.6X6X6X5X=X=X=X=X=X&X&X5Xq % q T.R.E.=X1X1X1X1X1X6X& q & 2.,.>.>.>.-.'.u u SXSXLXaXbXaXaXaXiXaXiXiXiXiXiXiXiXiXiXiXyX3X8XuX8X#Xv.m.m.a * < 3 ; = =   %.:.:.1.<.<.<.;.;.;.-.-.-.2.2.&.&.&.&.=.=.=.&.&.&.&.=.=.=.$.v u * 8 0 u u U.PXPXKXGX9 d u u u u v.8 PXKXKXnXv Z.Z._.Z.SXUXPXIXc u u 8 KXKXKXIX8 u u u 8 8 u u 8 8 v c c $.`.`.`.`.`.`.`.`.`.B.u IXPXPXSX8 u u 8 8 8 8 0 u B.P.v v IXKXHXNXc n m |.sXfXPXUXUXKX%.8 u |.IXKXKXKXPXKXKXJXc IXPXIXIXPXKXKXJX8 9 8 U.PXPXKX|.8 u u 8 u u u u u u u NXUXPXIXlX_.$.`. X=.=. X X X.X X X X X=.-.>.>.>.;.<.;.:.3.+X+ +X|.; w y y y q = h z ! ` ` Z Y H A T I 7.7.6.6.6.6.6.6.6.6.6.6.7.6.e.g.HXVXm X 8 2.,.>.>.,.,.2.8 & v.5X7X7X7X7X7X7X7X7X7XT.q q S.H.W.H.L.L.].].].#X#X#XQ.& $ X -.,.,.>.j.a.a.p.u.u.u.q.j j ",
"b n @ a.p.p.u.u.i.@.,.,.,.*.$.& & J.6X6X6X5X5X5X=X=X=X&X5X6Xq % q T.E.#X%X1X=X=X1X1X6X& q & 2.,.>.>.>.,.'.u v bXnXnXpXpXpXpXpXpXiXiXiXiXiXiXiXiXiXiXiX8X1X=X&XR.T.v.F.P.F.u * 3 = = =   %.;.<.<.<.<.;.-.;.;.,.-.-.-.-.-.-.2.2.2.&.&.-.-.&.*.*.*.=.$.v u 0 u u B.B.|.PXPXPXGX9 b d d B.B.B.b PXPXPXnXv Z.Z._.Z.SXUXPXIXb u u 8 KXKXKXUXv N.N.B.B.v.v.v.v v v c $.$.`.`.`.`.`.`.`.`.`.B.8 LXKXPXNXv.v.v.v.v.v.v.v.v.B.A.v u IXHXHXJX9 b b b b cXUXUXUXKXn 8 u |.IXJXKXPXPXPXPXNXJXIXKXPXIXPXKXKXJX8 9 i |.PXPXKX|.d B.v.v.u v v v u u u NXUXPXIXqX_.$.$. X=.=.=.*.=.=.=..X=..X=.-.>.;.>.;.<.<.;.3.3.4.4.%.$ w w y y 0 k ] ] ^.` ` ~ ( ( ( X.Y T 7.6.6.6.6.6.6.6.6.6.6.6.6.7.g.CXkXs.  8 +X4.>.>.>.,.2.8 & v.6X7X7X7X7X7X7X5X5X7XT.q q S.S.T.K.K.L.#X#X#X@X#X#XQ.& $ X 4.,.,.>.r.a.a.a.u.u.u.e.j j ",
"b n @ a.p.u.u.u.i.@.>.,.,.*.$.  & F.6X6X6X6X5X5X5X5X5X*X5X6Xq % & E.R.&X#X*X&X6XQ.W.P.& # 8 3.>.>.,.>.,.'.v v pXpXpXpXpXpXpXpXpXiXiXiXiXiXiXiXiXiXiX1X6X6XW.W.T.W.N.F.S.F.0 $ ; 8 8 X X 3.#.<.<.<.;.;.;.;.<.<.,.-.-.-.-.-.3.3.3.1.1.<.,.&.=.=.&.=.$.Z.B.B.B.Z.Z.Z.U.PXPXKXJX8 Z.Z.Z.Z.Z.Z.b PXPXKXnXv Z.Z.Z.Z.SXIXPXIXn u u u KXKXKXIXb N.B.B.B.B.Z._._._._._.`.`.`.`.`.`.`.`.`.`.`.B.f DXIXIXSXv.v.v.u u u v.v.v.B.v u u IXKXHXKXn C.m.C.F.cXUXUXUXPX9 8 u |.PXUXKXKXKXPXHXPXKXKXKXAXPXPXIXPXPX8 i i sXPXPXHXU.v v.v v v v v v v v v SXUXIXIX|.$.$.$.=.2.&.&.&.&.2.=.2.2.*.*.-.;.;.;.;.;.<.<.<.>.,.,.2.# % & * 0 w W ] ] ] ` ^.' ' ' ' ' [ T 7.7.6.6.7.7.7.7.7.7.7.7.7.6.w.e.e.q.{ 9 +X4.,.,.,.,.2.8 & q 6X5X6X7X7X5X5X5X5X5XQ.q q S.J.H.L.L.L.#X#X#XE.Q.Q.P.&   X ,.,.,.>.r.a.z.a.u.u.u.e.j j ",
"b j @ a.a.u.u.u.i.#.>.,.,.4.$.  8 D.v.v.v.Q.&X&X&X5X&X=X*X=Xq % & 5X&X=X@X*X=XS.b.b.u c m + 3.>.>.3.3.3.+X_.Z.pXpXpXpXpXpXpXpXpXiXpXpXpXpXiXpXpXpXiX1X5X6XW.W.T.W.N.F.S.F.* $ . 2.4.3.-.:.#.<.<.<.;.;.;.;.;.<.1.;.;.;.;.3.GXKXVXj.1.1.,.&.=.2.4.=.$._.$.$.$.$.$.Z.U.PXPXKXFXc _._._._._.Z.n PXKXKXNXNXSXSXcXlXJXPXKXIX|.u v.u PXKXKXPXcXlXsXsXsX|.'._._._.`.`.`.`.`.`.`.`.`.`.`.`.`.Z.f LXIXIXSXv.v.u LXcXxXlX|.|.A.u u 8 IXKXHXKXU.C.m.C.C.xXIXUXPXPX8 8 u U.PXUXPXIXm X PXPXKXKXJXsXm UXIXIXUX8 i i sXPXPXKXsX|.|.|.|.|.c v v v v B.SXUXIXIX|.$.$.=.2.j.j.j.j.j.j.3.,.,.,.-.;.;.;.;.;.;.<.<.>.>.,.,.2.'.fX+X$.$ q ~.(.(.^.` ^.' ' ' ' ' ( Y P 7.6.6.7.7.7.7.7.7.7.7.7.7.6.8.7.7.w. .fX2.,.3.-.,.2.8 & & v.q v.W.5X5X5X5X5X5XQ.q q F.L.H.K.L.#X#X#X#XF.q q u A.'.+ ,.,.,.>.r.z.z.a.u.u.u.q.j x ",
"j j @ a.a.u.u.u.i.#.>.,.,.,.=.c c c # % q W.E.&X&X&X&X&X*X=Xq # & 5X&X=X@X*X=Xv.a a + -.:.-.;.>.3.X X + nXaX,XpXpXpXpXpXpXpXpXpXpXpXpXpXpXpXpXpXpXiX=XT.Q.W.W.T.W.N.F.F.F.3 = ; %.,.,.+.>.<.<.<.<.;.;.;.;.:.1.1.;.;.;.;.:.GXPXGXfXj.1.,.&.=.-.-.&.$.$.$.$.$.$.$.Z.U.PXPXKXFXc _._._._._.Z.n PXKXKXKXKXKXKXPXJXKXKXKXUX|.d v.u KXKXKXKXPXPXPXIXIXPX|.Z._._._.`.`.`.`.`.`.`.`. X`.`.`.Z.b LXIXUXSXv.v.u IXUXPXJXFXLXlXu 0 8 IXKXKXPXm U.sXcXmXsXKXUXPXPX8 8 8 m IXPXKXDX9 9 PXKXKXKXGX  b UXIXIXUX8 i i lXPXPXPXIXIXPXIXIXIXxXv v v v Z.cXUXIXIX|.$.$.=.2.j.j.j.j.k.j.1.;.>.>.>.;.<.;.;.;.<.<.<.>.>.,.,.4.+X2.&.$.  q z Q Q Q ^.^.' ' ' ' ' ( H P 7.6.6.7.7.7.7.7.7.7.7.7.7.6.6.6.6.7.w.fX+ %.%.3.,.2.%.|.'.A.q b.W.5XT.T.5X5X5XQ.q q D.L.L.K.L.#XE.#XQ.q * i 8 c 2.-.>.>.>.;.r.z.z.a.u.u.u.q.j x ",
"j j @ a.a.u.u.u.i.#.>.>.>.,.-.-.-.2.b p i N.6XT.Q.T.Q.&X$X=Xq % & 6X@X5X&XE.L.q r   -.+.+.+.+.+.3.X 9 b IXLXnXbXbXbXbXnXnXnXnXnXbXbXaXaXaXpXpXpXiXiX&XW.W.W.S.H.W.v.% r a |.m X c 3.>.+.#.#.#.#.<.;.;.;.;.;.1.1.;.;.;.;.:.FXPXGXNXj.1.,.&.&.-.-.-.-.&.&.$.$.$.$.c m JXKXKXJX8 Z._._._._.Z.n PXPXPXPXKXKXKXPXPXPXKXKXPX|.u u u KXKXKXKXKXKXKXKXKXHX|.v v _.`.`.`.`.`.`.`. X X X`.`.`.Z.b FXIXPXSXv.v.u UXKXHXJXHXJXlX8 u 8 IXKXKXKXKXKXKXKXKXKXJXPXPXPX9 3 u n PXPXPXNX$ 8 cXKXHXKXlXv.d UXPXPXIX8 i i cXKXPXPXPXUXPXPXPXPXxXv v v v v cXIXKXIXn $.$.=.2.j.j.j.j.j.j.:.-.4.-.>.;.<.;.;.;.;.1.>.,.,.,.,.,.,.&.&.=.C.a x l m.M.` ^.^.` ' ` ' ( A Y J 7.6.6.6.8.p.p.p.p.p.p.p.e.0.0.0.e.f.VXX 8 v +X,.4.4.4.*.*.u m.v.N.T.T.T.5X5XQ.q q V.L.E.#X@X#Xv.v.v.C.c $.2.&.&.+.>.>.<.<.r.z.z.a.u.u.u.q.k x ",
"j j @ K K w.0.0.i.#.>.#.+.>.>.-.,.-.c   8 8 u v.v.v.b.T.&X5Xq % & 6X*X=X-Xu F.& $ X >.+.+.+.+.+.,.X 9 8 IXLXLXLXLXSXSXSXSXnXnXnXbXbXaXaXaXpX8XK.E.T.W.W.W.W.F.P.9Xm.$ ; X -.,.4.,.>.+.>.>.>.>.<.<.<.<.;.;.;.1.:.:.:.:.:.:.fXNXNXfXj.1.>.-.-.-.-.-.-.-.&.$.$.$.$._.m KXJXKXDX9 Z._._._._.Z.n PXKXKXKXPXKXKXKXKXKXKXKXPX|.u u u KXKXKXKXKXPXPXPXKXHX|.c c _.`.`.`.`.`.`.`. X X`.`.`.`.Z.n IXUXUXSXv.b.v.UXKXJXJXJXJXcX0 q u UXKXKXKXKXKXKXKXKXKXFXPXPXPX9 3 0 n PXPXIXNX8 u n JXAXCXcXv.u IXPXIXIX8 i i mXPXPXPXUXIXPXPXUXPXnXv v v v B.c |.|.b 8 $.=.=.2.1.j.y.j.j.j.-.=.=.2.2.;.1.1.:.:.:.;.-.-.-.,.,.,.,.,.,.*.$.+ c c % g ! ^.^.^.` ` ` ( S S V T 6.6.6.8.p.p.a.z.c.c.hXhXkXkXkXkXkXHXm i c 2.,.4.4.,.,.4.v 8 i m.b.S.T.*X*XQ.q q N.E.E.E.J.J.v.0 8 X 2.-.&.+.+.+.>.>.>.#.r.q.q.7.P K K D W x ",
"j j @ K K 7.7.q.5.+.+.>.+.>.>.>.>.-.2.%.%.c & 0 q b.b.W.&XT.q # & 6X*X=XB.& v c X + -.&.&.-.+.+.-.X 8 8 IXLXLXLXLXSXSXSXSXnXnXnXbXbXaXaXaXpX8XE.Q.W.W.W.W.W.!.9X9Xm.; 9 + O.+.+.>.>.+.>.O.&.&.&.1.1.<.;.<.<.1.1.:.:.:.:.:.:.j.j.j.:.;.>.-.-.-.-.;.-.-.&.$.$.$.$._.m KXJXKXDX9 Z._._._._.Z.b PXKXKXKXKXKXKXPXPXKXKXKXPX|.u u u KXKXKXKXKXKXGXGXGXZXfXc c _.`.`.`.`.`.`.`.`. X`.`.`.`.Z.n IXUXUXSXv.b.v.IXKXGXJXJXJXcX0 0 u UXKXKXKXKXKXKXKXKXKXFXPXPXPX9 * 0 n PXPXIXSX8 u b FXJXJXlXv.u IXPXIXIX8 i i mXPXPXJXJXIXIXIXIXIXSXv v v v B.v 8 u 8 v $.=.=.-.:.j.y.y.y.j.3.2.=.=.=.-.1.<.<.<.<.>.-.-.-.,.4.,.,.,.,.,.&.=.=.$.& , Q ^.^.^.^.` ` ( C C V T 7.6.6.8.0.p.a.a.c.c.hXkXBXkXBXBXBXHXm i c 2.,.,.4.4.4.XX$.c 8 d m.v.Q.&X*XQ.q q v.L.E.D.v.v.q * 8 + 2.,.>.+.+.+.>.>.>.<.@.q.0.0.P F F F k n ",
"j n @ K F 7.0.0.5.&.&.&.&.&.&.#.#.-.&.&.&.$.u u * q b.S.T.T.q # # 6X=XG.& & & +X,.,.$.$.`.$.-.+.-.+ 9 $ LXLXLXLXLXSXSXSXSXnXnXaXaXaXaXpXpXiX1XT.W.W.W.W.!.F.b.m.m.s 7 n O.+.+.+.+.+.+.>.&.&.&.&.;.1.<.<.<.<.;.:.1.:.:.:.:.:.:.:.;.;.-.-.-.-.;.;.;.-.-.-.$.$.$.$._.n KXKXGXJXc Z._._._._.Z.b KXKXKXVXX 8 8 8 8 mXPXKXPX|.0 u u KXKXKXJXX X X X 8 v c c $.`.`.`.`.`.`.`.`.`.`.`.`.`.`.Z.n IXUXUXSXv.b.S.qXcXsXGXHXKXcX8 u 8 UXPXKXKXPXIXIXIXNX|.DXUXPXPXf * 8 b PXPXPXSX8 u u lXmXA.v B.u IXPXIXIX8 u i mXKXPXKX%.X 8 8 8 8 v v v v v v v v v u v $.=.=.&.-.-.;.1.1.1.;.3.2.2.2.-.<.:.1.;.<.-.-.,.,.,.,.,.,.,.,.,.&.&.*.*.& w l Q ^.^.` ^.` ~ ^ ^ ~ Y T T 7.6.8.u.p.a.z.c.hXBXCXCXCXBXBXHXm i c 2.,.4.=. X`.$.4.*..X8 i p m.Q.&XQ.q % u L.J.q q q $ X c $.&.-.>.>.,.$.$.$.=.&.:.q.9.9.P G F F k n ",
"j j @ K F 7.0.0.5.&.*.*.*.*.$.1.#.;.&.&.&.$.c c $.8 0 q v.N.q # # P.L.&   8 8 4.>.>.$.`.`.$.-.+.-.+ 8 8 IXLXLXLXLXSXnXnXnXnXbXaXaXaXaX7X@X@XR.T.W.W.W.F.!.F.y < * ; X + +.+.+.+.>.+.+.>.,.&.$.$.3.3.3.&.=..X2.3.:.:.:.:.:.:.:.:.,.,.-.-.-.-.;.;.-.-.-.&.$.$.$.$.$.n KXHXGXFXb Z._._._._.Z.b KXHXHXFX8 v B.B.d DXPXPXPX|.0 u u KXKXKXKX& v.v.v.v.v.v $._.`.`.`.`.`.`.`.`.`.`.`.`.`.`.Z.b IXPXIXLXv.b.S.S.F.C.KXHXKXmX8 u 8 UXIXHXPX|.8 u v Z.B.LXUXUXUX9 * 8 b PXPXPXSX8 u B.Z.Z.Z.Z.B.u UXPXIXIX8 u i MXKXKXKX|.u B.Z.Z.Z.Z.Z.Z.Z.v v v v v u v $.=.&.&.&.&.*.&.4.3.2.3.3.3.4.4.2.2.2.2.+X+X2.4.4.-.4.4.,.,.,.,.&.&.&.=.8 * # 1 l Q ^.~.E ~ ( ~ ~ ( ^ ~ T 7.6.8.9.a.a.z.c.kXBXCXAXCXBXHXm d c 2.,.4. XoX=.&.,.*.*.8 8 8 9 V.P.!.& & q D.v.u 8 8 8 + $.&.-.-.<.+.-.`.].{.$.=.-.q.8.9.P G G F k b ",
"j j j U F 7.6.0.t.&.*.*.*.=.=.1.#.+.-.-.-.,.2.2.=.c $ * % % % % # u u 8 $.c + 2.>.>.&.$.$.&.+.+.,.+ 8 8 LXLXbXaXaXiXiX7X&X6X6X5XT.T.R.R.T.T.T.T.W.W.Q.F.!.F.0 #   |.+ + +.+.+.+.>.>.>.>.4.NXNXcXaXfX+X`.`.`..X4.,.1.:.:.j.j.:.;.-.-.-.-.-.-.;.-.-.-.&.$.$.$.$.$.c n KXHXHXFXb Z._._._.Z.Z.c KXHXHXNX8 v B.B.u MXPXPXPX|.0 u u PXKXKXPXu b.S.S.S.S.Z._.`.`.$.`.`.`.`.`.`.`.`.`.`.`.`.Z.b IXKXPXIXb v.N.P.D.sXHXHXKXmXu u 8 IXIXPXPX|.8 u B.Z.B.SXUXUXUX9 $ 8 b PXIXPXLX8 v Z.Z.Z.Z.Z.B.u IXPXIXIX8 u u MXKXKXKX|.u B.Z.Z.Z.Z.Z.Z.v v v 8 8 8 v v $.=.&.&.&.-.&.2.fXfXfX3.3.3.4.2..X.X.XOX}.xX+X+XNXNXNX3.,.,.,.,.&.&.&.*.c c '.* % l ^.! R ~ ( ~ ` ' ' ` _ | Y Y T w.w.7.e.c.c.hXkXkXBXHXm b c 2.,.4.$.=.-.,.,.&.-.2.2.&.8 r u b.& & q u 8 c c c $.%.-.&.-.-.<.<.>.$.{.`.=.&.-.q.8.9.P L G K m m.",
"j j @ D D q.0.q.5.&.&.&.&.-.:.r.@.+.+.+.+.+.>.,.&.$.8 * $ $ % # #     c 4.,.>.+.>.>.<.>.>.+.+.+.>.2.c 8 u &XuXuXuXuXuXuX7X7X7X7XW.W.T.T.T.T.T.W.F.F.F.b.F.b.% #   +X,.>.+.+.+.>.<.j.fXfXfXVXFXFXaXxXxX{.{.{.OX2.4.,.j.hXkXVXVXj.-.2.-.>.>.>.<.>.-.-.&.$.$.$.$.$.v n HXHXHXJXb v _._._.Z.Z.9 KXAXHXNX8 v v u u DXPXPXIX|.q u u KXHXKXIXcXlXlXqX|.9X|.|.|.$.c $._.`.`.`.`.`.`.`.`.`.`.Z.b LXIXPXIXPXsX|.|.sXNXPXKXPXmXu q 8 IXPXKXUXU.8 u v Z.B.nXUXUXUX9 * 0 9 IXPXPXLX8 v Z.Z.Z.Z.Z.B.u IXIXIXIX0 u i mXKXKXPXsXb b b v c c c A.v u 8 |.IXUXLXn $.*.&.&.-.&.&.2.fXNXgXfXj.3.4..XOXOXoX}.}.xXvXxXIXPXJXNX:.j.:.-.&.&.&.-.2.*..X& % l ^.Q E ' ' ~ ` ' ` ` ' ~ ! ~ ( / S I 7.6.8.8.9.0.D j 9 C.$.-.>.>.-.;.>.>.>.+.+.>.+.,.c % % % & & $ & & 2.-.-.-.-.-.-.-.-.<.<.#.,.&.-.+.+.@.q.8.8.P G F K m C.",
"j j @ e.e.e.0.e.t.#.>.+.+.1.y.y.#.+.>.>.>.>.>.,.,.=.$.c             X + -.>.+.>.+.+.#.#.+.+.+.+.<.4.+ $ u #X7X7X7XuX7X7X7X7X7X7XW.W.T.T.T.T.T.W.S.!.lXq b.b.& $   +X>.>.>.>.>.>.<.fXZXGXJXJXKXLXaXxXvX{.{.{.{..X=.4.j.fXVXVXVXj.-.-.-.>.>.<.<.>.-.-.&.=.$.$.$.c v n HXHXHXKXb v _._._.Z.Z.9 GXAXHXNX8 v u u u MXPXPXUXsXq u 8 KXAXHXIXIXIXPXIXIXPXIXUXPX|.8 c $.$.`.`.`.`. X`.`.`._.v 8 lXn zXIXPXPXIXUXKXKXKXIXSXcXa q 8 IXPXKXUXm 8 8 v Z.B.xXUXUXUX$ * 0 9 IXPXPXLX8 v Z.Z.Z.Z.Z.B.u LXPXIXIX0 i i mXHXHXKXPXPXUXUXUXUXUXUXUXA.8 8 sXIXIXPXNX=.&.&.&.,.-.-.3.fXfXfXj.3.3.3..XOXOXoX}.}.xXvXxXIXPXJXGXZXCXfX-.&.&.&.-.2.*..X& & # < g ! ' ' ~ ` ` ` ` ' ` ` ' ( ^ C Y L P P 7.7.K g i p C.=.-.>.>.>.>.>.>.>.>.+.+.,.,.              $ 8 2.-.-.-.-.-.>.>.-.<.1.<.<.>.;.#.#.@.i.u.u.6.6.6.K m f ",
"j j @ a.p.p.p.p.t.#.>.>.#.@.y.y.@.#.>.>.>.>.>.,.,.-.&.=.$.%.%.%.%.%.3.3.,.>.>.+.#.#.#.+.>.#.#.;.>.2.X + A.B.D.6X7X7X7X7X7X8X8X8XW.T.T.T.T.R.R.T.S.!.lXq q 0 '.c + 3.>.>.#.>.>.+.<.fXCXGXGXKXJXLXbXxXvX{.{.{.{..XXX4.j.j.VXVXVXfX-.-.-.>.>.<.<.>.-.-.-.=.$.$.$._.v n HXHXHXKXb v _._._.Z.Z.9 HXAXAXmX8 v u u u MXPXKXPX|.u v.8 HXAXHXKXPXUXIXIXUXIXUXUXIX|.8 c $.$.`.`. X X X X`.`.`.Z.c b n.n UXIXIXIXPXPXPXPX|.8 8 a a u IXPXKXUXn 8 8 v Z.B.lXUXUXUX$ * 0 9 IXPXPXLX8 v Z.Z.Z.Z.Z.Z.u LXPXIXIX0 u a mXAXAXKXIXIXPXUXUXPXUXUXUXb & 8 cXIXUXPXcX=.-.&.-.-.-.,.4.fXfXfXj.3.3.4..XOXOXoX}.}.xXvXxXIXJXJXJXJXZXfX-.&.&.&.2.-.&.=.c '.|.& = Q ' ' E ` ' ` ` ` ` ` ( ( ^ ^ A I I I Y U O 9 b b b 2.,.>.>.>.>.>.<.;.<.<.+.>.-.$.O.+ + + + + + + -.>.>.>.-.-.;.;.;.1.1.1.<.<.;.<.<.r.i.p.p.p.9.u.q.n f ",
"j j @ z.a.p.p.a.i.#.#.#.#.+.#.#.#.#.+.+.+.>.>.,.,.,.-.&.-.-.-.-.-.>.>.>.>.>.>.<.<.<.<.#.#.<.;.;.>.-.2.2.c   * q 6X7X7X7X7X5XR.5XT.T.T.T.T.T.9XqXb.m.m.% % & +X,.,.>.>.>.#.>.>.+.#.j.ZXZXJXKXGXFXbXaXvX}.4X4X4XOXOX4.1.j.j.j.j.;.,.:.-.>.>.>.>.-.-.-.-.=.=.=.$.$.v 9 PXIXIXIXb c _._._.Z.B.8 PXPXJXcX8 v u u u MXIXPXIX|.q 0 i GXCXHXJXPXIXIXUXUXUXIXIXIX|.8 c $.$.`.`. X X X=.=.$.$.$.$.$.C.I.zXPXUXUXUXUXUXIXn 9 r n.v.u IXIXPXIX8 8 8 u Z.Z.|.IXIXIX& 0 0 8 LXIXJXLX8 v Z.Z.Z.Z.Z.Z.v LXIXIXUXi u a MXZXGXKXPXIXIXIXIXIXIXIXPXb 8 8 cXIXIXIX|.=.&.&.2.-.-.&.2.3.3.3.:.,.4.4.OXOX}.4X}.}.aXxXxXJXPXPXJXFXFXfX-.-.&.2.-.-.-.-.2.2.'.# < Q ^.! ! ' ' ` ~ ' ' ` ( ( ( ^ / Y T | o : ; $ +X3.$.2.>.+.<.+.<.<.<.<.+.>.+.>.+.+.>.>.>.>.>.>.>.>.,.-.;.;.;.;.;.1.1.1.1.1.:.;.1.<.<.@.i.p.p.a.u.u.q.n f ",
"j j @ z.a.a.a.i.i.#.#.#.#.#.#.+.+.+.+.>.>.<.>.>.,.,.-.-.-.-.-.-.>.>.>.>.>.>.>.<.<.<.<.<.#.<.;.;.;.;.;.2.v   s & v.7X7X7X6X6X5XT.T.T.T.T.T.W.9XqXv.0 0 & %   +X>.>.<.>.<.#.#.>.#.#.1.fXVXZXHXJXSXaXaXvXvXvXqX-X4X}.+X1.<.#.#.#.;.<.;.>.<.<.<.>.>.-.-.&.=.=.=.$._.8 8 ; 9 8 8 8 v _._._.Z.v 8 b f f 8 u u u u u b 9 9 8 0 0 0 0 9 9 ; ; ; 8 $ 8 8 $ $ $ i f 8 v c $.`.`. X.X=.=.&.&.&.&.$.$.$.b p /.U.I.I.f 8 & q q a n.a 8 $   & 8 8 u u u B.B.u & 8 8 u v.u 0 i 8 d b u v Z._._._.Z.Z.u 8 $ $ 8 i a u f 9 9 9 9 9 8     $ 9 8 9 8 8 8 c b b d c &.&.-.-.1.1.:.;.,.<.<.<.<.1.4.yXiXiXvXxXqXaXaXaXLXLXFXFXFXNX:.;.<.<.>.>.-.-.-.2.&.$.* # # # - Q ^.^.~ ' ' ' ` ~ ( ( ( ~ X.| (.= % $ 8 3.<.>.,.>.+.<.<.<.<.<.+.+.+.<.<.<.+.+.+.;.-.>.>.>.>.,.,.;.:.:.1.1.1.#.#.1.<.;.:.:.<.#.@.i.p.p.p.u.u.q.x d ",
"j m @ z.a.a.p.i.i.@.#.#.#.#.#.+.+.+.>.#.#.1.,.,.,.,.-.-.-.-.-.>.-.-.>.>.;.>.>.<.<.<.<.<.<.<.;.;.;.:.:.2.8   n # v.8X6X6XS.6XT.T.W.W.6X6X6XS.Q.Q.q & i |.9 X 3.>.<.#.<.<.#.#.>.<.#.1.fXmXcXcXvXvXaXaXvXvXvXxX0X0X0X+X1.#.#.#.#.>.>.>.<.#.<.>.<.>.-.-.&.=.=.=.$.$.8 8 * $ * * 0 v _.`._._.v 8 0 u 0 0 u u u u i $ $ $ * 0 * * 0 * 0 3 0 r i 0 0 0 0 0 0 b.0 u v c $.`. X X.X=.-.-.-.-.&.&.&.$.A.d r u u a u u 0 u a a a u u 0 * i u u u u u v v.u u u u u v.u u q q u u u Z._._._._._.Z.u 0 i 0 0 i u i 0 0 0 * 0 0 0 0 0 q q q q 0 0 0 u u v.b.A.2.-.-.;.1.1.<.;.<.<.<.<.<.1.3.iXiXiXvXxXqXqX0X-XqXxXvXnXcXfX1.1.<.#.<.<.-.-.-.-.-.2.$.A.A.& = Q ^.^.~ (.^.[ ' ' ' ' ~ E ! (.(.# &   X 2.<.<.>.<.<.<.<.+.+.+.<.<.+.<.<.<.+.;.;.;.;.;.>.>.;.,.;.<.j.j.j.1.#.#.#.<.<.;.:.:.<.<.@.i.a.a.p.u.u.q.x a ",
"m m @ z.a.p.p.p.i.#.#.#.#.#.#.+.+.>.@.t.g.MXmX{ s.j.-.-.>.>.>.>.-.-.>.>.>.<.<.<.<.#.<.<.<.<.<.;.>.-.-.2.%.%.%.  q q q 0 v.6X6X5X5XW.6X8X6XS.F.F.0 % $ +X4.,.>.<.<.<.<.<.#.#.#.<.#.<.3.MXmXvX8X8X8X8XaXvXvXvXaXaX0X+X1.1.1.#.#.>.<.<.<.1.1.>.,.,.-.-.-.=.=.=.=.$.8 9 9 9 8 8 8 v `.`.`.Z.u 8 8 8 8 8 8 u u u 8 & 8 * i i * 0 0 0 0 0 i u u u u u u u 0 0 u u u c $.`. X.X.X2.-.>.>.>.-.-.-.-.$.v u u u u 0 0 u u u u d u 0 0 0 u u u u u v v u u 8 8 8 u u u u u u u u u Z._._._._.$.v u 8 i 8 8 i i u 8 u 0 0 i 0 0 0 0 q 0 0 q 0 0 0 u u n.V.B.,.-.-.4.3.,.<.<.<.<.<.<.<.3.+XiXiXiXvXvXvXaX6X6X6XqXaXvXvX+X1.1.1.1.<.#.>.>.>.,.-.-.2.2..X8 # g ^.` ! (.(.(.(.(.(.[ ! g M.e < & +X'.+ -.>.<.<.<.<.<.#.<.#.<.>.#.#.<.<.<.<.;.;.;.;.>.+.>.;.j.j.s.dXdXdXs.r.1.<.;.;.<.1.<.1.<.@.i.a.p.p.u.u.K n f ",
"m m @ a.p.a.p.p.i.#.#.#.#.#.#.#.+.+.5. .U DXMXzX^.^.{ -.>.>.>.>.>.>.>.>.<.<.<.,.2.,.<.<.<.<.<.;.;.<.<.:.-.-.%.3 a r 0 i b.6X6X6X6XQ.6X-X6Xb.q q   $   +X,.>.+.#.<.#.#.#.#.#.#.#.1.1.3.NXNXnX8X8X8X8XqXvXvXvXvXaXyX+X1.1.1.<.<.<.<.#.<.4.2.2.=.=.=.2.-.;.-.-.-.&.%.2.2.2.-.2.-.2.&.&.*.$.$.$.&.&.&.&.$.&.&.2.2.2.2.2.2.2.2.2.2.2.3.3.3.3.3.3.3.3.2.2.2.4.4.2.2.2.2.2.,.,.,.>.;.>.>.>.>.+.+.+.-.&.$.$.$.$.$.$.2.2.=.2.&.2.$.$.$.&.&.&.&.&.&.&.&.&.$.$.$.&.&.&.2.2.2.2.2.2.&.&.&.&.&.&.-.-.-.-.-.&.&.&.$.O.%.%.2.2.2.2.2.2.2.2.2.2.2.2.2.2.$.%.$.%.>.>.,.$.$.=.>.<.<.<.<.<.<.3.+XyXiXiXbXvXvXbX6XQ.Q.6XaXbXvX3.1.1.1.1.1.<.#.#.#.>.,.,.-.=..X* < = g h h (.(.(.(.(.(.(.Q e m.w w $ '.XX4.>.<.<.<.<.<.<.<.<.<.<.&.4.<.<.<.<.<.<.<.<.;.;.>.-.%.} } ) zXzXzX}  .j.<.;.<.;.<.<.<.#.@.i.p.p.u.u.e. .x f ",
"m m @ q.q.q.0.i.t.#.#.#.#.#.#.#.+.>.5.U U DXDXzX^.^.{ -.>.>.>.>.>.>.>.>.<.<.#.&.$.$.<.<.#.<.<.;.;.<.#.1.;.-.%.* * 0 i d v.v.v.v.V.Q.6XE.Q.q % & |.c X 2.>.>.>.<.1.#.#.#.#.#.#.#.#.#.:.cXNXnX8X8X8X8XqXvXvXxXvXaXyX+X3.1.1.<.#.<.#.#.<.$.'..X=.=.=.2.-.>.+.+.+.-.,.,.,.,.>.>.>.>.>.>.,.>.>.,.,.,.,.,.,.,.>.>.>.>.>.>.>.>.+.+.+.>.>.>.<.>.>.>.>.>.>.,.,.,.>.>.>.>.>.>.<.#.#.<.<.<.;.;.;.+.;.;.+.+.-.-.-.-.-.-.-.-.-.-.-.-.-.-.-.,.,.,.>.>.+.,.,.-.-.-.>.,.,.,.,.,.,.>.>.,.>.+.-.+.+.+.+.>.+.>.>.>.>.-.>.,.>.>.>.>.>.>.,.,.,.,.,.,.,.>.,.,.>.,.,.-.>.>.,.`.`.2.>.<.<.<.<.<.<.3.+XyXiXiXnXSXSXSXvXQ.Q.6X8XaXaX3.1.1.1.1.1.<.#.#.#.>.>.,.,.2.2.b 8 9 < l o ^.^.~.k ~.~.~.z w y 0 3 * c +X>.>.#.1.<.<.<.<.<.<.<.>.$.$.4.<.<.<.<.<.<.<.<.<.>.>.%.X.(.) jXMXzX(.} j.<.;.<.<.<.<.<.1.r.i.0.9.6.K K D n f ",
"m m @ K K 7.0.u.t.#.#.#.#.@.#.@.+.+.@ } } DXDXzX^.^.] ;.>.>.;.;.>.>.>.>.<.#.#.$.`.`.,.#.#.<.<.;.;.1.1.<.;.-.%.%.|.2.|.8 * % 3 < m.Q.Q.Q.v.q % # +X4.4.-.>.>.>.$.$.-.1.#.#.#.#.#.#.#.3.+X|.0X8X8X8XqX0XvXvXvXvXaXyX}.2.<.#.#.#.#.<.<.,.=.'.=.-.-.-.-.;.;.,.-.>.,.,.,.>.>.>.>.>.>.>.>.+.+.>.>.>.>.>.,.,.>.>.>.>.>.>.>.>.+.+.>.>.>.>.>.1.1.<.<.<.<.>.>.>.,.4.,.<.<.<.<.#.#.#.#.<.#.<.#.;.@.@.+.;.;.+.-.-.-.-.>.>.;.>.>.>.>.-.-.>.>.>.>.,.>.>.>.>.>.>.>.>.>.<.<.<.<.>.<.<.>.>.>.+.>.-.-.+.>.>.<.<.<.<.<.<.>.>.>.>.>.>.>.>.,.,.,.>.>.>.>.>.>.>.>.>.>.>.,.,.=.=.2.>.<.<.<.<.3.2.'.$.4XiXiXbXSXSXSXSXqX-X-X-X4X+X4.<.<.1.1.1.1.1.#.<.&.,.,.-.-.4.2.3.+X& < g ! ^.^.t & % # 0 q i +X=.%.c +X>.#.#.1.#.1.#.<.<.<.>.,._.$.4.#.<.<.<.<.<.<.<.<.<.>.:.} (.E zXMXMX^.X.s.<.<.;.@.<.;.1.@.r.q.0.0.6.F P D M.m.",
"m m @ K K P 0.0.t.#.@.#.#.#.#.#.+.+.s.E E W /.! ^.^./.;.-.>.<.<.<.>.<.<.<.#.#.&.$.$.,.<.#.1.<.<.;.<.1.<.;.-.-.-.-.&.+X& $     # Y.9XF.v.i # < $ +X<.>.>.+.+.-.$.`.$.1.#.#.#.#.#.#.#.,.+X0X8X0X0XaXxXvXnXqXaXaX4X*X%X=.>.#.#.#.<.,.-.=.`.`.-.;.#.<.<.<.&.`.`.=.>.&.,.1.1.#.1.<.<.>.>.>.#.#.#.>.,.*.$.$.-.<.<.<.<.<.>.>.>.>.>.>.;.<.<.1.1.1.<.<.<.>.,.&.$.$.$.,.1.1.1.1.<.<.<.<.<.<.<.<.;.@.#.+.-.-.;.;.>.>.>.;.>.>.>.>.>.>.>.>.>.,.&.$.$.2.<.>.;.<.<.;.<.#.1.$.$.2.>.,.-.&.,.-.>.-.-.>.>.+.<.<.<.<.;.<.#.#.>.$.$.4.,.,.,.&.&.>.>.>.>.>.>.>.>.>.>.>.>.>.,.,.;.>.>.>.>.>.4._.[._.'.3X8XaXSXSXSXSXnXqX}.}.}.=.2.-.-.<.1.#.#.#.#.<.=.4.,.<.,.-.,.4.+X# # = l ~./.M.i & &   d   +X&.-.&.&.>.#.#.1.1.1.#.1.1.<.<.,.$.=.,.<.<.<.<.<.<.<.<.<.>.>.;.{ (.` ! { (.^.} s.>.<.<.<.<.;.1.@.r.q.9.9.6.P P D M.d ",
"m m @ K K P 0.0.t.@.#.#.@.@.#.@.#.+.%.{ W W ! ~.^.^./.-.-.<.<.<.<.<.<.<.<.#.#.>.-.-.<.#.<.1.1.<.:.;.:.<.;.;.>.-.-.&.$.  + %.m   m.v.q & U.9     +X1.1.#.#.#.-.$._.&.1.#.#.#.#.#.#.1.,.+X|.0XqXnXSXSXSXFX|.0X8X8X6X%X=.>.#.#.#.>.,.&.`.`.`.3.@.#.<.<.<.=.`.`.&.#.#.<.#.#.#.<.,.4.,.&.>.1.#.#.,.&.`.`.`.2.<.<.>.,.-.>.>.>.,.>.<.<.<.1.<.<.<.<.<.<.>.,.=._._._.3.1.1.1.1.1.>.,.3.<.1.1.<.,.,.+.+.-.-.;.;.;.;.;.>.>.>.+.>.>.<.<.<.>.&.$.`.`.2.<.<.<.<.;.;.1.<.>.`.`.=.,.,.2.=.2.-.>.-.-.-.,.>.1.1.1.<.1.<.<.<.-.`.`.$.,.,.,.=.2.,.>.,.-.-.>.<.<.<.<.<.>.,.-.>.<.+.<.,.,.,.4.$.A._.'.,X8X0XSXLXLXLXLXvX+X.X.X=.-.&.&.-.#.#.#.#.#.<.-.4.1.>.>.>.,.-.2.  8 b & r < * 0 u c $.'.+ 4.,.,.,.>.>.>.<.<.>.1.#.1.1.1.1.<.,.,.>.<.<.<.1.<.<.<.<.<.>.>.;.s.(.^.~.! ^.(.{ s.>.<.<.<.1.1.1.@.r.q.9.9.6.P P D x d ",
"m m @ K K K 0.0.t.@.#.#.@.#.@.@.;.;.3.3.s./.~.~.~.^./.3.-.-.;.:.;.<.<.<.<.<.>.>.#.#.#.#.#.#.@.@.;.%.-.;.<.;.+.-.-.-.2.2.2.4.2.& # # # # X 3.3.3.;.<.<.1.#.#.<.-.-.<.#.#.#.#.#.#.<.<.-.2.3.xXxXSXFXFXFXFX|.-X8X}.OX.X&.>.-.=.=.=.-.2.$.$.=.1.#.#.<.1.1.*.`.`.-.#.y.#.#.1.#.3.=.'._._.-.#.#.<.*.$..X`.`.2.<.#.,.$.`.$.,.=.*.>.#.#.1.<.<.<.<.<.<.<.,.,.=.'.$.$.3.3.3.1.1.1.-.$.`.=.3.,.=.`.$.4.1.@.;.;.;.;.<.>.>.<.<.<.>.>.<.<.<.>.=.`.{.`.4.<.#.#.<.;.;.<.<.,.`.{.$.>.,.&.=.=.-.-.,.&.$.$.=.;.1.1.1.1.<.<.<.=.{.].$.>.>.&.=.2.>.-.$.$.$.-.1.1.1.1.,.2.4.-.;.<.1.$.$.=.,.,.2.2.2.2..XyX}.SXLXLXLXLXNXfXfX2.2.-.-.-.-.#.#.#.#.#.#.<.<.1.<.<.<.>.;.3.3.3.3.  q q u q 8 =.&.&.-.-.>.>.>.>.<.<.>.$.$.&.1.1.1.1.1.<.,.,.,.<.1.1.1.<.>.,.>.>.>.>.>.j.(.^.~.~.~.s.j.-.,.4.,.;.:.#.1.@.r.i.9.9.6.P L D m.a ",
"m m @ K K K 0.0.t.@.#.#.@.@.+.+.;.;.;.;.:.m x x n I.m 2.-.-.-.$.$.:.1.1.<.<.<.<.<.#.#.#.#.#.<.#.;.-.-.;.<.<.#.>.-.-.-.-.;.,.2.      # # & 3.,.>.>.>.-.;.1.#.#.#.#.#.1.<.#.#.#.1.<.<.-.2.2.fXfXSXFXFXFXFX|.[.}.2.,.<.<.<.$.%X%X].&.,.,.,.<.1.1.<.<.1.1.4.`.{.&.#.y.#.1.1.4.4..X_._._.-.#.#.>.&.&.,.-.-.<.#.#.-.`.{.`.*.*.*.1.#.#.#.#.<.<.<.<.<.>.&.&.-.-.2.2.4.=.2.j.1.j.3.$.`.2.;.<.=.{.`.$.:.:.@.;.;.;.<.<.#.#.#.<.&.,.<.<.<.<.-.$.`.=.,.@.1.1.1.1.1.1.<.>.$.`.=.,.-.-.2.=.=.-.,.&.$.$.$.:.1.#.1.@.@.<.>.*.{.].`.4.,.=.=.-.;.>.$.'.`.2.1.1.1.1.$.$.$.;.1.<.<.$.`._.2.1.<.<.<.;.2..X}.cXIXIXLXDXNXj.j.3.,.-.>.;.<.1.1.<.#.#.#.<.<.<.<.<.<.<.-.,.,.,.4.  & & 8 u 8 $.,.-.-.-.,.<.<.<.#.<.1.$.$.2.1.1.1.1.1.<.&.$.$.>.1.1.#.1.$.$.=.-.>.>.>.:.{ W Q ~.W :.1.-.=.`.`.2.1.#.1.r.y.i.0.0.7.P L D a 0 ",
"m m @ K K K 0.0.t.y.@.@.#.;.+.-.;.;.>.;.:.m m %.%.%.%.-.-.-.-.$.$.:.#.1.1.<.<.#.#.#.#.#.#.#.<.#.<.;.<.1.<.#.#.+.>.-.-.-.;.>.2.c c + c 8 + 3.,.>.,.-.-.,.<.#.#.#.<.#.<.<.1.#.#.#.<.<.:.-.:.fXfXfXfXfXfXNX|.'.'.:.<.#.1.<.$.].%X{.2.>.>.>.#.>.;.-.1.<.<.,.$.`.-.#.y.#.1.,..X.X.X'._.$.>.#.#.>.,.,.1.<.1.#.#.#.-.`.{.`.&.&.&.1.#.#.#.<.<.<.<.<.<.>.-.-.-.-.-.-.&.=.2.j.y.y.1.$.=.2.<.<.$.`.`.`.;.:.#.+.;.;.<.#.#.@.@.>.&.4.<.<.<.+.>.-.=.-.<.#.1.1.@.1.1.1.<.<.2.=.&.&.&.-.-.=.=.-.,.,.*.$.$.1.#.#.#.#.@.1.<.&.$.`.`.*.=.=.=.-.+.+.&.'.`.2.1.1.1.1.$._.$.1.<.1.<.$._._.2.<.<.#.1.1.2.+X.X3.NXNXNXfXfXj.j.1.<.<.<.<.<.<.<.<.#.#.#.<.<.1.<.<.<.<.;.>.>.>.4.X 8 + + + c 2.,.-.-.-.,.<.<.<.<.<.1.&.$.3.1.1.1.1.1.<.=.`.`.-.1.#.#.>.$.`.$.-.>.>.>.;.s.s.{ m m :.1.1.$._._.$.1.#.@.r.y.i.0.0.7.L L D a i ",
"n n @ z.z.a.i.i.i.y.#.@.#.#.@.;.;.;.;.;.;.-.-.-.-.-.-.;.-.-.-.-.-.1.#.#.#.#.#.#.#.#.#.#.#.<.<.<.<.<.<.1.<.<.<.;.;.-.-.;.;.;.>.-.-.,.,.>.-.>.>.>.>.>.,.<.<.#.1.1.#.<.<.<.<.1.1.1.1.1.1.<.1.:.1.;.<.;.;.:.3.%.+X:.1.#.#.#.2.=.=..X2.,.>.>.,.-.2.2.:.1.1.#.<.;.#.1.1.1.>.4..X.X=.4.-.,.#.#.#.>.<.1.#.#.#.#.#.#.>.$.$.$.,.>.+.#.1.<.<.<.<.<.<.<.<.<.>.;.>.>.>.;.;.3.-.j.j.1.1.;.-.;.<.<.<.$.$.-.#.#.#.@.;.@.@.@.@.@.@.<.;.;.<.;.<.<.<.;.<.#.@.#.@.1.#.@.#.@.#.<.#.>.>.-.-.-.;.-.-.;.<.+.;.-.-.@.@.@.#.#.#.:.1.<.>.-.-.-.-.-.;.;.@.@.#.;.-.;.1.1.1.1.:.2.-.:.1.@.;.;.-.2.;.<.<.<.1.1.:.-.-.:.;.<.<.;.1.1.1.1.1.1.<.<.#.1.#.#.#.#.<.<.<.<.1.<.<.<.>.>.>.>.>.-.,.>.>.>.>.>.>.+.>.-.-.-.<.<.<.1.<.1.1.<.1.1.#.1.<.<.2.'.'.-.#.#.#.<.2.=.-.-.1.1.1.:.:.:.3.:.:.;.1.1.2.'._.2.1.#.#.@.r.i.p.p.e.e.e.g.m.a ",
"n n @ z.z.a.a.a.i.y.#.#.#.#.@.@.;.;.;.;.;.;.;.;.;.;.;.;.;.;.;.<.<.1.#.#.#.#.#.#.#.#.#.#.#.&.-.1.<.<.<.<.<.1.<.;.;.-.-.;.;.<.>.>.>.>.>.>.>.>.>.>.<.>.>.<.<.<.1.<.1.<.1.1.1.1.<.1.1.1.1.1.1.:.;.;.:.;.;.;.:.:.-.;.1.#.#.#.<.+.>.>.>.>.>.>.>.;.-.-.;.1.1.1.#.#.#.#.#.<.>.-.2.2.,.>.<.<.<.#.#.+.<.#.#.#.#.#.#.<.#.>.>.;.;.;.;.#.#.;.<.<.;.<.;.;.<.<.;.;.;.;.;.;.<.;.;.1.1.@.1.<.#.;.;.1.#.;.;.#.#.@.@.#.#.#.#.#.@.@.@.#.#.@.;.;.;.@.;.;.1.1.@.@.@.@.@.@.@.@.<.<.<.<.#.;.;.;.@.#.@.@.#.#.#.#.#.#.#.#.#.#.#.@.@.#.<.;.<.@.@.@.@.@.@.@.@.@.#.<.1.#.#.#.1.:.:.:.:.:.:.1.<.@.@.<.#.1.1.1.<.<.1.<.<.1.<.@.@.<.<.<.1.1.<.<.<.1.<.<.#.#.<.<.1.1.1.<.<.<.<.>.>.>.>.>.<.<.<.<.>.;.@.@.+.<.>.<.<.<.<.1.<.<.<.<.;.1.1.1.1.1.,.-.,.<.#.#.y.#.#.#.<.:.1.:.1.1.:.:.;.;.;.;.;.<.;.2.2.-.#.#.#.r.r.z.z.z.a.u.a.g.m.m.",
"b b @ z.z.z.a.a.a.y.@.#.@.@.#.#.@.@.;.@.;.;.;.;.;.;.;.@.@.;.#.1.1.1.1.#.#.#.#.#.#.#.#.#.+.=.$.1.<.1.<.1.1.1.;.;.>.;.;.;.<.<.>.>.>.-.>.>.>.<.<.<.<.<.<.1.<.<.1.1.1.<.<.<.<.1.<.<.1.1.1.1.1.<.;.;.;.1.;.;.:.:.:.;.#.#.#.#.#.#.#.#.>.#.<.>.>.<.<.<.1.1.1.1.1.1.#.#.#.<.>.,.-.-.>.<.<.<.<.#.#.#.1.#.#.#.#.#.+.<.#.#.@.;.;.@.;.<.<.;.<.<.;.;.;.;.<.<.;.;.;.;.;.;.<.;.;.1.1.1.1.1.<.:.:.1.#.#.@.#.#.1.;.@.#.<.<.;.+.@.;.@.@.@.;.:.:.1.:.1.@.1.:.1.@.@.@.1.:.1.;.;.;.:.@.;.@.@.@.@.@.@.#.#.#.#.@.@.@.@.#.@.#.1.1.1.1.1.@.@.@.@.@.@.@.@.@.#.#.@.@.#.@.@.@.1.:.:.:.:.:.@.1.;.;.1.1.1.1.1.<.#.1.1.1.1.1.1.;.1.1.<.1.1.#.<.<.#.#.#.#.#.#.<.1.1.<.<.<.<.<.<.>.>.>.>.;.;.<.;.;.;.#.#.#.<.<.<.<.<.1.1.1.<.<.<.;.1.1.1.1.1.<.<.<.#.#.#.y.y.#.#.#.1.:.:.:.:.:.:.:.:.:.:.;.1.<.-.-.>.#.#.#.y.r.z.z.z.a.p.a.g.m.m.",
"b b @ a.z.z.a.a.a.y.#.#.@.@.@.@.@.@.<.@.1.<.:.:.:.:.@.@.@.#.#.#.@.#.#.@.#.#.#.#.#.#.#.#.+.&.&.<.1.1.1.1.1.<.<.<.;.;.;.<.<.<.<.<.<.<.<.<.>.<.<.<.<.<.1.<.<.<.1.1.1.1.1.1.1.<.;.@.;.:.1.1.:.1.:.;.;.1.1.<.1.1.1.<.1.1.#.#.#.#.#.#.#.<.<.<.#.1.1.@.1.@.#.1.1.1.@.1.1.<.>.+.>.>.<.<.<.<.#.1.1.#.#.#.#.#.#.<.<.;.#.#.@.;.@.;.;.;.;.;.;.;.;.;.;.;.;.;.;.1.;.;.;.;.:.<.1.1.1.@.1.1.@.@.@.@.@.y.y.@.1.1.;.@.#.;.;.;.@.;.@.@.@.@.:.:.:.:.1.1.1.1.r.@.@.r.r.@.@.:.1.1.1.:.1.@.@.@.@.#.@.@.#.#.#.@.r.1.1.@.:.@.1.:.1.1.1.1.1.@.@.@.@.@.@.@.@.#.#.#.#.@.@.@.r.r.r.r.:.1.:.:.:.:.:.:.1.1.1.1.1.1.1.1.<.#.#.#.@.@.@.@.@.@.1.1.1.1.#.#.#.#.#.#.1.1.1.#.<.<.<.<.<.<.<.1.<.<.;.<.#.#.@.#.@.@.#.#.#.#.#.1.1.1.1.;.;.1.1.1.1.1.<.<.#.#.#.#.y.y.y.y.y.r.r.r.r.r.:.:.:.1.1.1.;.<.<.>.+.@.y.y.#.#.r.z.l.l.z.a.a.s.s a ",
"b n O a.z.z.a.a.a.t.y.#.@.r.@.@.r.r.y.r.r.r.r.r.r.r.r.r.r.r.y.y.y.y.y.y.y.y.y.y.y.y.#.#.@.+.;.1.@.r.r.r.r.@.@.@.r.@.@.@.@.1.1.1.#.#.#.#.@.@.@.@.@.r.r.r.@.1.1.1.1.1.r.1.1.@.r.r.@.@.r.r.r.r.@.@.@.@.@.r.r.r.y.@.#.#.#.#.@.@.y.@.@.1.:.1.1.r.r.r.r.y.y.y.y.y.y.y.y.@.@.@.+.;.1.1.1.1.@.y.@.@.y.y.y.y.y.r.@.:.@.@.@.@.@.@.@.@.@.@.@.@.@.@.@.@.@.@.@.r.r.r.r.y.y.y.@.#.@.@.@.r.r.r.r.r.r.y.y.y.r.r.r.r.r.r.:.@.@.@.@.@.r.r.r.r.r.r.r.r.r.r.r.r.r.r.r.r.r.r.r.r.r.r.r.@.@.@.@.r.r.r.r.r.y.y.r.r.r.r.r.r.r.r.r.r.r.r.r.r.r.r.r.r.r.r.y.r.r.r.r.r.r.r.y.y.r.r.r.r.r.r.@.@.@.1.y.y.y.y.y.y.y.y.y.y.r.y.@.@.r.@.@.@.y.y.r.r.r.r.r.r.r.y.y.y.r.y.j.1.1.1.@.@.@.1.1.@.1.r.@.r.r.r.r.r.y.y.y.y.r.r.r.r.r.r.@.r.r.y.y.y.y.y.y.y.y.y.y.y.y.y.y.r.r.r.r.r.r.r.r.r.r.r.r.y.#.#.@.r.y.y.y.r.r.z.l.l.z.a.a.s.s i ",
"c b @ a.z.a.a.a.a.t.t.t.t.5.5.5.t.t.t.t.t.k.k.t.5.5.5.5.5.5.i.t.t.t.t.t.t.t.t.t.t.t.t.t.t.t.r.r.t.5.5.5.t.t.t.t.t.t.t.t.t.t.t.t.t.t.t.5.5.5.5.t.t.t.t.t.t.t.t.t.t.t.t.t.t.t.t.t.5.5.t.t.t.t.t.t.t.t.t.t.t.t.t.t.t.y.r.5.5.5.t.r.t.r.r.t.t.t.t.t.t.t.t.t.t.t.t.t.t.r.5.5.5.5.r.t.t.t.t.t.t.t.t.t.t.t.t.t.t.r.r.t.r.r.r.r.r.r.t.t.t.t.t.t.t.t.t.t.t.t.t.t.t.t.t.t.t.r.r.r.r.y.y.t.t.t.t.t.t.t.t.t.t.t.t.t.t.t.5.5.5.5.5.t.t.t.t.t.t.t.t.t.t.t.t.t.t.t.t.t.t.t.t.t.t.r.5.5.5.t.t.t.t.t.t.t.t.t.t.t.t.t.t.t.t.t.t.t.t.r.t.5.5.5.t.t.t.t.t.t.t.t.t.t.t.t.t.t.t.t.t.t.r.5.r.y.t.t.t.t.t.t.t.t.t.t.t.t.t.5.5.5.5.5.t.t.t.t.t.t.t.t.t.t.t.t.t.k.k.5.5.5.5.5.5.t.t.t.t.t.t.t.t.t.t.t.t.t.t.t.t.t.t.t.5.5.5.5.t.i.i.t.t.t.t.t.t.t.t.i.i.t.i.t.5.5.5.5.t.t.t.t.t.t.t.t.t.r.5.5.t.t.t.t.t.l.l.l.z.l.a.s.s i ",
"b c X a.p.p.a.a.a.i.i.u.q.q.q.q.i.z.c.c.c.c.c.l.q.q.q.7.7.q.z.z.z.z.z.a.z.z.z.z.z.z.a.z.z.z.l.K 7.P P P K z.z.z.z.z.z.a.a.a.a.z.z.z.z.q.q.7.q.0.0.0.e.p.a.z.z.z.z.z.z.z.z.z.z.a.q.q.q.i.a.a.a.a.a.a.a.a.a.a.a.a.z.z.q.q.7.q.q.e.a.a.z.z.z.z.z.a.a.z.z.z.z.a.a.a.a.D q.q.P K q.z.z.z.z.z.z.z.a.a.a.a.z.z.z.5.q.q.q.q.p.a.l.l.l.z.z.z.z.z.z.z.p.p.p.p.p.p.a.a.z.z.z.q.q.q.q.i.i.i.i.i.i.p.p.a.a.p.a.a.p.a.p.0.q.q.q.q.q.p.a.p.a.p.p.p.p.p.i.i.i.i.l.z.z.z.z.z.z.l.a.i.q.q.q.0.p.a.a.a.a.a.a.a.a.a.a.a.l.z.z.z.z.z.a.5.q.q.6.6.6.p.z.z.z.z.z.z.z.z.z.z.z.z.z.z.l.q.q.7.q.p.z.z.z.z.z.z.z.z.z.z.z.z.i.q.6.q.6.6.p.z.z.z.z.z.z.z.z.z.z.z.z.c.c.q.7.7.7.7.q.z.z.z.z.z.z.z.z.z.z.z.z.z.z.z.p.0.0.9.q.q.q.q.e.a.z.z.z.z.z.z.z.z.z.z.z.z.z.l.7.7.q.q.q.q.z.z.z.z.c.c.c.q.q.7.8.u.a.a.p.p.p.p.e.K q.D s p ",
"b 9 D T A T a.a.a.i.u.u.8.7.6.6.p.z.c.c.c.c.c.l.7.7.7.7.7.7.z.z.z.z.z.z.z.z.z.z.z.z.z.z.z.z.l.K P P P P K z.z.z.z.z.z.z.z.z.z.z.z.z.z.q.q.7.6.8.0.0.0.p.z.z.z.z.z.z.z.z.z.z.z.p.7.P 7.p.a.a.a.a.a.a.a.z.z.z.z.z.z.z.K K P K K l.l.l.z.z.z.z.z.a.a.z.z.z.a.a.a.a.a.D P P K K q.c.z.z.z.z.z.z.z.z.z.z.z.z.z.q.7.6.6.7.l.z.z.z.z.z.z.z.z.z.z.z.p.p.p.p.p.p.z.z.z.z.z.q.7.7.6.p.i.p.p.p.p.p.a.a.a.a.a.a.p.p.p.0.7.7.6.7.q.l.a.a.a.p.a.p.p.p.p.p.p.p.l.z.z.z.z.z.z.z.z.i.7.7.7.0.p.a.p.a.p.a.p.p.a.a.a.a.z.z.z.z.z.z.z.q.7.7.7.7.7.p.z.z.z.z.z.z.z.z.z.z.z.z.z.z.e.q.K K q.p.z.z.z.z.z.z.z.z.z.z.z.z.p.7.6.7.7.7.p.z.z.z.z.z.z.z.z.z.z.z.z.c.c.q.7.7.7.P 7.z.z.z.z.z.z.z.z.z.z.z.z.z.z.c.p.0.0.8.7.P K K e.a.z.z.z.z.z.z.z.z.z.z.z.z.z.p.7.7.7.7.7.7.z.z.z.c.c.c.c.q.P P 6.u.a.a.a.a.a.p.e.K K D n x ",
"8 9 O M M K p.p.p.u.u.u.8.7.7.7.q.z.c.c.z.z.z.p.P P P P P P z.z.z.z.z.l.l.z.z.z.z.z.z.z.z.z.e.K P P P P K z.z.z.z.z.z.z.z.z.z.z.z.z.z.q.K P 7.8.9.9.0.0.z.z.z.z.z.z.z.z.z.z.z.i.P L 7.p.p.a.a.a.a.a.a.z.z.z.z.z.z.z.K P P K K l.p.a.z.l.l.l.a.a.a.a.a.a.a.a.a.a.a.D K K F K q.c.z.c.z.z.z.z.z.z.z.z.z.z.z.q.7.6.6.7.p.a.z.z.z.z.z.z.z.z.z.l.p.p.p.p.p.p.a.z.z.z.z.0.7.7.7.e.p.p.p.p.p.p.a.a.a.a.a.a.a.p.p.0.6.6.7.7.q.l.a.a.a.a.p.p.p.p.p.p.i.i.l.z.z.z.z.z.z.l.i.0.P P 7.0.p.p.p.p.p.p.p.p.p.p.p.p.p.z.z.z.z.z.z.q.7.7.7.7.7.e.z.z.z.l.l.z.l.l.l.l.l.l.z.z.q.K K K K e.z.z.z.z.z.z.z.l.z.z.z.z.p.7.7.7.7.7.e.z.l.l.l.l.z.z.z.z.z.z.z.c.c.7.7.7.7.P P z.z.l.l.l.l.z.z.z.l.z.z.z.z.z.e.6.6.6.7.P P K e.a.z.z.z.z.z.z.z.z.z.z.z.z.z.p.7.7.7.7.7.7.z.z.z.z.z.z.z.q.P P 6.u.a.a.a.a.a.u.e.D D D n x ",
"3 % # % o  .0.9.8.6.8.9.6.P P P 7.e.p.p.p.p.e.7.P P L L P P p.p.p.p.p.p.e.p.p.p.p.p.p.p.p.a.0.K L L L F F f.p.p.p.p.p.p.p.p.p.p.p.p.p.7.P P P 7.6.7.6.7.e.e.e.0.0.0.0.0.0.0.u.0.P L L 7.6.0.0.0.e.e.e.p.p.p.p.p.a.a.K K P F F e.p.e.e.e.e.0.0.0.0.0.0.0.9.9.9.u.u.K K K F K q.l.l.l.p.p.p.e.p.p.u.p.u.u.p.7.P P P P w.e.e.e.p.p.p.p.p.p.p.e.0.8.0.0.0.0.0.0.e.u.u.6.P P P 7.7.7.0.0.0.0.e.e.0.0.0.0.0.0.7.7.7.7.7.P P e.p.p.p.e.e.0.0.0.0.6.6.6.0.e.e.e.e.e.0.0.0.6.P F F P 7.7.7.7.0.0.0.0.0.0.0.0.0.0.0.0.u.p.p.7.P P P P P 7.e.e.p.p.e.e.e.e.0.0.0.0.u.p.q.K K F F K e.e.p.e.e.e.0.e.e.e.p.p.e.P P P P P w.p.e.e.0.0.0.0.0.p.p.p.a.z.l.P P P P P L e.e.0.0.0.0.0.7.0.0.0.0.0.0.0.7.7.P P L L G P q.e.e.e.e.e.e.e.e.e.0.0.0.e.0.7.P P P P P P e.p.p.p.p.p.u.7.P L 7.8.u.u.u.0.u.u.w.D D j x f ",
"r 0 % % O Y N F F G L L L L G G G L P P P L P L L L L L L L L P P L L L L L L L L L L L L L P L F F F F F G L L L L L L L L L L L P P P L F G L L L L G L L L L L L L L L L P P L L L G L L L L L L L L L L L L P P F F F F F F L G L L L L L L L L L L L L L P P K F F F F F P P P P L L L L L L L L L G L F F F F F G L L L G L L L L L L L L L L G L G L L L L L L L G F F F F F F F F F F F L L G L L G G F F F F L L L L L L L L L L G G G G L L L L L L L L L G G F G G G G G G L L L L L L L L L L L L L P F F G G F F F L L L L L L L L L L L L P P P F F K F F L L L L L L L L L L L L P L F F G G P P P P L L L P L P L L P P P L L L L L L L L L L L L L L L L L L L L L L L L G G F F F F F F F L L L L L L L L L L L L L G L G G G L L L L L L P P F G G G G H F N B B M . 6 7 9 > ",
"; * % ; M M N N N F L L G L G G F L L L L L L L L F G G L G L L L L L L G G G F F F F F F F L F F F F F F G G L L L L L G G G G G G L L L F F G L L G G G G G G G G G G G L L L F F F G F L L L L L L L L G G L L L F F F K F K G G G F F F G G G G G G G L L L L F F F F F F L L L L G G G G G G F F F F F F F F F F L L L G G G L L L L G G G G G G F F G F F F G F F F F F F F F F F F F F F F F F F F F F F F F F F L L L G G G G G G G G G G G G G G G G L L G G F F F F G G F F G G G G G G G G G L L L L L F F F F F F F G L L L L L L G G G G G L P P F F F F F F L L L L L L L L G L L L F F F F F L L P L L L L L L L G G G G F F L L L F F L L L L L L L L L L L L L L L G L G G F F F F F F F F F F F G G G G G G L L L G G G G G G G G G L G L L P F F F F F N N B M M M > 2 2 ; . "
};
