/* XPM */
static char *result[] = {
/* columns rows colors chars-per-pixel */
"128 128 12 1 ",
"  c #719AAA",
". c #73B5B4",
"X c gray57",
"o c #A0A0A4",
"O c #AEA8A6",
"+ c #B4B4B4",
"@ c #95AFCA",
"# c #A2A3C0",
"$ c #81CCFF",
"% c #B5E0FF",
"& c #C0C0C0",
"* c #C0DCC0",
/* pixels */
"$$$oo@@@@@@oo...$$$oo$$$###oo...$$$ooooo$$$@@ooo$$$@@$$$...$$ooo$$$##ooo...$$@@@ooooo@@@ooo@@@@@$$$$$@@@ooo$$###@@@oooooooooo$$$",
"$$$oo@@@@@@oo...$$$oo$$$###oo...$$$ooooo$$$@@ooo$$$@@$$$...$$ooo$$$##ooo...$$@@@ooooo@@@ooo@@@@@$$$$$@@@ooo$$###@@@oooooooooo$$$",
"$$$oo@@@@@@oo...$$$oo$$$###oo...$$$ooooo$$$@@ooo$$$@@$$$...$$ooo$$$##ooo...$$@@@ooooo@@@ooo@@@@@$$$$$@@@ooo$$###@@@oooooooooo$$$",
"@@@$$ooo@@@@@$$$###++&&&$$$..$$$&&&@@@@@   @@ooo$$$$$@@@$$$##+++&&&$$...$$$&&@@@###  @@@ooooo@@@+++##%%%+++%%$$$$$$@@@@@   $$   ",
"@@@$$ooo@@@@@$$$###++&&&$$$..$$$&&&@@@@@   @@ooo$$$$$@@@$$$##+++&&&$$...$$$&&@@@###  @@@ooooo@@@+++##%%%+++%%$$$$$$@@@@@   $$   ",
"@@@%%$$$...%%%%%+++&&***@@@%%...###oo   ooo.....$$$..   %%%++&&&***@@%%%...##oooooo$$@@@ooooo...***@@+++%%%..@@@ooooo@@@...%%$$$",
"@@@%%$$$...%%%%%+++&&***@@@%%...###oo   ooo.....$$$..   %%%++&&&***@@%%%...##oooooo$$@@@ooooo...***@@+++%%%..@@@ooooo@@@...%%$$$",
"@@@%%$$$...%%%%%+++&&***@@@%%...###oo   ooo.....$$$..   %%%++&&&***@@%%%...##oooooo$$@@@ooooo...***@@+++%%%..@@@ooooo@@@...%%$$$",
"$$$$$ooo@@@++...&&&@@&&&$$$$$...ooooo...###$$$$$   $$XXX...&&@@@&&&$$$$$...ooooo...oooooooooo$$$+++&&&&&%%%&&+++ooo..%%%$$$..$$$",
"$$$$$ooo@@@++...&&&@@&&&$$$$$...ooooo...###$$$$$   $$XXX...&&@@@&&&$$$$$...ooooo...oooooooooo$$$+++&&&&&%%%&&+++ooo..%%%$$$..$$$",
"$$$$$ooo@@@++...&&&@@&&&$$$$$...ooooo...###$$$$$   $$XXX...&&@@@&&&$$$$$...ooooo...oooooooooo$$$+++&&&&&%%%&&+++ooo..%%%$$$..$$$",
"$$$++###OOO##+++$$$oo$$$...oo$$$########+++$$+++###  ###+++$$ooo$$$..ooo$$$########++###+++##OOO$$$++OOO...oooooooooo%%%#####+++",
"$$$++###OOO##+++$$$oo$$$...oo$$$########+++$$+++###  ###+++$$ooo$$$..ooo$$$########++###+++##OOO$$$++OOO...oooooooooo%%%#####+++",
"@@@..&&&###..oooooo%%......OO...$$$#####$$$@@...&&&##...ooooo%%%.....OOO...$$######$$@@@&&&&&###%%%$$$$$$$$oo...OOO@@$$$########",
"@@@..&&&###..oooooo%%......OO...$$$#####$$$@@...&&&##...ooooo%%%.....OOO...$$######$$@@@&&&&&###%%%$$$$$$$$oo...OOO@@$$$########",
"@@@..&&&###..oooooo%%......OO...$$$#####$$$@@...&&&##...ooooo%%%.....OOO...$$######$$@@@&&&&&###%%%$$$$$$$$oo...OOO@@$$$########",
"+++$$@@@ooooo+++...%%oooooo++...%%%%%$$$...++$$$@@@ooooo+++..%%%ooooo+++...%%%%%$$$..++++++@@%%%ooo++...$$$..ooo+++$$OOO###OO###",
"+++$$@@@ooooo+++...%%oooooo++...%%%%%$$$...++$$$@@@ooooo+++..%%%ooooo+++...%%%%%$$$..++++++@@%%%ooo++...$$$..ooo+++$$OOO###OO###",
"+++$$@@@ooooo+++...%%oooooo++...%%%%%$$$...++$$$@@@ooooo+++..%%%ooooo+++...%%%%%$$$..++++++@@%%%ooo++...$$$..ooo+++$$OOO###OO###",
"OOO$$OOOOOO..###OOOoo$$$ooo@@%%%...OOooooooOO$$$OOOOO...###OOooo$$$oo@@@%%%..OOOoooooOOO@@@OO$$$...##OOOooo$$ooo...OO...OOOooooo",
"OOO$$OOOOOO..###OOOoo$$$ooo@@%%%...OOooooooOO$$$OOOOO...###OOooo$$$oo@@@%%%..OOOoooooOOO@@@OO$$$...##OOOooo$$ooo...OO...OOOooooo",
"@@@++...***@@oooooo##$$$+++##$$$XXXoo&&&&&&@@+++...**@@@ooooo###$$$++###$$$XXooo&&&&&@@@+++&&$$$@@@ooooo###++%%%%%%ooXXXooo&&&&&",
"@@@++...***@@oooooo##$$$+++##$$$XXXoo&&&&&&@@+++...**@@@ooooo###$$$++###$$$XXooo&&&&&@@@+++&&$$$@@@ooooo###++%%%%%%ooXXXooo&&&&&",
"@@@++...***@@oooooo##$$$+++##$$$XXXoo&&&&&&@@+++...**@@@ooooo###$$$++###$$$XXooo&&&&&@@@+++&&$$$@@@ooooo###++%%%%%%ooXXXooo&&&&&",
"&&&&&$$$&&&++ooo...ooooo.....$$$...oo@@@+++&&&&&$$$&&+++ooo..oooooo.....$$$..ooo@@@++&&&&&&@@%%%+++oo...oooooOOO%%%oo...ooo@@+++",
"&&&&&$$$&&&++ooo...ooooo.....$$$...oo@@@+++&&&&&$$$&&+++ooo..oooooo.....$$$..ooo@@@++&&&&&&@@%%%+++oo...oooooOOO%%%oo...ooo@@+++",
"&&&&&$$$&&&++ooo...ooooo.....$$$...oo@@@+++&&&&&$$$&&+++ooo..oooooo.....$$$..ooo@@@++&&&&&&@@%%%+++oo...oooooOOO%%%oo...ooo@@+++",
"$$$$$%%%...oooooooo##...%%%$$%%%+++##OOO###$$$$$%%%..oooooooo###...%%$$$%%%++###OOO##+++OOOoo%%%...ooooo###ooooo%%%##+++###OO###",
"$$$$$%%%...oooooooo##...%%%$$%%%+++##OOO###$$$$$%%%..oooooooo###...%%$$$%%%++###OOO##+++OOOoo%%%...ooooo###ooooo%%%##+++###OO###",
"ooooo   %%%$$OOO@@@&&$$$...OO$$$%%%&&###...ooooo   %%$$$OOO@@&&&$$$..OOO$$$%%&&&###..oooooo$$%%%$$$OO@@@&&&oo...$$$%%&&&&&&  ooo",
"ooooo   %%%$$OOO@@@&&$$$...OO$$$%%%&&###...ooooo   %%$$$OOO@@&&&$$$..OOO$$$%%&&&###..oooooo$$%%%$$$OO@@@&&&oo...$$$%%&&&&&&  ooo",
"ooooo   %%%$$OOO@@@&&$$$...OO$$$%%%&&###...ooooo   %%$$$OOO@@&&&$$$..OOO$$$%%&&&###..oooooo$$%%%$$$OO@@@&&&oo...$$$%%&&&&&&  ooo",
"+++..oooooooo$$$...$$ooo###OO+++...$$...@@@++...oooooooo$$$..$$$ooo##OOO+++..$$$...oooooXXXoooooooo%%+++OOOoo$$$OOO++%%%$$$..@@@",
"+++..oooooooo$$$...$$ooo###OO+++...$$...@@@++...oooooooo$$$..$$$ooo##OOO+++..$$$...oooooXXXoooooooo%%+++OOOoo$$$OOO++%%%$$$..@@@",
"+++..oooooooo$$$...$$ooo###OO+++...$$...@@@++...oooooooo$$$..$$$ooo##OOO+++..$$$...oooooXXXoooooooo%%+++OOOoo$$$OOO++%%%$$$..@@@",
"oooXXooo...oo@@@$$$..+++###@@OOO@@@%%   ooo##OOOooo..ooo@@@$$...+++##@@@OOO@@%%%OOO%%...XXXoo...ooo..%%%...$$###@@@OO$$$XXX$$$$$",
"oooXXooo...oo@@@$$$..+++###@@OOO@@@%%   ooo##OOOooo..ooo@@@$$...+++##@@@OOO@@%%%OOO%%...XXXoo...ooo..%%%...$$###@@@OO$$$XXX$$$$$",
"oooooooo@@@ooOOO$$$oo@@@+++OO###OOO$$@@@@@@oo$$$ooooooooOOO$$ooo@@@++OOO###OO$$$$$$@@$$$$$$..@@@oooOO$$$%%%@@+++OOO##@@@ooo@@@@@",
"oooooooo@@@ooOOO$$$oo@@@+++OO###OOO$$@@@@@@oo$$$ooooooooOOO$$ooo@@@++OOO###OO$$$$$$@@$$$$$$..@@@oooOO$$$%%%@@+++OOO##@@@ooo@@@@@",
"oooooooo@@@ooOOO$$$oo@@@+++OO###OOO$$@@@@@@oo$$$ooooooooOOO$$ooo@@@++OOO###OO$$$$$$@@$$$$$$..@@@oooOO$$$%%%@@+++OOO##@@@ooo@@@@@",
"@@@@@ooo@@@oo@@@$$$$$OOOOOOOO...ooo..$$$ooo@@$$$ooo@@ooo@@@$$$$$OOOOOOOO...oo...$$$oo$$$@@@$$$$$...$$...$$$OOOOOOOO..oooooooo$$$",
"@@@@@ooo@@@oo@@@$$$$$OOOOOOOO...ooo..$$$ooo@@$$$ooo@@ooo@@@$$$$$OOOOOOOO...oo...$$$oo$$$@@@$$$$$...$$...$$$OOOOOOOO..oooooooo$$$",
"@@@@@ooo@@@oo@@@$$$$$OOOOOOOO...ooo..$$$ooo@@$$$ooo@@ooo@@@$$$$$OOOOOOOO...oo...$$$oo$$$@@@$$$$$...$$...$$$OOOOOOOO..oooooooo$$$",
"$$$##++++++@@...$$$oo$$$ooo@@...$$$@@+++$$$@@###$$$++$$$$$$@@ooo$$$oo@@@ooooo$$$+++@@@@@###+++++$$$..@@@ooo@@...ooo@@+++@@@++$$$",
"$$$##++++++@@...$$$oo$$$ooo@@...$$$@@+++$$$@@###$$$++$$$$$$@@ooo$$$oo@@@ooooo$$$+++@@@@@###+++++$$$..@@@ooo@@...ooo@@+++@@@++$$$",
"ooo$$ooo@@@++$$$ooo@@@@@$$$..$$$@@@  ###@@@oo...$$$$$+++@@@%%@@@%%%$$$$$$$$%%%%%@@@@@ooo...oo@@@@@@$$$$$%%%%%@@@@@@##&&&@@@$$@@@",
"ooo$$ooo@@@++$$$ooo@@@@@$$$..$$$@@@  ###@@@oo...$$$$$+++@@@%%@@@%%%$$$$$$$$%%%%%@@@@@ooo...oo@@@@@@$$$$$%%%%%@@@@@@##&&&@@@$$@@@",
"ooo$$ooo@@@++$$$ooo@@@@@$$$..$$$@@@  ###@@@oo...$$$$$+++@@@%%@@@%%%$$$$$$$$%%%%%@@@@@ooo...oo@@@@@@$$$$$%%%%%@@@@@@##&&&@@@$$@@@",
"ooo%%$$$...%%%%%   @@oooooo%%...@@@@@oooooo.....$$$..***ooo  %%%...oooooooo@@%%%%%%$$oooXXXoo      oo$$$@@@$$%%%ooooo###...%%$$$",
"ooo%%$$$...%%%%%   @@oooooo%%...@@@@@oooooo.....$$$..***ooo  %%%...oooooooo@@%%%%%%$$oooXXXoo      oo$$$@@@$$%%%ooooo###...%%$$$",
"ooo%%$$$...%%%%%   @@oooooo%%...@@@@@oooooo.....$$$..***ooo  %%%...oooooooo@@%%%%%%$$oooXXXoo      oo$$$@@@$$%%%ooooo###...%%$$$",
"$$$$$   XXXXX...   XX@@@$$$$$XXXOOOoo@@@ooooooooooo$$+++     %%%@@@@@@@@XXX%%$$$@@@##ooo...  XXXXXX..   XXX@@@@@$$$%%%%%ooo@@$$$",
"$$$$$   XXXXX...   XX@@@$$$$$XXXOOOoo@@@ooooooooooo$$+++     %%%@@@@@@@@XXX%%$$$@@@##ooo...  XXXXXX..   XXX@@@@@$$$%%%%%ooo@@$$$",
"$$$  ooo   OO@@@$$$@@$$$...OO$$$oooXX@@@@@@@@   oooOO$$$@@@  ...@@@ooOOOXXX%%XXX@@@@@$$$   oo   OOO$$   @@@@@oooOOO%%oooXXX@@@@@",
"$$$  ooo   OO@@@$$$@@$$$...OO$$$oooXX@@@@@@@@   oooOO$$$@@@  ...@@@ooOOOXXX%%XXX@@@@@$$$   oo   OOO$$   @@@@@oooOOO%%oooXXX@@@@@",
"$$$  ooo   OO@@@$$$@@$$$...OO$$$oooXX@@@@@@@@   oooOO$$$@@@  ...@@@ooOOOXXX%%XXX@@@@@$$$   oo   OOO$$   @@@@@oooOOO%%oooXXX@@@@@",
"ooo..   ooooooooOOO%%...   oo...$$$ooooo$$$oo@@@   oo%%%$$$$$$$$ooo  oooooo$$ooooooooooo$$$  ooo...$$OOO@@@oo   ooo..   oooooooo",
"ooo..   ooooooooOOO%%...   oo...$$$ooooo$$$oo@@@   oo%%%$$$$$$$$ooo  oooooo$$ooooooooooo$$$  ooo...$$OOO@@@oo   ooo..   oooooooo",
"ooo..   ooooooooOOO%%...   oo...$$$ooooo$$$oo@@@   oo%%%$$$$$$$$ooo  oooooo$$ooooooooooo$$$  ooo...$$OOO@@@oo   ooo..   oooooooo",
"@@@$$oooooo@@@@@@@@%%ooo@@@  ...%%%%%$$$...@@oooooo%%@@@@@@..$$$...@@   $$$XXXXXOOOoo@@@ooo$$ooo$$$@@@@@XXXoo@@@   ..XXXXXXOOooo",
"@@@$$oooooo@@@@@@@@%%ooo@@@  ...%%%%%$$$...@@oooooo%%@@@@@@..$$$...@@   $$$XXXXXOOOoo@@@ooo$$ooo$$$@@@@@XXXoo@@@   ..XXXXXXOOooo",
"ooo$$ooo@@@@@oooooooo$$$ooooo%%%@@@@@oooooooo@@@ooo$$@@@oooooooo$$$oo...@@@@@@@@ooooo$$$@@@oo%%%@@@oooooooooooooooo$$@@@@@@oo$$$",
"ooo$$ooo@@@@@oooooooo$$$ooooo%%%@@@@@oooooooo@@@ooo$$@@@oooooooo$$$oo...@@@@@@@@ooooo$$$@@@oo%%%@@@oooooooooooooooo$$@@@@@@oo$$$",
"ooo$$ooo@@@@@oooooooo$$$ooooo%%%@@@@@oooooooo@@@ooo$$@@@oooooooo$$$oo...@@@@@@@@ooooo$$$@@@oo%%%@@@oooooooooooooooo$$@@@@@@oo$$$",
"@@@@@...@@@@@@@@ooooo$$$ooo@@$$$@@@oo@@@ooo@@@@@ooo$$@@@@@@ooooo@@@%%%%%@@@@@ooo@@@oo@@@$$$%%%%%@@@@@oooooo@@ooo...$$$$$$$$%%...",
"@@@@@...@@@@@@@@ooooo$$$ooo@@$$$@@@oo@@@ooo@@@@@ooo$$@@@@@@ooooo@@@%%%%%@@@@@ooo@@@oo@@@$$$%%%%%@@@@@oooooo@@ooo...$$$$$$$$%%...",
"@@@@@...@@@@@@@@ooooo$$$ooo@@$$$@@@oo@@@ooo@@@@@ooo$$@@@@@@ooooo@@@%%%%%@@@@@ooo@@@oo@@@$$$%%%%%@@@@@oooooo@@ooo...$$$$$$$$%%...",
"@@@oo$$$ooooo   @@@OO@@@...@@$$$ooooo@@@@@@@@oooooo%%ooo   @@OOO@@@@@%%%oooooooo@@@@@@@@ooooo$$$ooo  @@@OOO@@...$$$oooooooo%%@@@",
"@@@oo$$$ooooo   @@@OO@@@...@@$$$ooooo@@@@@@@@oooooo%%ooo   @@OOO@@@@@%%%oooooooo@@@@@@@@ooooo$$$ooo  @@@OOO@@...$$$oooooooo%%@@@",
"$$$$$%%%...OOXXX   OO...%%%$$%%%oooooOOOXXX@@OOO@@@%%...XXX  OOO   @@%%%@@@oooooOOOXX@@@OOO@@XXX...XX   OOO$$@@@OOO@@ooo...OOXXX",
"$$$$$%%%...OOXXX   OO...%%%$$%%%oooooOOOXXX@@OOO@@@%%...XXX  OOO   @@%%%@@@oooooOOOXX@@@OOO@@XXX...XX   OOO$$@@@OOO@@ooo...OOXXX",
"$$$$$%%%...OOXXX   OO...%%%$$%%%oooooOOOXXX@@OOO@@@%%...XXX  OOO   @@%%%@@@oooooOOOXX@@@OOO@@XXX...XX   OOO$$@@@OOO@@ooo...OOXXX",
"@@@OOOOO%%%$$      XX$$$   XX$$$%%%OO   ...@@OOO$$$%%$$$     XXXXXX  $$$%%%ooOOO   oo@@@OOOOOXXX%%%  %%%$$$XX   XXXooooo$$$##...",
"@@@OOOOO%%%$$      XX$$$   XX$$$%%%OO   ...@@OOO$$$%%$$$     XXXXXX  $$$%%%ooOOO   oo@@@OOOOOXXX%%%  %%%$$$XX   XXXooooo$$$##...",
"@@@OOOOO%%%$$      XX$$$   XX$$$%%%OO   ...@@OOO$$$%%$$$     XXXXXX  $$$%%%ooOOO   oo@@@OOOOOXXX%%%  %%%$$$XX   XXXooooo$$$##...",
"oooXXXXXXXX  $$$...$$   OOOooooo...$$...ooooo$$$XXXXX   %%%OOXXX   $$oooooo%%XXXXXX@@+++...XXXXX   %%...XXX  OOOooooo...$$$..ooo",
"oooXXXXXXXX  $$$...$$   OOOooooo...$$...ooooo$$$XXXXX   %%%OOXXX   $$oooooo%%XXXXXX@@+++...XXXXX   %%...XXX  OOOooooo...$$$..ooo",
"###OOooooooXX   $$$@@@@@ooo@@@@@   %%OOO...$$XXXoooooXXX...%%@@@$$$oo@@@@@@  $$$...%%...OOOoooooXXX%%@@@@@@@@ooo@@@@@$$$OOO$$$$$",
"###OOooooooXX   $$$@@@@@ooo@@@@@   %%OOO...$$XXXoooooXXX...%%@@@$$$oo@@@@@@  $$$...%%...OOOoooooXXX%%@@@@@@@@ooo@@@@@$$$OOO$$$$$",
"###OOooooooXX   $$$@@@@@ooo@@@@@   %%OOO...$$XXXoooooXXX...%%@@@$$$oo@@@@@@  $$$...%%...OOOoooooXXX%%@@@@@@@@ooo@@@@@$$$OOO$$$$$",
"oooooooooooooooo$$$oooooooooo@@@@@@$$###OOOoo$$$ooo@@oooooo$$%%%oooooooo@@@@@...$$$OO$$$$$$..oooooo$$@@@ooooooooooo$$OOO#####OOO",
"oooooooooooooooo$$$oooooooooo@@@@@@$$###OOOoo$$$ooo@@oooooo$$%%%oooooooo@@@@@...$$$OO$$$$$$..oooooo$$@@@ooooooooooo$$OOO#####OOO",
"oooooooooooooooo$$$oooooooooo@@@@@@$$###OOOoo$$$ooo@@oooooo$$%%%oooooooo@@@@@...$$$OO$$$$$$..oooooo$$@@@ooooooooooo$$OOO#####OOO",
"oooOO@@@ooo@@@@@$$$$$ooo@@@oooooooo..$$$@@@oo$$$@@@oo@@@@@@..$$$ooo@@ooooooooooo$$$@@$$$OOO$$$$$...$$@@@@@@oo@@@$$$..ooooooOO$$$",
"oooOO@@@ooo@@@@@$$$$$ooo@@@oooooooo..$$$@@@oo$$$@@@oo@@@@@@..$$$ooo@@ooooooooooo$$$@@$$$OOO$$$$$...$$@@@@@@oo@@@$$$..ooooooOO$$$",
"$$$oo@@@@@@oo...$$$oo$$$ooo@@...$$$ooooo$$$@@ooo$$$@@$$$$$$@@ooo$$$oo@@@ooooo$$$ooooo@@@ooo@@@@@$$$..@@@ooo@@...@@@oooooooooo$$$",
"$$$oo@@@@@@oo...$$$oo$$$ooo@@...$$$ooooo$$$@@ooo$$$@@$$$$$$@@ooo$$$oo@@@ooooo$$$ooooo@@@ooo@@@@@$$$..@@@ooo@@...@@@oooooooooo$$$",
"$$$oo@@@@@@oo...$$$oo$$$ooo@@...$$$ooooo$$$@@ooo$$$@@$$$$$$@@ooo$$$oo@@@ooooo$$$ooooo@@@ooo@@@@@$$$..@@@ooo@@...@@@oooooooooo$$$",
"@@@$$ooo@@@@@$$$ooo@@@@@$$$..$$$@@@  @@@   @@ooo$$$$$@@@@@@%%@@@%%%$$$$$$$$%%%%%@@@  @@@ooooo@@@@@@$$$$$%%%%%@@@@@@@@@@@   $$   ",
"@@@$$ooo@@@@@$$$ooo@@@@@$$$..$$$@@@  @@@   @@ooo$$$$$@@@@@@%%@@@%%%$$$$$$$$%%%%%@@@  @@@ooooo@@@@@@$$$$$%%%%%@@@@@@@@@@@   $$   ",
"@@@$$ooo@@@@@$$$ooo@@@@@$$$..$$$@@@  @@@   @@ooo$$$$$@@@@@@%%@@@%%%$$$$$$$$%%%%%@@@  @@@ooooo@@@@@@$$$$$%%%%%@@@@@@@@@@@   $$   ",
"@@@%%$$$...%%%%%   @@oooooo%%...@@@@@   ooo.....$$$..   ooo  %%%...oooooooo@@%%%%%%$$@@@ooooo      oo$$$@@@$$%%%ooooo@@@...%%$$$",
"@@@%%$$$...%%%%%   @@oooooo%%...@@@@@   ooo.....$$$..   ooo  %%%...oooooooo@@%%%%%%$$@@@ooooo      oo$$$@@@$$%%%ooooo@@@...%%$$$",
"$$$$$   XXXXX...   XX@@@$$$$$XXXOOOoo@@@oooooooo   $$XXX     %%%@@@@@@@@XXX%%$$$@@@oooooooo  XXXXXX..   XXX@@@@@$$$%%%%%ooo@@$$$",
"$$$$$   XXXXX...   XX@@@$$$$$XXXOOOoo@@@oooooooo   $$XXX     %%%@@@@@@@@XXX%%$$$@@@oooooooo  XXXXXX..   XXX@@@@@$$$%%%%%ooo@@$$$",
"$$$$$   XXXXX...   XX@@@$$$$$XXXOOOoo@@@oooooooo   $$XXX     %%%@@@@@@@@XXX%%$$$@@@oooooooo  XXXXXX..   XXX@@@@@$$$%%%%%ooo@@$$$",
"$$$  ooo   OO@@@$$$@@$$$...OO$$$oooXX@@@@@@@@   ooo  $$$@@@  ...@@@ooOOOXXX%%XXX@@@@@$$$   oo   OOO$$   @@@@@oooOOO%%oooXXX@@@@@",
"$$$  ooo   OO@@@$$$@@$$$...OO$$$oooXX@@@@@@@@   ooo  $$$@@@  ...@@@ooOOOXXX%%XXX@@@@@$$$   oo   OOO$$   @@@@@oooOOO%%oooXXX@@@@@",
"$$$  ooo   OO@@@$$$@@$$$...OO$$$oooXX@@@@@@@@   ooo  $$$@@@  ...@@@ooOOOXXX%%XXX@@@@@$$$   oo   OOO$$   @@@@@oooOOO%%oooXXX@@@@@",
"ooo..   ooooooooOOO%%...   oo...$$$ooooo$$$oo@@@   oo%%%$$$$$$$$ooo  oooooo$$ooooooooooo$$$  ooo...$$OOO@@@oo   ooo..   oooooooo",
"ooo..   ooooooooOOO%%...   oo...$$$ooooo$$$oo@@@   oo%%%$$$$$$$$ooo  oooooo$$ooooooooooo$$$  ooo...$$OOO@@@oo   ooo..   oooooooo",
"@@@$$oooooo@@@@@@@@%%ooo@@@  ...%%%%%$$$...@@oooooo%%@@@@@@..$$$...@@   $$$XXXXXOOOoo@@@ooo$$ooo$$$@@@@@XXXoo@@@   ..XXXXXXOOooo",
"@@@$$oooooo@@@@@@@@%%ooo@@@  ...%%%%%$$$...@@oooooo%%@@@@@@..$$$...@@   $$$XXXXXOOOoo@@@ooo$$ooo$$$@@@@@XXXoo@@@   ..XXXXXXOOooo",
"@@@$$oooooo@@@@@@@@%%ooo@@@  ...%%%%%$$$...@@oooooo%%@@@@@@..$$$...@@   $$$XXXXXOOOoo@@@ooo$$ooo$$$@@@@@XXXoo@@@   ..XXXXXXOOooo",
"ooo$$ooo@@@@@oooooooo$$$ooooo%%%@@@@@oooooooo@@@ooo$$@@@oooooooo$$$oo...@@@@@@@@ooooo$$$@@@oo%%%@@@oooooooooooooooo$$@@@@@@oo$$$",
"ooo$$ooo@@@@@oooooooo$$$ooooo%%%@@@@@oooooooo@@@ooo$$@@@oooooooo$$$oo...@@@@@@@@ooooo$$$@@@oo%%%@@@oooooooooooooooo$$@@@@@@oo$$$",
"ooo$$ooo@@@@@oooooooo$$$ooooo%%%@@@@@oooooooo@@@ooo$$@@@oooooooo$$$oo...@@@@@@@@ooooo$$$@@@oo%%%@@@oooooooooooooooo$$@@@@@@oo$$$",
"@@@@@...@@@@@@@@ooooo$$$ooo@@$$$@@@oo@@@ooo@@@@@ooo$$@@@@@@ooooo@@@%%%%%@@@@@ooo@@@oo@@@$$$%%%%%@@@@@oooooo@@ooo...$$$$$$$$%%...",
"@@@@@...@@@@@@@@ooooo$$$ooo@@$$$@@@oo@@@ooo@@@@@ooo$$@@@@@@ooooo@@@%%%%%@@@@@ooo@@@oo@@@$$$%%%%%@@@@@oooooo@@ooo...$$$$$$$$%%...",
"@@@oo$$$ooooo   @@@OO@@@...@@$$$ooooo@@@@@@@@oooooo%%ooo   @@OOO@@@@@%%%oooooooo@@@@@@@@ooooo$$$ooo  @@@OOO@@...$$$oooooooo%%@@@",
"@@@oo$$$ooooo   @@@OO@@@...@@$$$ooooo@@@@@@@@oooooo%%ooo   @@OOO@@@@@%%%oooooooo@@@@@@@@ooooo$$$ooo  @@@OOO@@...$$$oooooooo%%@@@",
"@@@oo$$$ooooo   @@@OO@@@...@@$$$ooooo@@@@@@@@oooooo%%ooo   @@OOO@@@@@%%%oooooooo@@@@@@@@ooooo$$$ooo  @@@OOO@@...$$$oooooooo%%@@@",
"$$$$$%%%...OOXXX   OO...%%%$$%%%oooooOOOXXX@@OOO@@@%%...XXX  OOO   @@%%%@@@oooooOOOXX@@@OOO@@XXX...XX   OOO$$@@@OOO@@ooo...OOXXX",
"$$$$$%%%...OOXXX   OO...%%%$$%%%oooooOOOXXX@@OOO@@@%%...XXX  OOO   @@%%%@@@oooooOOOXX@@@OOO@@XXX...XX   OOO$$@@@OOO@@ooo...OOXXX",
"$$$$$%%%...OOXXX   OO...%%%$$%%%oooooOOOXXX@@OOO@@@%%...XXX  OOO   @@%%%@@@oooooOOOXX@@@OOO@@XXX...XX   OOO$$@@@OOO@@ooo...OOXXX",
"@@@OOOOO%%%$$      XX$$$   XX$$$%%%OO   ...@@OOO$$$%%$$$     XXXXXX  $$$%%%ooOOO   oo@@@OOOOOXXX%%%  %%%$$$XX   XXXooooo$$$  ooo",
"@@@OOOOO%%%$$      XX$$$   XX$$$%%%OO   ...@@OOO$$$%%$$$     XXXXXX  $$$%%%ooOOO   oo@@@OOOOOXXX%%%  %%%$$$XX   XXXooooo$$$  ooo",
"oooXXXXXXXX  $$$...$$   OOOooooo...$$...@@@oo$$$XXXXX   %%%OOXXX   $$oooooo%%XXXXXX@@oooXXXXXXXX   %%...XXX  OOOooooo...$$$..@@@",
"oooXXXXXXXX  $$$...$$   OOOooooo...$$...@@@oo$$$XXXXX   %%%OOXXX   $$oooooo%%XXXXXX@@oooXXXXXXXX   %%...XXX  OOOooooo...$$$..@@@",
"oooXXXXXXXX  $$$...$$   OOOooooo...$$...@@@oo$$$XXXXX   %%%OOXXX   $$oooooo%%XXXXXX@@oooXXXXXXXX   %%...XXX  OOOooooo...$$$..@@@",
"oooXXooooooXX   $$$@@@@@ooo@@@@@   %%   ooo$$XXXoooooXXX...%%@@@$$$oo@@@@@@  $$$...%%...XXXoooooXXX%%@@@@@@@@ooo@@@@@$$$XXX$$$$$",
"oooXXooooooXX   $$$@@@@@ooo@@@@@   %%   ooo$$XXXoooooXXX...%%@@@$$$oo@@@@@@  $$$...%%...XXXoooooXXX%%@@@@@@@@ooo@@@@@$$$XXX$$$$$",
"oooXXooooooXX   $$$@@@@@ooo@@@@@   %%   ooo$$XXXoooooXXX...%%@@@$$$oo@@@@@@  $$$...%%...XXXoooooXXX%%@@@@@@@@ooo@@@@@$$$XXX$$$$$",
"oooooooo@@@ooooo$$$oooooooooo@@@@@@$$@@@@@@oo$$$ooo@@oooooo$$%%%oooooooo@@@@@...$$$@@$$$$$$..@@@ooo$$@@@ooooooooooo$$@@@ooo@@@@@",
"oooooooo@@@ooooo$$$oooooooooo@@@@@@$$@@@@@@oo$$$ooo@@oooooo$$%%%oooooooo@@@@@...$$$@@$$$$$$..@@@ooo$$@@@ooooooooooo$$@@@ooo@@@@@",
"@@@@@ooo@@@@@@@@$$$$$ooo@@@oooooooo..$$$ooo@@$$$ooo@@@@@@@@..$$$ooo@@ooooooooooo$$$oo$$$@@@$$$$$...$$@@@@@@oo@@@$$$..oooooooo$$$",
"@@@@@ooo@@@@@@@@$$$$$ooo@@@oooooooo..$$$ooo@@$$$ooo@@@@@@@@..$$$ooo@@ooooooooooo$$$oo$$$@@@$$$$$...$$@@@@@@oo@@@$$$..oooooooo$$$",
"@@@@@ooo@@@@@@@@$$$$$ooo@@@oooooooo..$$$ooo@@$$$ooo@@@@@@@@..$$$ooo@@ooooooooooo$$$oo$$$@@@$$$$$...$$@@@@@@oo@@@$$$..oooooooo$$$"
};
